P3
         201         201
 255
  0   0   0
  0   0   0
  0   0   0
  0   0   0
  0   0   0
  0   0   0
  0   0   0
  0   0   0
  0   0   0
  0   0   0
  0   0   0
  0   0   0
  0   0   0
  0   0   0
  0   0   0
  0   0   0
  0   0   0
  0   0   0
  0   0   0
  0   0   0
  0   0   0
  0   0   0
  0   0   0
  0   0   0
  0   0   0
  0   0   0
  0   0   0
  0   0   0
  0   0   0
  0   0   0
  0   0   0
  0   0   0
  0   0   0
  0   0   0
  0   0   0
  0   0   0
  0   0   0
  0   0   0
  0   0   0
  0   0   0
  0   0   0
  0   0   0
  0   0   0
  0   0   0
  0   0   0
  0   0   0
  0   0   0
  0   0   0
  0   0   0
  0   0   0
  0   0   0
  0   0   0
  0   0   0
  0   0   0
  0   0   0
  0   0   0
  0   0   0
  0   0   0
  0   0   0
  0   0   0
  0   0   0
  0   0   0
  0   0   0
  0   0   0
  0   0   0
  0   0   0
  0   0   0
  0   0   0
  0   0   0
  0   0   0
  0   0   0
  0   0   0
  0   0   0
  0   0   0
  0   0   0
  0   0   0
  0   0   0
  0   0   0
  0   0   0
  0   0   0
  0   0   0
  0   0   0
  0   0   0
  0   0   0
  0   0   0
  0   0   0
  0   0   0
  0   0   0
  0   0   0
  0   0   0
  0   0   0
  0   0   0
  0   0   0
  0   0   0
  0   0   0
  0   0   0
  0   0   0
  0   0   0
  0   0   0
  0   0   0
  0   0   0
  0   0   0
  0   0   0
  0   0   0
  0   0   0
  0   0   0
  0   0   0
  0   0   0
  0   0   0
  0   0   0
  0   0   0
  0   0   0
  0   0   0
  0   0   0
  0   0   0
  0   0   0
  0   0   0
  0   0   0
  0   0   0
  0   0   0
  0   0   0
  0   0   0
  0   0   0
  0   0   0
  0   0   0
  0   0   0
  0   0   0
  0   0   0
  0   0   0
  0   0   0
  0   0   0
  0   0   0
  0   0   0
  0   0   0
  0   0   0
  0   0   0
  0   0   0
  0   0   0
  0   0   0
  0   0   0
  0   0   0
  0   0   0
  0   0   0
  0   0   0
  0   0   0
  0   0   0
  0   0   0
  0   0   0
  0   0   0
  0   0   0
  0   0   0
  0   0   0
  0   0   0
  0   0   0
  0   0   0
  0   0   0
  0   0   0
  0   0   0
  0   0   0
  0   0   0
  0   0   0
  0   0   0
  0   0   0
  0   0   0
  0   0   0
  0   0   0
  0   0   0
  0   0   0
  0   0   0
  0   0   0
  0   0   0
  0   0   0
  0   0   0
  0   0   0
  0   0   0
  0   0   0
  0   0   0
  0   0   0
  0   0   0
  0   0   0
  0   0   0
  0   0   0
  0   0   0
  0   0   0
  0   0   0
  0   0   0
  0   0   0
  0   0   0
  0   0   0
  0   0   0
  0   0   0
  0   0   0
  0   0   0
  0   0   0
  0   0   0
  0   0   0
  0   0   0
  0   0   0
  0   0   0
  0   0   0
  0   0   0
  0   0   0
  0   0   0
  0   0   0
  0   0   0
  0   0   0
  0   0   0
  0   0   0
  0   0   0
  0   0   0
  0   0   0
  0   0   0
  0   0   0
  0   0   0
  0   0   0
  0   0   0
  0   0   0
  0   0   0
  0   0   0
  0   0   0
  0   0   0
  0   0   0
  0   0   0
  0   0   0
  0   0   0
  0   0   0
  0   0   0
  0   0   0
  0   0   0
  0   0   0
  0   0   0
  0   0   0
  0   0   0
  0   0   0
  0   0   0
  0   0   0
  0   0   0
  0   0   0
  0   0   0
  0   0   0
  0   0   0
  0   0   0
  0   0   0
  0   0   0
  0   0   0
  0   0   0
  0   0   0
  0   0   0
  0   0   0
  0   0   0
  0   0   0
  0   0   0
  0   0   0
  0   0   0
  0   0   0
  0   0   0
  0   0   0
  0   0   0
  0   0   0
  0   0   0
  0   0   0
  0   0   0
  0   0   0
  0   0   0
  0   0   0
  0   0   0
  0   0   0
  0   0   0
  0   0   0
  0   0   0
  0   0   0
  0   0   0
  0   0   0
  0   0   0
  0   0   0
  0   0   0
  0   0   0
  0   0   0
  0   0   0
  0   0   0
  0   0   0
  0   0   0
  0   0   0
  0   0   0
  0   0   0
  0   0   0
  0   0   0
  0   0   0
  0   0   0
  0   0   0
  0   0   0
  0   0   0
  0   0   0
  0   0   0
  0   0   0
  0   0   0
  0   0   0
  0   0   0
  0   0   0
  0   0   0
  0   0   0
  0   0   0
  0   0   0
  0   0   0
  0   0   0
  0   0   0
  0   0   0
  0   0   0
  0   0   0
  0   0   0
  0   0   0
  0   0   0
  0   0   0
  0   0   0
  0   0   0
  0   0   0
  0   0   0
  0   0   0
  0   0   0
  0   0   0
  0   0   0
  0   0   0
  0   0   0
  0   0   0
  0   0   0
  0   0   0
  0   0   0
  0   0   0
  0   0   0
  0   0   0
  0   0   0
  0   0   0
  0   0   0
  0   0   0
  0   0   0
  0   0   0
  0   0   0
  0   0   0
  0   0   0
  0   0   0
  0   0   0
  0   0   0
  0   0   0
  0   0   0
  0   0   0
  0   0   0
  0   0   0
  0   0   0
  0   0   0
  0   0   0
  0   0   0
  0   0   0
  0   0   0
  0   0   0
  0   0   0
  0   0   0
  0   0   0
  0   0   0
  0   0   0
  0   0   0
  0   0   0
  0   0   0
  0   0   0
  0   0   0
  0   0   0
  0   0   0
  0   0   0
  0   0   0
  0   0   0
  0   0   0
  0   0   0
  0   0   0
  0   0   0
  0   0   0
  0   0   0
  0   0   0
  0   0   0
  0   0   0
  0   0   0
  0   0   0
  0   0   0
  0   0   0
  0   0   0
  0   0   0
  0   0   0
  0   0   0
  0   0   0
  0   0   0
  0   0   0
  0   0   0
  0   0   0
  0   0   0
  0   0   0
  0   0   0
  0   0   0
  0   0   0
  0   0   0
  0   0   0
  0   0   0
  0   0   0
  0   0   0
  0   0   0
  0   0   0
  0   0   0
 68   0   0
 77   0   0
 85   0   0
 90   0   0
 95   0   0
 99   0   0
102   0   0
104   0   0
106   0   0
107   0   0
107   0   0
106   0   0
105   0   0
103   0   0
101   0   0
 99   0   0
 95   0   0
255 150   0
 88   0   0
 83   0   0
 78   0   0
 72   0   0
255 255 255
255 255 255
255 255 255
255 255 255
255 255 255
255 255 255
  0   0  69
  0   0  73
  0   0  76
  0   0  79
  0   0  81
  0   0  83
  0   0  84
  0   0  85
  0   0  86
  0   0  86
  0   0  86
  0   0  86
  0   0  86
  0   0  85
  0   0  84
  0   0  83
  0   0  81
  0   0  79
  0   0  76
  0   0  73
  0   0  69
255 255 255
255 255 255
255 255 255
255 255 255
255 255 255
255 255 255
 72   0   0
 78   0   0
 83   0   0
 88   0   0
 92   0   0
 95   0   0
 99   0   0
101   0   0
103   0   0
105   0   0
107   0   0
108   0   0
108   0   0
109   0   0
108   0   0
108   0   0
107   0   0
105   0   0
103   0   0
101   0   0
 99   0   0
 96   0   0
 92   0   0
 89   0   0
 85   0   0
 81   0   0
 76   0   0
 72   0   0
 67   0   0
255 255 255
255 255 255
255 255 255
255 255 255
255 255 255
255 255 255
255 255 255
255 255 255
255 255 255
255 255 255
255 255 255
255 255 255
255 255 255
255 255 255
255 255 255
255 255 255
255 255 255
255 255 255
255 255 255
255 255 255
255 255 255
255 255 255
255 255 255
255 255 255
255 255 255
255 255 255
255 255 255
255 255 255
255 255 255
255 255 255
255 255 255
255 255 255
255 255 255
255 255 255
255 255 255
255 255 255
255 255 255
255 255 255
255 255 255
255 255 255
255 255 255
255 255 255
255 255 255
255 255 255
255 255 255
255 255 255
255 255 255
255 255 255
255 255 255
255 255 255
255 255 255
255 255 255
255 255 255
255 255 255
255 255 255
255 255 255
255 255 255
255 255 255
255 255 255
255 255 255
255 255 255
255 255 255
255 255 255
255 255 255
255 255 255
255 255 255
255 255 255
255 255 255
255 255 255
255 255 255
255 255 255
255 255 255
255 255 255
255 255 255
255 255 255
255 255 255
255 255 255
255 255 255
255 255 255
255 255 255
255 255 255
255 255 255
255 255 255
255 255 255
255 255 255
255 255 255
255 255 255
255 255 255
255 255 255
255 255 255
255 255 255
255 255 255
255 255 255
255 255 255
255 150   0
255 255 255
255 255 255
255 255 255
255 255 255
255 255 255
255 255 255
255 255 255
255 255 255
255 255 255
255 255 255
255 255 255
255 255 255
255 255 255
255 255 255
255 255 255
255 255 255
255 255 255
255 255 255
  0   0   0
  0   0   0
  0   0   0
  0   0   0
 83   0   0
 93   0   0
101   0   0
107   0   0
112   0   0
116   0   0
118   0   0
119   0   0
119   0   0
119   0   0
117   0   0
114   0   0
111   0   0
107   0   0
101   0   0
 95   0   0
 87   0   0
255 150   0
255 255 255
255 255 255
255 255 255
  0   0  73
  0   0  82
  0   0  89
  0   0  95
  0   0  99
  0   0 103
  0   0 106
  0   0 108
  0   0 110
  0   0 112
  0   0 114
  0   0 115
  0   0 116
  0   0 117
  0   0 117
  0   0 118
  0   0 118
  0   0 118
  0   0 118
  0   0 118
  0   0 117
  0   0 117
  0   0 116
  0   0 115
  0   0 114
  0   0 112
  0   0 110
  0   0 108
  0   0 106
  0   0 103
  0   0  99
  0   0  95
  0   0  89
  0   0  82
  0   0  73
255 255 255
255 255 255
255 255 255
 78   0   0
 87   0   0
 95   0   0
101   0   0
107   0   0
111   0   0
115   0   0
118   0   0
121   0   0
123   0   0
124   0   0
125   0   0
125   0   0
124   0   0
123   0   0
122   0   0
120   0   0
117   0   0
114   0   0
111   0   0
107   0   0
103   0   0
 98   0   0
 93   0   0
 88   0   0
 83   0   0
 77   0   0
 72   0   0
 66   0   0
255 255 255
255 255 255
255 255 255
255 255 255
255 255 255
255 255 255
255 255 255
255 255 255
255 255 255
255 255 255
255 255 255
255 255 255
255 255 255
255 255 255
255 255 255
255 255 255
255 255 255
255 255 255
255 255 255
255 255 255
255 255 255
255 255 255
255 255 255
255 255 255
255 255 255
255 255 255
255 255 255
255 255 255
255 255 255
255 255 255
255 255 255
255 255 255
255 255 255
255 255 255
255 255 255
255 255 255
255 255 255
255 255 255
255 255 255
255 255 255
255 255 255
255 255 255
255 255 255
255 255 255
255 255 255
255 255 255
255 255 255
255 255 255
255 255 255
255 255 255
255 255 255
255 255 255
255 255 255
255 255 255
255 255 255
255 255 255
255 255 255
255 255 255
255 255 255
255 255 255
255 255 255
255 255 255
255 255 255
255 255 255
255 255 255
255 255 255
255 255 255
255 255 255
255 255 255
255 255 255
255 255 255
255 255 255
255 255 255
255 255 255
255 255 255
255 255 255
255 255 255
255 255 255
255 255 255
255 255 255
255 255 255
255 255 255
255 255 255
255 255 255
255 255 255
255 255 255
255 255 255
255 255 255
255 255 255
255 255 255
255 150   0
255 255 255
255 255 255
255 255 255
255 255 255
255 255 255
255 255 255
255 255 255
255 255 255
255 255 255
255 255 255
255 255 255
255 255 255
255 255 255
255 255 255
255 255 255
255 255 255
255 255 255
255 255 255
  0   0   0
  0   0   0
  0   0   0
  0   0   0
 95   0   0
107   0   0
115   0   0
120   0   0
124   0   0
126   0   0
127   0   0
126   0   0
123   0   0
119   0   0
114   0   0
106   0   0
 97   0   0
 83   0   0
255 255 255
255 255 255
  0   0  82
255 150   0
  0   0 104
  0   0 111
  0   0 117
  0   0 122
  0   0 126
  0   0 129
  0   0 132
  0   0 134
  0   0 136
  0   0 138
  0   0 139
  0   0 140
  0   0 141
  0   0 142
  0   0 143
  0   0 143
  0   0 144
  0   0 144
  0   0 144
  0   0 144
  0   0 144
  0   0 144
  0   0 144
  0   0 144
  0   0 144
  0   0 143
  0   0 143
  0   0 142
  0   0 141
  0   0 140
  0   0 139
  0   0 138
  0   0 136
  0   0 134
  0   0 132
  0   0 129
  0   0 126
  0   0 122
  0   0 117
  0   0 111
  0   0 104
  0   0  95
  0   0  82
255 255 255
255 255 255
 83   0   0
 97   0   0
107   0   0
115   0   0
121   0   0
126   0   0
131   0   0
134   0   0
136   0   0
138   0   0
139   0   0
139   0   0
138   0   0
137   0   0
135   0   0
132   0   0
129   0   0
125   0   0
120   0   0
115   0   0
110   0   0
104   0   0
 98   0   0
 92   0   0
 86   0   0
 79   0   0
 73   0   0
 67   0   0
255 255 255
255 255 255
255 255 255
255 255 255
255 255 255
255 255 255
255 255 255
255 255 255
255 255 255
255 255 255
255 255 255
255 255 255
255 255 255
255 255 255
255 255 255
255 255 255
255 255 255
255 255 255
255 255 255
255 255 255
255 255 255
255 255 255
255 255 255
255 255 255
255 255 255
255 255 255
255 255 255
255 255 255
255 255 255
255 255 255
255 255 255
255 255 255
255 255 255
255 255 255
255 255 255
255 255 255
255 255 255
255 255 255
255 255 255
255 255 255
255 255 255
255 255 255
255 255 255
255 255 255
255 255 255
255 255 255
255 255 255
255 255 255
255 255 255
255 255 255
255 255 255
255 255 255
255 255 255
255 255 255
255 255 255
255 255 255
255 255 255
255 255 255
255 255 255
255 255 255
255 255 255
255 255 255
255 255 255
255 255 255
255 255 255
255 255 255
255 255 255
255 255 255
255 255 255
255 255 255
255 255 255
255 255 255
255 255 255
255 255 255
255 255 255
255 255 255
255 255 255
255 255 255
255 255 255
255 255 255
255 255 255
255 255 255
255 255 255
255 255 255
255 255 255
255 255 255
255 255 255
255 150   0
255 255 255
255 255 255
255 255 255
255 255 255
255 255 255
255 255 255
255 255 255
255 255 255
255 255 255
255 255 255
255 255 255
255 255 255
255 255 255
255 255 255
255 255 255
255 255 255
255 255 255
255 255 255
  0   0   0
  0   0   0
  0   0   0
  0   0   0
104   0   0
115   0   0
122   0   0
127   0   0
128   0   0
127   0   0
124   0   0
118   0   0
109   0   0
 95   0   0
 71   0   0
  0   0  65
  0   0  93
  0   0 109
  0   0 120
  0   0 129
  0   0 135
255 150   0
  0   0 145
  0   0 149
  0   0 152
  0   0 155
  0   0 157
  0   0 158
  0   0 159
  0   0 160
  0   0 161
  0   0 162
  0   0 162
  0   0 163
  0   0 163
  0   0 163
  0   0 163
  0   0 163
  0   0 163
  0   0 163
  0   0 163
  0   0 163
  0   0 163
  0   0 163
  0   0 163
  0   0 163
  0   0 163
  0   0 163
  0   0 163
  0   0 163
  0   0 163
  0   0 163
  0   0 162
  0   0 162
  0   0 161
  0   0 160
  0   0 159
  0   0 158
  0   0 157
  0   0 155
  0   0 152
  0   0 149
  0   0 145
  0   0 141
  0   0 135
  0   0 129
  0   0 120
  0   0 110
  0   0  94
  0   0  68
 68   0   0
 95   0   0
111   0   0
122   0   0
130   0   0
137   0   0
143   0   0
147   0   0
149   0   0
151   0   0
152   0   0
152   0   0
151   0   0
148   0   0
146   0   0
142   0   0
138   0   0
133   0   0
127   0   0
121   0   0
115   0   0
108   0   0
101   0   0
 94   0   0
 86   0   0
 79   0   0
 72   0   0
 65   0   0
255 255 255
255 255 255
255 255 255
255 255 255
255 255 255
255 255 255
255 255 255
255 255 255
255 255 255
255 255 255
255 255 255
255 255 255
255 255 255
255 255 255
255 255 255
255 255 255
255 255 255
255 255 255
255 255 255
255 255 255
255 255 255
255 255 255
255 255 255
255 255 255
255 255 255
255 255 255
255 255 255
255 255 255
255 255 255
255 255 255
255 255 255
255 255 255
255 255 255
255 255 255
255 255 255
255 255 255
255 255 255
255 255 255
255 255 255
255 255 255
255 255 255
255 255 255
255 255 255
255 255 255
255 255 255
255 255 255
255 255 255
255 255 255
255 255 255
255 255 255
255 255 255
255 255 255
255 255 255
255 255 255
255 255 255
255 255 255
255 255 255
255 255 255
255 255 255
255 255 255
255 255 255
255 255 255
255 255 255
255 255 255
255 255 255
255 255 255
255 255 255
255 255 255
255 255 255
255 255 255
255 255 255
255 255 255
255 255 255
255 255 255
255 255 255
255 255 255
255 255 255
255 255 255
255 255 255
255 255 255
255 255 255
255 255 255
255 255 255
255 255 255
255 150   0
255 255 255
255 255 255
255 255 255
255 255 255
255 255 255
255 255 255
255 255 255
255 255 255
255 255 255
255 255 255
255 255 255
255 255 255
255 255 255
255 255 255
255 255 255
255 255 255
255 255 255
255 255 255
  0   0   0
  0   0   0
  0   0   0
  0   0   0
105   0   0
115   0   0
120   0   0
120   0   0
116   0   0
108   0   0
 91   0   0
255 255 255
  0   0  89
  0   0 112
  0   0 128
  0   0 139
  0   0 148
  0   0 156
  0   0 161
  0   0 166
  0   0 169
255 150   0
  0   0 174
  0   0 176
  0   0 177
  0   0 177
  0   0 178
  0   0 178
  0   0 178
  0   0 178
  0   0 177
  0   0 177
  0   0 176
  0   0 176
  0   0 175
  0   0 175
  0   0 174
  0   0 174
  0   0 173
  0   0 173
  0   0 173
  0   0 172
  0   0 172
  0   0 172
  0   0 173
  0   0 173
  0   0 173
  0   0 174
  0   0 174
  0   0 175
  0   0 175
  0   0 176
  0   0 176
  0   0 177
  0   0 177
  0   0 178
  0   0 178
  0   0 178
  0   0 178
  0   0 177
  0   0 177
  0   0 176
  0   0 174
  0   0 172
  0   0 169
  0   0 166
  0   0 161
  0   0 156
  0   0 149
  0   0 141
  0   0 130
  0   0 116
  0   0  95
255 255 255
 94   0   0
116   0   0
130   0   0
141   0   0
149   0   0
155   0   0
159   0   0
162   0   0
163   0   0
164   0   0
163   0   0
161   0   0
158   0   0
154   0   0
149   0   0
144   0   0
138   0   0
131   0   0
123   0   0
116   0   0
108   0   0
100   0   0
 91   0   0
 83   0   0
 75   0   0
 68   0   0
255 255 255
255 255 255
255 255 255
255 255 255
255 255 255
255 255 255
255 255 255
255 255 255
255 255 255
255 255 255
255 255 255
255 255 255
255 255 255
255 255 255
255 255 255
255 255 255
255 255 255
255 255 255
255 255 255
255 255 255
255 255 255
255 255 255
255 255 255
255 255 255
255 255 255
255 255 255
255 255 255
255 255 255
255 255 255
255 255 255
255 255 255
255 255 255
255 255 255
255 255 255
255 255 255
255 255 255
255 255 255
255 255 255
255 255 255
255 255 255
255 255 255
255 255 255
255 255 255
255 255 255
255 255 255
255 255 255
255 255 255
255 255 255
255 255 255
255 255 255
255 255 255
255 255 255
255 255 255
255 255 255
255 255 255
255 255 255
255 255 255
255 255 255
255 255 255
255 255 255
255 255 255
255 255 255
255 255 255
255 255 255
255 255 255
255 255 255
255 255 255
255 255 255
255 255 255
255 255 255
255 255 255
255 255 255
255 255 255
255 255 255
255 255 255
255 255 255
255 255 255
255 255 255
255 255 255
255 255 255
255 255 255
255 255 255
255 150   0
255 255 255
255 255 255
255 255 255
255 255 255
255 255 255
255 255 255
255 255 255
255 255 255
255 255 255
255 255 255
255 255 255
255 255 255
255 255 255
255 255 255
255 255 255
255 255 255
255 255 255
255 255 255
  0   0   0
  0   0   0
  0   0   0
  0   0   0
 94   0   0
 98   0   0
 94   0   0
 78   0   0
255 255 255
  0   0 100
  0   0 122
  0   0 139
  0   0 152
  0   0 162
  0   0 170
  0   0 177
  0   0 182
  0   0 186
  0   0 189
  0   0 190
  0   0 191
255 150   0
  0   0 192
  0   0 192
  0   0 191
  0   0 190
  0   0 189
  0   0 187
  0   0 186
  0   0 184
  0   0 183
  0   0 181
  0   0 180
  0   0 178
  0   0 177
  0   0 175
  0   0 174
  0   0 173
  0   0 172
  0   0 172
  0   0 171
  0   0 171
  0   0 171
  0   0 171
  0   0 171
  0   0 172
  0   0 172
  0   0 173
  0   0 174
  0   0 175
  0   0 177
  0   0 178
  0   0 180
  0   0 181
  0   0 183
  0   0 184
  0   0 186
  0   0 187
  0   0 189
  0   0 190
  0   0 191
  0   0 192
  0   0 192
  0   0 192
  0   0 191
  0   0 190
  0   0 189
  0   0 186
  0   0 183
  0   0 179
  0   0 173
  0   0 166
  0   0 157
  0   0 146
  0   0 130
  0   0 108
255 255 255
100   0   0
125   0   0
141   0   0
153   0   0
161   0   0
167   0   0
171   0   0
174   0   0
175   0   0
174   0   0
172   0   0
169   0   0
165   0   0
159   0   0
153   0   0
146   0   0
139   0   0
131   0   0
122   0   0
113   0   0
104   0   0
 95   0   0
 86   0   0
 77   0   0
 69   0   0
255 255 255
255 255 255
255 255 255
255 255 255
255 255 255
255 255 255
255 255 255
255 255 255
255 255 255
255 255 255
255 255 255
255 255 255
255 255 255
255 255 255
255 255 255
255 255 255
255 255 255
255 255 255
255 255 255
255 255 255
255 255 255
255 255 255
255 255 255
255 255 255
255 255 255
255 255 255
255 255 255
255 255 255
255 255 255
255 255 255
255 255 255
255 255 255
255 255 255
255 255 255
255 255 255
255 255 255
255 255 255
255 255 255
255 255 255
255 255 255
255 255 255
255 255 255
255 255 255
255 255 255
255 255 255
255 255 255
255 255 255
255 255 255
255 255 255
255 255 255
255 255 255
255 255 255
255 255 255
255 255 255
255 255 255
255 255 255
255 255 255
255 255 255
255 255 255
255 255 255
255 255 255
255 255 255
255 255 255
255 255 255
255 255 255
255 255 255
255 255 255
255 255 255
255 255 255
255 255 255
255 255 255
255 255 255
255 255 255
255 255 255
255 255 255
255 255 255
255 255 255
255 255 255
255 255 255
255 255 255
255 150   0
255 255 255
255 255 255
255 255 255
255 255 255
255 255 255
255 255 255
255 255 255
255 255 255
255 255 255
255 255 255
255 255 255
255 255 255
255 255 255
255 255 255
255 255 255
255 255 255
255 255 255
255 255 255
  0   0   0
  0   0   0
  0   0   0
  0   0   0
255 255 255
  0   0  81
  0   0 105
  0   0 124
  0   0 142
  0   0 156
  0   0 168
  0   0 179
  0   0 187
  0   0 193
  0   0 198
  0   0 201
  0   0 203
  0   0 204
  0   0 204
  0   0 204
  0   0 203
255 150   0
  0   0 199
  0   0 196
  0   0 194
  0   0 191
  0   0 188
  0   0 185
  0   0 182
  0   0 179
  0   0 177
  0   0 174
  0   0 171
  0   0 169
  0   0 166
  0   0 164
  0   0 162
  0   0 161
  0   0 159
  0   0 158
  0   0 158
  0   0 157
  0   0 157
  0   0 157
  0   0 158
  0   0 158
  0   0 159
  0   0 161
  0   0 162
  0   0 164
  0   0 166
  0   0 169
  0   0 171
  0   0 174
  0   0 177
  0   0 179
  0   0 182
  0   0 185
  0   0 188
  0   0 191
  0   0 194
  0   0 196
  0   0 199
  0   0 201
  0   0 202
  0   0 204
  0   0 205
  0   0 205
  0   0 204
  0   0 203
  0   0 201
  0   0 197
  0   0 193
  0   0 187
  0   0 179
  0   0 169
  0   0 156
  0   0 138
  0   0 111
255 255 255
115   0   0
139   0   0
155   0   0
166   0   0
174   0   0
179   0   0
183   0   0
184   0   0
184   0   0
182   0   0
178   0   0
174   0   0
168   0   0
161   0   0
153   0   0
145   0   0
136   0   0
126   0   0
116   0   0
107   0   0
 97   0   0
 87   0   0
 78   0   0
 69   0   0
255 255 255
255 255 255
255 255 255
255 255 255
255 255 255
255 255 255
255 255 255
255 255 255
255 255 255
255 255 255
255 255 255
255 255 255
255 255 255
255 255 255
255 255 255
255 255 255
255 255 255
255 255 255
255 255 255
255 255 255
255 255 255
255 255 255
255 255 255
255 255 255
255 255 255
255 255 255
255 255 255
255 255 255
255 255 255
255 255 255
255 255 255
255 255 255
255 255 255
255 255 255
255 255 255
255 255 255
255 255 255
255 255 255
255 255 255
255 255 255
255 255 255
255 255 255
255 255 255
255 255 255
255 255 255
255 255 255
255 255 255
255 255 255
255 255 255
255 255 255
255 255 255
255 255 255
255 255 255
255 255 255
255 255 255
255 255 255
255 255 255
255 255 255
255 255 255
255 255 255
255 255 255
255 255 255
255 255 255
255 255 255
255 255 255
255 255 255
255 255 255
255 255 255
255 255 255
255 255 255
255 255 255
255 255 255
255 255 255
255 255 255
255 255 255
255 255 255
255 255 255
255 255 255
255 150   0
255 255 255
255 255 255
255 255 255
255 255 255
255 255 255
255 255 255
255 255 255
255 255 255
255 255 255
255 255 255
255 255 255
255 255 255
255 255 255
255 255 255
255 255 255
255 255 255
255 255 255
255 255 255
  0   0   0
  0   0   0
  0   0   0
  0   0   0
  0   0 113
  0   0 133
  0   0 150
  0   0 165
  0   0 178
  0   0 188
  0   0 197
  0   0 204
  0   0 209
  0   0 212
  0   0 214
  0   0 214
  0   0 213
  0   0 211
  0   0 209
  0   0 206
  0   0 202
255 150   0
  0   0 194
  0   0 189
  0   0 185
  0   0 180
  0   0 175
  0   0 171
  0   0 166
  0   0 161
  0   0 157
  0   0 153
  0   0 149
  0   0 145
  0   0 141
  0   0 138
  0   0 135
  0   0 132
  0   0 130
  0   0 129
  0   0 127
  0   0 127
  0   0 126
  0   0 127
  0   0 127
  0   0 129
  0   0 130
  0   0 132
  0   0 135
  0   0 138
  0   0 141
  0   0 145
  0   0 149
  0   0 153
  0   0 157
  0   0 161
  0   0 166
  0   0 171
  0   0 175
  0   0 180
  0   0 185
  0   0 189
  0   0 194
  0   0 198
  0   0 202
  0   0 205
  0   0 209
  0   0 211
  0   0 214
  0   0 215
  0   0 216
  0   0 216
  0   0 215
  0   0 212
  0   0 209
  0   0 203
  0   0 196
  0   0 187
  0   0 175
  0   0 160
  0   0 137
  0   0  99
 98   0   0
136   0   0
156   0   0
170   0   0
180   0   0
186   0   0
190   0   0
192   0   0
192   0   0
190   0   0
186   0   0
181   0   0
174   0   0
166   0   0
158   0   0
149   0   0
139   0   0
128   0   0
118   0   0
107   0   0
 97   0   0
 87   0   0
 77   0   0
 68   0   0
255 255 255
255 255 255
255 255 255
255 255 255
255 255 255
255 255 255
255 255 255
255 255 255
255 255 255
255 255 255
255 255 255
255 255 255
255 255 255
255 255 255
255 255 255
255 255 255
255 255 255
255 255 255
255 255 255
255 255 255
255 255 255
255 255 255
255 255 255
255 255 255
255 255 255
255 255 255
255 255 255
255 255 255
255 255 255
255 255 255
255 255 255
255 255 255
255 255 255
255 255 255
255 255 255
255 255 255
255 255 255
255 255 255
255 255 255
255 255 255
255 255 255
255 255 255
255 255 255
255 255 255
255 255 255
255 255 255
255 255 255
255 255 255
255 255 255
255 255 255
255 255 255
255 255 255
255 255 255
255 255 255
255 255 255
255 255 255
255 255 255
255 255 255
255 255 255
255 255 255
255 255 255
255 255 255
255 255 255
255 255 255
255 255 255
255 255 255
255 255 255
255 255 255
255 255 255
255 255 255
255 255 255
255 255 255
255 255 255
255 255 255
255 255 255
255 255 255
255 150   0
255 255 255
255 255 255
255 255 255
255 255 255
255 255 255
255 255 255
255 255 255
255 255 255
255 255 255
255 255 255
255 255 255
255 255 255
255 255 255
255 255 255
255 255 255
255 255 255
255 255 255
255 255 255
  0   0   0
  0   0   0
  0   0   0
  0   0   0
  0   0 140
  0   0 160
  0   0 176
  0   0 189
  0   0 199
  0   0 207
  0   0 213
  0   0 217
  0   0 219
  0   0 219
  0   0 217
  0   0 215
  0   0 211
  0   0 206
  0   0 201
  0   0 195
  0   0 189
255 150   0
  0   0 176
  0   0 169
  0   0 162
  0   0 155
  0   0 147
  0   0 140
  0   0 133
  0   0 125
  0   0 117
  0   0 109
  0   0 101
  0   0  92
  0   0  82
  0   0  71
255 255 255
255 255 255
255 255 255
255 255 255
 65   0   0
 67   0   0
 68   0   0
 67   0   0
 65   0   0
255 255 255
255 255 255
255 255 255
255 255 255
  0   0  71
  0   0  82
  0   0  92
  0   0 101
  0   0 109
  0   0 117
  0   0 125
  0   0 133
  0   0 140
  0   0 147
  0   0 155
  0   0 162
  0   0 169
  0   0 176
  0   0 182
  0   0 189
  0   0 195
  0   0 201
  0   0 206
  0   0 211
  0   0 215
  0   0 219
  0   0 222
  0   0 224
  0   0 225
  0   0 225
  0   0 224
  0   0 221
  0   0 217
  0   0 211
  0   0 202
  0   0 191
  0   0 176
  0   0 155
  0   0 124
 69   0   0
132   0   0
158   0   0
174   0   0
185   0   0
193   0   0
197   0   0
199   0   0
198   0   0
196   0   0
192   0   0
186   0   0
178   0   0
170   0   0
160   0   0
150   0   0
139   0   0
128   0   0
117   0   0
106   0   0
 95   0   0
 84   0   0
 74   0   0
 65   0   0
255 255 255
255 255 255
255 255 255
255 255 255
255 255 255
255 255 255
255 255 255
255 255 255
255 255 255
255 255 255
255 255 255
255 255 255
255 255 255
255 255 255
255 255 255
255 255 255
255 255 255
255 255 255
255 255 255
255 255 255
255 255 255
255 255 255
255 255 255
255 255 255
255 255 255
255 255 255
255 255 255
255 255 255
255 255 255
255 255 255
255 255 255
255 255 255
255 255 255
255 255 255
255 255 255
255 255 255
255 255 255
255 255 255
255 255 255
255 255 255
255 255 255
255 255 255
255 255 255
255 255 255
255 255 255
255 255 255
255 255 255
255 255 255
255 255 255
255 255 255
255 255 255
255 255 255
255 255 255
255 255 255
255 255 255
255 255 255
255 255 255
255 255 255
255 255 255
255 255 255
255 255 255
255 255 255
255 255 255
255 255 255
255 255 255
255 255 255
255 255 255
255 255 255
255 255 255
255 255 255
255 255 255
255 255 255
255 255 255
255 255 255
255 150   0
255 255 255
255 255 255
255 255 255
255 255 255
255 255 255
255 255 255
255 255 255
255 255 255
255 255 255
255 255 255
255 255 255
255 255 255
255 255 255
255 255 255
255 255 255
255 255 255
255 255 255
255 255 255
  0   0   0
  0   0   0
  0   0   0
  0   0   0
  0   0 155
  0   0 175
  0   0 190
  0   0 201
  0   0 209
  0   0 214
  0   0 217
  0   0 218
  0   0 217
  0   0 214
  0   0 209
  0   0 204
  0   0 197
  0   0 189
  0   0 181
  0   0 172
  0   0 163
255 150   0
  0   0 142
  0   0 130
  0   0 118
  0   0 103
  0   0  85
255 255 255
 70   0   0
 88   0   0
 98   0   0
106   0   0
111   0   0
115   0   0
118   0   0
121   0   0
123   0   0
124   0   0
125   0   0
126   0   0
127   0   0
127   0   0
127   0   0
127   0   0
127   0   0
126   0   0
125   0   0
124   0   0
123   0   0
121   0   0
118   0   0
115   0   0
111   0   0
106   0   0
 98   0   0
 88   0   0
 70   0   0
255 255 255
  0   0  84
  0   0 103
  0   0 117
  0   0 130
  0   0 141
  0   0 152
  0   0 162
  0   0 171
  0   0 180
  0   0 188
  0   0 196
  0   0 204
  0   0 210
  0   0 216
  0   0 222
  0   0 226
  0   0 230
  0   0 232
  0   0 233
  0   0 233
  0   0 231
  0   0 228
  0   0 222
  0   0 214
  0   0 203
  0   0 188
  0   0 168
  0   0 138
255 255 255
130   0   0
160   0   0
179   0   0
191   0   0
199   0   0
203   0   0
204   0   0
204   0   0
200   0   0
195   0   0
189   0   0
180   0   0
171   0   0
161   0   0
150   0   0
138   0   0
126   0   0
114   0   0
103   0   0
 91   0   0
 81   0   0
 70   0   0
255 255 255
255 255 255
255 255 255
255 255 255
255 255 255
255 255 255
255 255 255
255 255 255
255 255 255
255 255 255
255 255 255
255 255 255
255 255 255
255 255 255
255 255 255
255 255 255
255 255 255
255 255 255
255 255 255
255 255 255
255 255 255
255 255 255
255 255 255
255 255 255
255 255 255
255 255 255
255 255 255
255 255 255
255 255 255
255 255 255
255 255 255
255 255 255
255 255 255
255 255 255
255 255 255
255 255 255
255 255 255
255 255 255
255 255 255
255 255 255
255 255 255
255 255 255
255 255 255
255 255 255
255 255 255
255 255 255
255 255 255
255 255 255
255 255 255
255 255 255
255 255 255
255 255 255
255 255 255
255 255 255
255 255 255
255 255 255
255 255 255
255 255 255
255 255 255
255 255 255
255 255 255
255 255 255
255 255 255
255 255 255
255 255 255
255 255 255
255 255 255
255 255 255
255 255 255
255 255 255
255 255 255
255 255 255
255 255 255
255 150   0
255 255 255
255 255 255
255 255 255
255 255 255
255 255 255
255 255 255
255 255 255
255 255 255
255 255 255
255 255 255
255 255 255
255 255 255
255 255 255
255 255 255
255 255 255
255 255 255
255 255 255
255 255 255
  0   0   0
  0   0   0
  0   0   0
  0   0   0
  0   0 160
  0   0 179
  0   0 193
  0   0 202
  0   0 207
  0   0 210
  0   0 210
  0   0 208
  0   0 203
  0   0 197
  0   0 189
  0   0 180
  0   0 170
  0   0 158
  0   0 145
  0   0 130
  0   0 113
255 150   0
255 255 255
 87   0   0
104   0   0
115   0   0
122   0   0
127   0   0
131   0   0
134   0   0
137   0   0
138   0   0
140   0   0
141   0   0
142   0   0
142   0   0
143   0   0
143   0   0
143   0   0
144   0   0
144   0   0
144   0   0
144   0   0
144   0   0
144   0   0
144   0   0
143   0   0
143   0   0
143   0   0
142   0   0
142   0   0
141   0   0
140   0   0
138   0   0
137   0   0
134   0   0
131   0   0
128   0   0
122   0   0
116   0   0
106   0   0
 90   0   0
255 255 255
  0   0  83
  0   0 109
  0   0 127
  0   0 142
  0   0 155
  0   0 167
  0   0 179
  0   0 189
  0   0 199
  0   0 207
  0   0 215
  0   0 222
  0   0 228
  0   0 233
  0   0 237
  0   0 239
  0   0 240
  0   0 239
  0   0 236
  0   0 230
  0   0 222
  0   0 211
  0   0 196
  0   0 176
  0   0 146
  0   0  76
133   0   0
165   0   0
184   0   0
196   0   0
204   0   0
208   0   0
209   0   0
207   0   0
203   0   0
197   0   0
190   0   0
180   0   0
170   0   0
159   0   0
147   0   0
135   0   0
122   0   0
110   0   0
 98   0   0
 86   0   0
 75   0   0
 65   0   0
255 255 255
255 255 255
255 255 255
255 255 255
255 255 255
255 255 255
255 255 255
255 255 255
255 255 255
255 255 255
255 255 255
255 255 255
255 255 255
255 255 255
255 255 255
255 255 255
255 255 255
255 255 255
255 255 255
255 255 255
255 255 255
255 255 255
255 255 255
255 255 255
255 255 255
255 255 255
255 255 255
255 255 255
255 255 255
255 255 255
255 255 255
255 255 255
255 255 255
255 255 255
255 255 255
255 255 255
255 255 255
255 255 255
255 255 255
255 255 255
255 255 255
255 255 255
255 255 255
255 255 255
255 255 255
255 255 255
255 255 255
255 255 255
255 255 255
255 255 255
255 255 255
255 255 255
255 255 255
255 255 255
255 255 255
255 255 255
255 255 255
255 255 255
255 255 255
255 255 255
255 255 255
255 255 255
255 255 255
255 255 255
255 255 255
255 255 255
255 255 255
255 255 255
255 255 255
255 255 255
255 255 255
255 150   0
255 255 255
255 255 255
255 255 255
255 255 255
255 255 255
255 255 255
255 255 255
255 255 255
255 255 255
255 255 255
255 255 255
255 255 255
255 255 255
255 255 255
255 255 255
255 255 255
255 255 255
255 255 255
  0   0   0
  0   0   0
  0   0   0
  0   0   0
  0   0 157
  0   0 174
  0   0 185
  0   0 192
  0   0 195
  0   0 194
  0   0 191
  0   0 185
  0   0 177
  0   0 167
  0   0 155
  0   0 140
  0   0 122
  0   0  97
255 255 255
 93   0   0
112   0   0
255 150   0
131   0   0
136   0   0
140   0   0
143   0   0
145   0   0
147   0   0
148   0   0
149   0   0
149   0   0
149   0   0
149   0   0
149   0   0
149   0   0
149   0   0
149   0   0
149   0   0
148   0   0
148   0   0
148   0   0
148   0   0
148   0   0
148   0   0
148   0   0
148   0   0
148   0   0
149   0   0
149   0   0
149   0   0
149   0   0
149   0   0
149   0   0
149   0   0
149   0   0
149   0   0
148   0   0
147   0   0
146   0   0
144   0   0
141   0   0
138   0   0
133   0   0
126   0   0
117   0   0
102   0   0
 71   0   0
  0   0  84
  0   0 115
  0   0 135
  0   0 152
  0   0 167
  0   0 180
  0   0 192
  0   0 203
  0   0 213
  0   0 222
  0   0 229
  0   0 235
  0   0 240
  0   0 243
  0   0 245
  0   0 244
  0   0 242
  0   0 236
  0   0 228
  0   0 217
  0   0 201
  0   0 180
  0   0 147
255 255 255
140   0   0
171   0   0
190   0   0
202   0   0
209   0   0
212   0   0
212   0   0
209   0   0
204   0   0
197   0   0
188   0   0
178   0   0
167   0   0
155   0   0
142   0   0
129   0   0
116   0   0
104   0   0
 92   0   0
 80   0   0
 69   0   0
255 255 255
255 255 255
255 255 255
255 255 255
255 255 255
255 255 255
255 255 255
255 255 255
255 255 255
255 255 255
255 255 255
255 255 255
255 255 255
255 255 255
255 255 255
255 255 255
255 255 255
255 255 255
255 255 255
255 255 255
255 255 255
255 255 255
255 255 255
255 255 255
255 255 255
255 255 255
255 255 255
255 255 255
255 255 255
255 255 255
255 255 255
255 255 255
255 255 255
255 255 255
255 255 255
255 255 255
255 255 255
255 255 255
255 255 255
255 255 255
255 255 255
255 255 255
255 255 255
255 255 255
255 255 255
255 255 255
255 255 255
255 255 255
255 255 255
255 255 255
255 255 255
255 255 255
255 255 255
255 255 255
255 255 255
255 255 255
255 255 255
255 255 255
255 255 255
255 255 255
255 255 255
255 255 255
255 255 255
255 255 255
255 255 255
255 255 255
255 255 255
255 255 255
255 255 255
255 255 255
255 150   0
255 255 255
255 255 255
255 255 255
255 255 255
255 255 255
255 255 255
255 255 255
255 255 255
255 255 255
255 255 255
255 255 255
255 255 255
255 255 255
255 255 255
255 255 255
255 255 255
255 255 255
255 255 255
  0   0   0
  0   0   0
  0   0   0
  0   0   0
  0   0 145
  0   0 160
  0   0 167
  0   0 171
  0   0 170
  0   0 166
  0   0 158
  0   0 147
  0   0 133
  0   0 113
  0   0  81
 78   0   0
107   0   0
122   0   0
132   0   0
138   0   0
143   0   0
255 150   0
149   0   0
150   0   0
151   0   0
152   0   0
152   0   0
152   0   0
152   0   0
151   0   0
151   0   0
150   0   0
150   0   0
149   0   0
148   0   0
148   0   0
147   0   0
147   0   0
147   0   0
146   0   0
146   0   0
146   0   0
146   0   0
146   0   0
146   0   0
146   0   0
147   0   0
147   0   0
147   0   0
148   0   0
148   0   0
149   0   0
150   0   0
150   0   0
151   0   0
152   0   0
152   0   0
153   0   0
153   0   0
153   0   0
153   0   0
152   0   0
151   0   0
149   0   0
146   0   0
142   0   0
137   0   0
129   0   0
116   0   0
 95   0   0
255 255 255
  0   0 109
  0   0 134
  0   0 154
  0   0 171
  0   0 185
  0   0 198
  0   0 210
  0   0 220
  0   0 229
  0   0 237
  0   0 242
  0   0 246
  0   0 248
  0   0 248
  0   0 246
  0   0 240
  0   0 232
  0   0 220
  0   0 203
  0   0 180
  0   0 143
 77   0   0
151   0   0
179   0   0
196   0   0
207   0   0
213   0   0
215   0   0
214   0   0
210   0   0
203   0   0
195   0   0
185   0   0
174   0   0
162   0   0
149   0   0
136   0   0
122   0   0
109   0   0
 96   0   0
 84   0   0
 73   0   0
255 255 255
255 255 255
255 255 255
255 255 255
255 255 255
255 255 255
255 255 255
255 255 255
255 255 255
255 255 255
255 255 255
255 255 255
255 255 255
255 255 255
255 255 255
255 255 255
255 255 255
255 255 255
255 255 255
255 255 255
255 255 255
255 255 255
255 255 255
255 255 255
255 255 255
255 255 255
255 255 255
255 255 255
255 255 255
255 255 255
255 255 255
255 255 255
255 255 255
255 255 255
255 255 255
255 255 255
255 255 255
255 255 255
255 255 255
255 255 255
255 255 255
255 255 255
255 255 255
255 255 255
255 255 255
255 255 255
255 255 255
255 255 255
255 255 255
255 255 255
255 255 255
255 255 255
255 255 255
255 255 255
255 255 255
255 255 255
255 255 255
255 255 255
255 255 255
255 255 255
255 255 255
255 255 255
255 255 255
255 255 255
255 255 255
255 255 255
255 255 255
255 255 255
255 255 255
255 150   0
255 255 255
255 255 255
255 255 255
255 255 255
255 255 255
255 255 255
255 255 255
255 255 255
255 255 255
255 255 255
255 255 255
255 255 255
255 255 255
255 255 255
255 255 255
255 255 255
255 255 255
255 255 255
  0   0   0
  0   0   0
  0   0   0
  0   0   0
  0   0 124
  0   0 134
  0   0 137
  0   0 135
  0   0 128
  0   0 115
  0   0  93
255 255 255
 98   0   0
117   0   0
130   0   0
138   0   0
144   0   0
147   0   0
150   0   0
152   0   0
152   0   0
255 150   0
153   0   0
153   0   0
152   0   0
151   0   0
151   0   0
150   0   0
149   0   0
148   0   0
147   0   0
146   0   0
145   0   0
144   0   0
143   0   0
142   0   0
142   0   0
141   0   0
141   0   0
140   0   0
140   0   0
140   0   0
140   0   0
140   0   0
140   0   0
140   0   0
141   0   0
141   0   0
142   0   0
142   0   0
143   0   0
144   0   0
145   0   0
146   0   0
147   0   0
148   0   0
149   0   0
151   0   0
152   0   0
153   0   0
154   0   0
155   0   0
155   0   0
156   0   0
156   0   0
155   0   0
154   0   0
151   0   0
148   0   0
142   0   0
134   0   0
122   0   0
100   0   0
255 255 255
  0   0 113
  0   0 140
  0   0 161
  0   0 178
  0   0 194
  0   0 207
  0   0 219
  0   0 229
  0   0 237
  0   0 244
  0   0 249
  0   0 251
  0   0 251
  0   0 248
  0   0 243
  0   0 233
  0   0 220
  0   0 202
  0   0 175
  0   0 130
113   0   0
163   0   0
188   0   0
203   0   0
212   0   0
216   0   0
216   0   0
214   0   0
208   0   0
201   0   0
191   0   0
180   0   0
168   0   0
154   0   0
141   0   0
127   0   0
114   0   0
100   0   0
 88   0   0
 76   0   0
 65   0   0
255 255 255
255 255 255
255 255 255
255 255 255
255 255 255
255 255 255
255 255 255
255 255 255
255 255 255
255 255 255
255 255 255
255 255 255
255 255 255
255 255 255
255 255 255
255 255 255
255 255 255
255 255 255
255 255 255
255 255 255
255 255 255
255 255 255
255 255 255
255 255 255
255 255 255
255 255 255
255 255 255
255 255 255
255 255 255
255 255 255
255 255 255
255 255 255
255 255 255
255 255 255
255 255 255
255 255 255
255 255 255
255 255 255
255 255 255
255 255 255
255 255 255
255 255 255
255 255 255
255 255 255
255 255 255
255 255 255
255 255 255
255 255 255
255 255 255
255 255 255
255 255 255
255 255 255
255 255 255
255 255 255
255 255 255
255 255 255
255 255 255
255 255 255
255 255 255
255 255 255
255 255 255
255 255 255
255 255 255
255 255 255
255 255 255
255 255 255
255 255 255
255 150   0
255 255 255
255 255 255
255 255 255
255 255 255
255 255 255
255 255 255
255 255 255
255 255 255
255 255 255
255 255 255
255 255 255
255 255 255
255 255 255
255 255 255
255 255 255
255 255 255
255 255 255
255 255 255
  0   0   0
  0   0   0
  0   0   0
  0   0   0
  0   0  89
  0   0  89
  0   0  76
255 255 255
 90   0   0
111   0   0
125   0   0
136   0   0
143   0   0
149   0   0
152   0   0
154   0   0
155   0   0
155   0   0
155   0   0
154   0   0
152   0   0
255 150   0
150   0   0
148   0   0
147   0   0
146   0   0
144   0   0
143   0   0
142   0   0
141   0   0
140   0   0
138   0   0
137   0   0
136   0   0
136   0   0
135   0   0
134   0   0
133   0   0
133   0   0
133   0   0
132   0   0
132   0   0
132   0   0
132   0   0
132   0   0
133   0   0
133   0   0
133   0   0
134   0   0
135   0   0
136   0   0
137   0   0
138   0   0
139   0   0
140   0   0
141   0   0
143   0   0
144   0   0
146   0   0
148   0   0
149   0   0
151   0   0
153   0   0
154   0   0
155   0   0
156   0   0
157   0   0
157   0   0
157   0   0
156   0   0
154   0   0
150   0   0
144   0   0
135   0   0
120   0   0
 91   0   0
  0   0  86
  0   0 127
  0   0 153
  0   0 173
  0   0 190
  0   0 205
  0   0 218
  0   0 229
  0   0 238
  0   0 245
  0   0 250
  0   0 253
  0   0 253
  0   0 249
  0   0 243
  0   0 232
  0   0 217
  0   0 196
  0   0 165
  0   0 101
139   0   0
176   0   0
197   0   0
209   0   0
215   0   0
218   0   0
216   0   0
212   0   0
205   0   0
196   0   0
185   0   0
173   0   0
159   0   0
146   0   0
131   0   0
117   0   0
104   0   0
 91   0   0
 78   0   0
 67   0   0
255 255 255
255 255 255
255 255 255
255 255 255
255 255 255
255 255 255
255 255 255
255 255 255
255 255 255
255 255 255
255 255 255
255 255 255
255 255 255
255 255 255
255 255 255
255 255 255
255 255 255
255 255 255
255 255 255
255 255 255
255 255 255
255 255 255
255 255 255
255 255 255
255 255 255
255 255 255
255 255 255
255 255 255
255 255 255
255 255 255
255 255 255
255 255 255
255 255 255
255 255 255
255 255 255
255 255 255
255 255 255
255 255 255
255 255 255
255 255 255
255 255 255
255 255 255
255 255 255
255 255 255
255 255 255
255 255 255
255 255 255
255 255 255
255 255 255
255 255 255
255 255 255
255 255 255
255 255 255
255 255 255
255 255 255
255 255 255
255 255 255
255 255 255
255 255 255
255 255 255
255 255 255
255 255 255
255 255 255
255 255 255
255 255 255
255 255 255
255 150   0
255 255 255
255 255 255
255 255 255
255 255 255
255 255 255
255 255 255
255 255 255
255 255 255
255 255 255
255 255 255
255 255 255
255 255 255
255 255 255
255 255 255
255 255 255
255 255 255
255 255 255
255 255 255
  0   0   0
  0   0   0
  0   0   0
  0   0   0
 75   0   0
 94   0   0
110   0   0
123   0   0
134   0   0
143   0   0
149   0   0
154   0   0
157   0   0
159   0   0
159   0   0
159   0   0
157   0   0
155   0   0
153   0   0
150   0   0
147   0   0
255 150   0
143   0   0
140   0   0
139   0   0
137   0   0
136   0   0
134   0   0
133   0   0
132   0   0
131   0   0
130   0   0
129   0   0
128   0   0
127   0   0
126   0   0
126   0   0
125   0   0
125   0   0
124   0   0
124   0   0
124   0   0
124   0   0
124   0   0
124   0   0
124   0   0
125   0   0
125   0   0
126   0   0
126   0   0
127   0   0
128   0   0
129   0   0
130   0   0
132   0   0
133   0   0
135   0   0
136   0   0
138   0   0
140   0   0
142   0   0
144   0   0
146   0   0
148   0   0
150   0   0
152   0   0
154   0   0
156   0   0
157   0   0
158   0   0
159   0   0
158   0   0
157   0   0
154   0   0
150   0   0
142   0   0
131   0   0
110   0   0
255 255 255
  0   0 116
  0   0 146
  0   0 169
  0   0 188
  0   0 204
  0   0 218
  0   0 230
  0   0 240
  0   0 247
  0   0 252
  0   0 254
  0   0 253
  0   0 249
  0   0 241
  0   0 229
  0   0 212
  0   0 186
  0   0 146
 94   0   0
160   0   0
188   0   0
204   0   0
214   0   0
218   0   0
218   0   0
215   0   0
208   0   0
200   0   0
189   0   0
177   0   0
163   0   0
149   0   0
135   0   0
121   0   0
107   0   0
 93   0   0
 80   0   0
 69   0   0
255 255 255
255 255 255
255 255 255
255 255 255
255 255 255
255 255 255
255 255 255
255 255 255
255 255 255
255 255 255
255 255 255
255 255 255
255 255 255
255 255 255
255 255 255
255 255 255
255 255 255
255 255 255
255 255 255
255 255 255
255 255 255
255 255 255
255 255 255
255 255 255
255 255 255
255 255 255
255 255 255
255 255 255
255 255 255
255 255 255
255 255 255
255 255 255
255 255 255
255 255 255
255 255 255
255 255 255
255 255 255
255 255 255
255 255 255
255 255 255
255 255 255
255 255 255
255 255 255
255 255 255
255 255 255
255 255 255
255 255 255
255 255 255
255 255 255
255 255 255
255 255 255
255 255 255
255 255 255
255 255 255
255 255 255
255 255 255
255 255 255
255 255 255
255 255 255
255 255 255
255 255 255
255 255 255
255 255 255
255 255 255
255 255 255
255 150   0
255 255 255
255 255 255
255 255 255
255 255 255
255 255 255
255 255 255
255 255 255
255 255 255
255 255 255
255 255 255
255 255 255
255 255 255
255 255 255
255 255 255
255 255 255
255 255 255
255 255 255
255 255 255
  0   0   0
  0   0   0
  0   0   0
  0   0   0
100   0   0
116   0   0
128   0   0
138   0   0
146   0   0
152   0   0
156   0   0
159   0   0
160   0   0
160   0   0
159   0   0
157   0   0
154   0   0
151   0   0
147   0   0
144   0   0
140   0   0
255 150   0
134   0   0
131   0   0
129   0   0
127   0   0
126   0   0
125   0   0
124   0   0
123   0   0
122   0   0
121   0   0
120   0   0
119   0   0
119   0   0
118   0   0
118   0   0
117   0   0
117   0   0
116   0   0
116   0   0
116   0   0
116   0   0
116   0   0
116   0   0
116   0   0
117   0   0
117   0   0
118   0   0
118   0   0
119   0   0
120   0   0
121   0   0
122   0   0
123   0   0
124   0   0
126   0   0
128   0   0
129   0   0
131   0   0
133   0   0
135   0   0
137   0   0
140   0   0
142   0   0
144   0   0
147   0   0
149   0   0
152   0   0
154   0   0
156   0   0
158   0   0
159   0   0
159   0   0
159   0   0
157   0   0
153   0   0
147   0   0
136   0   0
118   0   0
 75   0   0
  0   0 108
  0   0 143
  0   0 168
  0   0 188
  0   0 205
  0   0 220
  0   0 232
  0   0 241
  0   0 249
  0   0 253
  0   0 255
  0   0 253
  0   0 247
  0   0 238
  0   0 223
  0   0 202
  0   0 171
  0   0 110
139   0   0
178   0   0
199   0   0
211   0   0
217   0   0
219   0   0
216   0   0
211   0   0
203   0   0
192   0   0
180   0   0
167   0   0
153   0   0
138   0   0
123   0   0
109   0   0
 95   0   0
 82   0   0
 70   0   0
255 255 255
255 255 255
255 255 255
255 255 255
255 255 255
255 255 255
255 255 255
255 255 255
255 255 255
255 255 255
255 255 255
255 255 255
255 255 255
255 255 255
255 255 255
255 255 255
255 255 255
255 255 255
255 255 255
255 255 255
255 255 255
255 255 255
255 255 255
255 255 255
255 255 255
255 255 255
255 255 255
255 255 255
255 255 255
255 255 255
255 255 255
255 255 255
255 255 255
255 255 255
255 255 255
255 255 255
255 255 255
255 255 255
255 255 255
255 255 255
255 255 255
255 255 255
255 255 255
255 255 255
255 255 255
255 255 255
255 255 255
255 255 255
255 255 255
255 255 255
255 255 255
255 255 255
255 255 255
255 255 255
255 255 255
255 255 255
255 255 255
255 255 255
255 255 255
255 255 255
255 255 255
255 255 255
255 255 255
255 255 255
255 150   0
255 255 255
255 255 255
255 255 255
255 255 255
255 255 255
255 255 255
255 255 255
255 255 255
255 255 255
255 255 255
255 255 255
255 255 255
255 255 255
255 255 255
255 255 255
255 255 255
255 255 255
255 255 255
  0   0   0
  0   0   0
  0   0   0
  0   0   0
106   0   0
121   0   0
132   0   0
140   0   0
147   0   0
151   0   0
154   0   0
156   0   0
156   0   0
155   0   0
154   0   0
151   0   0
148   0   0
145   0   0
141   0   0
137   0   0
133   0   0
255 150   0
126   0   0
123   0   0
120   0   0
118   0   0
116   0   0
115   0   0
114   0   0
114   0   0
113   0   0
112   0   0
112   0   0
111   0   0
111   0   0
111   0   0
110   0   0
110   0   0
109   0   0
109   0   0
109   0   0
109   0   0
109   0   0
109   0   0
109   0   0
109   0   0
109   0   0
110   0   0
110   0   0
111   0   0
112   0   0
112   0   0
113   0   0
114   0   0
115   0   0
116   0   0
118   0   0
119   0   0
121   0   0
122   0   0
124   0   0
126   0   0
128   0   0
131   0   0
133   0   0
136   0   0
138   0   0
141   0   0
144   0   0
147   0   0
149   0   0
152   0   0
154   0   0
157   0   0
158   0   0
159   0   0
159   0   0
158   0   0
155   0   0
149   0   0
139   0   0
122   0   0
 83   0   0
  0   0 106
  0   0 144
  0   0 169
  0   0 190
  0   0 208
  0   0 222
  0   0 234
  0   0 244
  0   0 250
  0   0 254
  0   0 255
  0   0 251
  0   0 244
  0   0 232
  0   0 214
  0   0 188
  0   0 145
105   0   0
166   0   0
192   0   0
208   0   0
216   0   0
219   0   0
218   0   0
213   0   0
205   0   0
195   0   0
183   0   0
169   0   0
155   0   0
140   0   0
126   0   0
111   0   0
 97   0   0
 83   0   0
 71   0   0
255 255 255
255 255 255
255 255 255
255 255 255
255 255 255
255 255 255
255 255 255
255 255 255
255 255 255
255 255 255
255 255 255
255 255 255
255 255 255
255 255 255
255 255 255
255 255 255
255 255 255
255 255 255
255 255 255
255 255 255
255 255 255
255 255 255
255 255 255
255 255 255
255 255 255
255 255 255
255 255 255
255 255 255
255 255 255
255 255 255
255 255 255
255 255 255
255 255 255
255 255 255
255 255 255
255 255 255
255 255 255
255 255 255
255 255 255
255 255 255
255 255 255
255 255 255
255 255 255
255 255 255
255 255 255
255 255 255
255 255 255
255 255 255
255 255 255
255 255 255
255 255 255
255 255 255
255 255 255
255 255 255
255 255 255
255 255 255
255 255 255
255 255 255
255 255 255
255 255 255
255 255 255
255 255 255
255 255 255
255 150   0
255 255 255
255 255 255
255 255 255
255 255 255
255 255 255
255 255 255
255 255 255
255 255 255
255 255 255
255 255 255
255 255 255
255 255 255
255 255 255
255 255 255
255 255 255
255 255 255
255 255 255
255 255 255
  0   0   0
  0   0   0
  0   0   0
  0   0   0
255 150   0
255 150   0
255 150   0
255 150   0
255 150   0
255 150   0
255 150   0
255 150   0
255 150   0
255 150   0
255 150   0
255 150   0
255 150   0
255 150   0
255 150   0
255 150   0
255 150   0
255 150   0
255 150   0
255 150   0
255 150   0
255 150   0
255 150   0
255 150   0
255 150   0
255 150   0
255 150   0
255 150   0
255 150   0
255 150   0
255 150   0
255 150   0
255 150   0
255 150   0
255 150   0
255 150   0
255 150   0
255 150   0
255 150   0
255 150   0
255 150   0
255 150   0
255 150   0
255 150   0
255 150   0
255 150   0
255 150   0
255 150   0
255 150   0
255 150   0
255 150   0
255 150   0
255 150   0
255 150   0
255 150   0
255 150   0
255 150   0
255 150   0
255 150   0
255 150   0
255 150   0
255 150   0
255 150   0
255 150   0
255 150   0
255 150   0
255 150   0
255 150   0
255 150   0
255 150   0
255 150   0
255 150   0
255 150   0
255 150   0
255 150   0
255 150   0
255 150   0
255 150   0
255 150   0
255 150   0
255 150   0
255 150   0
255 150   0
255 150   0
255 150   0
255 150   0
255 150   0
255 150   0
255 150   0
255 150   0
255 150   0
255 150   0
255 150   0
255 150   0
255 150   0
255 150   0
255 150   0
255 150   0
255 150   0
255 150   0
255 150   0
255 150   0
255 150   0
255 150   0
255 150   0
255 150   0
255 150   0
255 150   0
255 150   0
255 150   0
255 150   0
255 150   0
255 150   0
255 150   0
255 150   0
255 150   0
255 150   0
255 150   0
255 150   0
255 150   0
255 150   0
255 150   0
255 150   0
255 150   0
255 150   0
255 150   0
255 150   0
255 150   0
255 150   0
255 150   0
255 150   0
255 150   0
255 150   0
255 150   0
255 150   0
255 150   0
255 150   0
255 150   0
255 150   0
255 150   0
255 150   0
255 150   0
255 150   0
255 150   0
255 150   0
255 150   0
255 150   0
255 150   0
255 150   0
255 150   0
255 150   0
255 150   0
255 150   0
255 150   0
255 150   0
255 150   0
255 150   0
255 150   0
255 150   0
255 150   0
255 150   0
255 150   0
255 150   0
255 150   0
255 150   0
255 150   0
255 150   0
255 150   0
255 150   0
255 150   0
255 150   0
255 150   0
255 150   0
255 150   0
255 150   0
255 150   0
255 150   0
255 150   0
255 150   0
255 150   0
255 150   0
255 150   0
255 150   0
255 150   0
255 150   0
255 150   0
255 150   0
255 150   0
255 150   0
255 150   0
255 150   0
255 150   0
255 150   0
255 150   0
255 150   0
255 150   0
255 150   0
  0   0   0
  0   0   0
  0   0   0
  0   0   0
 99   0   0
111   0   0
120   0   0
126   0   0
131   0   0
134   0   0
137   0   0
138   0   0
138   0   0
138   0   0
137   0   0
136   0   0
134   0   0
131   0   0
128   0   0
125   0   0
121   0   0
255 150   0
113   0   0
109   0   0
106   0   0
103   0   0
101   0   0
 99   0   0
 98   0   0
 98   0   0
 97   0   0
 97   0   0
 98   0   0
 98   0   0
 98   0   0
 98   0   0
 98   0   0
 98   0   0
 97   0   0
 97   0   0
 97   0   0
 97   0   0
 97   0   0
 97   0   0
 97   0   0
 98   0   0
 98   0   0
 98   0   0
 98   0   0
 99   0   0
 99   0   0
100   0   0
101   0   0
101   0   0
102   0   0
103   0   0
104   0   0
105   0   0
106   0   0
108   0   0
109   0   0
111   0   0
112   0   0
114   0   0
116   0   0
118   0   0
121   0   0
123   0   0
126   0   0
129   0   0
132   0   0
135   0   0
138   0   0
142   0   0
145   0   0
149   0   0
152   0   0
155   0   0
157   0   0
159   0   0
159   0   0
158   0   0
156   0   0
150   0   0
139   0   0
119   0   0
255 255 255
  0   0 119
  0   0 154
  0   0 179
  0   0 200
  0   0 217
  0   0 231
  0   0 242
  0   0 250
  0   0 254
  0   0 255
  0   0 251
  0   0 243
  0   0 230
  0   0 210
  0   0 180
  0   0 126
133   0   0
177   0   0
200   0   0
212   0   0
218   0   0
219   0   0
215   0   0
208   0   0
199   0   0
187   0   0
173   0   0
159   0   0
144   0   0
128   0   0
113   0   0
 99   0   0
 85   0   0
 72   0   0
255 255 255
255 255 255
255 255 255
255 255 255
255 255 255
255 255 255
255 255 255
255 255 255
255 255 255
255 255 255
255 255 255
255 255 255
255 255 255
255 255 255
255 255 255
255 255 255
255 255 255
255 255 255
255 255 255
255 255 255
255 255 255
255 255 255
255 255 255
255 255 255
255 255 255
255 255 255
255 255 255
255 255 255
255 255 255
255 255 255
255 255 255
255 255 255
255 255 255
255 255 255
255 255 255
255 255 255
255 255 255
255 255 255
255 255 255
255 255 255
255 255 255
255 255 255
255 255 255
255 255 255
255 255 255
255 255 255
255 255 255
255 255 255
255 255 255
255 255 255
255 255 255
255 255 255
255 255 255
255 255 255
255 255 255
255 255 255
255 255 255
255 255 255
255 255 255
255 255 255
255 255 255
255 150   0
255 255 255
255 255 255
255 255 255
255 255 255
255 255 255
255 255 255
255 255 255
255 255 255
255 255 255
255 255 255
255 255 255
255 255 255
255 255 255
255 255 255
255 255 255
255 255 255
255 255 255
255 255 255
  0   0   0
  0   0   0
  0   0   0
  0   0   0
 91   0   0
101   0   0
109   0   0
115   0   0
119   0   0
122   0   0
125   0   0
126   0   0
128   0   0
128   0   0
128   0   0
127   0   0
126   0   0
125   0   0
122   0   0
120   0   0
117   0   0
255 150   0
110   0   0
106   0   0
102   0   0
 99   0   0
 96   0   0
 94   0   0
 92   0   0
 91   0   0
 91   0   0
 91   0   0
 91   0   0
 92   0   0
 92   0   0
 92   0   0
 92   0   0
 93   0   0
 93   0   0
 93   0   0
 93   0   0
 93   0   0
 93   0   0
 93   0   0
 93   0   0
 93   0   0
 93   0   0
 93   0   0
 94   0   0
 94   0   0
 94   0   0
 95   0   0
 96   0   0
 96   0   0
 97   0   0
 98   0   0
 98   0   0
 99   0   0
100   0   0
102   0   0
103   0   0
104   0   0
106   0   0
107   0   0
109   0   0
111   0   0
113   0   0
115   0   0
118   0   0
121   0   0
123   0   0
126   0   0
130   0   0
133   0   0
137   0   0
140   0   0
144   0   0
148   0   0
151   0   0
154   0   0
157   0   0
159   0   0
159   0   0
158   0   0
155   0   0
149   0   0
136   0   0
113   0   0
  0   0  68
  0   0 131
  0   0 163
  0   0 187
  0   0 207
  0   0 223
  0   0 236
  0   0 246
  0   0 252
  0   0 255
  0   0 253
  0   0 247
  0   0 236
  0   0 218
  0   0 191
  0   0 147
108   0   0
169   0   0
195   0   0
210   0   0
217   0   0
219   0   0
216   0   0
210   0   0
200   0   0
188   0   0
175   0   0
160   0   0
145   0   0
129   0   0
114   0   0
 99   0   0
 85   0   0
 72   0   0
255 255 255
255 255 255
255 255 255
255 255 255
255 255 255
255 255 255
255 255 255
255 255 255
255 255 255
255 255 255
255 255 255
255 255 255
255 255 255
255 255 255
255 255 255
255 255 255
255 255 255
255 255 255
255 255 255
255 255 255
255 255 255
255 255 255
255 255 255
255 255 255
255 255 255
255 255 255
255 255 255
255 255 255
255 255 255
255 255 255
255 255 255
255 255 255
255 255 255
255 255 255
255 255 255
255 255 255
255 255 255
255 255 255
255 255 255
255 255 255
255 255 255
255 255 255
255 255 255
255 255 255
255 255 255
255 255 255
255 255 255
255 255 255
255 255 255
255 255 255
255 255 255
255 255 255
255 255 255
255 255 255
255 255 255
255 255 255
255 255 255
255 255 255
255 255 255
255 255 255
255 150   0
255 255 255
255 255 255
255 255 255
255 255 255
255 255 255
255 255 255
255 255 255
255 255 255
255 255 255
255 255 255
255 255 255
255 255 255
255 255 255
255 255 255
255 255 255
255 255 255
255 255 255
255 255 255
  0   0   0
  0   0   0
  0   0   0
  0   0   0
 82   0   0
 91   0   0
 98   0   0
103   0   0
107   0   0
110   0   0
113   0   0
115   0   0
116   0   0
118   0   0
118   0   0
119   0   0
118   0   0
118   0   0
117   0   0
115   0   0
113   0   0
255 150   0
107   0   0
103   0   0
100   0   0
 96   0   0
 93   0   0
 90   0   0
 88   0   0
 86   0   0
 85   0   0
 85   0   0
 86   0   0
 86   0   0
 87   0   0
 87   0   0
 88   0   0
 88   0   0
 88   0   0
 88   0   0
 88   0   0
 88   0   0
 89   0   0
 89   0   0
 89   0   0
 89   0   0
 89   0   0
 89   0   0
 90   0   0
 90   0   0
 90   0   0
 91   0   0
 91   0   0
 92   0   0
 92   0   0
 93   0   0
 94   0   0
 95   0   0
 96   0   0
 97   0   0
 98   0   0
 99   0   0
100   0   0
102   0   0
103   0   0
105   0   0
107   0   0
109   0   0
111   0   0
113   0   0
116   0   0
118   0   0
121   0   0
125   0   0
128   0   0
132   0   0
135   0   0
139   0   0
143   0   0
147   0   0
151   0   0
154   0   0
157   0   0
159   0   0
159   0   0
158   0   0
154   0   0
146   0   0
131   0   0
 99   0   0
  0   0 100
  0   0 145
  0   0 174
  0   0 197
  0   0 215
  0   0 230
  0   0 242
  0   0 250
  0   0 254
  0   0 254
  0   0 250
  0   0 240
  0   0 224
  0   0 200
  0   0 162
255 255 255
160   0   0
191   0   0
208   0   0
217   0   0
219   0   0
217   0   0
210   0   0
201   0   0
189   0   0
176   0   0
161   0   0
145   0   0
130   0   0
114   0   0
 99   0   0
 85   0   0
 72   0   0
255 255 255
255 255 255
255 255 255
255 255 255
255 255 255
255 255 255
255 255 255
255 255 255
255 255 255
255 255 255
255 255 255
255 255 255
255 255 255
255 255 255
255 255 255
255 255 255
255 255 255
255 255 255
255 255 255
255 255 255
255 255 255
255 255 255
255 255 255
255 255 255
255 255 255
255 255 255
255 255 255
255 255 255
255 255 255
255 255 255
255 255 255
255 255 255
255 255 255
255 255 255
255 255 255
255 255 255
255 255 255
255 255 255
255 255 255
255 255 255
255 255 255
255 255 255
255 255 255
255 255 255
255 255 255
255 255 255
255 255 255
255 255 255
255 255 255
255 255 255
255 255 255
255 255 255
255 255 255
255 255 255
255 255 255
255 255 255
255 255 255
255 255 255
255 255 255
255 150   0
255 255 255
255 255 255
255 255 255
255 255 255
255 255 255
255 255 255
255 255 255
255 255 255
255 255 255
255 255 255
255 255 255
255 255 255
255 255 255
255 255 255
255 255 255
255 255 255
255 255 255
255 255 255
  0   0   0
  0   0   0
  0   0   0
  0   0   0
 73   0   0
 81   0   0
 87   0   0
 91   0   0
 95   0   0
 98   0   0
101   0   0
104   0   0
106   0   0
107   0   0
109   0   0
110   0   0
111   0   0
111   0   0
111   0   0
110   0   0
109   0   0
255 150   0
105   0   0
102   0   0
 98   0   0
 95   0   0
 91   0   0
 88   0   0
 85   0   0
 82   0   0
 81   0   0
 80   0   0
 80   0   0
 81   0   0
 82   0   0
 82   0   0
 83   0   0
 84   0   0
 84   0   0
 84   0   0
 85   0   0
 85   0   0
 85   0   0
 85   0   0
 85   0   0
 85   0   0
 85   0   0
 86   0   0
 86   0   0
 86   0   0
 87   0   0
 87   0   0
 87   0   0
 88   0   0
 88   0   0
 89   0   0
 90   0   0
 90   0   0
 91   0   0
 92   0   0
 93   0   0
 94   0   0
 95   0   0
 97   0   0
 98   0   0
 99   0   0
101   0   0
103   0   0
105   0   0
107   0   0
109   0   0
111   0   0
114   0   0
117   0   0
120   0   0
123   0   0
127   0   0
131   0   0
135   0   0
139   0   0
143   0   0
147   0   0
151   0   0
154   0   0
157   0   0
159   0   0
159   0   0
157   0   0
152   0   0
142   0   0
122   0   0
255 255 255
  0   0 124
  0   0 160
  0   0 186
  0   0 207
  0   0 224
  0   0 238
  0   0 247
  0   0 253
  0   0 255
  0   0 252
  0   0 243
  0   0 229
  0   0 207
  0   0 173
  0   0  97
151   0   0
187   0   0
206   0   0
216   0   0
219   0   0
217   0   0
211   0   0
202   0   0
190   0   0
176   0   0
161   0   0
146   0   0
130   0   0
114   0   0
 99   0   0
 84   0   0
 71   0   0
255 255 255
255 255 255
255 255 255
255 255 255
255 255 255
255 255 255
255 255 255
255 255 255
255 255 255
255 255 255
255 255 255
255 255 255
255 255 255
255 255 255
255 255 255
255 255 255
255 255 255
255 255 255
255 255 255
255 255 255
255 255 255
255 255 255
255 255 255
255 255 255
255 255 255
255 255 255
255 255 255
255 255 255
255 255 255
255 255 255
255 255 255
255 255 255
255 255 255
255 255 255
255 255 255
255 255 255
255 255 255
255 255 255
255 255 255
255 255 255
255 255 255
255 255 255
255 255 255
255 255 255
255 255 255
255 255 255
255 255 255
255 255 255
255 255 255
255 255 255
255 255 255
255 255 255
255 255 255
255 255 255
255 255 255
255 255 255
255 255 255
255 255 255
255 150   0
255 255 255
255 255 255
255 255 255
255 255 255
255 255 255
255 255 255
255 255 255
255 255 255
255 255 255
255 255 255
255 255 255
255 255 255
255 255 255
255 255 255
255 255 255
255 255 255
255 255 255
255 255 255
  0   0   0
  0   0   0
  0   0   0
  0   0   0
 65   0   0
 72   0   0
 77   0   0
 82   0   0
 85   0   0
 88   0   0
 91   0   0
 94   0   0
 96   0   0
 98   0   0
100   0   0
101   0   0
103   0   0
104   0   0
104   0   0
105   0   0
104   0   0
255 150   0
102   0   0
100   0   0
 98   0   0
 94   0   0
 91   0   0
 87   0   0
 83   0   0
 80   0   0
 78   0   0
 77   0   0
 76   0   0
 76   0   0
 77   0   0
 78   0   0
 79   0   0
 79   0   0
 80   0   0
 81   0   0
 81   0   0
 81   0   0
 82   0   0
 82   0   0
 82   0   0
 82   0   0
 82   0   0
 82   0   0
 83   0   0
 83   0   0
 83   0   0
 84   0   0
 84   0   0
 84   0   0
 85   0   0
 86   0   0
 86   0   0
 87   0   0
 87   0   0
 88   0   0
 89   0   0
 90   0   0
 91   0   0
 92   0   0
 93   0   0
 95   0   0
 96   0   0
 98   0   0
 99   0   0
101   0   0
103   0   0
105   0   0
107   0   0
110   0   0
113   0   0
116   0   0
119   0   0
122   0   0
126   0   0
130   0   0
134   0   0
139   0   0
143   0   0
147   0   0
151   0   0
155   0   0
158   0   0
159   0   0
159   0   0
156   0   0
149   0   0
135   0   0
106   0   0
  0   0  95
  0   0 145
  0   0 175
  0   0 199
  0   0 218
  0   0 233
  0   0 244
  0   0 252
  0   0 255
  0   0 253
  0   0 246
  0   0 233
  0   0 212
  0   0 181
  0   0 119
143   0   0
184   0   0
204   0   0
215   0   0
219   0   0
217   0   0
212   0   0
202   0   0
190   0   0
177   0   0
161   0   0
145   0   0
129   0   0
113   0   0
 98   0   0
 83   0   0
 70   0   0
255 255 255
255 255 255
255 255 255
255 255 255
255 255 255
255 255 255
255 255 255
255 255 255
255 255 255
255 255 255
255 255 255
255 255 255
255 255 255
255 255 255
255 255 255
255 255 255
255 255 255
255 255 255
255 255 255
255 255 255
255 255 255
255 255 255
255 255 255
255 255 255
255 255 255
255 255 255
255 255 255
255 255 255
255 255 255
255 255 255
255 255 255
255 255 255
255 255 255
255 255 255
255 255 255
255 255 255
255 255 255
255 255 255
255 255 255
255 255 255
255 255 255
255 255 255
255 255 255
255 255 255
255 255 255
255 255 255
255 255 255
255 255 255
255 255 255
255 255 255
255 255 255
255 255 255
255 255 255
255 255 255
255 255 255
255 255 255
255 255 255
255 150   0
255 255 255
255 255 255
255 255 255
255 255 255
255 255 255
255 255 255
255 255 255
255 255 255
255 255 255
255 255 255
255 255 255
255 255 255
255 255 255
255 255 255
255 255 255
255 255 255
255 255 255
255 255 255
  0   0   0
  0   0   0
  0   0   0
  0   0   0
255 255 255
 65   0   0
 70   0   0
 74   0   0
 77   0   0
 80   0   0
 83   0   0
 85   0   0
 88   0   0
 90   0   0
 91   0   0
 93   0   0
 95   0   0
 96   0   0
 98   0   0
 99   0   0
100   0   0
255 150   0
 99   0   0
 98   0   0
 96   0   0
 94   0   0
 91   0   0
 87   0   0
 83   0   0
 80   0   0
 77   0   0
 74   0   0
 73   0   0
 72   0   0
 72   0   0
 73   0   0
 74   0   0
 75   0   0
 76   0   0
 77   0   0
 78   0   0
 78   0   0
 79   0   0
 79   0   0
 79   0   0
 79   0   0
 79   0   0
 80   0   0
 80   0   0
 80   0   0
 80   0   0
 81   0   0
 81   0   0
 81   0   0
 82   0   0
 82   0   0
 83   0   0
 84   0   0
 84   0   0
 85   0   0
 86   0   0
 86   0   0
 87   0   0
 88   0   0
 89   0   0
 91   0   0
 92   0   0
 93   0   0
 95   0   0
 96   0   0
 98   0   0
100   0   0
102   0   0
104   0   0
106   0   0
109   0   0
112   0   0
115   0   0
119   0   0
122   0   0
126   0   0
130   0   0
135   0   0
139   0   0
144   0   0
148   0   0
152   0   0
156   0   0
158   0   0
159   0   0
158   0   0
153   0   0
143   0   0
123   0   0
255 255 255
  0   0 128
  0   0 164
  0   0 191
  0   0 212
  0   0 229
  0   0 242
  0   0 250
  0   0 254
  0   0 254
  0   0 248
  0   0 236
  0   0 217
  0   0 187
  0   0 132
135   0   0
181   0   0
203   0   0
215   0   0
219   0   0
218   0   0
212   0   0
202   0   0
190   0   0
176   0   0
161   0   0
145   0   0
128   0   0
112   0   0
 97   0   0
 82   0   0
 69   0   0
255 255 255
255 255 255
255 255 255
255 255 255
255 255 255
255 255 255
255 255 255
255 255 255
255 255 255
255 255 255
255 255 255
255 255 255
255 255 255
255 255 255
255 255 255
255 255 255
255 255 255
255 255 255
255 255 255
255 255 255
255 255 255
255 255 255
255 255 255
255 255 255
255 255 255
255 255 255
255 255 255
255 255 255
255 255 255
255 255 255
255 255 255
255 255 255
255 255 255
255 255 255
255 255 255
255 255 255
255 255 255
255 255 255
255 255 255
255 255 255
255 255 255
255 255 255
255 255 255
255 255 255
255 255 255
255 255 255
255 255 255
255 255 255
255 255 255
255 255 255
255 255 255
255 255 255
255 255 255
255 255 255
255 255 255
255 255 255
255 150   0
255 255 255
255 255 255
255 255 255
255 255 255
255 255 255
255 255 255
255 255 255
255 255 255
255 255 255
255 255 255
255 255 255
255 255 255
255 255 255
255 255 255
255 255 255
255 255 255
255 255 255
255 255 255
  0   0   0
  0   0   0
  0   0   0
  0   0   0
255 255 255
255 255 255
 65   0   0
 68   0   0
 72   0   0
 74   0   0
 77   0   0
 79   0   0
 81   0   0
 83   0   0
 84   0   0
 86   0   0
 88   0   0
 89   0   0
 91   0   0
 93   0   0
 94   0   0
255 150   0
 96   0   0
 95   0   0
 95   0   0
 93   0   0
 91   0   0
 88   0   0
 84   0   0
 80   0   0
 77   0   0
 73   0   0
 71   0   0
 69   0   0
 69   0   0
 69   0   0
 70   0   0
 71   0   0
 73   0   0
 74   0   0
 74   0   0
 75   0   0
 76   0   0
 76   0   0
 76   0   0
 77   0   0
 77   0   0
 77   0   0
 77   0   0
 77   0   0
 78   0   0
 78   0   0
 78   0   0
 79   0   0
 79   0   0
 80   0   0
 80   0   0
 81   0   0
 81   0   0
 82   0   0
 83   0   0
 83   0   0
 84   0   0
 85   0   0
 86   0   0
 87   0   0
 88   0   0
 89   0   0
 91   0   0
 92   0   0
 93   0   0
 95   0   0
 97   0   0
 99   0   0
101   0   0
103   0   0
106   0   0
109   0   0
112   0   0
115   0   0
119   0   0
122   0   0
127   0   0
131   0   0
136   0   0
141   0   0
145   0   0
150   0   0
154   0   0
157   0   0
159   0   0
159   0   0
156   0   0
149   0   0
134   0   0
 99   0   0
  0   0 108
  0   0 153
  0   0 183
  0   0 206
  0   0 224
  0   0 239
  0   0 248
  0   0 254
  0   0 254
  0   0 249
  0   0 238
  0   0 220
  0   0 191
  0   0 141
127   0   0
178   0   0
202   0   0
214   0   0
219   0   0
218   0   0
212   0   0
202   0   0
190   0   0
176   0   0
160   0   0
144   0   0
127   0   0
111   0   0
 95   0   0
 81   0   0
 67   0   0
255 255 255
255 255 255
255 255 255
255 255 255
255 255 255
255 255 255
255 255 255
255 255 255
255 255 255
255 255 255
255 255 255
255 255 255
255 255 255
255 255 255
255 255 255
255 255 255
255 255 255
255 255 255
255 255 255
255 255 255
255 255 255
255 255 255
255 255 255
255 255 255
255 255 255
255 255 255
255 255 255
255 255 255
255 255 255
255 255 255
255 255 255
255 255 255
255 255 255
255 255 255
255 255 255
255 255 255
255 255 255
255 255 255
255 255 255
255 255 255
255 255 255
255 255 255
255 255 255
255 255 255
255 255 255
255 255 255
255 255 255
255 255 255
255 255 255
255 255 255
255 255 255
255 255 255
255 255 255
255 255 255
255 255 255
255 150   0
255 255 255
255 255 255
255 255 255
255 255 255
255 255 255
255 255 255
255 255 255
255 255 255
255 255 255
255 255 255
255 255 255
255 255 255
255 255 255
255 255 255
255 255 255
255 255 255
255 255 255
255 255 255
  0   0   0
  0   0   0
  0   0   0
  0   0   0
255 255 255
255 255 255
255 255 255
 65   0   0
 68   0   0
 71   0   0
 73   0   0
 75   0   0
 76   0   0
 78   0   0
 79   0   0
 80   0   0
 81   0   0
 83   0   0
 85   0   0
 86   0   0
 88   0   0
255 150   0
 91   0   0
 92   0   0
 92   0   0
 91   0   0
 90   0   0
 88   0   0
 85   0   0
 81   0   0
 77   0   0
 74   0   0
 70   0   0
 68   0   0
 66   0   0
 66   0   0
 66   0   0
 67   0   0
 69   0   0
 70   0   0
 71   0   0
 72   0   0
 73   0   0
 73   0   0
 74   0   0
 74   0   0
 74   0   0
 75   0   0
 75   0   0
 75   0   0
 75   0   0
 76   0   0
 76   0   0
 76   0   0
 77   0   0
 77   0   0
 77   0   0
 78   0   0
 78   0   0
 79   0   0
 80   0   0
 80   0   0
 81   0   0
 82   0   0
 83   0   0
 84   0   0
 85   0   0
 86   0   0
 87   0   0
 88   0   0
 90   0   0
 91   0   0
 93   0   0
 94   0   0
 96   0   0
 98   0   0
100   0   0
103   0   0
106   0   0
109   0   0
112   0   0
115   0   0
119   0   0
123   0   0
128   0   0
132   0   0
137   0   0
142   0   0
147   0   0
152   0   0
155   0   0
158   0   0
159   0   0
158   0   0
152   0   0
141   0   0
116   0   0
  0   0  80
  0   0 142
  0   0 175
  0   0 200
  0   0 220
  0   0 236
  0   0 247
  0   0 253
  0   0 255
  0   0 250
  0   0 240
  0   0 222
  0   0 194
  0   0 146
122   0   0
177   0   0
202   0   0
214   0   0
219   0   0
218   0   0
212   0   0
202   0   0
189   0   0
175   0   0
159   0   0
142   0   0
126   0   0
109   0   0
 93   0   0
 79   0   0
 66   0   0
255 255 255
255 255 255
255 255 255
255 255 255
255 255 255
255 255 255
255 255 255
255 255 255
255 255 255
255 255 255
255 255 255
255 255 255
255 255 255
255 255 255
255 255 255
255 255 255
255 255 255
255 255 255
255 255 255
255 255 255
255 255 255
255 255 255
255 255 255
255 255 255
255 255 255
255 255 255
255 255 255
255 255 255
255 255 255
255 255 255
255 255 255
255 255 255
255 255 255
255 255 255
255 255 255
255 255 255
255 255 255
255 255 255
255 255 255
255 255 255
255 255 255
255 255 255
255 255 255
255 255 255
255 255 255
255 255 255
255 255 255
255 255 255
255 255 255
255 255 255
255 255 255
255 255 255
255 255 255
255 255 255
255 150   0
255 255 255
255 255 255
255 255 255
255 255 255
255 255 255
255 255 255
255 255 255
255 255 255
255 255 255
255 255 255
255 255 255
255 255 255
255 255 255
255 255 255
255 255 255
255 255 255
255 255 255
255 255 255
  0   0   0
  0   0   0
  0   0   0
  0   0   0
255 255 255
255 255 255
255 255 255
255 255 255
 66   0   0
 68   0   0
 70   0   0
 72   0   0
 73   0   0
 74   0   0
 75   0   0
 76   0   0
 76   0   0
 77   0   0
 79   0   0
 80   0   0
 82   0   0
255 150   0
 86   0   0
 88   0   0
 89   0   0
 89   0   0
 89   0   0
 87   0   0
 85   0   0
 82   0   0
 78   0   0
 75   0   0
 71   0   0
 67   0   0
 65   0   0
255 255 255
255 255 255
255 255 255
 65   0   0
 66   0   0
 68   0   0
 69   0   0
 70   0   0
 71   0   0
 71   0   0
 72   0   0
 72   0   0
 72   0   0
 73   0   0
 73   0   0
 73   0   0
 73   0   0
 74   0   0
 74   0   0
 74   0   0
 75   0   0
 75   0   0
 76   0   0
 76   0   0
 77   0   0
 77   0   0
 78   0   0
 79   0   0
 79   0   0
 80   0   0
 81   0   0
 82   0   0
 83   0   0
 84   0   0
 85   0   0
 86   0   0
 88   0   0
 89   0   0
 90   0   0
 92   0   0
 94   0   0
 96   0   0
 98   0   0
100   0   0
103   0   0
106   0   0
109   0   0
112   0   0
116   0   0
120   0   0
125   0   0
129   0   0
134   0   0
139   0   0
145   0   0
149   0   0
154   0   0
157   0   0
159   0   0
159   0   0
155   0   0
146   0   0
126   0   0
255 255 255
  0   0 130
  0   0 168
  0   0 195
  0   0 217
  0   0 233
  0   0 245
  0   0 253
  0   0 255
  0   0 251
  0   0 241
  0   0 224
  0   0 196
  0   0 149
119   0   0
177   0   0
202   0   0
214   0   0
219   0   0
217   0   0
211   0   0
201   0   0
188   0   0
173   0   0
157   0   0
140   0   0
123   0   0
107   0   0
 91   0   0
 77   0   0
255 255 255
255 255 255
255 255 255
255 255 255
255 255 255
255 255 255
255 255 255
255 255 255
255 255 255
255 255 255
255 255 255
255 255 255
255 255 255
255 255 255
255 255 255
255 255 255
255 255 255
255 255 255
255 255 255
255 255 255
255 255 255
255 255 255
255 255 255
255 255 255
255 255 255
255 255 255
255 255 255
255 255 255
255 255 255
255 255 255
255 255 255
255 255 255
255 255 255
255 255 255
255 255 255
255 255 255
255 255 255
255 255 255
255 255 255
255 255 255
255 255 255
255 255 255
255 255 255
255 255 255
255 255 255
255 255 255
255 255 255
255 255 255
255 255 255
255 255 255
255 255 255
255 255 255
255 255 255
255 255 255
255 150   0
255 255 255
255 255 255
255 255 255
255 255 255
255 255 255
255 255 255
255 255 255
255 255 255
255 255 255
255 255 255
255 255 255
255 255 255
255 255 255
255 255 255
255 255 255
255 255 255
255 255 255
255 255 255
  0   0   0
  0   0   0
  0   0   0
  0   0   0
255 255 255
255 255 255
255 255 255
255 255 255
255 255 255
 66   0   0
 69   0   0
 70   0   0
 71   0   0
 72   0   0
 72   0   0
 72   0   0
 73   0   0
 73   0   0
 74   0   0
 75   0   0
 77   0   0
255 150   0
 81   0   0
 83   0   0
 85   0   0
 86   0   0
 86   0   0
 86   0   0
 85   0   0
 82   0   0
 80   0   0
 76   0   0
 72   0   0
 68   0   0
 65   0   0
255 255 255
255 255 255
255 255 255
255 255 255
255 255 255
 64   0   0
 66   0   0
 67   0   0
 68   0   0
 69   0   0
 69   0   0
 70   0   0
 70   0   0
 70   0   0
 71   0   0
 71   0   0
 71   0   0
 71   0   0
 72   0   0
 72   0   0
 73   0   0
 73   0   0
 73   0   0
 74   0   0
 74   0   0
 75   0   0
 75   0   0
 76   0   0
 77   0   0
 78   0   0
 78   0   0
 79   0   0
 80   0   0
 81   0   0
 82   0   0
 83   0   0
 84   0   0
 86   0   0
 87   0   0
 89   0   0
 90   0   0
 92   0   0
 94   0   0
 96   0   0
 98   0   0
101   0   0
103   0   0
106   0   0
110   0   0
113   0   0
117   0   0
122   0   0
127   0   0
132   0   0
137   0   0
142   0   0
147   0   0
152   0   0
156   0   0
159   0   0
159   0   0
157   0   0
149   0   0
133   0   0
 92   0   0
  0   0 119
  0   0 161
  0   0 191
  0   0 213
  0   0 231
  0   0 244
  0   0 252
  0   0 255
  0   0 252
  0   0 242
  0   0 225
  0   0 197
  0   0 150
119   0   0
177   0   0
202   0   0
215   0   0
219   0   0
217   0   0
210   0   0
200   0   0
187   0   0
172   0   0
155   0   0
138   0   0
121   0   0
104   0   0
 89   0   0
 74   0   0
255 255 255
255 255 255
255 255 255
255 255 255
255 255 255
255 255 255
255 255 255
255 255 255
255 255 255
255 255 255
255 255 255
255 255 255
255 255 255
255 255 255
255 255 255
255 255 255
255 255 255
255 255 255
255 255 255
255 255 255
255 255 255
255 255 255
255 255 255
255 255 255
255 255 255
255 255 255
255 255 255
255 255 255
255 255 255
255 255 255
255 255 255
255 255 255
255 255 255
255 255 255
255 255 255
255 255 255
255 255 255
255 255 255
255 255 255
255 255 255
255 255 255
255 255 255
255 255 255
255 255 255
255 255 255
255 255 255
255 255 255
255 255 255
255 255 255
255 255 255
255 255 255
255 255 255
255 255 255
255 150   0
255 255 255
255 255 255
255 255 255
255 255 255
255 255 255
255 255 255
255 255 255
255 255 255
255 255 255
255 255 255
255 255 255
255 255 255
255 255 255
255 255 255
255 255 255
255 255 255
255 255 255
255 255 255
  0   0   0
  0   0   0
  0   0   0
  0   0   0
255 255 255
255 255 255
255 255 255
255 255 255
255 255 255
 65   0   0
 67   0   0
 69   0   0
 70   0   0
 70   0   0
 70   0   0
 70   0   0
 70   0   0
 70   0   0
 70   0   0
 71   0   0
 72   0   0
255 150   0
 76   0   0
 78   0   0
 80   0   0
 82   0   0
 83   0   0
 84   0   0
 83   0   0
 82   0   0
 80   0   0
 77   0   0
 74   0   0
 70   0   0
 66   0   0
255 255 255
255 255 255
255 255 255
255 255 255
255 255 255
255 255 255
255 255 255
255 255 255
 65   0   0
 66   0   0
 67   0   0
 68   0   0
 68   0   0
 69   0   0
 69   0   0
 69   0   0
 69   0   0
 70   0   0
 70   0   0
 70   0   0
 71   0   0
 71   0   0
 71   0   0
 72   0   0
 72   0   0
 73   0   0
 73   0   0
 74   0   0
 75   0   0
 75   0   0
 76   0   0
 77   0   0
 78   0   0
 78   0   0
 79   0   0
 80   0   0
 82   0   0
 83   0   0
 84   0   0
 85   0   0
 87   0   0
 88   0   0
 90   0   0
 92   0   0
 94   0   0
 96   0   0
 99   0   0
101   0   0
104   0   0
107   0   0
111   0   0
115   0   0
119   0   0
124   0   0
129   0   0
134   0   0
140   0   0
145   0   0
150   0   0
155   0   0
158   0   0
159   0   0
158   0   0
152   0   0
138   0   0
105   0   0
  0   0 106
  0   0 155
  0   0 187
  0   0 211
  0   0 229
  0   0 243
  0   0 252
  0   0 255
  0   0 252
  0   0 243
  0   0 225
  0   0 197
  0   0 149
122   0   0
178   0   0
203   0   0
215   0   0
219   0   0
217   0   0
210   0   0
199   0   0
185   0   0
169   0   0
153   0   0
135   0   0
118   0   0
102   0   0
 86   0   0
 72   0   0
255 255 255
255 255 255
255 255 255
255 255 255
255 255 255
255 255 255
255 255 255
255 255 255
255 255 255
255 255 255
255 255 255
255 255 255
255 255 255
255 255 255
255 255 255
255 255 255
255 255 255
255 255 255
255 255 255
255 255 255
255 255 255
255 255 255
255 255 255
255 255 255
255 255 255
255 255 255
255 255 255
255 255 255
255 255 255
255 255 255
255 255 255
255 255 255
255 255 255
255 255 255
255 255 255
255 255 255
255 255 255
255 255 255
255 255 255
255 255 255
255 255 255
255 255 255
255 255 255
255 255 255
255 255 255
255 255 255
255 255 255
255 255 255
255 255 255
255 255 255
255 255 255
255 255 255
255 150   0
255 255 255
255 255 255
255 255 255
255 255 255
255 255 255
255 255 255
255 255 255
255 255 255
255 255 255
255 255 255
255 255 255
255 255 255
255 255 255
255 255 255
255 255 255
255 255 255
255 255 255
255 255 255
  0   0   0
  0   0   0
  0   0   0
  0   0   0
255 255 255
255 255 255
255 255 255
255 255 255
255 255 255
255 255 255
 66   0   0
 68   0   0
 69   0   0
 69   0   0
 69   0   0
 69   0   0
 68   0   0
 67   0   0
 67   0   0
 67   0   0
 68   0   0
255 150   0
 71   0   0
 73   0   0
 75   0   0
 78   0   0
 80   0   0
 81   0   0
 81   0   0
 81   0   0
 80   0   0
 78   0   0
 75   0   0
 71   0   0
 67   0   0
255 255 255
255 255 255
255 255 255
255 255 255
255 255 255
255 255 255
255 255 255
255 255 255
255 255 255
255 255 255
 65   0   0
 66   0   0
 66   0   0
 67   0   0
 67   0   0
 67   0   0
 68   0   0
 68   0   0
 68   0   0
 68   0   0
 69   0   0
 69   0   0
 69   0   0
 70   0   0
 70   0   0
 71   0   0
 71   0   0
 72   0   0
 72   0   0
 73   0   0
 74   0   0
 74   0   0
 75   0   0
 76   0   0
 77   0   0
 78   0   0
 79   0   0
 80   0   0
 81   0   0
 82   0   0
 84   0   0
 85   0   0
 87   0   0
 88   0   0
 90   0   0
 92   0   0
 94   0   0
 97   0   0
 99   0   0
102   0   0
105   0   0
109   0   0
113   0   0
117   0   0
122   0   0
127   0   0
132   0   0
138   0   0
143   0   0
149   0   0
153   0   0
157   0   0
159   0   0
158   0   0
153   0   0
141   0   0
114   0   0
  0   0  94
  0   0 150
  0   0 184
  0   0 209
  0   0 228
  0   0 242
  0   0 251
  0   0 255
  0   0 252
  0   0 243
  0   0 225
  0   0 196
  0   0 146
127   0   0
181   0   0
204   0   0
216   0   0
219   0   0
216   0   0
208   0   0
197   0   0
183   0   0
167   0   0
150   0   0
132   0   0
115   0   0
 98   0   0
 83   0   0
 69   0   0
255 255 255
255 255 255
255 255 255
255 255 255
255 255 255
255 255 255
255 255 255
255 255 255
255 255 255
255 255 255
255 255 255
255 255 255
255 255 255
255 255 255
255 255 255
255 255 255
255 255 255
255 255 255
255 255 255
255 255 255
255 255 255
255 255 255
255 255 255
255 255 255
255 255 255
255 255 255
255 255 255
255 255 255
255 255 255
255 255 255
255 255 255
255 255 255
255 255 255
255 255 255
255 255 255
255 255 255
255 255 255
255 255 255
255 255 255
255 255 255
255 255 255
255 255 255
255 255 255
255 255 255
255 255 255
255 255 255
255 255 255
255 255 255
255 255 255
255 255 255
255 255 255
255 150   0
255 255 255
255 255 255
255 255 255
255 255 255
255 255 255
255 255 255
255 255 255
255 255 255
255 255 255
255 255 255
255 255 255
255 255 255
255 255 255
255 255 255
255 255 255
255 255 255
255 255 255
255 255 255
  0   0   0
  0   0   0
  0   0   0
  0   0   0
255 255 255
255 255 255
255 255 255
255 255 255
255 255 255
255 255 255
 65   0   0
 67   0   0
 68   0   0
 68   0   0
 68   0   0
 68   0   0
 67   0   0
 66   0   0
 65   0   0
 65   0   0
 64   0   0
255 150   0
 66   0   0
 68   0   0
 71   0   0
 73   0   0
 75   0   0
 77   0   0
 79   0   0
 79   0   0
 79   0   0
 78   0   0
 76   0   0
 73   0   0
 69   0   0
 65   0   0
255 255 255
255 255 255
255 255 255
255 255 255
255 255 255
255 255 255
255 255 255
255 255 255
255 255 255
255 255 255
255 255 255
 64   0   0
 65   0   0
 65   0   0
 66   0   0
 66   0   0
 66   0   0
 66   0   0
 67   0   0
 67   0   0
 67   0   0
 68   0   0
 68   0   0
 68   0   0
 69   0   0
 69   0   0
 70   0   0
 71   0   0
 71   0   0
 72   0   0
 72   0   0
 73   0   0
 74   0   0
 75   0   0
 76   0   0
 77   0   0
 78   0   0
 79   0   0
 80   0   0
 81   0   0
 82   0   0
 84   0   0
 85   0   0
 87   0   0
 89   0   0
 91   0   0
 93   0   0
 95   0   0
 98   0   0
100   0   0
104   0   0
107   0   0
111   0   0
115   0   0
120   0   0
125   0   0
130   0   0
136   0   0
141   0   0
147   0   0
152   0   0
156   0   0
159   0   0
159   0   0
155   0   0
144   0   0
119   0   0
  0   0  81
  0   0 146
  0   0 181
  0   0 207
  0   0 227
  0   0 242
  0   0 251
  0   0 255
  0   0 252
  0   0 242
  0   0 224
  0   0 194
  0   0 141
135   0   0
184   0   0
206   0   0
217   0   0
219   0   0
215   0   0
207   0   0
195   0   0
180   0   0
164   0   0
146   0   0
129   0   0
111   0   0
 95   0   0
 79   0   0
 65   0   0
255 255 255
255 255 255
255 255 255
255 255 255
255 255 255
255 255 255
255 255 255
255 255 255
255 255 255
255 255 255
255 255 255
255 255 255
255 255 255
255 255 255
255 255 255
255 255 255
255 255 255
255 255 255
255 255 255
255 255 255
255 255 255
255 255 255
255 255 255
255 255 255
255 255 255
255 255 255
255 255 255
255 255 255
255 255 255
255 255 255
255 255 255
255 255 255
255 255 255
255 255 255
255 255 255
255 255 255
255 255 255
255 255 255
255 255 255
255 255 255
255 255 255
255 255 255
255 255 255
255 255 255
255 255 255
255 255 255
255 255 255
255 255 255
255 255 255
255 255 255
255 150   0
255 255 255
255 255 255
255 255 255
255 255 255
255 255 255
255 255 255
255 255 255
255 255 255
255 255 255
255 255 255
255 255 255
255 255 255
255 255 255
255 255 255
255 255 255
255 255 255
255 255 255
255 255 255
  0   0   0
  0   0   0
  0   0   0
  0   0   0
255 255 255
255 255 255
255 255 255
255 255 255
255 255 255
255 255 255
255 255 255
 66   0   0
 67   0   0
 67   0   0
 67   0   0
 67   0   0
 66   0   0
 65   0   0
255 255 255
255 255 255
255 255 255
255 150   0
255 255 255
 64   0   0
 66   0   0
 68   0   0
 71   0   0
 73   0   0
 75   0   0
 77   0   0
 77   0   0
 77   0   0
 76   0   0
 74   0   0
 71   0   0
 67   0   0
255 255 255
255 255 255
255 255 255
255 255 255
255 255 255
255 255 255
255 255 255
255 255 255
255 255 255
255 255 255
255 255 255
255 255 255
255 255 255
255 255 255
255 255 255
 64   0   0
 65   0   0
 65   0   0
 65   0   0
 65   0   0
 66   0   0
 66   0   0
 66   0   0
 67   0   0
 67   0   0
 68   0   0
 68   0   0
 69   0   0
 69   0   0
 70   0   0
 71   0   0
 71   0   0
 72   0   0
 73   0   0
 74   0   0
 74   0   0
 75   0   0
 76   0   0
 77   0   0
 79   0   0
 80   0   0
 81   0   0
 83   0   0
 84   0   0
 86   0   0
 87   0   0
 89   0   0
 91   0   0
 94   0   0
 96   0   0
 99   0   0
102   0   0
105   0   0
109   0   0
113   0   0
118   0   0
123   0   0
128   0   0
134   0   0
140   0   0
146   0   0
151   0   0
156   0   0
159   0   0
159   0   0
156   0   0
146   0   0
123   0   0
  0   0  69
  0   0 144
  0   0 180
  0   0 207
  0   0 227
  0   0 242
  0   0 251
  0   0 255
  0   0 252
  0   0 241
  0   0 222
  0   0 191
  0   0 132
143   0   0
187   0   0
208   0   0
217   0   0
219   0   0
214   0   0
205   0   0
192   0   0
177   0   0
160   0   0
143   0   0
125   0   0
107   0   0
 91   0   0
 76   0   0
255 255 255
255 255 255
255 255 255
255 255 255
255 255 255
255 255 255
255 255 255
255 255 255
255 255 255
255 255 255
255 255 255
255 255 255
255 255 255
255 255 255
255 255 255
255 255 255
255 255 255
255 255 255
255 255 255
255 255 255
255 255 255
255 255 255
255 255 255
255 255 255
255 255 255
255 255 255
255 255 255
255 255 255
255 255 255
255 255 255
255 255 255
255 255 255
255 255 255
255 255 255
255 255 255
255 255 255
255 255 255
255 255 255
255 255 255
255 255 255
255 255 255
255 255 255
255 255 255
255 255 255
255 255 255
255 255 255
255 255 255
255 255 255
255 255 255
255 255 255
255 150   0
255 255 255
255 255 255
255 255 255
255 255 255
255 255 255
255 255 255
255 255 255
255 255 255
255 255 255
255 255 255
255 255 255
255 255 255
255 255 255
255 255 255
255 255 255
255 255 255
255 255 255
255 255 255
  0   0   0
  0   0   0
  0   0   0
  0   0   0
255 255 255
255 255 255
255 255 255
255 255 255
255 255 255
255 255 255
255 255 255
 65   0   0
 66   0   0
 66   0   0
 66   0   0
 66   0   0
 65   0   0
 64   0   0
255 255 255
255 255 255
255 255 255
255 150   0
255 255 255
255 255 255
255 255 255
 64   0   0
 67   0   0
 69   0   0
 72   0   0
 74   0   0
 75   0   0
 76   0   0
 75   0   0
 74   0   0
 72   0   0
 69   0   0
 65   0   0
255 255 255
255 255 255
255 255 255
255 255 255
255 255 255
255 255 255
255 255 255
255 255 255
255 255 255
255 255 255
255 255 255
255 255 255
255 255 255
255 255 255
255 255 255
255 255 255
255 255 255
255 255 255
255 255 255
 64   0   0
 65   0   0
 65   0   0
 65   0   0
 66   0   0
 66   0   0
 67   0   0
 67   0   0
 68   0   0
 68   0   0
 69   0   0
 69   0   0
 70   0   0
 71   0   0
 72   0   0
 72   0   0
 73   0   0
 74   0   0
 75   0   0
 76   0   0
 77   0   0
 79   0   0
 80   0   0
 81   0   0
 83   0   0
 84   0   0
 86   0   0
 88   0   0
 90   0   0
 92   0   0
 95   0   0
 98   0   0
101   0   0
104   0   0
108   0   0
112   0   0
116   0   0
121   0   0
127   0   0
133   0   0
139   0   0
145   0   0
150   0   0
155   0   0
158   0   0
159   0   0
156   0   0
147   0   0
125   0   0
255 255 255
  0   0 142
  0   0 179
  0   0 207
  0   0 227
  0   0 242
  0   0 252
  0   0 255
  0   0 251
  0   0 240
  0   0 220
  0   0 187
  0   0 119
151   0   0
191   0   0
210   0   0
218   0   0
218   0   0
213   0   0
203   0   0
189   0   0
174   0   0
156   0   0
138   0   0
121   0   0
103   0   0
 87   0   0
 72   0   0
255 255 255
255 255 255
255 255 255
255 255 255
255 255 255
255 255 255
255 255 255
255 255 255
255 255 255
255 255 255
255 255 255
255 255 255
255 255 255
255 255 255
255 255 255
255 255 255
255 255 255
255 255 255
255 255 255
255 255 255
255 255 255
255 255 255
255 255 255
255 255 255
255 255 255
255 255 255
255 255 255
255 255 255
255 255 255
255 255 255
255 255 255
255 255 255
255 255 255
255 255 255
255 255 255
255 255 255
255 255 255
255 255 255
255 255 255
255 255 255
255 255 255
255 255 255
255 255 255
255 255 255
255 255 255
255 255 255
255 255 255
255 255 255
255 255 255
255 150   0
255 255 255
255 255 255
255 255 255
255 255 255
255 255 255
255 255 255
255 255 255
255 255 255
255 255 255
255 255 255
255 255 255
255 255 255
255 255 255
255 255 255
255 255 255
255 255 255
255 255 255
255 255 255
  0   0   0
  0   0   0
  0   0   0
  0   0   0
255 255 255
255 255 255
255 255 255
255 255 255
255 255 255
255 255 255
255 255 255
255 255 255
 65   0   0
 65   0   0
 65   0   0
 65   0   0
 64   0   0
255 255 255
255 255 255
255 255 255
255 255 255
255 150   0
255 255 255
255 255 255
255 255 255
255 255 255
255 255 255
 65   0   0
 68   0   0
 70   0   0
 72   0   0
 74   0   0
 74   0   0
 74   0   0
 72   0   0
 70   0   0
 67   0   0
255 255 255
255 255 255
255 255 255
255 255 255
255 255 255
255 255 255
255 255 255
255 255 255
255 255 255
255 255 255
255 255 255
255 255 255
255 255 255
255 255 255
255 255 255
255 255 255
255 255 255
255 255 255
255 255 255
255 255 255
255 255 255
255 255 255
255 255 255
 64   0   0
 65   0   0
 65   0   0
 66   0   0
 66   0   0
 67   0   0
 67   0   0
 68   0   0
 68   0   0
 69   0   0
 70   0   0
 71   0   0
 71   0   0
 72   0   0
 73   0   0
 74   0   0
 75   0   0
 76   0   0
 78   0   0
 79   0   0
 80   0   0
 82   0   0
 83   0   0
 85   0   0
 87   0   0
 89   0   0
 91   0   0
 94   0   0
 96   0   0
 99   0   0
103   0   0
106   0   0
110   0   0
115   0   0
120   0   0
125   0   0
131   0   0
137   0   0
144   0   0
149   0   0
154   0   0
158   0   0
159   0   0
156   0   0
148   0   0
126   0   0
255 255 255
  0   0 142
  0   0 180
  0   0 207
  0   0 228
  0   0 243
  0   0 252
  0   0 255
  0   0 250
  0   0 238
  0   0 217
  0   0 181
  0   0  97
160   0   0
195   0   0
212   0   0
219   0   0
218   0   0
211   0   0
200   0   0
186   0   0
170   0   0
152   0   0
134   0   0
116   0   0
 99   0   0
 83   0   0
 68   0   0
255 255 255
255 255 255
255 255 255
255 255 255
255 255 255
255 255 255
255 255 255
255 255 255
255 255 255
255 255 255
255 255 255
255 255 255
255 255 255
255 255 255
255 255 255
255 255 255
255 255 255
255 255 255
255 255 255
255 255 255
255 255 255
255 255 255
255 255 255
255 255 255
255 255 255
255 255 255
255 255 255
255 255 255
255 255 255
255 255 255
255 255 255
255 255 255
255 255 255
255 255 255
255 255 255
255 255 255
255 255 255
255 255 255
255 255 255
255 255 255
255 255 255
255 255 255
255 255 255
255 255 255
255 255 255
255 255 255
255 255 255
255 255 255
255 150   0
255 255 255
255 255 255
255 255 255
255 255 255
255 255 255
255 255 255
255 255 255
255 255 255
255 255 255
255 255 255
255 255 255
255 255 255
255 255 255
255 255 255
255 255 255
255 255 255
255 255 255
255 255 255
  0   0   0
  0   0   0
  0   0   0
  0   0   0
255 255 255
255 255 255
255 255 255
255 255 255
255 255 255
255 255 255
255 255 255
255 255 255
255 255 255
 64   0   0
 65   0   0
 64   0   0
255 255 255
255 255 255
255 255 255
255 255 255
255 255 255
255 150   0
255 255 255
255 255 255
255 255 255
255 255 255
255 255 255
255 255 255
255 255 255
 66   0   0
 69   0   0
 71   0   0
 72   0   0
 73   0   0
 72   0   0
 70   0   0
 68   0   0
 65   0   0
255 255 255
255 255 255
255 255 255
255 255 255
255 255 255
255 255 255
255 255 255
255 255 255
255 255 255
255 255 255
255 255 255
255 255 255
255 255 255
255 255 255
255 255 255
255 255 255
255 255 255
255 255 255
255 255 255
255 255 255
255 255 255
255 255 255
255 255 255
255 255 255
255 255 255
 64   0   0
 65   0   0
 65   0   0
 66   0   0
 66   0   0
 67   0   0
 67   0   0
 68   0   0
 69   0   0
 70   0   0
 71   0   0
 71   0   0
 72   0   0
 73   0   0
 74   0   0
 76   0   0
 77   0   0
 78   0   0
 79   0   0
 81   0   0
 82   0   0
 84   0   0
 86   0   0
 88   0   0
 90   0   0
 93   0   0
 95   0   0
 98   0   0
102   0   0
105   0   0
109   0   0
114   0   0
119   0   0
124   0   0
130   0   0
137   0   0
143   0   0
149   0   0
154   0   0
158   0   0
159   0   0
157   0   0
148   0   0
126   0   0
255 255 255
  0   0 144
  0   0 181
  0   0 209
  0   0 229
  0   0 244
  0   0 253
  0   0 255
  0   0 249
  0   0 236
  0   0 212
  0   0 173
255 255 255
169   0   0
200   0   0
214   0   0
219   0   0
217   0   0
209   0   0
197   0   0
182   0   0
165   0   0
147   0   0
129   0   0
111   0   0
 94   0   0
 78   0   0
255 255 255
255 255 255
255 255 255
255 255 255
255 255 255
255 255 255
255 255 255
255 255 255
255 255 255
255 255 255
255 255 255
255 255 255
255 255 255
255 255 255
255 255 255
255 255 255
255 255 255
255 255 255
255 255 255
255 255 255
255 255 255
255 255 255
255 255 255
255 255 255
255 255 255
255 255 255
255 255 255
255 255 255
255 255 255
255 255 255
255 255 255
255 255 255
255 255 255
255 255 255
255 255 255
255 255 255
255 255 255
255 255 255
255 255 255
255 255 255
255 255 255
255 255 255
255 255 255
255 255 255
255 255 255
255 255 255
255 255 255
255 255 255
255 150   0
255 255 255
255 255 255
255 255 255
255 255 255
255 255 255
255 255 255
255 255 255
255 255 255
255 255 255
255 255 255
255 255 255
255 255 255
255 255 255
255 255 255
255 255 255
255 255 255
255 255 255
255 255 255
  0   0   0
  0   0   0
  0   0   0
  0   0   0
255 255 255
255 255 255
255 255 255
255 255 255
255 255 255
255 255 255
255 255 255
255 255 255
255 255 255
255 255 255
255 255 255
255 255 255
255 255 255
255 255 255
255 255 255
255 255 255
255 255 255
255 150   0
255 255 255
255 255 255
255 255 255
255 255 255
255 255 255
255 255 255
255 255 255
255 255 255
 65   0   0
 68   0   0
 70   0   0
 71   0   0
 71   0   0
 70   0   0
 69   0   0
 66   0   0
255 255 255
255 255 255
255 255 255
255 255 255
255 255 255
255 255 255
255 255 255
255 255 255
255 255 255
255 255 255
255 255 255
255 255 255
255 255 255
255 255 255
255 255 255
255 255 255
255 255 255
255 255 255
255 255 255
255 255 255
255 255 255
255 255 255
255 255 255
255 255 255
255 255 255
255 255 255
255 255 255
255 255 255
 64   0   0
 65   0   0
 65   0   0
 66   0   0
 67   0   0
 67   0   0
 68   0   0
 69   0   0
 70   0   0
 71   0   0
 72   0   0
 73   0   0
 74   0   0
 75   0   0
 76   0   0
 77   0   0
 79   0   0
 80   0   0
 82   0   0
 83   0   0
 85   0   0
 87   0   0
 89   0   0
 92   0   0
 94   0   0
 97   0   0
101   0   0
104   0   0
108   0   0
113   0   0
118   0   0
124   0   0
130   0   0
136   0   0
142   0   0
148   0   0
154   0   0
158   0   0
159   0   0
157   0   0
148   0   0
125   0   0
  0   0  69
  0   0 146
  0   0 184
  0   0 211
  0   0 231
  0   0 245
  0   0 253
  0   0 254
  0   0 248
  0   0 233
  0   0 207
  0   0 162
108   0   0
177   0   0
204   0   0
216   0   0
219   0   0
215   0   0
206   0   0
193   0   0
178   0   0
160   0   0
142   0   0
124   0   0
106   0   0
 89   0   0
 73   0   0
255 255 255
255 255 255
255 255 255
255 255 255
255 255 255
255 255 255
255 255 255
255 255 255
255 255 255
255 255 255
255 255 255
255 255 255
255 255 255
255 255 255
255 255 255
255 255 255
255 255 255
255 255 255
255 255 255
255 255 255
255 255 255
255 255 255
255 255 255
255 255 255
255 255 255
255 255 255
255 255 255
255 255 255
255 255 255
255 255 255
255 255 255
255 255 255
255 255 255
255 255 255
255 255 255
255 255 255
255 255 255
255 255 255
255 255 255
255 255 255
255 255 255
255 255 255
255 255 255
255 255 255
255 255 255
255 255 255
255 255 255
255 150   0
255 255 255
255 255 255
255 255 255
255 255 255
255 255 255
255 255 255
255 255 255
255 255 255
255 255 255
255 255 255
255 255 255
255 255 255
255 255 255
255 255 255
255 255 255
255 255 255
255 255 255
255 255 255
  0   0   0
  0   0   0
  0   0   0
  0   0   0
255 255 255
255 255 255
255 255 255
255 255 255
255 255 255
255 255 255
255 255 255
255 255 255
255 255 255
255 255 255
255 255 255
255 255 255
255 255 255
255 255 255
255 255 255
255 255 255
255 255 255
255 150   0
255 255 255
255 255 255
255 255 255
255 255 255
255 255 255
255 255 255
255 255 255
255 255 255
255 255 255
 64   0   0
 67   0   0
 68   0   0
 69   0   0
 70   0   0
 69   0   0
 67   0   0
 64   0   0
255 255 255
255 255 255
255 255 255
255 255 255
255 255 255
255 255 255
255 255 255
255 255 255
255 255 255
255 255 255
255 255 255
255 255 255
255 255 255
255 255 255
255 255 255
255 255 255
255 255 255
255 255 255
255 255 255
255 255 255
255 255 255
255 255 255
255 255 255
255 255 255
255 255 255
255 255 255
255 255 255
255 255 255
255 255 255
255 255 255
 65   0   0
 65   0   0
 66   0   0
 67   0   0
 67   0   0
 68   0   0
 69   0   0
 70   0   0
 71   0   0
 72   0   0
 73   0   0
 74   0   0
 75   0   0
 76   0   0
 78   0   0
 79   0   0
 81   0   0
 83   0   0
 84   0   0
 86   0   0
 89   0   0
 91   0   0
 94   0   0
 97   0   0
100   0   0
104   0   0
108   0   0
112   0   0
117   0   0
123   0   0
129   0   0
135   0   0
142   0   0
148   0   0
154   0   0
158   0   0
159   0   0
156   0   0
147   0   0
123   0   0
  0   0  81
  0   0 150
  0   0 187
  0   0 213
  0   0 233
  0   0 247
  0   0 254
  0   0 254
  0   0 246
  0   0 229
  0   0 200
  0   0 147
133   0   0
185   0   0
208   0   0
217   0   0
218   0   0
213   0   0
203   0   0
189   0   0
173   0   0
155   0   0
136   0   0
118   0   0
100   0   0
 84   0   0
 68   0   0
255 255 255
255 255 255
255 255 255
255 255 255
255 255 255
255 255 255
255 255 255
255 255 255
255 255 255
255 255 255
255 255 255
255 255 255
255 255 255
255 255 255
255 255 255
255 255 255
255 255 255
255 255 255
255 255 255
255 255 255
255 255 255
255 255 255
255 255 255
255 255 255
255 255 255
255 255 255
255 255 255
255 255 255
255 255 255
255 255 255
255 255 255
255 255 255
255 255 255
255 255 255
255 255 255
255 255 255
255 255 255
255 255 255
255 255 255
255 255 255
255 255 255
255 255 255
255 255 255
255 255 255
255 255 255
255 255 255
255 150   0
255 255 255
255 255 255
255 255 255
255 255 255
255 255 255
255 255 255
255 255 255
255 255 255
255 255 255
255 255 255
255 255 255
255 255 255
255 255 255
255 255 255
255 255 255
255 255 255
255 255 255
255 255 255
  0   0   0
  0   0   0
  0   0   0
  0   0   0
255 255 255
255 255 255
255 255 255
255 255 255
255 255 255
255 255 255
255 255 255
255 255 255
255 255 255
255 255 255
255 255 255
255 255 255
255 255 255
255 255 255
255 255 255
255 255 255
255 255 255
255 150   0
255 255 255
255 255 255
255 255 255
255 255 255
255 255 255
255 255 255
255 255 255
255 255 255
255 255 255
255 255 255
255 255 255
 66   0   0
 67   0   0
 68   0   0
 68   0   0
 67   0   0
 65   0   0
255 255 255
255 255 255
255 255 255
255 255 255
255 255 255
255 255 255
255 255 255
255 255 255
255 255 255
255 255 255
255 255 255
255 255 255
255 255 255
255 255 255
255 255 255
255 255 255
255 255 255
255 255 255
255 255 255
255 255 255
255 255 255
255 255 255
255 255 255
255 255 255
255 255 255
255 255 255
255 255 255
255 255 255
255 255 255
255 255 255
255 255 255
255 255 255
 64   0   0
 65   0   0
 66   0   0
 67   0   0
 67   0   0
 68   0   0
 69   0   0
 70   0   0
 71   0   0
 72   0   0
 73   0   0
 74   0   0
 76   0   0
 77   0   0
 79   0   0
 80   0   0
 82   0   0
 84   0   0
 86   0   0
 88   0   0
 90   0   0
 93   0   0
 96   0   0
 99   0   0
103   0   0
107   0   0
112   0   0
117   0   0
122   0   0
129   0   0
135   0   0
142   0   0
148   0   0
154   0   0
158   0   0
159   0   0
156   0   0
146   0   0
119   0   0
  0   0  94
  0   0 155
  0   0 191
  0   0 217
  0   0 236
  0   0 248
  0   0 254
  0   0 253
  0   0 243
  0   0 224
  0   0 191
  0   0 126
151   0   0
192   0   0
211   0   0
218   0   0
218   0   0
211   0   0
199   0   0
184   0   0
167   0   0
149   0   0
130   0   0
112   0   0
 94   0   0
 78   0   0
255 255 255
255 255 255
255 255 255
255 255 255
255 255 255
255 255 255
255 255 255
255 255 255
255 255 255
255 255 255
255 255 255
255 255 255
255 255 255
255 255 255
255 255 255
255 255 255
255 255 255
255 255 255
255 255 255
255 255 255
255 255 255
255 255 255
255 255 255
255 255 255
255 255 255
255 255 255
255 255 255
255 255 255
255 255 255
255 255 255
255 255 255
255 255 255
255 255 255
255 255 255
255 255 255
255 255 255
255 255 255
255 255 255
255 255 255
255 255 255
255 255 255
255 255 255
255 255 255
255 255 255
255 255 255
255 255 255
255 150   0
255 255 255
255 255 255
255 255 255
255 255 255
255 255 255
255 255 255
255 255 255
255 255 255
255 255 255
255 255 255
255 255 255
255 255 255
255 255 255
255 255 255
255 255 255
255 255 255
255 255 255
255 255 255
  0   0   0
  0   0   0
  0   0   0
  0   0   0
255 255 255
255 255 255
255 255 255
255 255 255
255 255 255
255 255 255
255 255 255
255 255 255
255 255 255
255 255 255
255 255 255
255 255 255
255 255 255
255 255 255
255 255 255
255 255 255
255 255 255
255 150   0
255 255 255
255 255 255
255 255 255
255 255 255
255 255 255
255 255 255
255 255 255
255 255 255
255 255 255
255 255 255
255 255 255
255 255 255
 65   0   0
 66   0   0
 67   0   0
 67   0   0
 66   0   0
255 255 255
255 255 255
255 255 255
255 255 255
255 255 255
255 255 255
255 255 255
255 255 255
255 255 255
255 255 255
255 255 255
255 255 255
255 255 255
255 255 255
255 255 255
255 255 255
255 255 255
255 255 255
255 255 255
255 255 255
255 255 255
255 255 255
255 255 255
255 255 255
255 255 255
255 255 255
255 255 255
255 255 255
255 255 255
255 255 255
255 255 255
255 255 255
255 255 255
255 255 255
 64   0   0
 65   0   0
 66   0   0
 67   0   0
 68   0   0
 68   0   0
 69   0   0
 70   0   0
 72   0   0
 73   0   0
 74   0   0
 75   0   0
 77   0   0
 78   0   0
 80   0   0
 81   0   0
 83   0   0
 85   0   0
 88   0   0
 90   0   0
 93   0   0
 96   0   0
 99   0   0
102   0   0
107   0   0
111   0   0
116   0   0
122   0   0
129   0   0
135   0   0
142   0   0
148   0   0
154   0   0
158   0   0
159   0   0
156   0   0
144   0   0
114   0   0
  0   0 106
  0   0 161
  0   0 195
  0   0 220
  0   0 239
  0   0 250
  0   0 255
  0   0 252
  0   0 240
  0   0 218
  0   0 180
  0   0  83
166   0   0
199   0   0
214   0   0
219   0   0
216   0   0
208   0   0
195   0   0
179   0   0
161   0   0
143   0   0
124   0   0
106   0   0
 88   0   0
 73   0   0
255 255 255
255 255 255
255 255 255
255 255 255
255 255 255
255 255 255
255 255 255
255 255 255
255 255 255
255 255 255
255 255 255
255 255 255
255 255 255
255 255 255
255 255 255
255 255 255
255 255 255
255 255 255
255 255 255
255 255 255
255 255 255
255 255 255
255 255 255
255 255 255
255 255 255
255 255 255
255 255 255
255 255 255
255 255 255
255 255 255
255 255 255
255 255 255
255 255 255
255 255 255
255 255 255
255 255 255
255 255 255
255 255 255
255 255 255
255 255 255
255 255 255
255 255 255
255 255 255
255 255 255
255 255 255
255 150   0
255 255 255
255 255 255
255 255 255
255 255 255
255 255 255
255 255 255
255 255 255
255 255 255
255 255 255
255 255 255
255 255 255
255 255 255
255 255 255
255 255 255
255 255 255
255 255 255
255 255 255
255 255 255
  0   0   0
  0   0   0
  0   0   0
  0   0   0
255 255 255
255 255 255
255 255 255
255 255 255
255 255 255
255 255 255
255 255 255
255 255 255
255 255 255
255 255 255
255 255 255
255 255 255
255 255 255
255 255 255
255 255 255
255 255 255
255 255 255
255 150   0
255 255 255
255 255 255
255 255 255
255 255 255
255 255 255
255 255 255
255 255 255
255 255 255
255 255 255
255 255 255
255 255 255
255 255 255
255 255 255
 64   0   0
 66   0   0
 66   0   0
 66   0   0
 64   0   0
255 255 255
255 255 255
255 255 255
255 255 255
255 255 255
255 255 255
255 255 255
255 255 255
255 255 255
255 255 255
255 255 255
255 255 255
255 255 255
255 255 255
255 255 255
255 255 255
255 255 255
255 255 255
255 255 255
255 255 255
255 255 255
255 255 255
255 255 255
255 255 255
255 255 255
255 255 255
255 255 255
255 255 255
255 255 255
255 255 255
255 255 255
255 255 255
255 255 255
255 255 255
255 255 255
 65   0   0
 65   0   0
 66   0   0
 67   0   0
 68   0   0
 69   0   0
 70   0   0
 71   0   0
 72   0   0
 73   0   0
 75   0   0
 76   0   0
 78   0   0
 79   0   0
 81   0   0
 83   0   0
 85   0   0
 87   0   0
 90   0   0
 92   0   0
 95   0   0
 98   0   0
102   0   0
106   0   0
111   0   0
116   0   0
122   0   0
129   0   0
135   0   0
142   0   0
149   0   0
154   0   0
158   0   0
159   0   0
155   0   0
141   0   0
105   0   0
  0   0 119
  0   0 168
  0   0 200
  0   0 224
  0   0 242
  0   0 252
  0   0 255
  0   0 250
  0   0 236
  0   0 210
  0   0 165
105   0   0
178   0   0
205   0   0
217   0   0
219   0   0
214   0   0
204   0   0
190   0   0
173   0   0
155   0   0
136   0   0
117   0   0
 99   0   0
 82   0   0
 67   0   0
255 255 255
255 255 255
255 255 255
255 255 255
255 255 255
255 255 255
255 255 255
255 255 255
255 255 255
255 255 255
255 255 255
255 255 255
255 255 255
255 255 255
255 255 255
255 255 255
255 255 255
255 255 255
255 255 255
255 255 255
255 255 255
255 255 255
255 255 255
255 255 255
255 255 255
255 255 255
255 255 255
255 255 255
255 255 255
255 255 255
255 255 255
255 255 255
255 255 255
255 255 255
255 255 255
255 255 255
255 255 255
255 255 255
255 255 255
255 255 255
255 255 255
255 255 255
255 255 255
255 255 255
255 150   0
255 255 255
255 255 255
255 255 255
255 255 255
255 255 255
255 255 255
255 255 255
255 255 255
255 255 255
255 255 255
255 255 255
255 255 255
255 255 255
255 255 255
255 255 255
255 255 255
255 255 255
255 255 255
  0   0   0
  0   0   0
  0   0   0
  0   0   0
255 255 255
255 255 255
255 255 255
255 255 255
255 255 255
255 255 255
255 255 255
255 255 255
255 255 255
255 255 255
255 255 255
255 255 255
255 255 255
255 255 255
255 255 255
255 255 255
255 255 255
255 150   0
255 255 255
255 255 255
255 255 255
255 255 255
255 255 255
255 255 255
255 255 255
255 255 255
255 255 255
255 255 255
255 255 255
255 255 255
255 255 255
255 255 255
255 255 255
 65   0   0
 65   0   0
 64   0   0
255 255 255
255 255 255
255 255 255
255 255 255
255 255 255
255 255 255
255 255 255
255 255 255
255 255 255
255 255 255
255 255 255
255 255 255
255 255 255
255 255 255
255 255 255
255 255 255
255 255 255
255 255 255
255 255 255
255 255 255
255 255 255
255 255 255
255 255 255
255 255 255
255 255 255
255 255 255
255 255 255
255 255 255
255 255 255
255 255 255
255 255 255
255 255 255
255 255 255
255 255 255
255 255 255
255 255 255
255 255 255
 65   0   0
 66   0   0
 66   0   0
 67   0   0
 68   0   0
 69   0   0
 71   0   0
 72   0   0
 73   0   0
 74   0   0
 76   0   0
 77   0   0
 79   0   0
 81   0   0
 82   0   0
 85   0   0
 87   0   0
 89   0   0
 92   0   0
 95   0   0
 98   0   0
102   0   0
106   0   0
111   0   0
116   0   0
122   0   0
129   0   0
136   0   0
143   0   0
149   0   0
155   0   0
159   0   0
159   0   0
153   0   0
138   0   0
 92   0   0
  0   0 130
  0   0 175
  0   0 206
  0   0 229
  0   0 244
  0   0 253
  0   0 254
  0   0 247
  0   0 230
  0   0 200
  0   0 145
139   0   0
188   0   0
210   0   0
218   0   0
218   0   0
211   0   0
199   0   0
184   0   0
167   0   0
148   0   0
129   0   0
110   0   0
 92   0   0
 76   0   0
255 255 255
255 255 255
255 255 255
255 255 255
255 255 255
255 255 255
255 255 255
255 255 255
255 255 255
255 255 255
255 255 255
255 255 255
255 255 255
255 255 255
255 255 255
255 255 255
255 255 255
255 255 255
255 255 255
255 255 255
255 255 255
255 255 255
255 255 255
255 255 255
255 255 255
255 255 255
255 255 255
255 255 255
255 255 255
255 255 255
255 255 255
255 255 255
255 255 255
255 255 255
255 255 255
255 255 255
255 255 255
255 255 255
255 255 255
255 255 255
255 255 255
255 255 255
255 255 255
255 255 255
255 150   0
255 255 255
255 255 255
255 255 255
255 255 255
255 255 255
255 255 255
255 255 255
255 255 255
255 255 255
255 255 255
255 255 255
255 255 255
255 255 255
255 255 255
255 255 255
255 255 255
255 255 255
255 255 255
  0   0   0
  0   0   0
  0   0   0
  0   0   0
255 255 255
255 255 255
255 255 255
255 255 255
255 255 255
255 255 255
255 255 255
255 255 255
255 255 255
255 255 255
255 255 255
255 255 255
255 255 255
255 255 255
255 255 255
255 255 255
255 255 255
255 150   0
255 255 255
255 255 255
255 255 255
255 255 255
255 255 255
255 255 255
255 255 255
255 255 255
255 255 255
255 255 255
255 255 255
255 255 255
255 255 255
255 255 255
255 255 255
255 255 255
255 255 255
255 255 255
255 255 255
255 255 255
255 255 255
255 255 255
255 255 255
255 255 255
255 255 255
255 255 255
255 255 255
255 255 255
255 255 255
255 255 255
255 255 255
255 255 255
255 255 255
255 255 255
255 255 255
255 255 255
255 255 255
255 255 255
255 255 255
255 255 255
255 255 255
255 255 255
255 255 255
255 255 255
255 255 255
255 255 255
255 255 255
255 255 255
255 255 255
255 255 255
255 255 255
255 255 255
255 255 255
255 255 255
255 255 255
255 255 255
 64   0   0
 65   0   0
 66   0   0
 67   0   0
 68   0   0
 69   0   0
 70   0   0
 71   0   0
 73   0   0
 74   0   0
 75   0   0
 77   0   0
 78   0   0
 80   0   0
 82   0   0
 84   0   0
 87   0   0
 89   0   0
 92   0   0
 95   0   0
 98   0   0
102   0   0
106   0   0
111   0   0
117   0   0
123   0   0
130   0   0
137   0   0
144   0   0
150   0   0
156   0   0
159   0   0
158   0   0
152   0   0
133   0   0
255 255 255
  0   0 142
  0   0 183
  0   0 212
  0   0 233
  0   0 247
  0   0 254
  0   0 253
  0   0 243
  0   0 223
  0   0 188
  0   0 110
160   0   0
197   0   0
214   0   0
219   0   0
216   0   0
207   0   0
194   0   0
178   0   0
160   0   0
141   0   0
122   0   0
103   0   0
 86   0   0
 70   0   0
255 255 255
255 255 255
255 255 255
255 255 255
255 255 255
255 255 255
255 255 255
255 255 255
255 255 255
255 255 255
255 255 255
255 255 255
255 255 255
255 255 255
255 255 255
255 255 255
255 255 255
255 255 255
255 255 255
255 255 255
255 255 255
255 255 255
255 255 255
255 255 255
255 255 255
255 255 255
255 255 255
255 255 255
255 255 255
255 255 255
255 255 255
255 255 255
255 255 255
255 255 255
255 255 255
255 255 255
255 255 255
255 255 255
255 255 255
255 255 255
255 255 255
255 255 255
255 255 255
255 150   0
255 255 255
255 255 255
255 255 255
255 255 255
255 255 255
255 255 255
255 255 255
255 255 255
255 255 255
255 255 255
255 255 255
255 255 255
255 255 255
255 255 255
255 255 255
255 255 255
255 255 255
255 255 255
  0   0   0
  0   0   0
  0   0   0
  0   0   0
255 255 255
255 255 255
255 255 255
255 255 255
255 255 255
255 255 255
255 255 255
255 255 255
255 255 255
255 255 255
255 255 255
255 255 255
255 255 255
255 255 255
255 255 255
255 255 255
255 255 255
255 150   0
255 255 255
255 255 255
255 255 255
255 255 255
255 255 255
255 255 255
255 255 255
255 255 255
255 255 255
255 255 255
255 255 255
255 255 255
255 255 255
255 255 255
255 255 255
255 255 255
255 255 255
255 255 255
255 255 255
255 255 255
255 255 255
255 255 255
255 255 255
255 255 255
255 255 255
255 255 255
255 255 255
255 255 255
255 255 255
255 255 255
255 255 255
255 255 255
255 255 255
255 255 255
255 255 255
255 255 255
255 255 255
255 255 255
255 255 255
255 255 255
255 255 255
255 255 255
255 255 255
255 255 255
255 255 255
255 255 255
255 255 255
255 255 255
255 255 255
255 255 255
255 255 255
255 255 255
255 255 255
255 255 255
255 255 255
255 255 255
255 255 255
255 255 255
 65   0   0
 66   0   0
 67   0   0
 68   0   0
 69   0   0
 70   0   0
 71   0   0
 72   0   0
 74   0   0
 75   0   0
 77   0   0
 78   0   0
 80   0   0
 82   0   0
 84   0   0
 86   0   0
 89   0   0
 92   0   0
 95   0   0
 98   0   0
102   0   0
107   0   0
112   0   0
117   0   0
124   0   0
130   0   0
137   0   0
145   0   0
151   0   0
156   0   0
159   0   0
158   0   0
149   0   0
126   0   0
  0   0  80
  0   0 153
  0   0 191
  0   0 218
  0   0 238
  0   0 250
  0   0 255
  0   0 251
  0   0 238
  0   0 214
  0   0 171
 93   0   0
176   0   0
204   0   0
217   0   0
219   0   0
213   0   0
203   0   0
188   0   0
171   0   0
152   0   0
133   0   0
114   0   0
 96   0   0
 79   0   0
255 255 255
255 255 255
255 255 255
255 255 255
255 255 255
255 255 255
255 255 255
255 255 255
255 255 255
255 255 255
255 255 255
255 255 255
255 255 255
255 255 255
255 255 255
255 255 255
255 255 255
255 255 255
255 255 255
255 255 255
255 255 255
255 255 255
255 255 255
255 255 255
255 255 255
255 255 255
255 255 255
255 255 255
255 255 255
255 255 255
255 255 255
255 255 255
255 255 255
255 255 255
255 255 255
255 255 255
255 255 255
255 255 255
255 255 255
255 255 255
255 255 255
255 255 255
255 255 255
255 150   0
255 255 255
255 255 255
255 255 255
255 255 255
255 255 255
255 255 255
255 255 255
255 255 255
255 255 255
255 255 255
255 255 255
255 255 255
255 255 255
255 255 255
255 255 255
255 255 255
255 255 255
255 255 255
  0   0   0
  0   0   0
  0   0   0
  0   0   0
255 255 255
255 255 255
255 255 255
255 255 255
255 255 255
255 255 255
255 255 255
255 255 255
255 255 255
255 255 255
255 255 255
255 255 255
255 255 255
255 255 255
255 255 255
255 255 255
255 255 255
255 150   0
255 255 255
255 255 255
255 255 255
255 255 255
255 255 255
255 255 255
255 255 255
255 255 255
255 255 255
255 255 255
255 255 255
255 255 255
255 255 255
255 255 255
255 255 255
255 255 255
255 255 255
255 255 255
255 255 255
255 255 255
255 255 255
255 255 255
255 255 255
255 255 255
255 255 255
255 255 255
255 255 255
255 255 255
255 255 255
255 255 255
255 255 255
255 255 255
255 255 255
255 255 255
255 255 255
255 255 255
255 255 255
255 255 255
255 255 255
255 255 255
255 255 255
255 255 255
255 255 255
255 255 255
255 255 255
255 255 255
255 255 255
255 255 255
255 255 255
255 255 255
255 255 255
255 255 255
255 255 255
255 255 255
255 255 255
255 255 255
255 255 255
255 255 255
255 255 255
 64   0   0
 65   0   0
 66   0   0
 67   0   0
 68   0   0
 69   0   0
 71   0   0
 72   0   0
 73   0   0
 75   0   0
 76   0   0
 78   0   0
 80   0   0
 82   0   0
 84   0   0
 86   0   0
 89   0   0
 92   0   0
 95   0   0
 98   0   0
102   0   0
107   0   0
112   0   0
118   0   0
124   0   0
131   0   0
139   0   0
146   0   0
152   0   0
157   0   0
159   0   0
157   0   0
146   0   0
116   0   0
  0   0 108
  0   0 164
  0   0 199
  0   0 224
  0   0 242
  0   0 252
  0   0 255
  0   0 248
  0   0 232
  0   0 202
  0   0 147
139   0   0
189   0   0
210   0   0
218   0   0
217   0   0
210   0   0
198   0   0
182   0   0
164   0   0
144   0   0
125   0   0
106   0   0
 88   0   0
 72   0   0
255 255 255
255 255 255
255 255 255
255 255 255
255 255 255
255 255 255
255 255 255
255 255 255
255 255 255
255 255 255
255 255 255
255 255 255
255 255 255
255 255 255
255 255 255
255 255 255
255 255 255
255 255 255
255 255 255
255 255 255
255 255 255
255 255 255
255 255 255
255 255 255
255 255 255
255 255 255
255 255 255
255 255 255
255 255 255
255 255 255
255 255 255
255 255 255
255 255 255
255 255 255
255 255 255
255 255 255
255 255 255
255 255 255
255 255 255
255 255 255
255 255 255
255 255 255
255 150   0
255 255 255
255 255 255
255 255 255
255 255 255
255 255 255
255 255 255
255 255 255
255 255 255
255 255 255
255 255 255
255 255 255
255 255 255
255 255 255
255 255 255
255 255 255
255 255 255
255 255 255
255 255 255
  0   0   0
  0   0   0
  0   0   0
  0   0   0
255 255 255
255 255 255
255 255 255
255 255 255
255 255 255
255 255 255
255 255 255
255 255 255
255 255 255
255 255 255
255 255 255
255 255 255
255 255 255
255 255 255
255 255 255
255 255 255
255 255 255
255 150   0
255 255 255
255 255 255
255 255 255
255 255 255
255 255 255
255 255 255
255 255 255
255 255 255
255 255 255
255 255 255
255 255 255
255 255 255
255 255 255
255 255 255
255 255 255
255 255 255
255 255 255
255 255 255
255 255 255
255 255 255
255 255 255
255 255 255
255 255 255
255 255 255
255 255 255
255 255 255
255 255 255
255 255 255
255 255 255
255 255 255
255 255 255
255 255 255
255 255 255
255 255 255
255 255 255
255 255 255
255 255 255
255 255 255
255 255 255
255 255 255
255 255 255
255 255 255
255 255 255
255 255 255
255 255 255
255 255 255
255 255 255
255 255 255
255 255 255
255 255 255
255 255 255
255 255 255
255 255 255
255 255 255
255 255 255
255 255 255
255 255 255
255 255 255
255 255 255
255 255 255
 64   0   0
 65   0   0
 66   0   0
 67   0   0
 68   0   0
 69   0   0
 70   0   0
 72   0   0
 73   0   0
 75   0   0
 76   0   0
 78   0   0
 80   0   0
 82   0   0
 84   0   0
 86   0   0
 89   0   0
 92   0   0
 95   0   0
 99   0   0
103   0   0
108   0   0
113   0   0
119   0   0
125   0   0
133   0   0
140   0   0
147   0   0
153   0   0
158   0   0
159   0   0
155   0   0
141   0   0
 99   0   0
  0   0 128
  0   0 175
  0   0 207
  0   0 230
  0   0 246
  0   0 254
  0   0 254
  0   0 244
  0   0 223
  0   0 187
  0   0 105
163   0   0
199   0   0
215   0   0
219   0   0
215   0   0
205   0   0
191   0   0
174   0   0
156   0   0
136   0   0
117   0   0
 98   0   0
 81   0   0
 65   0   0
255 255 255
255 255 255
255 255 255
255 255 255
255 255 255
255 255 255
255 255 255
255 255 255
255 255 255
255 255 255
255 255 255
255 255 255
255 255 255
255 255 255
255 255 255
255 255 255
255 255 255
255 255 255
255 255 255
255 255 255
255 255 255
255 255 255
255 255 255
255 255 255
255 255 255
255 255 255
255 255 255
255 255 255
255 255 255
255 255 255
255 255 255
255 255 255
255 255 255
255 255 255
255 255 255
255 255 255
255 255 255
255 255 255
255 255 255
255 255 255
255 255 255
255 150   0
255 255 255
255 255 255
255 255 255
255 255 255
255 255 255
255 255 255
255 255 255
255 255 255
255 255 255
255 255 255
255 255 255
255 255 255
255 255 255
255 255 255
255 255 255
255 255 255
255 255 255
255 255 255
  0   0   0
  0   0   0
  0   0   0
  0   0   0
255 255 255
255 255 255
255 255 255
255 255 255
255 255 255
255 255 255
255 255 255
255 255 255
255 255 255
255 255 255
255 255 255
255 255 255
255 255 255
255 255 255
255 255 255
255 255 255
255 255 255
255 150   0
255 255 255
255 255 255
255 255 255
255 255 255
255 255 255
255 255 255
255 255 255
255 255 255
255 255 255
255 255 255
255 255 255
255 255 255
255 255 255
255 255 255
255 255 255
255 255 255
255 255 255
255 255 255
255 255 255
255 255 255
255 255 255
255 255 255
255 255 255
255 255 255
255 255 255
255 255 255
255 255 255
255 255 255
255 255 255
255 255 255
255 255 255
255 255 255
255 255 255
255 255 255
255 255 255
255 255 255
255 255 255
255 255 255
255 255 255
255 255 255
255 255 255
255 255 255
255 255 255
255 255 255
255 255 255
255 255 255
255 255 255
255 255 255
255 255 255
255 255 255
255 255 255
255 255 255
255 255 255
255 255 255
255 255 255
255 255 255
255 255 255
255 255 255
255 255 255
255 255 255
255 255 255
255 255 255
 65   0   0
 66   0   0
 67   0   0
 68   0   0
 69   0   0
 70   0   0
 72   0   0
 73   0   0
 75   0   0
 76   0   0
 78   0   0
 80   0   0
 82   0   0
 84   0   0
 87   0   0
 89   0   0
 92   0   0
 96   0   0
 99   0   0
104   0   0
108   0   0
114   0   0
120   0   0
127   0   0
134   0   0
141   0   0
149   0   0
155   0   0
159   0   0
159   0   0
152   0   0
134   0   0
255 255 255
  0   0 145
  0   0 186
  0   0 215
  0   0 236
  0   0 250
  0   0 255
  0   0 251
  0   0 238
  0   0 212
  0   0 167
110   0   0
181   0   0
207   0   0
217   0   0
218   0   0
212   0   0
200   0   0
184   0   0
166   0   0
147   0   0
127   0   0
108   0   0
 90   0   0
 73   0   0
255 255 255
255 255 255
255 255 255
255 255 255
255 255 255
255 255 255
255 255 255
255 255 255
255 255 255
255 255 255
255 255 255
255 255 255
255 255 255
255 255 255
255 255 255
255 255 255
255 255 255
255 255 255
255 255 255
255 255 255
255 255 255
255 255 255
255 255 255
255 255 255
255 255 255
255 255 255
255 255 255
255 255 255
255 255 255
255 255 255
255 255 255
255 255 255
255 255 255
255 255 255
255 255 255
255 255 255
255 255 255
255 255 255
255 255 255
255 255 255
255 255 255
255 150   0
255 255 255
255 255 255
255 255 255
255 255 255
255 255 255
255 255 255
255 255 255
255 255 255
255 255 255
255 255 255
255 255 255
255 255 255
255 255 255
255 255 255
255 255 255
255 255 255
255 255 255
255 255 255
  0   0   0
  0   0   0
  0   0   0
  0   0   0
255 255 255
255 255 255
255 255 255
255 255 255
255 255 255
255 255 255
255 255 255
255 255 255
255 255 255
255 255 255
255 255 255
255 255 255
255 255 255
255 255 255
255 255 255
255 255 255
255 255 255
255 150   0
255 255 255
255 255 255
255 255 255
255 255 255
255 255 255
255 255 255
255 255 255
255 255 255
255 255 255
255 255 255
255 255 255
255 255 255
255 255 255
255 255 255
255 255 255
255 255 255
255 255 255
255 255 255
255 255 255
255 255 255
255 255 255
255 255 255
255 255 255
255 255 255
255 255 255
255 255 255
255 255 255
255 255 255
255 255 255
255 255 255
255 255 255
255 255 255
255 255 255
255 255 255
255 255 255
255 255 255
255 255 255
255 255 255
255 255 255
255 255 255
255 255 255
255 255 255
255 255 255
255 255 255
255 255 255
255 255 255
255 255 255
255 255 255
255 255 255
255 255 255
255 255 255
255 255 255
255 255 255
255 255 255
255 255 255
255 255 255
255 255 255
255 255 255
255 255 255
255 255 255
255 255 255
255 255 255
255 255 255
 65   0   0
 66   0   0
 67   0   0
 68   0   0
 69   0   0
 70   0   0
 72   0   0
 73   0   0
 75   0   0
 76   0   0
 78   0   0
 80   0   0
 82   0   0
 84   0   0
 87   0   0
 90   0   0
 93   0   0
 96   0   0
100   0   0
104   0   0
109   0   0
115   0   0
121   0   0
128   0   0
136   0   0
143   0   0
150   0   0
156   0   0
159   0   0
158   0   0
149   0   0
123   0   0
  0   0  95
  0   0 160
  0   0 197
  0   0 223
  0   0 242
  0   0 252
  0   0 255
  0   0 248
  0   0 230
  0   0 198
  0   0 135
150   0   0
194   0   0
213   0   0
219   0   0
216   0   0
207   0   0
194   0   0
177   0   0
158   0   0
138   0   0
118   0   0
 99   0   0
 82   0   0
 66   0   0
255 255 255
255 255 255
255 255 255
255 255 255
255 255 255
255 255 255
255 255 255
255 255 255
255 255 255
255 255 255
255 255 255
255 255 255
255 255 255
255 255 255
255 255 255
255 255 255
255 255 255
255 255 255
255 255 255
255 255 255
255 255 255
255 255 255
255 255 255
255 255 255
255 255 255
255 255 255
255 255 255
255 255 255
255 255 255
255 255 255
255 255 255
255 255 255
255 255 255
255 255 255
255 255 255
255 255 255
255 255 255
255 255 255
255 255 255
255 255 255
255 150   0
255 255 255
255 255 255
255 255 255
255 255 255
255 255 255
255 255 255
255 255 255
255 255 255
255 255 255
255 255 255
255 255 255
255 255 255
255 255 255
255 255 255
255 255 255
255 255 255
255 255 255
255 255 255
  0   0   0
  0   0   0
  0   0   0
  0   0   0
255 255 255
255 255 255
255 255 255
255 255 255
255 255 255
255 255 255
255 255 255
255 255 255
255 255 255
255 255 255
255 255 255
255 255 255
255 255 255
255 255 255
255 255 255
255 255 255
255 255 255
255 150   0
255 255 255
255 255 255
255 255 255
255 255 255
255 255 255
255 255 255
255 255 255
255 255 255
255 255 255
255 255 255
255 255 255
255 255 255
255 255 255
255 255 255
255 255 255
255 255 255
255 255 255
255 255 255
255 255 255
255 255 255
255 255 255
255 255 255
255 255 255
255 255 255
255 255 255
255 255 255
255 255 255
255 255 255
255 255 255
255 255 255
255 255 255
255 255 255
255 255 255
255 255 255
255 255 255
255 255 255
255 255 255
255 255 255
255 255 255
255 255 255
255 255 255
255 255 255
255 255 255
255 255 255
255 255 255
255 255 255
255 255 255
255 255 255
255 255 255
255 255 255
255 255 255
255 255 255
255 255 255
255 255 255
255 255 255
255 255 255
255 255 255
255 255 255
255 255 255
255 255 255
255 255 255
255 255 255
255 255 255
255 255 255
 64   0   0
 65   0   0
 66   0   0
 68   0   0
 69   0   0
 70   0   0
 71   0   0
 73   0   0
 75   0   0
 76   0   0
 78   0   0
 80   0   0
 82   0   0
 85   0   0
 87   0   0
 90   0   0
 93   0   0
 97   0   0
101   0   0
105   0   0
110   0   0
116   0   0
123   0   0
130   0   0
138   0   0
145   0   0
152   0   0
157   0   0
159   0   0
156   0   0
143   0   0
106   0   0
  0   0 124
  0   0 174
  0   0 207
  0   0 231
  0   0 247
  0   0 254
  0   0 253
  0   0 242
  0   0 219
  0   0 179
255 255 255
173   0   0
204   0   0
216   0   0
218   0   0
213   0   0
202   0   0
186   0   0
168   0   0
149   0   0
129   0   0
109   0   0
 91   0   0
 74   0   0
255 255 255
255 255 255
255 255 255
255 255 255
255 255 255
255 255 255
255 255 255
255 255 255
255 255 255
255 255 255
255 255 255
255 255 255
255 255 255
255 255 255
255 255 255
255 255 255
255 255 255
255 255 255
255 255 255
255 255 255
255 255 255
255 255 255
255 255 255
255 255 255
255 255 255
255 255 255
255 255 255
255 255 255
255 255 255
255 255 255
255 255 255
255 255 255
255 255 255
255 255 255
255 255 255
255 255 255
255 255 255
255 255 255
255 255 255
255 255 255
255 150   0
255 255 255
255 255 255
255 255 255
255 255 255
255 255 255
255 255 255
255 255 255
255 255 255
255 255 255
255 255 255
255 255 255
255 255 255
255 255 255
255 255 255
255 255 255
255 255 255
255 255 255
255 255 255
  0   0   0
  0   0   0
  0   0   0
  0   0   0
255 255 255
255 255 255
255 255 255
255 255 255
255 255 255
255 255 255
255 255 255
255 255 255
255 255 255
255 255 255
255 255 255
255 255 255
255 255 255
255 255 255
255 255 255
255 255 255
255 255 255
255 150   0
255 255 255
255 255 255
255 255 255
255 255 255
255 255 255
255 255 255
255 255 255
255 255 255
255 255 255
255 255 255
255 255 255
255 255 255
255 255 255
255 255 255
255 255 255
255 255 255
255 255 255
255 255 255
255 255 255
255 255 255
255 255 255
255 255 255
255 255 255
255 255 255
255 255 255
255 255 255
255 255 255
255 255 255
255 255 255
255 255 255
255 255 255
255 255 255
255 255 255
255 255 255
255 255 255
255 255 255
255 255 255
255 255 255
255 255 255
255 255 255
255 255 255
255 255 255
255 255 255
255 255 255
255 255 255
255 255 255
255 255 255
255 255 255
255 255 255
255 255 255
255 255 255
255 255 255
255 255 255
255 255 255
255 255 255
255 255 255
255 255 255
255 255 255
255 255 255
255 255 255
255 255 255
255 255 255
255 255 255
255 255 255
255 255 255
 64   0   0
 65   0   0
 66   0   0
 68   0   0
 69   0   0
 70   0   0
 72   0   0
 73   0   0
 75   0   0
 76   0   0
 78   0   0
 80   0   0
 82   0   0
 85   0   0
 88   0   0
 90   0   0
 94   0   0
 97   0   0
102   0   0
106   0   0
112   0   0
118   0   0
125   0   0
132   0   0
140   0   0
147   0   0
154   0   0
158   0   0
159   0   0
153   0   0
135   0   0
255 255 255
  0   0 145
  0   0 187
  0   0 217
  0   0 238
  0   0 251
  0   0 255
  0   0 250
  0   0 234
  0   0 205
  0   0 151
138   0   0
190   0   0
211   0   0
218   0   0
217   0   0
208   0   0
195   0   0
178   0   0
159   0   0
139   0   0
119   0   0
100   0   0
 82   0   0
 66   0   0
255 255 255
255 255 255
255 255 255
255 255 255
255 255 255
255 255 255
255 255 255
255 255 255
255 255 255
255 255 255
255 255 255
255 255 255
255 255 255
255 255 255
255 255 255
255 255 255
255 255 255
255 255 255
255 255 255
255 255 255
255 255 255
255 255 255
255 255 255
255 255 255
255 255 255
255 255 255
255 255 255
255 255 255
255 255 255
255 255 255
255 255 255
255 255 255
255 255 255
255 255 255
255 255 255
255 255 255
255 255 255
255 255 255
255 255 255
255 150   0
255 255 255
255 255 255
255 255 255
255 255 255
255 255 255
255 255 255
255 255 255
255 255 255
255 255 255
255 255 255
255 255 255
255 255 255
255 255 255
255 255 255
255 255 255
255 255 255
255 255 255
255 255 255
  0   0   0
  0   0   0
  0   0   0
  0   0   0
255 255 255
255 255 255
255 255 255
255 255 255
255 255 255
255 255 255
255 255 255
255 255 255
255 255 255
255 255 255
255 255 255
255 255 255
255 255 255
255 255 255
255 255 255
255 255 255
255 255 255
255 150   0
255 255 255
255 255 255
255 255 255
255 255 255
255 255 255
255 255 255
255 255 255
255 255 255
255 255 255
255 255 255
255 255 255
255 255 255
255 255 255
255 255 255
255 255 255
255 255 255
255 255 255
255 255 255
255 255 255
255 255 255
255 255 255
255 255 255
255 255 255
255 255 255
255 255 255
255 255 255
255 255 255
255 255 255
255 255 255
255 255 255
255 255 255
255 255 255
255 255 255
255 255 255
255 255 255
255 255 255
255 255 255
255 255 255
255 255 255
255 255 255
255 255 255
255 255 255
255 255 255
255 255 255
255 255 255
255 255 255
255 255 255
255 255 255
255 255 255
255 255 255
255 255 255
255 255 255
255 255 255
255 255 255
255 255 255
255 255 255
255 255 255
255 255 255
255 255 255
255 255 255
255 255 255
255 255 255
255 255 255
255 255 255
255 255 255
255 255 255
 64   0   0
 65   0   0
 66   0   0
 68   0   0
 69   0   0
 70   0   0
 72   0   0
 73   0   0
 75   0   0
 77   0   0
 78   0   0
 81   0   0
 83   0   0
 85   0   0
 88   0   0
 91   0   0
 94   0   0
 98   0   0
103   0   0
108   0   0
113   0   0
120   0   0
127   0   0
134   0   0
142   0   0
149   0   0
155   0   0
159   0   0
158   0   0
149   0   0
122   0   0
  0   0 100
  0   0 163
  0   0 200
  0   0 226
  0   0 244
  0   0 253
  0   0 254
  0   0 245
  0   0 224
  0   0 186
  0   0  94
168   0   0
202   0   0
216   0   0
219   0   0
213   0   0
202   0   0
187   0   0
169   0   0
149   0   0
129   0   0
109   0   0
 91   0   0
 74   0   0
255 255 255
255 255 255
255 255 255
255 255 255
255 255 255
255 255 255
255 255 255
255 255 255
255 255 255
255 255 255
255 255 255
255 255 255
255 255 255
255 255 255
255 255 255
255 255 255
255 255 255
255 255 255
255 255 255
255 255 255
255 255 255
255 255 255
255 255 255
255 255 255
255 255 255
255 255 255
255 255 255
255 255 255
255 255 255
255 255 255
255 255 255
255 255 255
255 255 255
255 255 255
255 255 255
255 255 255
255 255 255
255 255 255
255 255 255
255 150   0
255 255 255
255 255 255
255 255 255
255 255 255
255 255 255
255 255 255
255 255 255
255 255 255
255 255 255
255 255 255
255 255 255
255 255 255
255 255 255
255 255 255
255 255 255
255 255 255
255 255 255
255 255 255
  0   0   0
  0   0   0
  0   0   0
  0   0   0
255 255 255
255 255 255
255 255 255
255 255 255
255 255 255
255 255 255
255 255 255
255 255 255
255 255 255
255 255 255
255 255 255
255 255 255
255 255 255
255 255 255
255 255 255
255 255 255
255 255 255
255 150   0
255 255 255
255 255 255
255 255 255
255 255 255
255 255 255
255 255 255
255 255 255
255 255 255
255 255 255
255 255 255
255 255 255
255 255 255
255 255 255
255 255 255
255 255 255
255 255 255
255 255 255
255 255 255
255 255 255
255 255 255
255 255 255
255 255 255
255 255 255
255 255 255
255 255 255
255 255 255
255 255 255
255 255 255
255 255 255
255 255 255
255 255 255
255 255 255
255 255 255
255 255 255
255 255 255
255 255 255
255 255 255
255 255 255
255 255 255
255 255 255
255 255 255
255 255 255
255 255 255
255 255 255
255 255 255
255 255 255
255 255 255
255 255 255
255 255 255
255 255 255
255 255 255
255 255 255
255 255 255
255 255 255
255 255 255
255 255 255
255 255 255
255 255 255
255 255 255
255 255 255
255 255 255
255 255 255
255 255 255
255 255 255
255 255 255
255 255 255
255 255 255
 64   0   0
 65   0   0
 66   0   0
 68   0   0
 69   0   0
 70   0   0
 72   0   0
 73   0   0
 75   0   0
 77   0   0
 79   0   0
 81   0   0
 83   0   0
 86   0   0
 89   0   0
 92   0   0
 95   0   0
 99   0   0
104   0   0
109   0   0
115   0   0
122   0   0
129   0   0
137   0   0
145   0   0
152   0   0
157   0   0
159   0   0
156   0   0
142   0   0
 99   0   0
  0   0 131
  0   0 179
  0   0 212
  0   0 234
  0   0 249
  0   0 255
  0   0 251
  0   0 237
  0   0 210
  0   0 159
128   0   0
187   0   0
210   0   0
218   0   0
217   0   0
209   0   0
195   0   0
178   0   0
159   0   0
139   0   0
119   0   0
100   0   0
 82   0   0
 65   0   0
255 255 255
255 255 255
255 255 255
255 255 255
255 255 255
255 255 255
255 255 255
255 255 255
255 255 255
255 255 255
255 255 255
255 255 255
255 255 255
255 255 255
255 255 255
255 255 255
255 255 255
255 255 255
255 255 255
255 255 255
255 255 255
255 255 255
255 255 255
255 255 255
255 255 255
255 255 255
255 255 255
255 255 255
255 255 255
255 255 255
255 255 255
255 255 255
255 255 255
255 255 255
255 255 255
255 255 255
255 255 255
255 255 255
255 150   0
255 255 255
255 255 255
255 255 255
255 255 255
255 255 255
255 255 255
255 255 255
255 255 255
255 255 255
255 255 255
255 255 255
255 255 255
255 255 255
255 255 255
255 255 255
255 255 255
255 255 255
255 255 255
  0   0   0
  0   0   0
  0   0   0
  0   0   0
255 255 255
255 255 255
255 255 255
255 255 255
255 255 255
255 255 255
255 255 255
255 255 255
255 255 255
255 255 255
255 255 255
255 255 255
255 255 255
255 255 255
255 255 255
255 255 255
255 255 255
255 150   0
255 255 255
255 255 255
255 255 255
255 255 255
255 255 255
255 255 255
255 255 255
255 255 255
255 255 255
255 255 255
255 255 255
255 255 255
255 255 255
255 255 255
255 255 255
255 255 255
255 255 255
255 255 255
255 255 255
255 255 255
255 255 255
255 255 255
255 255 255
255 255 255
255 255 255
255 255 255
255 255 255
255 255 255
255 255 255
255 255 255
255 255 255
255 255 255
255 255 255
255 255 255
255 255 255
255 255 255
255 255 255
255 255 255
255 255 255
255 255 255
255 255 255
255 255 255
255 255 255
255 255 255
255 255 255
255 255 255
255 255 255
255 255 255
255 255 255
255 255 255
255 255 255
255 255 255
255 255 255
255 255 255
255 255 255
255 255 255
255 255 255
255 255 255
255 255 255
255 255 255
255 255 255
255 255 255
255 255 255
255 255 255
255 255 255
255 255 255
255 255 255
255 255 255
 64   0   0
 65   0   0
 66   0   0
 68   0   0
 69   0   0
 70   0   0
 72   0   0
 74   0   0
 75   0   0
 77   0   0
 79   0   0
 81   0   0
 84   0   0
 86   0   0
 89   0   0
 93   0   0
 96   0   0
101   0   0
105   0   0
111   0   0
117   0   0
124   0   0
132   0   0
139   0   0
147   0   0
154   0   0
158   0   0
159   0   0
152   0   0
131   0   0
  0   0  68
  0   0 154
  0   0 194
  0   0 222
  0   0 242
  0   0 253
  0   0 254
  0   0 246
  0   0 227
  0   0 191
  0   0 109
164   0   0
200   0   0
215   0   0
219   0   0
214   0   0
202   0   0
187   0   0
169   0   0
149   0   0
128   0   0
108   0   0
 90   0   0
 73   0   0
255 255 255
255 255 255
255 255 255
255 255 255
255 255 255
255 255 255
255 255 255
255 255 255
255 255 255
255 255 255
255 255 255
255 255 255
255 255 255
255 255 255
255 255 255
255 255 255
255 255 255
255 255 255
255 255 255
255 255 255
255 255 255
255 255 255
255 255 255
255 255 255
255 255 255
255 255 255
255 255 255
255 255 255
255 255 255
255 255 255
255 255 255
255 255 255
255 255 255
255 255 255
255 255 255
255 255 255
255 255 255
255 255 255
255 150   0
255 255 255
255 255 255
255 255 255
255 255 255
255 255 255
255 255 255
255 255 255
255 255 255
255 255 255
255 255 255
255 255 255
255 255 255
255 255 255
255 255 255
255 255 255
255 255 255
255 255 255
255 255 255
  0   0   0
  0   0   0
  0   0   0
  0   0   0
255 255 255
255 255 255
255 255 255
255 255 255
255 255 255
255 255 255
255 255 255
255 255 255
255 255 255
255 255 255
255 255 255
255 255 255
255 255 255
255 255 255
255 255 255
255 255 255
255 255 255
255 150   0
255 255 255
255 255 255
255 255 255
255 255 255
255 255 255
255 255 255
255 255 255
255 255 255
255 255 255
255 255 255
255 255 255
255 255 255
255 255 255
255 255 255
255 255 255
255 255 255
255 255 255
255 255 255
255 255 255
255 255 255
255 255 255
255 255 255
255 255 255
255 255 255
255 255 255
255 255 255
255 255 255
255 255 255
255 255 255
255 255 255
255 255 255
255 255 255
255 255 255
255 255 255
255 255 255
255 255 255
255 255 255
255 255 255
255 255 255
255 255 255
255 255 255
255 255 255
255 255 255
255 255 255
255 255 255
255 255 255
255 255 255
255 255 255
255 255 255
255 255 255
255 255 255
255 255 255
255 255 255
255 255 255
255 255 255
255 255 255
255 255 255
255 255 255
255 255 255
255 255 255
255 255 255
255 255 255
255 255 255
255 255 255
255 255 255
255 255 255
255 255 255
255 255 255
255 255 255
 64   0   0
 65   0   0
 67   0   0
 68   0   0
 69   0   0
 71   0   0
 72   0   0
 74   0   0
 76   0   0
 78   0   0
 80   0   0
 82   0   0
 84   0   0
 87   0   0
 90   0   0
 94   0   0
 98   0   0
102   0   0
107   0   0
113   0   0
119   0   0
127   0   0
134   0   0
142   0   0
150   0   0
156   0   0
159   0   0
157   0   0
146   0   0
113   0   0
  0   0 119
  0   0 173
  0   0 208
  0   0 232
  0   0 248
  0   0 255
  0   0 252
  0   0 239
  0   0 212
  0   0 163
124   0   0
186   0   0
210   0   0
218   0   0
217   0   0
208   0   0
195   0   0
178   0   0
158   0   0
138   0   0
118   0   0
 98   0   0
 80   0   0
255 255 255
255 255 255
255 255 255
255 255 255
255 255 255
255 255 255
255 255 255
255 255 255
255 255 255
255 255 255
255 255 255
255 255 255
255 255 255
255 255 255
255 255 255
255 255 255
255 255 255
255 255 255
255 255 255
255 255 255
255 255 255
255 255 255
255 255 255
255 255 255
255 255 255
255 255 255
255 255 255
255 255 255
255 255 255
255 255 255
255 255 255
255 255 255
255 255 255
255 255 255
255 255 255
255 255 255
255 255 255
255 255 255
255 150   0
255 255 255
255 255 255
255 255 255
255 255 255
255 255 255
255 255 255
255 255 255
255 255 255
255 255 255
255 255 255
255 255 255
255 255 255
255 255 255
255 255 255
255 255 255
255 255 255
255 255 255
255 255 255
  0   0   0
  0   0   0
  0   0   0
  0   0   0
255 255 255
255 255 255
255 255 255
255 255 255
255 255 255
255 255 255
255 255 255
255 255 255
255 255 255
255 255 255
255 255 255
255 255 255
255 255 255
255 255 255
255 255 255
255 255 255
255 255 255
255 150   0
255 255 255
255 255 255
255 255 255
255 255 255
255 255 255
255 255 255
255 255 255
255 255 255
255 255 255
255 255 255
255 255 255
255 255 255
255 255 255
255 255 255
255 255 255
255 255 255
255 255 255
255 255 255
255 255 255
255 255 255
255 255 255
255 255 255
255 255 255
255 255 255
255 255 255
255 255 255
255 255 255
255 255 255
255 255 255
255 255 255
255 255 255
255 255 255
255 255 255
255 255 255
255 255 255
255 255 255
255 255 255
255 255 255
255 255 255
255 255 255
255 255 255
255 255 255
255 255 255
255 255 255
255 255 255
255 255 255
255 255 255
255 255 255
255 255 255
255 255 255
255 255 255
255 255 255
255 255 255
255 255 255
255 255 255
255 255 255
255 255 255
255 255 255
255 255 255
255 255 255
255 255 255
255 255 255
255 255 255
255 255 255
255 255 255
255 255 255
255 255 255
255 255 255
255 255 255
255 255 255
 64   0   0
 66   0   0
 67   0   0
 68   0   0
 69   0   0
 71   0   0
 73   0   0
 74   0   0
 76   0   0
 78   0   0
 80   0   0
 83   0   0
 85   0   0
 88   0   0
 91   0   0
 95   0   0
 99   0   0
104   0   0
109   0   0
115   0   0
122   0   0
129   0   0
137   0   0
145   0   0
152   0   0
158   0   0
159   0   0
154   0   0
136   0   0
255 255 255
  0   0 147
  0   0 190
  0   0 220
  0   0 240
  0   0 252
  0   0 255
  0   0 247
  0   0 228
  0   0 192
  0   0 112
164   0   0
201   0   0
216   0   0
219   0   0
213   0   0
202   0   0
186   0   0
167   0   0
147   0   0
127   0   0
107   0   0
 88   0   0
 71   0   0
255 255 255
255 255 255
255 255 255
255 255 255
255 255 255
255 255 255
255 255 255
255 255 255
255 255 255
255 255 255
255 255 255
255 255 255
255 255 255
255 255 255
255 255 255
255 255 255
255 255 255
255 255 255
255 255 255
255 255 255
255 255 255
255 255 255
255 255 255
255 255 255
255 255 255
255 255 255
255 255 255
255 255 255
255 255 255
255 255 255
255 255 255
255 255 255
255 255 255
255 255 255
255 255 255
255 255 255
255 255 255
255 150   0
255 255 255
255 255 255
255 255 255
255 255 255
255 255 255
255 255 255
255 255 255
255 255 255
255 255 255
255 255 255
255 255 255
255 255 255
255 255 255
255 255 255
255 255 255
255 255 255
255 255 255
255 255 255
  0   0   0
  0   0   0
  0   0   0
  0   0   0
255 255 255
255 255 255
255 255 255
255 255 255
255 255 255
255 255 255
255 255 255
255 255 255
255 255 255
255 255 255
255 255 255
255 255 255
255 255 255
255 255 255
255 255 255
255 255 255
255 255 255
255 150   0
255 255 255
255 255 255
255 255 255
255 255 255
255 255 255
255 255 255
255 255 255
255 255 255
255 255 255
255 255 255
255 255 255
255 255 255
255 255 255
255 255 255
255 255 255
255 255 255
255 255 255
255 255 255
255 255 255
255 255 255
255 255 255
255 255 255
255 255 255
255 255 255
255 255 255
255 255 255
255 255 255
255 255 255
255 255 255
255 255 255
255 255 255
255 255 255
255 255 255
255 255 255
255 255 255
255 255 255
255 255 255
255 255 255
255 255 255
255 255 255
255 255 255
255 255 255
255 255 255
255 255 255
255 255 255
255 255 255
255 255 255
255 255 255
255 255 255
255 255 255
255 255 255
255 255 255
255 255 255
255 255 255
255 255 255
255 255 255
255 255 255
255 255 255
255 255 255
255 255 255
255 255 255
255 255 255
255 255 255
255 255 255
255 255 255
255 255 255
255 255 255
255 255 255
255 255 255
255 255 255
255 255 255
 65   0   0
 66   0   0
 67   0   0
 68   0   0
 70   0   0
 71   0   0
 73   0   0
 75   0   0
 77   0   0
 79   0   0
 81   0   0
 83   0   0
 86   0   0
 89   0   0
 92   0   0
 96   0   0
100   0   0
105   0   0
111   0   0
117   0   0
125   0   0
132   0   0
141   0   0
148   0   0
155   0   0
159   0   0
158   0   0
149   0   0
119   0   0
  0   0 110
  0   0 169
  0   0 205
  0   0 231
  0   0 247
  0   0 254
  0   0 252
  0   0 239
  0   0 212
  0   0 162
126   0   0
187   0   0
210   0   0
218   0   0
217   0   0
208   0   0
193   0   0
176   0   0
156   0   0
136   0   0
115   0   0
 96   0   0
 78   0   0
255 255 255
255 255 255
255 255 255
255 255 255
255 255 255
255 255 255
255 255 255
255 255 255
255 255 255
255 255 255
255 255 255
255 255 255
255 255 255
255 255 255
255 255 255
255 255 255
255 255 255
255 255 255
255 255 255
255 255 255
255 255 255
255 255 255
255 255 255
255 255 255
255 255 255
255 255 255
255 255 255
255 255 255
255 255 255
255 255 255
255 255 255
255 255 255
255 255 255
255 255 255
255 255 255
255 255 255
255 255 255
255 150   0
255 255 255
255 255 255
255 255 255
255 255 255
255 255 255
255 255 255
255 255 255
255 255 255
255 255 255
255 255 255
255 255 255
255 255 255
255 255 255
255 255 255
255 255 255
255 255 255
255 255 255
255 255 255
  0   0   0
  0   0   0
  0   0   0
  0   0   0
255 255 255
255 255 255
255 255 255
255 255 255
255 255 255
255 255 255
255 255 255
255 255 255
255 255 255
255 255 255
255 255 255
255 255 255
255 255 255
255 255 255
255 255 255
255 255 255
255 255 255
255 150   0
255 255 255
255 255 255
255 255 255
255 255 255
255 255 255
255 255 255
255 255 255
255 255 255
255 255 255
255 255 255
255 255 255
255 255 255
255 255 255
255 255 255
255 255 255
255 255 255
255 255 255
255 255 255
255 255 255
255 255 255
255 255 255
255 255 255
255 255 255
255 255 255
255 255 255
255 255 255
255 255 255
255 255 255
255 255 255
255 255 255
255 255 255
255 255 255
255 255 255
255 255 255
255 255 255
255 255 255
255 255 255
255 255 255
255 255 255
255 255 255
255 255 255
255 255 255
255 255 255
255 255 255
255 255 255
255 255 255
255 255 255
255 255 255
255 255 255
255 255 255
255 255 255
255 255 255
255 255 255
255 255 255
255 255 255
255 255 255
255 255 255
255 255 255
255 255 255
255 255 255
255 255 255
255 255 255
255 255 255
255 255 255
255 255 255
255 255 255
255 255 255
255 255 255
255 255 255
255 255 255
255 255 255
255 255 255
 65   0   0
 66   0   0
 67   0   0
 69   0   0
 70   0   0
 72   0   0
 73   0   0
 75   0   0
 77   0   0
 79   0   0
 82   0   0
 84   0   0
 87   0   0
 90   0   0
 94   0   0
 98   0   0
102   0   0
107   0   0
113   0   0
120   0   0
128   0   0
136   0   0
144   0   0
151   0   0
157   0   0
159   0   0
155   0   0
139   0   0
 80   0   0
  0   0 144
  0   0 188
  0   0 219
  0   0 240
  0   0 252
  0   0 255
  0   0 247
  0   0 227
  0   0 191
  0   0 105
167   0   0
202   0   0
216   0   0
218   0   0
212   0   0
200   0   0
184   0   0
165   0   0
145   0   0
124   0   0
104   0   0
 85   0   0
 68   0   0
255 255 255
255 255 255
255 255 255
255 255 255
255 255 255
255 255 255
255 255 255
255 255 255
255 255 255
255 255 255
255 255 255
255 255 255
255 255 255
255 255 255
255 255 255
255 255 255
255 255 255
255 255 255
255 255 255
255 255 255
255 255 255
255 255 255
255 255 255
255 255 255
255 255 255
255 255 255
255 255 255
255 255 255
255 255 255
255 255 255
255 255 255
255 255 255
255 255 255
255 255 255
255 255 255
255 255 255
255 150   0
255 255 255
255 255 255
255 255 255
255 255 255
255 255 255
255 255 255
255 255 255
255 255 255
255 255 255
255 255 255
255 255 255
255 255 255
255 255 255
255 255 255
255 255 255
255 255 255
255 255 255
255 255 255
  0   0   0
  0   0   0
  0   0   0
  0   0   0
255 255 255
255 255 255
255 255 255
255 255 255
255 255 255
255 255 255
255 255 255
255 255 255
255 255 255
255 255 255
255 255 255
255 255 255
255 255 255
255 255 255
255 255 255
255 255 255
255 255 255
255 150   0
255 255 255
255 255 255
255 255 255
255 255 255
255 255 255
255 255 255
255 255 255
255 255 255
255 255 255
255 255 255
255 255 255
255 255 255
255 255 255
255 255 255
255 255 255
255 255 255
255 255 255
255 255 255
255 255 255
255 255 255
255 255 255
255 255 255
255 255 255
255 255 255
255 255 255
255 255 255
255 255 255
255 255 255
255 255 255
255 255 255
255 255 255
255 255 255
255 255 255
255 255 255
255 255 255
255 255 255
255 255 255
255 255 255
255 255 255
255 255 255
255 255 255
255 255 255
255 255 255
255 255 255
255 255 255
255 255 255
255 255 255
255 255 255
255 255 255
255 255 255
255 255 255
255 255 255
255 255 255
255 255 255
255 255 255
255 255 255
255 255 255
255 255 255
255 255 255
255 255 255
255 255 255
255 255 255
255 255 255
255 255 255
255 255 255
255 255 255
255 255 255
255 255 255
255 255 255
255 255 255
255 255 255
255 255 255
255 255 255
 65   0   0
 66   0   0
 68   0   0
 69   0   0
 71   0   0
 72   0   0
 74   0   0
 76   0   0
 78   0   0
 80   0   0
 82   0   0
 85   0   0
 88   0   0
 91   0   0
 95   0   0
 99   0   0
104   0   0
110   0   0
116   0   0
123   0   0
131   0   0
139   0   0
147   0   0
154   0   0
159   0   0
158   0   0
150   0   0
122   0   0
  0   0 106
  0   0 168
  0   0 205
  0   0 231
  0   0 247
  0   0 255
  0   0 252
  0   0 238
  0   0 210
  0   0 158
134   0   0
190   0   0
211   0   0
219   0   0
216   0   0
206   0   0
191   0   0
173   0   0
153   0   0
132   0   0
112   0   0
 93   0   0
 75   0   0
255 255 255
255 255 255
255 255 255
255 255 255
255 255 255
255 255 255
255 255 255
255 255 255
255 255 255
255 255 255
255 255 255
255 255 255
255 255 255
255 255 255
255 255 255
255 255 255
255 255 255
255 255 255
255 255 255
255 255 255
255 255 255
255 255 255
255 255 255
255 255 255
255 255 255
255 255 255
255 255 255
255 255 255
255 255 255
255 255 255
255 255 255
255 255 255
255 255 255
255 255 255
255 255 255
255 255 255
255 150   0
255 255 255
255 255 255
255 255 255
255 255 255
255 255 255
255 255 255
255 255 255
255 255 255
255 255 255
255 255 255
255 255 255
255 255 255
255 255 255
255 255 255
255 255 255
255 255 255
255 255 255
255 255 255
  0   0   0
  0   0   0
  0   0   0
  0   0   0
255 255 255
255 255 255
255 255 255
255 255 255
255 255 255
255 255 255
255 255 255
255 255 255
255 255 255
255 255 255
255 255 255
255 255 255
255 255 255
255 255 255
255 255 255
255 255 255
255 255 255
255 150   0
255 255 255
255 255 255
255 255 255
255 255 255
255 255 255
255 255 255
255 255 255
255 255 255
255 255 255
255 255 255
255 255 255
255 255 255
255 255 255
255 255 255
255 255 255
255 255 255
255 255 255
255 255 255
255 255 255
255 255 255
255 255 255
255 255 255
255 255 255
255 255 255
255 255 255
255 255 255
255 255 255
255 255 255
255 255 255
255 255 255
255 255 255
255 255 255
255 255 255
255 255 255
255 255 255
255 255 255
255 255 255
255 255 255
255 255 255
255 255 255
255 255 255
255 255 255
255 255 255
255 255 255
255 255 255
255 255 255
255 255 255
255 255 255
255 255 255
255 255 255
255 255 255
255 255 255
255 255 255
255 255 255
255 255 255
255 255 255
255 255 255
255 255 255
255 255 255
255 255 255
255 255 255
255 255 255
255 255 255
255 255 255
255 255 255
255 255 255
255 255 255
255 255 255
255 255 255
255 255 255
255 255 255
255 255 255
255 255 255
 64   0   0
 65   0   0
 67   0   0
 68   0   0
 69   0   0
 71   0   0
 73   0   0
 74   0   0
 76   0   0
 79   0   0
 81   0   0
 83   0   0
 86   0   0
 89   0   0
 93   0   0
 97   0   0
101   0   0
106   0   0
112   0   0
119   0   0
127   0   0
135   0   0
143   0   0
151   0   0
157   0   0
159   0   0
156   0   0
140   0   0
 83   0   0
  0   0 143
  0   0 188
  0   0 219
  0   0 240
  0   0 252
  0   0 254
  0   0 246
  0   0 225
  0   0 186
  0   0  80
172   0   0
204   0   0
217   0   0
218   0   0
211   0   0
198   0   0
181   0   0
162   0   0
141   0   0
120   0   0
100   0   0
 82   0   0
 65   0   0
255 255 255
255 255 255
255 255 255
255 255 255
255 255 255
255 255 255
255 255 255
255 255 255
255 255 255
255 255 255
255 255 255
255 255 255
255 255 255
255 255 255
255 255 255
255 255 255
255 255 255
255 255 255
255 255 255
255 255 255
255 255 255
255 255 255
255 255 255
255 255 255
255 255 255
255 255 255
255 255 255
255 255 255
255 255 255
255 255 255
255 255 255
255 255 255
255 255 255
255 255 255
255 255 255
255 150   0
255 255 255
255 255 255
255 255 255
255 255 255
255 255 255
255 255 255
255 255 255
255 255 255
255 255 255
255 255 255
255 255 255
255 255 255
255 255 255
255 255 255
255 255 255
255 255 255
255 255 255
255 255 255
  0   0   0
  0   0   0
  0   0   0
  0   0   0
255 255 255
255 255 255
255 255 255
255 255 255
255 255 255
255 255 255
255 255 255
255 255 255
255 255 255
255 255 255
255 255 255
255 255 255
255 255 255
255 255 255
255 255 255
255 255 255
255 255 255
255 150   0
255 255 255
255 255 255
255 255 255
255 255 255
255 255 255
255 255 255
255 255 255
255 255 255
255 255 255
255 255 255
255 255 255
255 255 255
255 255 255
255 255 255
255 255 255
255 255 255
255 255 255
255 255 255
255 255 255
255 255 255
255 255 255
255 255 255
255 255 255
255 255 255
255 255 255
255 255 255
255 255 255
255 255 255
255 255 255
255 255 255
255 255 255
255 255 255
255 255 255
255 255 255
255 255 255
255 255 255
255 255 255
255 255 255
255 255 255
255 255 255
255 255 255
255 255 255
255 255 255
255 255 255
255 255 255
255 255 255
255 255 255
255 255 255
255 255 255
255 255 255
255 255 255
255 255 255
255 255 255
255 255 255
255 255 255
255 255 255
255 255 255
255 255 255
255 255 255
255 255 255
255 255 255
255 255 255
255 255 255
255 255 255
255 255 255
255 255 255
255 255 255
255 255 255
255 255 255
255 255 255
255 255 255
255 255 255
255 255 255
255 255 255
 64   0   0
 66   0   0
 67   0   0
 68   0   0
 70   0   0
 72   0   0
 73   0   0
 75   0   0
 77   0   0
 79   0   0
 82   0   0
 84   0   0
 87   0   0
 91   0   0
 94   0   0
 99   0   0
103   0   0
109   0   0
115   0   0
122   0   0
130   0   0
139   0   0
147   0   0
154   0   0
159   0   0
158   0   0
150   0   0
122   0   0
  0   0 108
  0   0 169
  0   0 206
  0   0 232
  0   0 248
  0   0 255
  0   0 251
  0   0 236
  0   0 206
  0   0 148
145   0   0
194   0   0
213   0   0
219   0   0
215   0   0
204   0   0
188   0   0
170   0   0
149   0   0
128   0   0
108   0   0
 89   0   0
 71   0   0
255 255 255
255 255 255
255 255 255
255 255 255
255 255 255
255 255 255
255 255 255
255 255 255
255 255 255
255 255 255
255 255 255
255 255 255
255 255 255
255 255 255
255 255 255
255 255 255
255 255 255
255 255 255
255 255 255
255 255 255
255 255 255
255 255 255
255 255 255
255 255 255
255 255 255
255 255 255
255 255 255
255 255 255
255 255 255
255 255 255
255 255 255
255 255 255
255 255 255
255 255 255
255 255 255
255 150   0
255 255 255
255 255 255
255 255 255
255 255 255
255 255 255
255 255 255
255 255 255
255 255 255
255 255 255
255 255 255
255 255 255
255 255 255
255 255 255
255 255 255
255 255 255
255 255 255
255 255 255
255 255 255
  0   0   0
  0   0   0
  0   0   0
  0   0   0
255 255 255
255 255 255
255 255 255
255 255 255
255 255 255
255 255 255
255 255 255
255 255 255
255 255 255
255 255 255
255 255 255
255 255 255
255 255 255
255 255 255
255 255 255
255 255 255
255 255 255
255 150   0
255 255 255
255 255 255
255 255 255
255 255 255
255 255 255
255 255 255
255 255 255
255 255 255
255 255 255
255 255 255
255 255 255
255 255 255
255 255 255
255 255 255
255 255 255
255 255 255
255 255 255
255 255 255
255 255 255
255 255 255
255 255 255
255 255 255
255 255 255
255 255 255
255 255 255
255 255 255
255 255 255
255 255 255
255 255 255
255 255 255
255 255 255
255 255 255
255 255 255
255 255 255
255 255 255
255 255 255
255 255 255
255 255 255
255 255 255
255 255 255
255 255 255
255 255 255
255 255 255
255 255 255
255 255 255
255 255 255
255 255 255
255 255 255
255 255 255
255 255 255
255 255 255
255 255 255
255 255 255
255 255 255
255 255 255
255 255 255
255 255 255
255 255 255
255 255 255
255 255 255
255 255 255
255 255 255
255 255 255
255 255 255
255 255 255
255 255 255
255 255 255
255 255 255
255 255 255
255 255 255
255 255 255
255 255 255
255 255 255
255 255 255
255 255 255
 65   0   0
 66   0   0
 67   0   0
 69   0   0
 70   0   0
 72   0   0
 74   0   0
 76   0   0
 78   0   0
 80   0   0
 83   0   0
 86   0   0
 89   0   0
 92   0   0
 96   0   0
101   0   0
106   0   0
112   0   0
119   0   0
126   0   0
134   0   0
143   0   0
151   0   0
157   0   0
159   0   0
155   0   0
139   0   0
 76   0   0
  0   0 146
  0   0 191
  0   0 221
  0   0 242
  0   0 253
  0   0 254
  0   0 244
  0   0 221
  0   0 178
 86   0   0
179   0   0
207   0   0
218   0   0
217   0   0
209   0   0
195   0   0
177   0   0
157   0   0
136   0   0
115   0   0
 96   0   0
 77   0   0
255 255 255
255 255 255
255 255 255
255 255 255
255 255 255
255 255 255
255 255 255
255 255 255
255 255 255
255 255 255
255 255 255
255 255 255
255 255 255
255 255 255
255 255 255
255 255 255
255 255 255
255 255 255
255 255 255
255 255 255
255 255 255
255 255 255
255 255 255
255 255 255
255 255 255
255 255 255
255 255 255
255 255 255
255 255 255
255 255 255
255 255 255
255 255 255
255 255 255
255 255 255
255 255 255
255 150   0
255 255 255
255 255 255
255 255 255
255 255 255
255 255 255
255 255 255
255 255 255
255 255 255
255 255 255
255 255 255
255 255 255
255 255 255
255 255 255
255 255 255
255 255 255
255 255 255
255 255 255
255 255 255
  0   0   0
  0   0   0
  0   0   0
  0   0   0
255 255 255
255 255 255
255 255 255
255 255 255
255 255 255
255 255 255
255 255 255
255 255 255
255 255 255
255 255 255
255 255 255
255 255 255
255 255 255
255 255 255
255 255 255
255 255 255
255 255 255
255 150   0
255 255 255
255 255 255
255 255 255
255 255 255
255 255 255
255 255 255
255 255 255
255 255 255
255 255 255
255 255 255
255 255 255
255 255 255
255 255 255
255 255 255
255 255 255
255 255 255
255 255 255
255 255 255
255 255 255
255 255 255
255 255 255
255 255 255
255 255 255
255 255 255
255 255 255
255 255 255
255 255 255
255 255 255
255 255 255
255 255 255
255 255 255
255 255 255
255 255 255
255 255 255
255 255 255
255 255 255
255 255 255
255 255 255
255 255 255
255 255 255
255 255 255
255 255 255
255 255 255
255 255 255
255 255 255
255 255 255
255 255 255
255 255 255
255 255 255
255 255 255
255 255 255
255 255 255
255 255 255
255 255 255
255 255 255
255 255 255
255 255 255
255 255 255
255 255 255
255 255 255
255 255 255
255 255 255
255 255 255
255 255 255
255 255 255
255 255 255
255 255 255
255 255 255
255 255 255
255 255 255
255 255 255
255 255 255
255 255 255
255 255 255
255 255 255
255 255 255
 65   0   0
 66   0   0
 68   0   0
 69   0   0
 71   0   0
 73   0   0
 75   0   0
 77   0   0
 79   0   0
 81   0   0
 84   0   0
 87   0   0
 90   0   0
 94   0   0
 98   0   0
103   0   0
109   0   0
115   0   0
122   0   0
130   0   0
139   0   0
147   0   0
154   0   0
159   0   0
158   0   0
149   0   0
119   0   0
  0   0 115
  0   0 173
  0   0 209
  0   0 234
  0   0 249
  0   0 255
  0   0 250
  0   0 233
  0   0 199
  0   0 130
158   0   0
199   0   0
215   0   0
218   0   0
213   0   0
201   0   0
184   0   0
165   0   0
144   0   0
123   0   0
103   0   0
 84   0   0
 67   0   0
255 255 255
255 255 255
255 255 255
255 255 255
255 255 255
255 255 255
255 255 255
255 255 255
255 255 255
255 255 255
255 255 255
255 255 255
255 255 255
255 255 255
255 255 255
255 255 255
255 255 255
255 255 255
255 255 255
255 255 255
255 255 255
255 255 255
255 255 255
255 255 255
255 255 255
255 255 255
255 255 255
255 255 255
255 255 255
255 255 255
255 255 255
255 255 255
255 255 255
255 255 255
255 150   0
255 255 255
255 255 255
255 255 255
255 255 255
255 255 255
255 255 255
255 255 255
255 255 255
255 255 255
255 255 255
255 255 255
255 255 255
255 255 255
255 255 255
255 255 255
255 255 255
255 255 255
255 255 255
  0   0   0
  0   0   0
  0   0   0
  0   0   0
255 255 255
255 255 255
255 255 255
255 255 255
255 255 255
255 255 255
255 255 255
255 255 255
255 255 255
255 255 255
255 255 255
255 255 255
255 255 255
255 255 255
255 255 255
255 255 255
255 255 255
255 150   0
255 255 255
255 255 255
255 255 255
255 255 255
255 255 255
255 255 255
255 255 255
255 255 255
255 255 255
255 255 255
255 255 255
255 255 255
255 255 255
255 255 255
255 255 255
255 255 255
255 255 255
255 255 255
255 255 255
255 255 255
255 255 255
255 255 255
255 255 255
255 255 255
255 255 255
255 255 255
255 255 255
255 255 255
255 255 255
255 255 255
255 255 255
255 255 255
255 255 255
255 255 255
255 255 255
255 255 255
255 255 255
255 255 255
255 255 255
255 255 255
255 255 255
255 255 255
255 255 255
255 255 255
255 255 255
255 255 255
255 255 255
255 255 255
255 255 255
255 255 255
255 255 255
255 255 255
255 255 255
255 255 255
255 255 255
255 255 255
255 255 255
255 255 255
255 255 255
255 255 255
255 255 255
255 255 255
255 255 255
255 255 255
255 255 255
255 255 255
255 255 255
255 255 255
255 255 255
255 255 255
255 255 255
255 255 255
255 255 255
255 255 255
255 255 255
255 255 255
 64   0   0
 66   0   0
 67   0   0
 68   0   0
 70   0   0
 72   0   0
 74   0   0
 76   0   0
 78   0   0
 80   0   0
 83   0   0
 85   0   0
 88   0   0
 92   0   0
 96   0   0
100   0   0
106   0   0
112   0   0
119   0   0
126   0   0
135   0   0
143   0   0
151   0   0
157   0   0
159   0   0
155   0   0
137   0   0
255 255 255
  0   0 153
  0   0 195
  0   0 225
  0   0 244
  0   0 254
  0   0 253
  0   0 241
  0   0 215
  0   0 166
123   0   0
187   0   0
211   0   0
218   0   0
216   0   0
206   0   0
191   0   0
172   0   0
152   0   0
131   0   0
110   0   0
 90   0   0
 72   0   0
255 255 255
255 255 255
255 255 255
255 255 255
255 255 255
255 255 255
255 255 255
255 255 255
255 255 255
255 255 255
255 255 255
255 255 255
255 255 255
255 255 255
255 255 255
255 255 255
255 255 255
255 255 255
255 255 255
255 255 255
255 255 255
255 255 255
255 255 255
255 255 255
255 255 255
255 255 255
255 255 255
255 255 255
255 255 255
255 255 255
255 255 255
255 255 255
255 255 255
255 255 255
255 150   0
255 255 255
255 255 255
255 255 255
255 255 255
255 255 255
255 255 255
255 255 255
255 255 255
255 255 255
255 255 255
255 255 255
255 255 255
255 255 255
255 255 255
255 255 255
255 255 255
255 255 255
255 255 255
  0   0   0
  0   0   0
  0   0   0
  0   0   0
255 255 255
255 255 255
255 255 255
255 255 255
255 255 255
255 255 255
255 255 255
255 255 255
255 255 255
255 255 255
255 255 255
255 255 255
255 255 255
255 255 255
255 255 255
255 255 255
255 255 255
255 150   0
255 255 255
255 255 255
255 255 255
255 255 255
255 255 255
255 255 255
255 255 255
255 255 255
255 255 255
255 255 255
255 255 255
255 255 255
255 255 255
255 255 255
255 255 255
255 255 255
255 255 255
255 255 255
255 255 255
255 255 255
255 255 255
255 255 255
255 255 255
255 255 255
255 255 255
255 255 255
255 255 255
255 255 255
255 255 255
255 255 255
255 255 255
255 255 255
255 255 255
255 255 255
255 255 255
255 255 255
255 255 255
255 255 255
255 255 255
255 255 255
255 255 255
255 255 255
255 255 255
255 255 255
255 255 255
255 255 255
255 255 255
255 255 255
255 255 255
255 255 255
255 255 255
255 255 255
255 255 255
255 255 255
255 255 255
255 255 255
255 255 255
255 255 255
255 255 255
255 255 255
255 255 255
255 255 255
255 255 255
255 255 255
255 255 255
255 255 255
255 255 255
255 255 255
255 255 255
255 255 255
255 255 255
255 255 255
255 255 255
255 255 255
255 255 255
255 255 255
255 255 255
 65   0   0
 66   0   0
 68   0   0
 69   0   0
 71   0   0
 72   0   0
 74   0   0
 76   0   0
 79   0   0
 81   0   0
 84   0   0
 87   0   0
 90   0   0
 94   0   0
 98   0   0
103   0   0
109   0   0
115   0   0
122   0   0
131   0   0
139   0   0
148   0   0
155   0   0
159   0   0
158   0   0
147   0   0
111   0   0
  0   0 126
  0   0 180
  0   0 214
  0   0 237
  0   0 251
  0   0 255
  0   0 247
  0   0 227
  0   0 189
  0   0  91
171   0   0
204   0   0
217   0   0
218   0   0
210   0   0
197   0   0
179   0   0
159   0   0
138   0   0
117   0   0
 97   0   0
 78   0   0
255 255 255
255 255 255
255 255 255
255 255 255
255 255 255
255 255 255
255 255 255
255 255 255
255 255 255
255 255 255
255 255 255
255 255 255
255 255 255
255 255 255
255 255 255
255 255 255
255 255 255
255 255 255
255 255 255
255 255 255
255 255 255
255 255 255
255 255 255
255 255 255
255 255 255
255 255 255
255 255 255
255 255 255
255 255 255
255 255 255
255 255 255
255 255 255
255 255 255
255 255 255
255 150   0
255 255 255
255 255 255
255 255 255
255 255 255
255 255 255
255 255 255
255 255 255
255 255 255
255 255 255
255 255 255
255 255 255
255 255 255
255 255 255
255 255 255
255 255 255
255 255 255
255 255 255
255 255 255
  0   0   0
  0   0   0
  0   0   0
  0   0   0
255 255 255
255 255 255
255 255 255
255 255 255
255 255 255
255 255 255
255 255 255
255 255 255
255 255 255
255 255 255
255 255 255
255 255 255
255 255 255
255 255 255
255 255 255
255 255 255
255 255 255
255 150   0
255 255 255
255 255 255
255 255 255
255 255 255
255 255 255
255 255 255
255 255 255
255 255 255
255 255 255
255 255 255
255 255 255
255 255 255
255 255 255
255 255 255
255 255 255
255 255 255
255 255 255
255 255 255
255 255 255
255 255 255
255 255 255
255 255 255
255 255 255
255 255 255
255 255 255
255 255 255
255 255 255
255 255 255
255 255 255
255 255 255
255 255 255
255 255 255
255 255 255
255 255 255
255 255 255
255 255 255
255 255 255
255 255 255
255 255 255
255 255 255
255 255 255
255 255 255
255 255 255
255 255 255
255 255 255
255 255 255
255 255 255
255 255 255
255 255 255
255 255 255
255 255 255
255 255 255
255 255 255
255 255 255
255 255 255
255 255 255
255 255 255
255 255 255
255 255 255
255 255 255
255 255 255
255 255 255
255 255 255
255 255 255
255 255 255
255 255 255
255 255 255
255 255 255
255 255 255
255 255 255
255 255 255
255 255 255
255 255 255
255 255 255
255 255 255
255 255 255
255 255 255
255 255 255
 65   0   0
 67   0   0
 68   0   0
 70   0   0
 71   0   0
 73   0   0
 75   0   0
 77   0   0
 80   0   0
 82   0   0
 85   0   0
 88   0   0
 92   0   0
 96   0   0
100   0   0
106   0   0
112   0   0
119   0   0
127   0   0
135   0   0
144   0   0
152   0   0
158   0   0
159   0   0
153   0   0
132   0   0
  0   0  82
  0   0 161
  0   0 201
  0   0 229
  0   0 247
  0   0 255
  0   0 252
  0   0 237
  0   0 206
  0   0 146
148   0   0
196   0   0
214   0   0
219   0   0
214   0   0
202   0   0
186   0   0
166   0   0
145   0   0
124   0   0
103   0   0
 84   0   0
 67   0   0
255 255 255
255 255 255
255 255 255
255 255 255
255 255 255
255 255 255
255 255 255
255 255 255
255 255 255
255 255 255
255 255 255
255 255 255
255 255 255
255 255 255
255 255 255
255 255 255
255 255 255
255 255 255
255 255 255
255 255 255
255 255 255
255 255 255
255 255 255
255 255 255
255 255 255
255 255 255
255 255 255
255 255 255
255 255 255
255 255 255
255 255 255
255 255 255
255 255 255
255 150   0
255 255 255
255 255 255
255 255 255
255 255 255
255 255 255
255 255 255
255 255 255
255 255 255
255 255 255
255 255 255
255 255 255
255 255 255
255 255 255
255 255 255
255 255 255
255 255 255
255 255 255
255 255 255
  0   0   0
  0   0   0
  0   0   0
  0   0   0
255 255 255
255 255 255
255 255 255
255 255 255
255 255 255
255 255 255
255 255 255
255 255 255
255 255 255
255 255 255
255 255 255
255 255 255
255 255 255
255 255 255
255 255 255
255 255 255
255 255 255
255 150   0
255 255 255
255 255 255
255 255 255
255 255 255
255 255 255
255 255 255
255 255 255
255 255 255
255 255 255
255 255 255
255 255 255
255 255 255
255 255 255
255 255 255
255 255 255
255 255 255
255 255 255
255 255 255
255 255 255
255 255 255
255 255 255
255 255 255
255 255 255
255 255 255
255 255 255
255 255 255
255 255 255
255 255 255
255 255 255
255 255 255
255 255 255
255 255 255
255 255 255
255 255 255
255 255 255
255 255 255
255 255 255
255 255 255
255 255 255
255 255 255
255 255 255
255 255 255
255 255 255
255 255 255
255 255 255
255 255 255
255 255 255
255 255 255
255 255 255
255 255 255
255 255 255
255 255 255
255 255 255
255 255 255
255 255 255
255 255 255
255 255 255
255 255 255
255 255 255
255 255 255
255 255 255
255 255 255
255 255 255
255 255 255
255 255 255
255 255 255
255 255 255
255 255 255
255 255 255
255 255 255
255 255 255
255 255 255
255 255 255
255 255 255
255 255 255
255 255 255
255 255 255
255 255 255
 65   0   0
 66   0   0
 67   0   0
 69   0   0
 71   0   0
 72   0   0
 74   0   0
 76   0   0
 79   0   0
 81   0   0
 84   0   0
 87   0   0
 90   0   0
 94   0   0
 98   0   0
103   0   0
109   0   0
116   0   0
123   0   0
132   0   0
140   0   0
149   0   0
156   0   0
159   0   0
157   0   0
143   0   0
 96   0   0
  0   0 140
  0   0 188
  0   0 220
  0   0 241
  0   0 253
  0   0 254
  0   0 244
  0   0 220
  0   0 174
107   0   0
184   0   0
210   0   0
218   0   0
216   0   0
206   0   0
191   0   0
173   0   0
152   0   0
131   0   0
110   0   0
 90   0   0
 72   0   0
255 255 255
255 255 255
255 255 255
255 255 255
255 255 255
255 255 255
255 255 255
255 255 255
255 255 255
255 255 255
255 255 255
255 255 255
255 255 255
255 255 255
255 255 255
255 255 255
255 255 255
255 255 255
255 255 255
255 255 255
255 255 255
255 255 255
255 255 255
255 255 255
255 255 255
255 255 255
255 255 255
255 255 255
255 255 255
255 255 255
255 255 255
255 255 255
255 255 255
255 150   0
255 255 255
255 255 255
255 255 255
255 255 255
255 255 255
255 255 255
255 255 255
255 255 255
255 255 255
255 255 255
255 255 255
255 255 255
255 255 255
255 255 255
255 255 255
255 255 255
255 255 255
255 255 255
  0   0   0
  0   0   0
  0   0   0
  0   0   0
255 255 255
255 255 255
255 255 255
255 255 255
255 255 255
255 255 255
255 255 255
255 255 255
255 255 255
255 255 255
255 255 255
255 255 255
255 255 255
255 255 255
255 255 255
255 255 255
255 255 255
255 150   0
255 255 255
255 255 255
255 255 255
255 255 255
255 255 255
255 255 255
255 255 255
255 255 255
255 255 255
255 255 255
255 255 255
255 255 255
255 255 255
255 255 255
255 255 255
255 255 255
255 255 255
255 255 255
255 255 255
255 255 255
255 255 255
255 255 255
255 255 255
255 255 255
255 255 255
255 255 255
255 255 255
255 255 255
255 255 255
255 255 255
255 255 255
255 255 255
255 255 255
255 255 255
255 255 255
255 255 255
255 255 255
255 255 255
255 255 255
255 255 255
255 255 255
255 255 255
255 255 255
255 255 255
255 255 255
255 255 255
255 255 255
255 255 255
255 255 255
255 255 255
255 255 255
255 255 255
255 255 255
255 255 255
255 255 255
255 255 255
255 255 255
255 255 255
255 255 255
255 255 255
255 255 255
255 255 255
255 255 255
255 255 255
255 255 255
255 255 255
255 255 255
255 255 255
255 255 255
255 255 255
255 255 255
255 255 255
255 255 255
255 255 255
255 255 255
255 255 255
255 255 255
255 255 255
255 255 255
 65   0   0
 67   0   0
 68   0   0
 70   0   0
 71   0   0
 73   0   0
 75   0   0
 77   0   0
 80   0   0
 82   0   0
 85   0   0
 89   0   0
 92   0   0
 96   0   0
101   0   0
106   0   0
113   0   0
120   0   0
128   0   0
137   0   0
145   0   0
153   0   0
158   0   0
159   0   0
151   0   0
123   0   0
  0   0 110
  0   0 172
  0   0 209
  0   0 234
  0   0 250
  0   0 255
  0   0 249
  0   0 230
  0   0 193
  0   0 108
168   0   0
203   0   0
217   0   0
218   0   0
210   0   0
197   0   0
179   0   0
159   0   0
138   0   0
116   0   0
 96   0   0
 77   0   0
255 255 255
255 255 255
255 255 255
255 255 255
255 255 255
255 255 255
255 255 255
255 255 255
255 255 255
255 255 255
255 255 255
255 255 255
255 255 255
255 255 255
255 255 255
255 255 255
255 255 255
255 255 255
255 255 255
255 255 255
255 255 255
255 255 255
255 255 255
255 255 255
255 255 255
255 255 255
255 255 255
255 255 255
255 255 255
255 255 255
255 255 255
255 255 255
255 255 255
255 150   0
255 255 255
255 255 255
255 255 255
255 255 255
255 255 255
255 255 255
255 255 255
255 255 255
255 255 255
255 255 255
255 255 255
255 255 255
255 255 255
255 255 255
255 255 255
255 255 255
255 255 255
255 255 255
  0   0   0
  0   0   0
  0   0   0
  0   0   0
255 255 255
255 255 255
255 255 255
255 255 255
255 255 255
255 255 255
255 255 255
255 255 255
255 255 255
255 255 255
255 255 255
255 255 255
255 255 255
255 255 255
255 255 255
255 255 255
255 255 255
255 150   0
255 255 255
255 255 255
255 255 255
255 255 255
255 255 255
255 255 255
255 255 255
255 255 255
255 255 255
255 255 255
255 255 255
255 255 255
255 255 255
255 255 255
255 255 255
255 255 255
255 255 255
255 255 255
255 255 255
255 255 255
255 255 255
255 255 255
255 255 255
255 255 255
255 255 255
255 255 255
255 255 255
255 255 255
255 255 255
255 255 255
255 255 255
255 255 255
255 255 255
255 255 255
255 255 255
255 255 255
255 255 255
255 255 255
255 255 255
255 255 255
255 255 255
255 255 255
255 255 255
255 255 255
255 255 255
255 255 255
255 255 255
255 255 255
255 255 255
255 255 255
255 255 255
255 255 255
255 255 255
255 255 255
255 255 255
255 255 255
255 255 255
255 255 255
255 255 255
255 255 255
255 255 255
255 255 255
255 255 255
255 255 255
255 255 255
255 255 255
255 255 255
255 255 255
255 255 255
255 255 255
255 255 255
255 255 255
255 255 255
255 255 255
255 255 255
255 255 255
255 255 255
255 255 255
255 255 255
 64   0   0
 66   0   0
 67   0   0
 69   0   0
 71   0   0
 72   0   0
 74   0   0
 76   0   0
 79   0   0
 81   0   0
 84   0   0
 87   0   0
 90   0   0
 94   0   0
 99   0   0
104   0   0
110   0   0
117   0   0
125   0   0
133   0   0
142   0   0
150   0   0
157   0   0
159   0   0
155   0   0
137   0   0
255 255 255
  0   0 154
  0   0 197
  0   0 227
  0   0 246
  0   0 254
  0   0 252
  0   0 238
  0   0 208
  0   0 150
146   0   0
195   0   0
214   0   0
218   0   0
213   0   0
202   0   0
185   0   0
165   0   0
144   0   0
123   0   0
102   0   0
 83   0   0
 65   0   0
255 255 255
255 255 255
255 255 255
255 255 255
255 255 255
255 255 255
255 255 255
255 255 255
255 255 255
255 255 255
255 255 255
255 255 255
255 255 255
255 255 255
255 255 255
255 255 255
255 255 255
255 255 255
255 255 255
255 255 255
255 255 255
255 255 255
255 255 255
255 255 255
255 255 255
255 255 255
255 255 255
255 255 255
255 255 255
255 255 255
255 255 255
255 255 255
255 150   0
255 255 255
255 255 255
255 255 255
255 255 255
255 255 255
255 255 255
255 255 255
255 255 255
255 255 255
255 255 255
255 255 255
255 255 255
255 255 255
255 255 255
255 255 255
255 255 255
255 255 255
255 255 255
  0   0   0
  0   0   0
  0   0   0
  0   0   0
255 255 255
255 255 255
255 255 255
255 255 255
255 255 255
255 255 255
255 255 255
255 255 255
255 255 255
255 255 255
255 255 255
255 255 255
255 255 255
255 255 255
255 255 255
255 255 255
255 255 255
255 150   0
255 255 255
255 255 255
255 255 255
255 255 255
255 255 255
255 255 255
255 255 255
255 255 255
255 255 255
255 255 255
255 255 255
255 255 255
255 255 255
255 255 255
255 255 255
255 255 255
255 255 255
255 255 255
255 255 255
255 255 255
255 255 255
255 255 255
255 255 255
255 255 255
255 255 255
255 255 255
255 255 255
255 255 255
255 255 255
255 255 255
255 255 255
255 255 255
255 255 255
255 255 255
255 255 255
255 255 255
255 255 255
255 255 255
255 255 255
255 255 255
255 255 255
255 255 255
255 255 255
255 255 255
255 255 255
255 255 255
255 255 255
255 255 255
255 255 255
255 255 255
255 255 255
255 255 255
255 255 255
255 255 255
255 255 255
255 255 255
255 255 255
255 255 255
255 255 255
255 255 255
255 255 255
255 255 255
255 255 255
255 255 255
255 255 255
255 255 255
255 255 255
255 255 255
255 255 255
255 255 255
255 255 255
255 255 255
255 255 255
255 255 255
255 255 255
255 255 255
255 255 255
255 255 255
255 255 255
255 255 255
 65   0   0
 67   0   0
 68   0   0
 70   0   0
 71   0   0
 73   0   0
 75   0   0
 78   0   0
 80   0   0
 83   0   0
 86   0   0
 89   0   0
 93   0   0
 97   0   0
102   0   0
107   0   0
114   0   0
121   0   0
130   0   0
138   0   0
147   0   0
154   0   0
159   0   0
158   0   0
146   0   0
107   0   0
  0   0 133
  0   0 184
  0   0 218
  0   0 240
  0   0 253
  0   0 254
  0   0 244
  0   0 220
  0   0 174
108   0   0
184   0   0
210   0   0
218   0   0
216   0   0
206   0   0
190   0   0
171   0   0
150   0   0
129   0   0
108   0   0
 88   0   0
 70   0   0
255 255 255
255 255 255
255 255 255
255 255 255
255 255 255
255 255 255
255 255 255
255 255 255
255 255 255
255 255 255
255 255 255
255 255 255
255 255 255
255 255 255
255 255 255
255 255 255
255 255 255
255 255 255
255 255 255
255 255 255
255 255 255
255 255 255
255 255 255
255 255 255
255 255 255
255 255 255
255 255 255
255 255 255
255 255 255
255 255 255
255 255 255
255 255 255
255 150   0
255 255 255
255 255 255
255 255 255
255 255 255
255 255 255
255 255 255
255 255 255
255 255 255
255 255 255
255 255 255
255 255 255
255 255 255
255 255 255
255 255 255
255 255 255
255 255 255
255 255 255
255 255 255
  0   0   0
  0   0   0
  0   0   0
  0   0   0
255 255 255
255 255 255
255 255 255
255 255 255
255 255 255
255 255 255
255 255 255
255 255 255
255 255 255
255 255 255
255 255 255
255 255 255
255 255 255
255 255 255
255 255 255
255 255 255
255 255 255
255 150   0
255 255 255
255 255 255
255 255 255
255 255 255
255 255 255
255 255 255
255 255 255
255 255 255
255 255 255
255 255 255
255 255 255
255 255 255
255 255 255
255 255 255
255 255 255
255 255 255
255 255 255
255 255 255
255 255 255
255 255 255
255 255 255
255 255 255
255 255 255
255 255 255
255 255 255
255 255 255
255 255 255
255 255 255
255 255 255
255 255 255
255 255 255
255 255 255
255 255 255
255 255 255
255 255 255
255 255 255
255 255 255
255 255 255
255 255 255
255 255 255
255 255 255
255 255 255
255 255 255
255 255 255
255 255 255
255 255 255
255 255 255
255 255 255
255 255 255
255 255 255
255 255 255
255 255 255
255 255 255
255 255 255
255 255 255
255 255 255
255 255 255
255 255 255
255 255 255
255 255 255
255 255 255
255 255 255
255 255 255
255 255 255
255 255 255
255 255 255
255 255 255
255 255 255
255 255 255
255 255 255
255 255 255
255 255 255
255 255 255
255 255 255
255 255 255
255 255 255
255 255 255
255 255 255
255 255 255
255 255 255
 64   0   0
 66   0   0
 67   0   0
 69   0   0
 71   0   0
 72   0   0
 74   0   0
 77   0   0
 79   0   0
 82   0   0
 84   0   0
 88   0   0
 91   0   0
 95   0   0
100   0   0
105   0   0
111   0   0
118   0   0
126   0   0
135   0   0
144   0   0
152   0   0
158   0   0
159   0   0
152   0   0
127   0   0
  0   0 103
  0   0 169
  0   0 208
  0   0 234
  0   0 250
  0   0 255
  0   0 249
  0   0 230
  0   0 192
  0   0 101
170   0   0
204   0   0
217   0   0
217   0   0
209   0   0
195   0   0
177   0   0
157   0   0
135   0   0
114   0   0
 93   0   0
 75   0   0
255 255 255
255 255 255
255 255 255
255 255 255
255 255 255
255 255 255
255 255 255
255 255 255
255 255 255
255 255 255
255 255 255
255 255 255
255 255 255
255 255 255
255 255 255
255 255 255
255 255 255
255 255 255
255 255 255
255 255 255
255 255 255
255 255 255
255 255 255
255 255 255
255 255 255
255 255 255
255 255 255
255 255 255
255 255 255
255 255 255
255 255 255
255 255 255
255 150   0
255 255 255
255 255 255
255 255 255
255 255 255
255 255 255
255 255 255
255 255 255
255 255 255
255 255 255
255 255 255
255 255 255
255 255 255
255 255 255
255 255 255
255 255 255
255 255 255
255 255 255
255 255 255
  0   0   0
  0   0   0
  0   0   0
  0   0   0
255 255 255
255 255 255
255 255 255
255 255 255
255 255 255
255 255 255
255 255 255
255 255 255
255 255 255
255 255 255
255 255 255
255 255 255
255 255 255
255 255 255
255 255 255
255 255 255
255 255 255
255 150   0
255 255 255
255 255 255
255 255 255
255 255 255
255 255 255
255 255 255
255 255 255
255 255 255
255 255 255
255 255 255
255 255 255
255 255 255
255 255 255
255 255 255
255 255 255
255 255 255
255 255 255
255 255 255
255 255 255
255 255 255
255 255 255
255 255 255
255 255 255
255 255 255
255 255 255
255 255 255
255 255 255
255 255 255
255 255 255
255 255 255
255 255 255
255 255 255
255 255 255
255 255 255
255 255 255
255 255 255
255 255 255
255 255 255
255 255 255
255 255 255
255 255 255
255 255 255
255 255 255
255 255 255
255 255 255
255 255 255
255 255 255
255 255 255
255 255 255
255 255 255
255 255 255
255 255 255
255 255 255
255 255 255
255 255 255
255 255 255
255 255 255
255 255 255
255 255 255
255 255 255
255 255 255
255 255 255
255 255 255
255 255 255
255 255 255
255 255 255
255 255 255
255 255 255
255 255 255
255 255 255
255 255 255
255 255 255
255 255 255
255 255 255
255 255 255
255 255 255
255 255 255
255 255 255
255 255 255
255 255 255
255 255 255
 65   0   0
 67   0   0
 68   0   0
 70   0   0
 72   0   0
 74   0   0
 76   0   0
 78   0   0
 80   0   0
 83   0   0
 86   0   0
 90   0   0
 93   0   0
 98   0   0
103   0   0
109   0   0
116   0   0
123   0   0
132   0   0
141   0   0
149   0   0
156   0   0
159   0   0
156   0   0
139   0   0
255 255 255
  0   0 153
  0   0 197
  0   0 227
  0   0 246
  0   0 254
  0   0 252
  0   0 237
  0   0 206
  0   0 144
152   0   0
197   0   0
215   0   0
218   0   0
212   0   0
200   0   0
183   0   0
162   0   0
141   0   0
119   0   0
 99   0   0
 80   0   0
255 255 255
255 255 255
255 255 255
255 255 255
255 255 255
255 255 255
255 255 255
255 255 255
255 255 255
255 255 255
255 255 255
255 255 255
255 255 255
255 255 255
255 255 255
255 255 255
255 255 255
255 255 255
255 255 255
255 255 255
255 255 255
255 255 255
255 255 255
255 255 255
255 255 255
255 255 255
255 255 255
255 255 255
255 255 255
255 255 255
255 255 255
255 255 255
255 150   0
255 255 255
255 255 255
255 255 255
255 255 255
255 255 255
255 255 255
255 255 255
255 255 255
255 255 255
255 255 255
255 255 255
255 255 255
255 255 255
255 255 255
255 255 255
255 255 255
255 255 255
255 255 255
  0   0   0
  0   0   0
  0   0   0
  0   0   0
255 255 255
255 255 255
255 255 255
255 255 255
255 255 255
255 255 255
255 255 255
255 255 255
255 255 255
255 255 255
255 255 255
255 255 255
255 255 255
255 255 255
255 255 255
255 255 255
255 255 255
255 150   0
255 255 255
255 255 255
255 255 255
255 255 255
255 255 255
255 255 255
255 255 255
255 255 255
255 255 255
255 255 255
255 255 255
255 255 255
255 255 255
255 255 255
255 255 255
255 255 255
255 255 255
255 255 255
255 255 255
255 255 255
255 255 255
255 255 255
255 255 255
255 255 255
255 255 255
255 255 255
255 255 255
255 255 255
255 255 255
255 255 255
255 255 255
255 255 255
255 255 255
255 255 255
255 255 255
255 255 255
255 255 255
255 255 255
255 255 255
255 255 255
255 255 255
255 255 255
255 255 255
255 255 255
255 255 255
255 255 255
255 255 255
255 255 255
255 255 255
255 255 255
255 255 255
255 255 255
255 255 255
255 255 255
255 255 255
255 255 255
255 255 255
255 255 255
255 255 255
255 255 255
255 255 255
255 255 255
255 255 255
255 255 255
255 255 255
255 255 255
255 255 255
255 255 255
255 255 255
255 255 255
255 255 255
255 255 255
255 255 255
255 255 255
255 255 255
255 255 255
255 255 255
255 255 255
255 255 255
255 255 255
255 255 255
 65   0   0
 66   0   0
 67   0   0
 69   0   0
 71   0   0
 73   0   0
 75   0   0
 77   0   0
 79   0   0
 82   0   0
 85   0   0
 88   0   0
 92   0   0
 96   0   0
101   0   0
107   0   0
113   0   0
121   0   0
129   0   0
138   0   0
147   0   0
154   0   0
159   0   0
158   0   0
147   0   0
107   0   0
  0   0 133
  0   0 185
  0   0 219
  0   0 241
  0   0 253
  0   0 254
  0   0 243
  0   0 217
  0   0 168
124   0   0
188   0   0
212   0   0
218   0   0
215   0   0
204   0   0
188   0   0
168   0   0
147   0   0
125   0   0
104   0   0
 84   0   0
 67   0   0
255 255 255
255 255 255
255 255 255
255 255 255
255 255 255
255 255 255
255 255 255
255 255 255
255 255 255
255 255 255
255 255 255
255 255 255
255 255 255
255 255 255
255 255 255
255 255 255
255 255 255
255 255 255
255 255 255
255 255 255
255 255 255
255 255 255
255 255 255
255 255 255
255 255 255
255 255 255
255 255 255
255 255 255
255 255 255
255 255 255
255 255 255
255 150   0
255 255 255
255 255 255
255 255 255
255 255 255
255 255 255
255 255 255
255 255 255
255 255 255
255 255 255
255 255 255
255 255 255
255 255 255
255 255 255
255 255 255
255 255 255
255 255 255
255 255 255
255 255 255
  0   0   0
  0   0   0
  0   0   0
  0   0   0
255 255 255
255 255 255
255 255 255
255 255 255
255 255 255
255 255 255
255 255 255
255 255 255
255 255 255
255 255 255
255 255 255
255 255 255
255 255 255
255 255 255
255 255 255
255 255 255
255 255 255
255 150   0
255 255 255
255 255 255
255 255 255
255 255 255
255 255 255
255 255 255
255 255 255
255 255 255
255 255 255
255 255 255
255 255 255
255 255 255
255 255 255
255 255 255
255 255 255
255 255 255
255 255 255
255 255 255
255 255 255
255 255 255
255 255 255
255 255 255
255 255 255
255 255 255
255 255 255
255 255 255
255 255 255
255 255 255
255 255 255
255 255 255
255 255 255
255 255 255
255 255 255
255 255 255
255 255 255
255 255 255
255 255 255
255 255 255
255 255 255
255 255 255
255 255 255
255 255 255
255 255 255
255 255 255
255 255 255
255 255 255
255 255 255
255 255 255
255 255 255
255 255 255
255 255 255
255 255 255
255 255 255
255 255 255
255 255 255
255 255 255
255 255 255
255 255 255
255 255 255
255 255 255
255 255 255
255 255 255
255 255 255
255 255 255
255 255 255
255 255 255
255 255 255
255 255 255
255 255 255
255 255 255
255 255 255
255 255 255
255 255 255
255 255 255
255 255 255
255 255 255
255 255 255
255 255 255
255 255 255
255 255 255
255 255 255
255 255 255
 65   0   0
 67   0   0
 68   0   0
 70   0   0
 72   0   0
 74   0   0
 76   0   0
 78   0   0
 81   0   0
 84   0   0
 87   0   0
 91   0   0
 95   0   0
 99   0   0
105   0   0
111   0   0
118   0   0
126   0   0
135   0   0
144   0   0
152   0   0
158   0   0
159   0   0
152   0   0
125   0   0
  0   0 108
  0   0 172
  0   0 210
  0   0 235
  0   0 251
  0   0 255
  0   0 247
  0   0 226
  0   0 185
255 255 255
178   0   0
207   0   0
218   0   0
217   0   0
207   0   0
192   0   0
173   0   0
152   0   0
131   0   0
109   0   0
 89   0   0
 71   0   0
255 255 255
255 255 255
255 255 255
255 255 255
255 255 255
255 255 255
255 255 255
255 255 255
255 255 255
255 255 255
255 255 255
255 255 255
255 255 255
255 255 255
255 255 255
255 255 255
255 255 255
255 255 255
255 255 255
255 255 255
255 255 255
255 255 255
255 255 255
255 255 255
255 255 255
255 255 255
255 255 255
255 255 255
255 255 255
255 255 255
255 255 255
255 150   0
255 255 255
255 255 255
255 255 255
255 255 255
255 255 255
255 255 255
255 255 255
255 255 255
255 255 255
255 255 255
255 255 255
255 255 255
255 255 255
255 255 255
255 255 255
255 255 255
255 255 255
255 255 255
  0   0   0
  0   0   0
  0   0   0
  0   0   0
255 255 255
255 255 255
255 255 255
255 255 255
255 255 255
255 255 255
255 255 255
255 255 255
255 255 255
255 255 255
255 255 255
255 255 255
255 255 255
255 255 255
255 255 255
255 255 255
255 255 255
255 150   0
255 255 255
255 255 255
255 255 255
255 255 255
255 255 255
255 255 255
255 255 255
255 255 255
255 255 255
255 255 255
255 255 255
255 255 255
255 255 255
255 255 255
255 255 255
255 255 255
255 255 255
255 255 255
255 255 255
255 255 255
255 255 255
255 255 255
255 255 255
255 255 255
255 255 255
255 255 255
255 255 255
255 255 255
255 255 255
255 255 255
255 255 255
255 255 255
255 255 255
255 255 255
255 255 255
255 255 255
255 255 255
255 255 255
255 255 255
255 255 255
255 255 255
255 255 255
255 255 255
255 255 255
255 255 255
255 255 255
255 255 255
255 255 255
255 255 255
255 255 255
255 255 255
255 255 255
255 255 255
255 255 255
255 255 255
255 255 255
255 255 255
255 255 255
255 255 255
255 255 255
255 255 255
255 255 255
255 255 255
255 255 255
255 255 255
255 255 255
255 255 255
255 255 255
255 255 255
255 255 255
255 255 255
255 255 255
255 255 255
255 255 255
255 255 255
255 255 255
255 255 255
255 255 255
255 255 255
255 255 255
255 255 255
255 255 255
 65   0   0
 66   0   0
 68   0   0
 69   0   0
 71   0   0
 73   0   0
 75   0   0
 78   0   0
 80   0   0
 83   0   0
 86   0   0
 89   0   0
 93   0   0
 98   0   0
103   0   0
109   0   0
115   0   0
123   0   0
132   0   0
141   0   0
150   0   0
156   0   0
159   0   0
155   0   0
137   0   0
255 255 255
  0   0 158
  0   0 200
  0   0 229
  0   0 247
  0   0 255
  0   0 251
  0   0 233
  0   0 199
  0   0 124
164   0   0
202   0   0
216   0   0
218   0   0
210   0   0
196   0   0
178   0   0
158   0   0
136   0   0
114   0   0
 94   0   0
 75   0   0
255 255 255
255 255 255
255 255 255
255 255 255
255 255 255
255 255 255
255 255 255
255 255 255
255 255 255
255 255 255
255 255 255
255 255 255
255 255 255
255 255 255
255 255 255
255 255 255
255 255 255
255 255 255
255 255 255
255 255 255
255 255 255
255 255 255
255 255 255
255 255 255
255 255 255
255 255 255
255 255 255
255 255 255
255 255 255
255 255 255
255 255 255
255 150   0
255 255 255
255 255 255
255 255 255
255 255 255
255 255 255
255 255 255
255 255 255
255 255 255
255 255 255
255 255 255
255 255 255
255 255 255
255 255 255
255 255 255
255 255 255
255 255 255
255 255 255
255 255 255
  0   0   0
  0   0   0
  0   0   0
  0   0   0
255 255 255
255 255 255
255 255 255
255 255 255
255 255 255
255 255 255
255 255 255
255 255 255
255 255 255
255 255 255
255 255 255
255 255 255
255 255 255
255 255 255
255 255 255
255 255 255
255 255 255
255 150   0
255 255 255
255 255 255
255 255 255
255 255 255
255 255 255
255 255 255
255 255 255
255 255 255
255 255 255
255 255 255
255 255 255
255 255 255
255 255 255
255 255 255
255 255 255
255 255 255
255 255 255
255 255 255
255 255 255
255 255 255
255 255 255
255 255 255
255 255 255
255 255 255
255 255 255
255 255 255
255 255 255
255 255 255
255 255 255
255 255 255
255 255 255
255 255 255
255 255 255
255 255 255
255 255 255
255 255 255
255 255 255
255 255 255
255 255 255
255 255 255
255 255 255
255 255 255
255 255 255
255 255 255
255 255 255
255 255 255
255 255 255
255 255 255
255 255 255
255 255 255
255 255 255
255 255 255
255 255 255
255 255 255
255 255 255
255 255 255
255 255 255
255 255 255
255 255 255
255 255 255
255 255 255
255 255 255
255 255 255
255 255 255
255 255 255
255 255 255
255 255 255
255 255 255
255 255 255
255 255 255
255 255 255
255 255 255
255 255 255
255 255 255
255 255 255
255 255 255
255 255 255
255 255 255
255 255 255
255 255 255
255 255 255
255 255 255
 64   0   0
 66   0   0
 67   0   0
 69   0   0
 71   0   0
 72   0   0
 74   0   0
 77   0   0
 79   0   0
 82   0   0
 85   0   0
 88   0   0
 92   0   0
 96   0   0
101   0   0
107   0   0
113   0   0
121   0   0
129   0   0
138   0   0
147   0   0
155   0   0
159   0   0
158   0   0
144   0   0
 96   0   0
  0   0 142
  0   0 190
  0   0 223
  0   0 244
  0   0 254
  0   0 253
  0   0 239
  0   0 210
  0   0 152
146   0   0
195   0   0
214   0   0
218   0   0
213   0   0
200   0   0
183   0   0
163   0   0
141   0   0
119   0   0
 98   0   0
 79   0   0
255 255 255
255 255 255
255 255 255
255 255 255
255 255 255
255 255 255
255 255 255
255 255 255
255 255 255
255 255 255
255 255 255
255 255 255
255 255 255
255 255 255
255 255 255
255 255 255
255 255 255
255 255 255
255 255 255
255 255 255
255 255 255
255 255 255
255 255 255
255 255 255
255 255 255
255 255 255
255 255 255
255 255 255
255 255 255
255 255 255
255 255 255
255 150   0
255 255 255
255 255 255
255 255 255
255 255 255
255 255 255
255 255 255
255 255 255
255 255 255
255 255 255
255 255 255
255 255 255
255 255 255
255 255 255
255 255 255
255 255 255
255 255 255
255 255 255
255 255 255
  0   0   0
  0   0   0
  0   0   0
  0   0   0
255 255 255
255 255 255
255 255 255
255 255 255
255 255 255
255 255 255
255 255 255
255 255 255
255 255 255
255 255 255
255 255 255
255 255 255
255 255 255
255 255 255
255 255 255
255 255 255
255 255 255
255 150   0
255 255 255
255 255 255
255 255 255
255 255 255
255 255 255
255 255 255
255 255 255
255 255 255
255 255 255
255 255 255
255 255 255
255 255 255
255 255 255
255 255 255
255 255 255
255 255 255
255 255 255
255 255 255
255 255 255
255 255 255
255 255 255
255 255 255
255 255 255
255 255 255
255 255 255
255 255 255
255 255 255
255 255 255
255 255 255
255 255 255
255 255 255
255 255 255
255 255 255
255 255 255
255 255 255
255 255 255
255 255 255
255 255 255
255 255 255
255 255 255
255 255 255
255 255 255
255 255 255
255 255 255
255 255 255
255 255 255
255 255 255
255 255 255
255 255 255
255 255 255
255 255 255
255 255 255
255 255 255
255 255 255
255 255 255
255 255 255
255 255 255
255 255 255
255 255 255
255 255 255
255 255 255
255 255 255
255 255 255
255 255 255
255 255 255
255 255 255
255 255 255
255 255 255
255 255 255
255 255 255
255 255 255
255 255 255
255 255 255
255 255 255
255 255 255
255 255 255
255 255 255
255 255 255
255 255 255
255 255 255
255 255 255
255 255 255
255 255 255
 65   0   0
 67   0   0
 68   0   0
 70   0   0
 72   0   0
 74   0   0
 76   0   0
 78   0   0
 81   0   0
 84   0   0
 87   0   0
 91   0   0
 95   0   0
 99   0   0
105   0   0
111   0   0
118   0   0
127   0   0
136   0   0
145   0   0
153   0   0
158   0   0
159   0   0
150   0   0
118   0   0
  0   0 122
  0   0 180
  0   0 215
  0   0 239
  0   0 252
  0   0 254
  0   0 244
  0   0 219
  0   0 171
119   0   0
188   0   0
211   0   0
218   0   0
215   0   0
204   0   0
187   0   0
167   0   0
146   0   0
124   0   0
103   0   0
 83   0   0
 65   0   0
255 255 255
255 255 255
255 255 255
255 255 255
255 255 255
255 255 255
255 255 255
255 255 255
255 255 255
255 255 255
255 255 255
255 255 255
255 255 255
255 255 255
255 255 255
255 255 255
255 255 255
255 255 255
255 255 255
255 255 255
255 255 255
255 255 255
255 255 255
255 255 255
255 255 255
255 255 255
255 255 255
255 255 255
255 255 255
255 255 255
255 150   0
255 255 255
255 255 255
255 255 255
255 255 255
255 255 255
255 255 255
255 255 255
255 255 255
255 255 255
255 255 255
255 255 255
255 255 255
255 255 255
255 255 255
255 255 255
255 255 255
255 255 255
255 255 255
  0   0   0
  0   0   0
  0   0   0
  0   0   0
255 255 255
255 255 255
255 255 255
255 255 255
255 255 255
255 255 255
255 255 255
255 255 255
255 255 255
255 255 255
255 255 255
255 255 255
255 255 255
255 255 255
255 255 255
255 255 255
255 255 255
255 150   0
255 255 255
255 255 255
255 255 255
255 255 255
255 255 255
255 255 255
255 255 255
255 255 255
255 255 255
255 255 255
255 255 255
255 255 255
255 255 255
255 255 255
255 255 255
255 255 255
255 255 255
255 255 255
255 255 255
255 255 255
255 255 255
255 255 255
255 255 255
255 255 255
255 255 255
255 255 255
255 255 255
255 255 255
255 255 255
255 255 255
255 255 255
255 255 255
255 255 255
255 255 255
255 255 255
255 255 255
255 255 255
255 255 255
255 255 255
255 255 255
255 255 255
255 255 255
255 255 255
255 255 255
255 255 255
255 255 255
255 255 255
255 255 255
255 255 255
255 255 255
255 255 255
255 255 255
255 255 255
255 255 255
255 255 255
255 255 255
255 255 255
255 255 255
255 255 255
255 255 255
255 255 255
255 255 255
255 255 255
255 255 255
255 255 255
255 255 255
255 255 255
255 255 255
255 255 255
255 255 255
255 255 255
255 255 255
255 255 255
255 255 255
255 255 255
255 255 255
255 255 255
255 255 255
255 255 255
255 255 255
255 255 255
255 255 255
255 255 255
 65   0   0
 66   0   0
 68   0   0
 69   0   0
 71   0   0
 73   0   0
 75   0   0
 78   0   0
 80   0   0
 83   0   0
 86   0   0
 89   0   0
 93   0   0
 98   0   0
103   0   0
109   0   0
116   0   0
124   0   0
133   0   0
142   0   0
151   0   0
157   0   0
159   0   0
153   0   0
130   0   0
  0   0  96
  0   0 168
  0   0 208
  0   0 234
  0   0 250
  0   0 255
  0   0 248
  0   0 227
  0   0 186
255 255 255
178   0   0
208   0   0
218   0   0
216   0   0
207   0   0
191   0   0
172   0   0
151   0   0
129   0   0
107   0   0
 87   0   0
 69   0   0
255 255 255
255 255 255
255 255 255
255 255 255
255 255 255
255 255 255
255 255 255
255 255 255
255 255 255
255 255 255
255 255 255
255 255 255
255 255 255
255 255 255
255 255 255
255 255 255
255 255 255
255 255 255
255 255 255
255 255 255
255 255 255
255 255 255
255 255 255
255 255 255
255 255 255
255 255 255
255 255 255
255 255 255
255 255 255
255 255 255
255 150   0
255 255 255
255 255 255
255 255 255
255 255 255
255 255 255
255 255 255
255 255 255
255 255 255
255 255 255
255 255 255
255 255 255
255 255 255
255 255 255
255 255 255
255 255 255
255 255 255
255 255 255
255 255 255
  0   0   0
  0   0   0
  0   0   0
  0   0   0
255 255 255
255 255 255
255 255 255
255 255 255
255 255 255
255 255 255
255 255 255
255 255 255
255 255 255
255 255 255
255 255 255
255 255 255
255 255 255
255 255 255
255 255 255
255 255 255
255 255 255
255 150   0
255 255 255
255 255 255
255 255 255
255 255 255
255 255 255
255 255 255
255 255 255
255 255 255
255 255 255
255 255 255
255 255 255
255 255 255
255 255 255
255 255 255
255 255 255
255 255 255
255 255 255
255 255 255
255 255 255
255 255 255
255 255 255
255 255 255
255 255 255
255 255 255
255 255 255
255 255 255
255 255 255
255 255 255
255 255 255
255 255 255
255 255 255
255 255 255
255 255 255
255 255 255
255 255 255
255 255 255
255 255 255
255 255 255
255 255 255
255 255 255
255 255 255
255 255 255
255 255 255
255 255 255
255 255 255
255 255 255
255 255 255
255 255 255
255 255 255
255 255 255
255 255 255
255 255 255
255 255 255
255 255 255
255 255 255
255 255 255
255 255 255
255 255 255
255 255 255
255 255 255
255 255 255
255 255 255
255 255 255
255 255 255
255 255 255
255 255 255
255 255 255
255 255 255
255 255 255
255 255 255
255 255 255
255 255 255
255 255 255
255 255 255
255 255 255
255 255 255
255 255 255
255 255 255
255 255 255
255 255 255
255 255 255
255 255 255
255 255 255
 64   0   0
 66   0   0
 67   0   0
 69   0   0
 71   0   0
 72   0   0
 75   0   0
 77   0   0
 79   0   0
 82   0   0
 85   0   0
 88   0   0
 92   0   0
 97   0   0
102   0   0
107   0   0
114   0   0
122   0   0
131   0   0
140   0   0
149   0   0
156   0   0
159   0   0
156   0   0
139   0   0
255 255 255
  0   0 156
  0   0 200
  0   0 229
  0   0 247
  0   0 255
  0   0 251
  0   0 233
  0   0 197
  0   0 116
167   0   0
203   0   0
217   0   0
217   0   0
209   0   0
195   0   0
176   0   0
155   0   0
133   0   0
111   0   0
 91   0   0
 72   0   0
255 255 255
255 255 255
255 255 255
255 255 255
255 255 255
255 255 255
255 255 255
255 255 255
255 255 255
255 255 255
255 255 255
255 255 255
255 255 255
255 255 255
255 255 255
255 255 255
255 255 255
255 255 255
255 255 255
255 255 255
255 255 255
255 255 255
255 255 255
255 255 255
255 255 255
255 255 255
255 255 255
255 255 255
255 255 255
255 255 255
255 150   0
255 255 255
255 255 255
255 255 255
255 255 255
255 255 255
255 255 255
255 255 255
255 255 255
255 255 255
255 255 255
255 255 255
255 255 255
255 255 255
255 255 255
255 255 255
255 255 255
255 255 255
255 255 255
  0   0   0
  0   0   0
  0   0   0
  0   0   0
255 255 255
255 255 255
255 255 255
255 255 255
255 255 255
255 255 255
255 255 255
255 255 255
255 255 255
255 255 255
255 255 255
255 255 255
255 255 255
255 255 255
255 255 255
255 255 255
255 255 255
255 150   0
255 255 255
255 255 255
255 255 255
255 255 255
255 255 255
255 255 255
255 255 255
255 255 255
255 255 255
255 255 255
255 255 255
255 255 255
255 255 255
255 255 255
255 255 255
255 255 255
255 255 255
255 255 255
255 255 255
255 255 255
255 255 255
255 255 255
255 255 255
255 255 255
255 255 255
255 255 255
255 255 255
255 255 255
255 255 255
255 255 255
255 255 255
255 255 255
255 255 255
255 255 255
255 255 255
255 255 255
255 255 255
255 255 255
255 255 255
255 255 255
255 255 255
255 255 255
255 255 255
255 255 255
255 255 255
255 255 255
255 255 255
255 255 255
255 255 255
255 255 255
255 255 255
255 255 255
255 255 255
255 255 255
255 255 255
255 255 255
255 255 255
255 255 255
255 255 255
255 255 255
255 255 255
255 255 255
255 255 255
255 255 255
255 255 255
255 255 255
255 255 255
255 255 255
255 255 255
255 255 255
255 255 255
255 255 255
255 255 255
255 255 255
255 255 255
255 255 255
255 255 255
255 255 255
255 255 255
255 255 255
255 255 255
255 255 255
255 255 255
255 255 255
 65   0   0
 67   0   0
 68   0   0
 70   0   0
 72   0   0
 74   0   0
 76   0   0
 79   0   0
 81   0   0
 84   0   0
 87   0   0
 91   0   0
 95   0   0
100   0   0
106   0   0
112   0   0
120   0   0
128   0   0
137   0   0
147   0   0
154   0   0
159   0   0
158   0   0
145   0   0
 97   0   0
  0   0 142
  0   0 191
  0   0 223
  0   0 244
  0   0 254
  0   0 253
  0   0 238
  0   0 207
  0   0 143
153   0   0
198   0   0
215   0   0
218   0   0
211   0   0
198   0   0
180   0   0
159   0   0
137   0   0
116   0   0
 95   0   0
 76   0   0
255 255 255
255 255 255
255 255 255
255 255 255
255 255 255
255 255 255
255 255 255
255 255 255
255 255 255
255 255 255
255 255 255
255 255 255
255 255 255
255 255 255
255 255 255
255 255 255
255 255 255
255 255 255
255 255 255
255 255 255
255 255 255
255 255 255
255 255 255
255 255 255
255 255 255
255 255 255
255 255 255
255 255 255
255 255 255
255 255 255
255 150   0
255 255 255
255 255 255
255 255 255
255 255 255
255 255 255
255 255 255
255 255 255
255 255 255
255 255 255
255 255 255
255 255 255
255 255 255
255 255 255
255 255 255
255 255 255
255 255 255
255 255 255
255 255 255
  0   0   0
  0   0   0
  0   0   0
  0   0   0
255 255 255
255 255 255
255 255 255
255 255 255
255 255 255
255 255 255
255 255 255
255 255 255
255 255 255
255 255 255
255 255 255
255 255 255
255 255 255
255 255 255
255 255 255
255 255 255
255 255 255
255 150   0
255 255 255
255 255 255
255 255 255
255 255 255
255 255 255
255 255 255
255 255 255
255 255 255
255 255 255
255 255 255
255 255 255
255 255 255
255 255 255
255 255 255
255 255 255
255 255 255
255 255 255
255 255 255
255 255 255
255 255 255
255 255 255
255 255 255
255 255 255
255 255 255
255 255 255
255 255 255
255 255 255
255 255 255
255 255 255
255 255 255
255 255 255
255 255 255
255 255 255
255 255 255
255 255 255
255 255 255
255 255 255
255 255 255
255 255 255
255 255 255
255 255 255
255 255 255
255 255 255
255 255 255
255 255 255
255 255 255
255 255 255
255 255 255
255 255 255
255 255 255
255 255 255
255 255 255
255 255 255
255 255 255
255 255 255
255 255 255
255 255 255
255 255 255
255 255 255
255 255 255
255 255 255
255 255 255
255 255 255
255 255 255
255 255 255
255 255 255
255 255 255
255 255 255
255 255 255
255 255 255
255 255 255
255 255 255
255 255 255
255 255 255
255 255 255
255 255 255
255 255 255
255 255 255
255 255 255
255 255 255
255 255 255
255 255 255
255 255 255
255 255 255
 65   0   0
 66   0   0
 68   0   0
 69   0   0
 71   0   0
 73   0   0
 75   0   0
 78   0   0
 80   0   0
 83   0   0
 86   0   0
 90   0   0
 94   0   0
 99   0   0
104   0   0
111   0   0
118   0   0
126   0   0
135   0   0
144   0   0
153   0   0
158   0   0
159   0   0
149   0   0
115   0   0
  0   0 127
  0   0 182
  0   0 217
  0   0 241
  0   0 253
  0   0 254
  0   0 242
  0   0 215
  0   0 161
136   0   0
193   0   0
213   0   0
218   0   0
213   0   0
201   0   0
184   0   0
163   0   0
141   0   0
119   0   0
 98   0   0
 79   0   0
255 255 255
255 255 255
255 255 255
255 255 255
255 255 255
255 255 255
255 255 255
255 255 255
255 255 255
255 255 255
255 255 255
255 255 255
255 255 255
255 255 255
255 255 255
255 255 255
255 255 255
255 255 255
255 255 255
255 255 255
255 255 255
255 255 255
255 255 255
255 255 255
255 255 255
255 255 255
255 255 255
255 255 255
255 255 255
255 255 255
255 150   0
255 255 255
255 255 255
255 255 255
255 255 255
255 255 255
255 255 255
255 255 255
255 255 255
255 255 255
255 255 255
255 255 255
255 255 255
255 255 255
255 255 255
255 255 255
255 255 255
255 255 255
255 255 255
  0   0   0
  0   0   0
  0   0   0
  0   0   0
255 255 255
255 255 255
255 255 255
255 255 255
255 255 255
255 255 255
255 255 255
255 255 255
255 255 255
255 255 255
255 255 255
255 255 255
255 255 255
255 255 255
255 255 255
255 255 255
255 255 255
255 150   0
255 255 255
255 255 255
255 255 255
255 255 255
255 255 255
255 255 255
255 255 255
255 255 255
255 255 255
255 255 255
255 255 255
255 255 255
255 255 255
255 255 255
255 255 255
255 255 255
255 255 255
255 255 255
255 255 255
255 255 255
255 255 255
255 255 255
255 255 255
255 255 255
255 255 255
255 255 255
255 255 255
255 255 255
255 255 255
255 255 255
255 255 255
255 255 255
255 255 255
255 255 255
255 255 255
255 255 255
255 255 255
255 255 255
255 255 255
255 255 255
255 255 255
255 255 255
255 255 255
255 255 255
255 255 255
255 255 255
255 255 255
255 255 255
255 255 255
255 255 255
255 255 255
255 255 255
255 255 255
255 255 255
255 255 255
255 255 255
255 255 255
255 255 255
255 255 255
255 255 255
255 255 255
255 255 255
255 255 255
255 255 255
255 255 255
255 255 255
255 255 255
255 255 255
255 255 255
255 255 255
255 255 255
255 255 255
255 255 255
255 255 255
255 255 255
255 255 255
255 255 255
255 255 255
255 255 255
255 255 255
255 255 255
255 255 255
255 255 255
255 255 255
 64   0   0
 66   0   0
 67   0   0
 69   0   0
 71   0   0
 73   0   0
 75   0   0
 77   0   0
 80   0   0
 83   0   0
 86   0   0
 89   0   0
 93   0   0
 98   0   0
103   0   0
109   0   0
116   0   0
124   0   0
133   0   0
142   0   0
151   0   0
157   0   0
159   0   0
153   0   0
127   0   0
  0   0 107
  0   0 173
  0   0 211
  0   0 237
  0   0 251
  0   0 255
  0   0 245
  0   0 221
  0   0 175
111   0   0
186   0   0
211   0   0
218   0   0
215   0   0
204   0   0
187   0   0
167   0   0
145   0   0
123   0   0
102   0   0
 82   0   0
 64   0   0
255 255 255
255 255 255
255 255 255
255 255 255
255 255 255
255 255 255
255 255 255
255 255 255
255 255 255
255 255 255
255 255 255
255 255 255
255 255 255
255 255 255
255 255 255
255 255 255
255 255 255
255 255 255
255 255 255
255 255 255
255 255 255
255 255 255
255 255 255
255 255 255
255 255 255
255 255 255
255 255 255
255 255 255
255 255 255
255 150   0
255 255 255
255 255 255
255 255 255
255 255 255
255 255 255
255 255 255
255 255 255
255 255 255
255 255 255
255 255 255
255 255 255
255 255 255
255 255 255
255 255 255
255 255 255
255 255 255
255 255 255
255 255 255
  0   0   0
  0   0   0
  0   0   0
  0   0   0
255 255 255
255 255 255
255 255 255
255 255 255
255 255 255
255 255 255
255 255 255
255 255 255
255 255 255
255 255 255
255 255 255
255 255 255
255 255 255
255 255 255
255 255 255
255 255 255
255 255 255
255 150   0
255 255 255
255 255 255
255 255 255
255 255 255
255 255 255
255 255 255
255 255 255
255 255 255
255 255 255
255 255 255
255 255 255
255 255 255
255 255 255
255 255 255
255 255 255
255 255 255
255 255 255
255 255 255
255 255 255
255 255 255
255 255 255
255 255 255
255 255 255
255 255 255
255 255 255
255 255 255
255 255 255
255 255 255
255 255 255
255 255 255
255 255 255
255 255 255
255 255 255
255 255 255
255 255 255
255 255 255
255 255 255
255 255 255
255 255 255
255 255 255
255 255 255
255 255 255
255 255 255
255 255 255
255 255 255
255 255 255
255 255 255
255 255 255
255 255 255
255 255 255
255 255 255
255 255 255
255 255 255
255 255 255
255 255 255
255 255 255
255 255 255
255 255 255
255 255 255
255 255 255
255 255 255
255 255 255
255 255 255
255 255 255
255 255 255
255 255 255
255 255 255
255 255 255
255 255 255
255 255 255
255 255 255
255 255 255
255 255 255
255 255 255
255 255 255
255 255 255
255 255 255
255 255 255
255 255 255
255 255 255
255 255 255
255 255 255
255 255 255
255 255 255
255 255 255
 65   0   0
 67   0   0
 68   0   0
 70   0   0
 72   0   0
 74   0   0
 77   0   0
 79   0   0
 82   0   0
 85   0   0
 88   0   0
 92   0   0
 97   0   0
102   0   0
108   0   0
114   0   0
122   0   0
131   0   0
141   0   0
149   0   0
156   0   0
159   0   0
155   0   0
135   0   0
  0   0  79
  0   0 164
  0   0 205
  0   0 233
  0   0 250
  0   0 255
  0   0 248
  0   0 227
  0   0 186
255 255 255
179   0   0
208   0   0
218   0   0
216   0   0
206   0   0
190   0   0
170   0   0
149   0   0
127   0   0
105   0   0
 85   0   0
 67   0   0
255 255 255
255 255 255
255 255 255
255 255 255
255 255 255
255 255 255
255 255 255
255 255 255
255 255 255
255 255 255
255 255 255
255 255 255
255 255 255
255 255 255
255 255 255
255 255 255
255 255 255
255 255 255
255 255 255
255 255 255
255 255 255
255 255 255
255 255 255
255 255 255
255 255 255
255 255 255
255 255 255
255 255 255
255 255 255
255 150   0
255 255 255
255 255 255
255 255 255
255 255 255
255 255 255
255 255 255
255 255 255
255 255 255
255 255 255
255 255 255
255 255 255
255 255 255
255 255 255
255 255 255
255 255 255
255 255 255
255 255 255
255 255 255
  0   0   0
  0   0   0
  0   0   0
  0   0   0
255 255 255
255 255 255
255 255 255
255 255 255
255 255 255
255 255 255
255 255 255
255 255 255
255 255 255
255 255 255
255 255 255
255 255 255
255 255 255
255 255 255
255 255 255
255 255 255
255 255 255
255 150   0
255 255 255
255 255 255
255 255 255
255 255 255
255 255 255
255 255 255
255 255 255
255 255 255
255 255 255
255 255 255
255 255 255
255 255 255
255 255 255
255 255 255
255 255 255
255 255 255
255 255 255
255 255 255
255 255 255
255 255 255
255 255 255
255 255 255
255 255 255
255 255 255
255 255 255
255 255 255
255 255 255
255 255 255
255 255 255
255 255 255
255 255 255
255 255 255
255 255 255
255 255 255
255 255 255
255 255 255
255 255 255
255 255 255
255 255 255
255 255 255
255 255 255
255 255 255
255 255 255
255 255 255
255 255 255
255 255 255
255 255 255
255 255 255
255 255 255
255 255 255
255 255 255
255 255 255
255 255 255
255 255 255
255 255 255
255 255 255
255 255 255
255 255 255
255 255 255
255 255 255
255 255 255
255 255 255
255 255 255
255 255 255
255 255 255
255 255 255
255 255 255
255 255 255
255 255 255
255 255 255
255 255 255
255 255 255
255 255 255
255 255 255
255 255 255
255 255 255
255 255 255
255 255 255
255 255 255
255 255 255
255 255 255
255 255 255
255 255 255
255 255 255
255 255 255
 65   0   0
 66   0   0
 68   0   0
 70   0   0
 72   0   0
 74   0   0
 76   0   0
 78   0   0
 81   0   0
 84   0   0
 87   0   0
 91   0   0
 96   0   0
100   0   0
106   0   0
113   0   0
121   0   0
129   0   0
139   0   0
148   0   0
155   0   0
159   0   0
157   0   0
141   0   0
 66   0   0
  0   0 154
  0   0 199
  0   0 229
  0   0 247
  0   0 255
  0   0 250
  0   0 232
  0   0 195
  0   0 107
170   0   0
205   0   0
217   0   0
217   0   0
208   0   0
193   0   0
174   0   0
152   0   0
130   0   0
108   0   0
 88   0   0
 70   0   0
255 255 255
255 255 255
255 255 255
255 255 255
255 255 255
255 255 255
255 255 255
255 255 255
255 255 255
255 255 255
255 255 255
255 255 255
255 255 255
255 255 255
255 255 255
255 255 255
255 255 255
255 255 255
255 255 255
255 255 255
255 255 255
255 255 255
255 255 255
255 255 255
255 255 255
255 255 255
255 255 255
255 255 255
255 255 255
255 150   0
255 255 255
255 255 255
255 255 255
255 255 255
255 255 255
255 255 255
255 255 255
255 255 255
255 255 255
255 255 255
255 255 255
255 255 255
255 255 255
255 255 255
255 255 255
255 255 255
255 255 255
255 255 255
  0   0   0
  0   0   0
  0   0   0
  0   0   0
255 255 255
255 255 255
255 255 255
255 255 255
255 255 255
255 255 255
255 255 255
255 255 255
255 255 255
255 255 255
255 255 255
255 255 255
255 255 255
255 255 255
255 255 255
255 255 255
255 255 255
255 150   0
255 255 255
255 255 255
255 255 255
255 255 255
255 255 255
255 255 255
255 255 255
255 255 255
255 255 255
255 255 255
255 255 255
255 255 255
255 255 255
255 255 255
255 255 255
255 255 255
255 255 255
255 255 255
255 255 255
255 255 255
255 255 255
255 255 255
255 255 255
255 255 255
255 255 255
255 255 255
255 255 255
255 255 255
255 255 255
255 255 255
255 255 255
255 255 255
255 255 255
255 255 255
255 255 255
255 255 255
255 255 255
255 255 255
255 255 255
255 255 255
255 255 255
255 255 255
255 255 255
255 255 255
255 255 255
255 255 255
255 255 255
255 255 255
255 255 255
255 255 255
255 255 255
255 255 255
255 255 255
255 255 255
255 255 255
255 255 255
255 255 255
255 255 255
255 255 255
255 255 255
255 255 255
255 255 255
255 255 255
255 255 255
255 255 255
255 255 255
255 255 255
255 255 255
255 255 255
255 255 255
255 255 255
255 255 255
255 255 255
255 255 255
255 255 255
255 255 255
255 255 255
255 255 255
255 255 255
255 255 255
255 255 255
255 255 255
255 255 255
255 255 255
255 255 255
 65   0   0
 66   0   0
 68   0   0
 69   0   0
 71   0   0
 73   0   0
 76   0   0
 78   0   0
 81   0   0
 84   0   0
 87   0   0
 90   0   0
 95   0   0
 99   0   0
105   0   0
112   0   0
119   0   0
128   0   0
137   0   0
146   0   0
154   0   0
159   0   0
158   0   0
145   0   0
 96   0   0
  0   0 144
  0   0 192
  0   0 225
  0   0 245
  0   0 254
  0   0 252
  0   0 236
  0   0 203
  0   0 131
161   0   0
201   0   0
216   0   0
218   0   0
210   0   0
195   0   0
177   0   0
156   0   0
133   0   0
112   0   0
 91   0   0
 72   0   0
255 255 255
255 255 255
255 255 255
255 255 255
255 255 255
255 255 255
255 255 255
255 255 255
255 255 255
255 255 255
255 255 255
255 255 255
255 255 255
255 255 255
255 255 255
255 255 255
255 255 255
255 255 255
255 255 255
255 255 255
255 255 255
255 255 255
255 255 255
255 255 255
255 255 255
255 255 255
255 255 255
255 255 255
255 255 255
255 150   0
255 255 255
255 255 255
255 255 255
255 255 255
255 255 255
255 255 255
255 255 255
255 255 255
255 255 255
255 255 255
255 255 255
255 255 255
255 255 255
255 255 255
255 255 255
255 255 255
255 255 255
255 255 255
  0   0   0
  0   0   0
  0   0   0
  0   0   0
255 255 255
255 255 255
255 255 255
255 255 255
255 255 255
255 255 255
255 255 255
255 255 255
255 255 255
255 255 255
255 255 255
255 255 255
255 255 255
255 255 255
255 255 255
255 255 255
255 255 255
255 150   0
255 255 255
255 255 255
255 255 255
255 255 255
255 255 255
255 255 255
255 255 255
255 255 255
255 255 255
255 255 255
255 255 255
255 255 255
255 255 255
255 255 255
255 255 255
255 255 255
255 255 255
255 255 255
255 255 255
255 255 255
255 255 255
255 255 255
255 255 255
255 255 255
255 255 255
255 255 255
255 255 255
255 255 255
255 255 255
255 255 255
255 255 255
255 255 255
255 255 255
255 255 255
255 255 255
255 255 255
255 255 255
255 255 255
255 255 255
255 255 255
255 255 255
255 255 255
255 255 255
255 255 255
255 255 255
255 255 255
255 255 255
255 255 255
255 255 255
255 255 255
255 255 255
255 255 255
255 255 255
255 255 255
255 255 255
255 255 255
255 255 255
255 255 255
255 255 255
255 255 255
255 255 255
255 255 255
255 255 255
255 255 255
255 255 255
255 255 255
255 255 255
255 255 255
255 255 255
255 255 255
255 255 255
255 255 255
255 255 255
255 255 255
255 255 255
255 255 255
255 255 255
255 255 255
255 255 255
255 255 255
255 255 255
255 255 255
255 255 255
255 255 255
255 255 255
 64   0   0
 66   0   0
 67   0   0
 69   0   0
 71   0   0
 73   0   0
 75   0   0
 77   0   0
 80   0   0
 83   0   0
 86   0   0
 90   0   0
 94   0   0
 98   0   0
104   0   0
110   0   0
118   0   0
126   0   0
135   0   0
145   0   0
153   0   0
158   0   0
159   0   0
148   0   0
111   0   0
  0   0 132
  0   0 186
  0   0 220
  0   0 243
  0   0 254
  0   0 253
  0   0 239
  0   0 209
  0   0 148
151   0   0
198   0   0
215   0   0
218   0   0
211   0   0
198   0   0
179   0   0
159   0   0
136   0   0
114   0   0
 94   0   0
 74   0   0
255 255 255
255 255 255
255 255 255
255 255 255
255 255 255
255 255 255
255 255 255
255 255 255
255 255 255
255 255 255
255 255 255
255 255 255
255 255 255
255 255 255
255 255 255
255 255 255
255 255 255
255 255 255
255 255 255
255 255 255
255 255 255
255 255 255
255 255 255
255 255 255
255 255 255
255 255 255
255 255 255
255 255 255
255 255 255
255 150   0
255 255 255
255 255 255
255 255 255
255 255 255
255 255 255
255 255 255
255 255 255
255 255 255
255 255 255
255 255 255
255 255 255
255 255 255
255 255 255
255 255 255
255 255 255
255 255 255
255 255 255
255 255 255
  0   0   0
  0   0   0
  0   0   0
  0   0   0
255 255 255
255 255 255
255 255 255
255 255 255
255 255 255
255 255 255
255 255 255
255 255 255
255 255 255
255 255 255
255 255 255
255 255 255
255 255 255
255 255 255
255 255 255
255 255 255
255 255 255
255 150   0
255 255 255
255 255 255
255 255 255
255 255 255
255 255 255
255 255 255
255 255 255
255 255 255
255 255 255
255 255 255
255 255 255
255 255 255
255 255 255
255 255 255
255 255 255
255 255 255
255 255 255
255 255 255
255 255 255
255 255 255
255 255 255
255 255 255
255 255 255
255 255 255
255 255 255
255 255 255
255 255 255
255 255 255
255 255 255
255 255 255
255 255 255
255 255 255
255 255 255
255 255 255
255 255 255
255 255 255
255 255 255
255 255 255
255 255 255
255 255 255
255 255 255
255 255 255
255 255 255
255 255 255
255 255 255
255 255 255
255 255 255
255 255 255
255 255 255
255 255 255
255 255 255
255 255 255
255 255 255
255 255 255
255 255 255
255 255 255
255 255 255
255 255 255
255 255 255
255 255 255
255 255 255
255 255 255
255 255 255
255 255 255
255 255 255
255 255 255
255 255 255
255 255 255
255 255 255
255 255 255
255 255 255
255 255 255
255 255 255
255 255 255
255 255 255
255 255 255
255 255 255
255 255 255
255 255 255
255 255 255
255 255 255
255 255 255
255 255 255
255 255 255
255 255 255
255 255 255
 65   0   0
 67   0   0
 69   0   0
 71   0   0
 72   0   0
 75   0   0
 77   0   0
 80   0   0
 82   0   0
 86   0   0
 89   0   0
 93   0   0
 98   0   0
103   0   0
109   0   0
116   0   0
125   0   0
134   0   0
143   0   0
152   0   0
158   0   0
159   0   0
151   0   0
120   0   0
  0   0 120
  0   0 180
  0   0 216
  0   0 240
  0   0 253
  0   0 254
  0   0 242
  0   0 215
  0   0 160
139   0   0
194   0   0
214   0   0
218   0   0
213   0   0
200   0   0
182   0   0
161   0   0
139   0   0
117   0   0
 96   0   0
 77   0   0
255 255 255
255 255 255
255 255 255
255 255 255
255 255 255
255 255 255
255 255 255
255 255 255
255 255 255
255 255 255
255 255 255
255 255 255
255 255 255
255 255 255
255 255 255
255 255 255
255 255 255
255 255 255
255 255 255
255 255 255
255 255 255
255 255 255
255 255 255
255 255 255
255 255 255
255 255 255
255 255 255
255 255 255
255 255 255
255 150   0
255 255 255
255 255 255
255 255 255
255 255 255
255 255 255
255 255 255
255 255 255
255 255 255
255 255 255
255 255 255
255 255 255
255 255 255
255 255 255
255 255 255
255 255 255
255 255 255
255 255 255
255 255 255
  0   0   0
  0   0   0
  0   0   0
  0   0   0
255 255 255
255 255 255
255 255 255
255 255 255
255 255 255
255 255 255
255 255 255
255 255 255
255 255 255
255 255 255
255 255 255
255 255 255
255 255 255
255 255 255
255 255 255
255 255 255
255 255 255
255 150   0
255 255 255
255 255 255
255 255 255
255 255 255
255 255 255
255 255 255
255 255 255
255 255 255
255 255 255
255 255 255
255 255 255
255 255 255
255 255 255
255 255 255
255 255 255
255 255 255
255 255 255
255 255 255
255 255 255
255 255 255
255 255 255
255 255 255
255 255 255
255 255 255
255 255 255
255 255 255
255 255 255
255 255 255
255 255 255
255 255 255
255 255 255
255 255 255
255 255 255
255 255 255
255 255 255
255 255 255
255 255 255
255 255 255
255 255 255
255 255 255
255 255 255
255 255 255
255 255 255
255 255 255
255 255 255
255 255 255
255 255 255
255 255 255
255 255 255
255 255 255
255 255 255
255 255 255
255 255 255
255 255 255
255 255 255
255 255 255
255 255 255
255 255 255
255 255 255
255 255 255
255 255 255
255 255 255
255 255 255
255 255 255
255 255 255
255 255 255
255 255 255
255 255 255
255 255 255
255 255 255
255 255 255
255 255 255
255 255 255
255 255 255
255 255 255
255 255 255
255 255 255
255 255 255
255 255 255
255 255 255
255 255 255
255 255 255
255 255 255
255 255 255
255 255 255
255 255 255
 65   0   0
 67   0   0
 68   0   0
 70   0   0
 72   0   0
 74   0   0
 77   0   0
 79   0   0
 82   0   0
 85   0   0
 88   0   0
 92   0   0
 97   0   0
102   0   0
108   0   0
115   0   0
123   0   0
132   0   0
142   0   0
151   0   0
157   0   0
159   0   0
153   0   0
128   0   0
  0   0 107
  0   0 174
  0   0 212
  0   0 237
  0   0 252
  0   0 255
  0   0 244
  0   0 219
  0   0 170
124   0   0
190   0   0
212   0   0
218   0   0
214   0   0
202   0   0
184   0   0
164   0   0
142   0   0
120   0   0
 98   0   0
 79   0   0
255 255 255
255 255 255
255 255 255
255 255 255
255 255 255
255 255 255
255 255 255
255 255 255
255 255 255
255 255 255
255 255 255
255 255 255
255 255 255
255 255 255
255 255 255
255 255 255
255 255 255
255 255 255
255 255 255
255 255 255
255 255 255
255 255 255
255 255 255
255 255 255
255 255 255
255 255 255
255 255 255
255 255 255
255 255 255
255 150   0
255 255 255
255 255 255
255 255 255
255 255 255
255 255 255
255 255 255
255 255 255
255 255 255
255 255 255
255 255 255
255 255 255
255 255 255
255 255 255
255 255 255
255 255 255
255 255 255
255 255 255
255 255 255
  0   0   0
  0   0   0
  0   0   0
  0   0   0
255 255 255
255 255 255
255 255 255
255 255 255
255 255 255
255 255 255
255 255 255
255 255 255
255 255 255
255 255 255
255 255 255
255 255 255
255 255 255
255 255 255
255 255 255
255 255 255
255 255 255
255 150   0
255 255 255
255 255 255
255 255 255
255 255 255
255 255 255
255 255 255
255 255 255
255 255 255
255 255 255
255 255 255
255 255 255
255 255 255
255 255 255
255 255 255
255 255 255
255 255 255
255 255 255
255 255 255
255 255 255
255 255 255
255 255 255
255 255 255
255 255 255
255 255 255
255 255 255
255 255 255
255 255 255
255 255 255
255 255 255
255 255 255
255 255 255
255 255 255
255 255 255
255 255 255
255 255 255
255 255 255
255 255 255
255 255 255
255 255 255
255 255 255
255 255 255
255 255 255
255 255 255
255 255 255
255 255 255
255 255 255
255 255 255
255 255 255
255 255 255
255 255 255
255 255 255
255 255 255
255 255 255
255 255 255
255 255 255
255 255 255
255 255 255
255 255 255
255 255 255
255 255 255
255 255 255
255 255 255
255 255 255
255 255 255
255 255 255
255 255 255
255 255 255
255 255 255
255 255 255
255 255 255
255 255 255
255 255 255
255 255 255
255 255 255
255 255 255
255 255 255
255 255 255
255 255 255
255 255 255
255 255 255
255 255 255
255 255 255
255 255 255
255 255 255
255 255 255
255 255 255
 65   0   0
 66   0   0
 68   0   0
 70   0   0
 72   0   0
 74   0   0
 76   0   0
 79   0   0
 81   0   0
 84   0   0
 88   0   0
 92   0   0
 96   0   0
101   0   0
107   0   0
114   0   0
122   0   0
131   0   0
140   0   0
149   0   0
157   0   0
160   0   0
155   0   0
133   0   0
  0   0  90
  0   0 167
  0   0 208
  0   0 235
  0   0 251
  0   0 255
  0   0 246
  0   0 223
  0   0 178
106   0   0
185   0   0
211   0   0
218   0   0
215   0   0
203   0   0
186   0   0
166   0   0
144   0   0
122   0   0
101   0   0
 81   0   0
255 255 255
255 255 255
255 255 255
255 255 255
255 255 255
255 255 255
255 255 255
255 255 255
255 255 255
255 255 255
255 255 255
255 255 255
255 255 255
255 255 255
255 255 255
255 255 255
255 255 255
255 255 255
255 255 255
255 255 255
255 255 255
255 255 255
255 255 255
255 255 255
255 255 255
255 255 255
255 255 255
255 255 255
255 255 255
255 150   0
255 255 255
255 255 255
255 255 255
255 255 255
255 255 255
255 255 255
255 255 255
255 255 255
255 255 255
255 255 255
255 255 255
255 255 255
255 255 255
255 255 255
255 255 255
255 255 255
255 255 255
255 255 255
  0   0   0
  0   0   0
  0   0   0
  0   0   0
255 255 255
255 255 255
255 255 255
255 255 255
255 255 255
255 255 255
255 255 255
255 255 255
255 255 255
255 255 255
255 255 255
255 255 255
255 255 255
255 255 255
255 255 255
255 255 255
255 255 255
255 150   0
255 255 255
255 255 255
255 255 255
255 255 255
255 255 255
255 255 255
255 255 255
255 255 255
255 255 255
255 255 255
255 255 255
255 255 255
255 255 255
255 255 255
255 255 255
255 255 255
255 255 255
255 255 255
255 255 255
255 255 255
255 255 255
255 255 255
255 255 255
255 255 255
255 255 255
255 255 255
255 255 255
255 255 255
255 255 255
255 255 255
255 255 255
255 255 255
255 255 255
255 255 255
255 255 255
255 255 255
255 255 255
255 255 255
255 255 255
255 255 255
255 255 255
255 255 255
255 255 255
255 255 255
255 255 255
255 255 255
255 255 255
255 255 255
255 255 255
255 255 255
255 255 255
255 255 255
255 255 255
255 255 255
255 255 255
255 255 255
255 255 255
255 255 255
255 255 255
255 255 255
255 255 255
255 255 255
255 255 255
255 255 255
255 255 255
255 255 255
255 255 255
255 255 255
255 255 255
255 255 255
255 255 255
255 255 255
255 255 255
255 255 255
255 255 255
255 255 255
255 255 255
255 255 255
255 255 255
255 255 255
255 255 255
255 255 255
255 255 255
255 255 255
255 255 255
255 255 255
 65   0   0
 66   0   0
 68   0   0
 70   0   0
 71   0   0
 74   0   0
 76   0   0
 78   0   0
 81   0   0
 84   0   0
 87   0   0
 91   0   0
 96   0   0
101   0   0
106   0   0
113   0   0
121   0   0
130   0   0
139   0   0
148   0   0
156   0   0
159   0   0
156   0   0
137   0   0
  0   0  65
  0   0 161
  0   0 204
  0   0 232
  0   0 249
  0   0 255
  0   0 248
  0   0 226
  0   0 184
 76   0   0
181   0   0
209   0   0
218   0   0
215   0   0
205   0   0
188   0   0
168   0   0
146   0   0
124   0   0
103   0   0
 83   0   0
 65   0   0
255 255 255
255 255 255
255 255 255
255 255 255
255 255 255
255 255 255
255 255 255
255 255 255
255 255 255
255 255 255
255 255 255
255 255 255
255 255 255
255 255 255
255 255 255
255 255 255
255 255 255
255 255 255
255 255 255
255 255 255
255 255 255
255 255 255
255 255 255
255 255 255
255 255 255
255 255 255
255 255 255
255 255 255
255 150   0
255 255 255
255 255 255
255 255 255
255 255 255
255 255 255
255 255 255
255 255 255
255 255 255
255 255 255
255 255 255
255 255 255
255 255 255
255 255 255
255 255 255
255 255 255
255 255 255
255 255 255
255 255 255
  0   0   0
  0   0   0
  0   0   0
  0   0   0
255 255 255
255 255 255
255 255 255
255 255 255
255 255 255
255 255 255
255 255 255
255 255 255
255 255 255
255 255 255
255 255 255
255 255 255
255 255 255
255 255 255
255 255 255
255 255 255
255 255 255
255 150   0
255 255 255
255 255 255
255 255 255
255 255 255
255 255 255
255 255 255
255 255 255
255 255 255
255 255 255
255 255 255
255 255 255
255 255 255
255 255 255
255 255 255
255 255 255
255 255 255
255 255 255
255 255 255
255 255 255
255 255 255
255 255 255
255 255 255
255 255 255
255 255 255
255 255 255
255 255 255
255 255 255
255 255 255
255 255 255
255 255 255
255 255 255
255 255 255
255 255 255
255 255 255
255 255 255
255 255 255
255 255 255
255 255 255
255 255 255
255 255 255
255 255 255
255 255 255
255 255 255
255 255 255
255 255 255
255 255 255
255 255 255
255 255 255
255 255 255
255 255 255
255 255 255
255 255 255
255 255 255
255 255 255
255 255 255
255 255 255
255 255 255
255 255 255
255 255 255
255 255 255
255 255 255
255 255 255
255 255 255
255 255 255
255 255 255
255 255 255
255 255 255
255 255 255
255 255 255
255 255 255
255 255 255
255 255 255
255 255 255
255 255 255
255 255 255
255 255 255
255 255 255
255 255 255
255 255 255
255 255 255
255 255 255
255 255 255
255 255 255
255 255 255
255 255 255
255 255 255
 64   0   0
 66   0   0
 68   0   0
 69   0   0
 71   0   0
 73   0   0
 76   0   0
 78   0   0
 81   0   0
 84   0   0
 87   0   0
 91   0   0
 95   0   0
100   0   0
106   0   0
112   0   0
120   0   0
129   0   0
138   0   0
147   0   0
155   0   0
159   0   0
157   0   0
140   0   0
255 255 255
  0   0 156
  0   0 200
  0   0 230
  0   0 248
  0   0 255
  0   0 249
  0   0 229
  0   0 190
  0   0  73
177   0   0
207   0   0
218   0   0
216   0   0
206   0   0
190   0   0
170   0   0
148   0   0
126   0   0
104   0   0
 84   0   0
 66   0   0
255 255 255
255 255 255
255 255 255
255 255 255
255 255 255
255 255 255
255 255 255
255 255 255
255 255 255
255 255 255
255 255 255
255 255 255
255 255 255
255 255 255
255 255 255
255 255 255
255 255 255
255 255 255
255 255 255
255 255 255
255 255 255
255 255 255
255 255 255
255 255 255
255 255 255
255 255 255
255 255 255
255 255 255
255 150   0
255 255 255
255 255 255
255 255 255
255 255 255
255 255 255
255 255 255
255 255 255
255 255 255
255 255 255
255 255 255
255 255 255
255 255 255
255 255 255
255 255 255
255 255 255
255 255 255
255 255 255
255 255 255
  0   0   0
  0   0   0
  0   0   0
  0   0   0
255 255 255
255 255 255
255 255 255
255 255 255
255 255 255
255 255 255
255 255 255
255 255 255
255 255 255
255 255 255
255 255 255
255 255 255
255 255 255
255 255 255
255 255 255
255 255 255
255 255 255
255 150   0
255 255 255
255 255 255
255 255 255
255 255 255
255 255 255
255 255 255
255 255 255
255 255 255
255 255 255
255 255 255
255 255 255
255 255 255
255 255 255
255 255 255
255 255 255
255 255 255
255 255 255
255 255 255
255 255 255
255 255 255
255 255 255
255 255 255
255 255 255
255 255 255
255 255 255
255 255 255
255 255 255
255 255 255
255 255 255
255 255 255
255 255 255
255 255 255
255 255 255
255 255 255
255 255 255
255 255 255
255 255 255
255 255 255
255 255 255
255 255 255
255 255 255
255 255 255
255 255 255
255 255 255
255 255 255
255 255 255
255 255 255
255 255 255
255 255 255
255 255 255
255 255 255
255 255 255
255 255 255
255 255 255
255 255 255
255 255 255
255 255 255
255 255 255
255 255 255
255 255 255
255 255 255
255 255 255
255 255 255
255 255 255
255 255 255
255 255 255
255 255 255
255 255 255
255 255 255
255 255 255
255 255 255
255 255 255
255 255 255
255 255 255
255 255 255
255 255 255
255 255 255
255 255 255
255 255 255
255 255 255
255 255 255
255 255 255
255 255 255
255 255 255
255 255 255
255 255 255
 64   0   0
 66   0   0
 67   0   0
 69   0   0
 71   0   0
 73   0   0
 75   0   0
 78   0   0
 80   0   0
 83   0   0
 87   0   0
 90   0   0
 94   0   0
 99   0   0
105   0   0
112   0   0
119   0   0
128   0   0
137   0   0
146   0   0
154   0   0
159   0   0
157   0   0
143   0   0
 82   0   0
  0   0 150
  0   0 197
  0   0 228
  0   0 247
  0   0 255
  0   0 250
  0   0 232
  0   0 194
  0   0 101
172   0   0
206   0   0
217   0   0
217   0   0
207   0   0
191   0   0
172   0   0
150   0   0
128   0   0
106   0   0
 86   0   0
 67   0   0
255 255 255
255 255 255
255 255 255
255 255 255
255 255 255
255 255 255
255 255 255
255 255 255
255 255 255
255 255 255
255 255 255
255 255 255
255 255 255
255 255 255
255 255 255
255 255 255
255 255 255
255 255 255
255 255 255
255 255 255
255 255 255
255 255 255
255 255 255
255 255 255
255 255 255
255 255 255
255 255 255
255 255 255
255 150   0
255 255 255
255 255 255
255 255 255
255 255 255
255 255 255
255 255 255
255 255 255
255 255 255
255 255 255
255 255 255
255 255 255
255 255 255
255 255 255
255 255 255
255 255 255
255 255 255
255 255 255
255 255 255
  0   0   0
  0   0   0
  0   0   0
  0   0   0
255 255 255
255 255 255
255 255 255
255 255 255
255 255 255
255 255 255
255 255 255
255 255 255
255 255 255
255 255 255
255 255 255
255 255 255
255 255 255
255 255 255
255 255 255
255 255 255
255 255 255
255 150   0
255 255 255
255 255 255
255 255 255
255 255 255
255 255 255
255 255 255
255 255 255
255 255 255
255 255 255
255 255 255
255 255 255
255 255 255
255 255 255
255 255 255
255 255 255
255 255 255
255 255 255
255 255 255
255 255 255
255 255 255
255 255 255
255 255 255
255 255 255
255 255 255
255 255 255
255 255 255
255 255 255
255 255 255
255 255 255
255 255 255
255 255 255
255 255 255
255 255 255
255 255 255
255 255 255
255 255 255
255 255 255
255 255 255
255 255 255
255 255 255
255 255 255
255 255 255
255 255 255
255 255 255
255 255 255
255 255 255
255 255 255
255 255 255
255 255 255
255 255 255
255 255 255
255 255 255
255 255 255
255 255 255
255 255 255
255 255 255
255 255 255
255 255 255
255 255 255
255 255 255
255 255 255
255 255 255
255 255 255
255 255 255
255 255 255
255 255 255
255 255 255
255 255 255
255 255 255
255 255 255
255 255 255
255 255 255
255 255 255
255 255 255
255 255 255
255 255 255
255 255 255
255 255 255
255 255 255
255 255 255
255 255 255
255 255 255
255 255 255
255 255 255
255 255 255
255 255 255
255 255 255
 66   0   0
 67   0   0
 69   0   0
 71   0   0
 73   0   0
 75   0   0
 77   0   0
 80   0   0
 83   0   0
 86   0   0
 90   0   0
 94   0   0
 99   0   0
104   0   0
111   0   0
119   0   0
127   0   0
136   0   0
146   0   0
154   0   0
159   0   0
158   0   0
145   0   0
 94   0   0
  0   0 145
  0   0 194
  0   0 226
  0   0 246
  0   0 255
  0   0 251
  0   0 234
  0   0 198
  0   0 116
168   0   0
204   0   0
217   0   0
217   0   0
208   0   0
193   0   0
173   0   0
152   0   0
129   0   0
108   0   0
 87   0   0
 68   0   0
255 255 255
255 255 255
255 255 255
255 255 255
255 255 255
255 255 255
255 255 255
255 255 255
255 255 255
255 255 255
255 255 255
255 255 255
255 255 255
255 255 255
255 255 255
255 255 255
255 255 255
255 255 255
255 255 255
255 255 255
255 255 255
255 255 255
255 255 255
255 255 255
255 255 255
255 255 255
255 255 255
255 255 255
255 150   0
255 255 255
255 255 255
255 255 255
255 255 255
255 255 255
255 255 255
255 255 255
255 255 255
255 255 255
255 255 255
255 255 255
255 255 255
255 255 255
255 255 255
255 255 255
255 255 255
255 255 255
255 255 255
  0   0   0
  0   0   0
  0   0   0
  0   0   0
255 255 255
255 255 255
255 255 255
255 255 255
255 255 255
255 255 255
255 255 255
255 255 255
255 255 255
255 255 255
255 255 255
255 255 255
255 255 255
255 255 255
255 255 255
255 255 255
255 255 255
255 150   0
255 255 255
255 255 255
255 255 255
255 255 255
255 255 255
255 255 255
255 255 255
255 255 255
255 255 255
255 255 255
255 255 255
255 255 255
255 255 255
255 255 255
255 255 255
255 255 255
255 255 255
255 255 255
255 255 255
255 255 255
255 255 255
255 255 255
255 255 255
255 255 255
255 255 255
255 255 255
255 255 255
255 255 255
255 255 255
255 255 255
255 255 255
255 255 255
255 255 255
255 255 255
255 255 255
255 255 255
255 255 255
255 255 255
255 255 255
255 255 255
255 255 255
255 255 255
255 255 255
255 255 255
255 255 255
255 255 255
255 255 255
255 255 255
255 255 255
255 255 255
255 255 255
255 255 255
255 255 255
255 255 255
255 255 255
255 255 255
255 255 255
255 255 255
255 255 255
255 255 255
255 255 255
255 255 255
255 255 255
255 255 255
255 255 255
255 255 255
255 255 255
255 255 255
255 255 255
255 255 255
255 255 255
255 255 255
255 255 255
255 255 255
255 255 255
255 255 255
255 255 255
255 255 255
255 255 255
255 255 255
255 255 255
255 255 255
255 255 255
255 255 255
255 255 255
255 255 255
255 255 255
 65   0   0
 67   0   0
 69   0   0
 71   0   0
 73   0   0
 75   0   0
 77   0   0
 80   0   0
 83   0   0
 86   0   0
 90   0   0
 94   0   0
 98   0   0
104   0   0
110   0   0
118   0   0
126   0   0
136   0   0
145   0   0
153   0   0
159   0   0
158   0   0
147   0   0
102   0   0
  0   0 141
  0   0 191
  0   0 224
  0   0 245
  0   0 254
  0   0 252
  0   0 235
  0   0 201
  0   0 126
164   0   0
203   0   0
217   0   0
217   0   0
209   0   0
194   0   0
175   0   0
153   0   0
131   0   0
109   0   0
 88   0   0
 70   0   0
255 255 255
255 255 255
255 255 255
255 255 255
255 255 255
255 255 255
255 255 255
255 255 255
255 255 255
255 255 255
255 255 255
255 255 255
255 255 255
255 255 255
255 255 255
255 255 255
255 255 255
255 255 255
255 255 255
255 255 255
255 255 255
255 255 255
255 255 255
255 255 255
255 255 255
255 255 255
255 255 255
255 255 255
255 150   0
255 255 255
255 255 255
255 255 255
255 255 255
255 255 255
255 255 255
255 255 255
255 255 255
255 255 255
255 255 255
255 255 255
255 255 255
255 255 255
255 255 255
255 255 255
255 255 255
255 255 255
255 255 255
  0   0   0
  0   0   0
  0   0   0
  0   0   0
255 255 255
255 255 255
255 255 255
255 255 255
255 255 255
255 255 255
255 255 255
255 255 255
255 255 255
255 255 255
255 255 255
255 255 255
255 255 255
255 255 255
255 255 255
255 255 255
255 255 255
255 150   0
255 255 255
255 255 255
255 255 255
255 255 255
255 255 255
255 255 255
255 255 255
255 255 255
255 255 255
255 255 255
255 255 255
255 255 255
255 255 255
255 255 255
255 255 255
255 255 255
255 255 255
255 255 255
255 255 255
255 157   0
255 157   0
255 157   0
255 255 255
255 255 255
255 255 255
255 255 255
255 255 255
255 255 255
255 255 255
255 255 255
255 255 255
255 255 255
255 255 255
255 255 255
255 255 255
255 255 255
255 255 255
255 255 255
255 255 255
255 255 255
255 255 255
255 255 255
255 255 255
255 255 255
255 255 255
255 255 255
255 255 255
255 255 255
255 255 255
255 255 255
255 255 255
255 255 255
255 255 255
255 255 255
255 255 255
255 255 255
255 255 255
255 255 255
255 255 255
255 255 255
255 255 255
255 255 255
255 255 255
255 255 255
255 255 255
255 255 255
255 255 255
255 255 255
255 255 255
255 255 255
255 255 255
255 255 255
255 255 255
255 255 255
255 255 255
255 255 255
255 255 255
255 255 255
255 255 255
255 255 255
255 255 255
255 255 255
255 255 255
255 255 255
255 255 255
255 255 255
255 255 255
 65   0   0
 67   0   0
 69   0   0
 70   0   0
 72   0   0
 75   0   0
 77   0   0
 80   0   0
 82   0   0
 86   0   0
 89   0   0
 93   0   0
 98   0   0
104   0   0
110   0   0
117   0   0
126   0   0
135   0   0
144   0   0
153   0   0
159   0   0
159   0   0
148   0   0
107   0   0
  0   0 136
  0   0 189
  0   0 222
  0   0 244
  0   0 254
  0   0 252
  0   0 237
  0   0 204
  0   0 133
161   0   0
201   0   0
216   0   0
217   0   0
209   0   0
195   0   0
176   0   0
154   0   0
132   0   0
110   0   0
 89   0   0
 70   0   0
255 255 255
255 255 255
255 255 255
255 255 255
255 255 255
255 255 255
255 255 255
255 255 255
255 255 255
255 255 255
255 255 255
255 255 255
255 255 255
255 255 255
255 255 255
255 255 255
255 255 255
255 255 255
255 255 255
255 255 255
255 255 255
255 255 255
255 255 255
255 255 255
255 255 255
255 255 255
255 255 255
255 255 255
255 150   0
255 255 255
255 255 255
255 255 255
255 255 255
255 255 255
255 255 255
255 255 255
255 255 255
255 255 255
255 255 255
255 255 255
255 255 255
255 255 255
255 255 255
255 255 255
255 255 255
255 255 255
255 255 255
  0   0   0
  0   0   0
  0   0   0
  0   0   0
255 255 255
255 255 255
255 255 255
255 255 255
255 255 255
255 255 255
255 255 255
255 255 255
255 255 255
255 255 255
255 255 255
255 255 255
255 255 255
255 255 255
255 255 255
255 255 255
255 255 255
255 150   0
255 255 255
255 255 255
255 255 255
255 255 255
255 255 255
255 255 255
255 255 255
255 255 255
255 255 255
255 255 255
255 255 255
255 255 255
255 255 255
255 255 255
255 255 255
255 255 255
255 255 255
255 255 255
255 255 255
255 157   0
255 157   0
255 157   0
255 255 255
255 255 255
255 255 255
255 255 255
255 255 255
255 255 255
255 255 255
255 255 255
255 255 255
255 255 255
255 255 255
255 255 255
255 255 255
255 255 255
255 255 255
255 255 255
255 255 255
255 255 255
255 255 255
255 255 255
255 255 255
255 255 255
255 255 255
255 255 255
255 255 255
255 255 255
255 255 255
255 255 255
255 255 255
255 255 255
255 255 255
255 255 255
255 255 255
255 255 255
255 255 255
255 255 255
255 255 255
255 255 255
255 255 255
255 255 255
255 255 255
255 255 255
255 255 255
255 255 255
255 255 255
255 255 255
255 255 255
255 255 255
255 255 255
255 255 255
255 255 255
255 255 255
255 255 255
255 255 255
255 255 255
255 255 255
255 255 255
255 255 255
255 255 255
255 255 255
255 255 255
255 255 255
255 255 255
255 255 255
255 255 255
 65   0   0
 67   0   0
 68   0   0
 70   0   0
 72   0   0
 74   0   0
 77   0   0
 79   0   0
 82   0   0
 85   0   0
 89   0   0
 93   0   0
 98   0   0
103   0   0
110   0   0
117   0   0
125   0   0
135   0   0
144   0   0
152   0   0
158   0   0
159   0   0
149   0   0
111   0   0
  0   0 133
  0   0 187
  0   0 221
  0   0 243
  0   0 254
  0   0 253
  0   0 238
  0   0 206
  0   0 139
158   0   0
200   0   0
216   0   0
218   0   0
210   0   0
195   0   0
177   0   0
155   0   0
133   0   0
111   0   0
 90   0   0
 71   0   0
255 255 255
255 255 255
255 255 255
255 255 255
255 255 255
255 255 255
255 255 255
255 255 255
255 255 255
255 255 255
255 255 255
255 255 255
255 255 255
255 255 255
255 255 255
255 255 255
255 255 255
255 255 255
255 255 255
255 255 255
255 255 255
255 255 255
255 255 255
255 255 255
255 255 255
255 255 255
255 255 255
255 255 255
255 150   0
255 255 255
255 255 255
255 255 255
255 255 255
255 255 255
255 255 255
255 255 255
255 255 255
255 255 255
255 255 255
255 255 255
255 255 255
255 255 255
255 255 255
255 255 255
255 255 255
255 255 255
255 255 255
  0   0   0
  0   0   0
  0   0   0
  0   0   0
255 255 255
255 255 255
255 255 255
255 255 255
255 255 255
255 255 255
255 255 255
255 255 255
255 255 255
255 255 255
255 255 255
255 255 255
255 255 255
255 255 255
255 255 255
255 255 255
255 255 255
255 150   0
255 255 255
255 255 255
255 255 255
255 255 255
255 255 255
255 255 255
255 255 255
255 255 255
255 255 255
255 255 255
255 255 255
255 255 255
255 255 255
255 255 255
255 255 255
255 255 255
255 255 255
255 255 255
255 255 255
255 157   0
255 157   0
255 157   0
255 255 255
255 255 255
255 255 255
255 255 255
255 255 255
255 255 255
255 255 255
255 255 255
255 255 255
255 255 255
255 255 255
255 255 255
255 255 255
255 255 255
255 255 255
255 255 255
255 255 255
255 255 255
255 255 255
255 255 255
255 255 255
255 255 255
255 255 255
255 255 255
255 255 255
255 255 255
255 255 255
255 255 255
255 255 255
255 255 255
255 255 255
255 255 255
255 255 255
255 255 255
255 255 255
255 255 255
255 255 255
255 255 255
255 255 255
255 255 255
255 255 255
255 255 255
255 255 255
255 255 255
255 255 255
255 255 255
255 255 255
255 255 255
255 255 255
255 255 255
255 255 255
255 255 255
255 255 255
255 255 255
255 255 255
255 255 255
255 255 255
255 255 255
255 255 255
255 255 255
255 255 255
255 255 255
255 255 255
255 255 255
255 255 255
 65   0   0
 67   0   0
 68   0   0
 70   0   0
 72   0   0
 74   0   0
 77   0   0
 79   0   0
 82   0   0
 85   0   0
 89   0   0
 93   0   0
 98   0   0
103   0   0
109   0   0
 30 180  60
 30 180  60
 30 180  60
 30 180  60
 30 180  60
 30 180  60
 30 180  60
150   0   0
114   0   0
  0   0 130
  0   0 185
  0   0 220
  0   0 243
  0   0 254
  0   0 253
  0   0 239
  0   0 207
  0   0 142
155   0   0
199   0   0
216   0   0
218   0   0
210   0   0
196   0   0
177   0   0
156   0   0
134   0   0
112   0   0
 91   0   0
 72   0   0
255 255 255
255 255 255
255 255 255
255 255 255
255 255 255
255 255 255
255 255 255
255 255 255
255 255 255
255 255 255
255 255 255
255 255 255
255 255 255
255 255 255
255 255 255
255 255 255
255 255 255
255 255 255
255 255 255
255 255 255
255 255 255
255 255 255
255 255 255
255 255 255
255 255 255
255 255 255
255 255 255
255 255 255
255 150   0
255 255 255
255 255 255
255 255 255
255 255 255
255 255 255
255 255 255
255 255 255
255 255 255
255 255 255
255 255 255
255 255 255
255 255 255
255 255 255
255 255 255
255 255 255
255 255 255
255 255 255
255 255 255
  0   0   0
  0   0   0
  0   0   0
  0   0   0
255 255 255
255 255 255
255 255 255
255 255 255
255 255 255
255 255 255
255 255 255
255 255 255
255 255 255
255 255 255
255 255 255
255 255 255
255 255 255
255 255 255
255 255 255
255 255 255
255 255 255
255 150   0
255 255 255
255 255 255
255 255 255
255 255 255
255 255 255
255 255 255
255 255 255
255 255 255
255 255 255
255 255 255
255 255 255
255 255 255
255 255 255
255 255 255
255 255 255
255 255 255
255 255 255
255 255 255
255 255 255
255 157   0
255 157   0
255 157   0
255 255 255
255 255 255
255 255 255
255 255 255
255 255 255
255 255 255
255 255 255
255 255 255
255 255 255
255 255 255
255 255 255
255 255 255
255 255 255
255 255 255
255 255 255
255 255 255
255 255 255
255 255 255
255 255 255
255 255 255
255 255 255
255 255 255
255 255 255
255 255 255
255 255 255
255 255 255
255 255 255
255 255 255
255 255 255
255 255 255
255 255 255
255 255 255
255 255 255
255 255 255
255 255 255
255 255 255
255 255 255
255 255 255
255 255 255
255 255 255
255 255 255
255 255 255
255 255 255
255 255 255
255 255 255
255 255 255
255 255 255
255 255 255
255 255 255
255 255 255
255 255 255
255 255 255
255 255 255
255 255 255
255 255 255
255 255 255
255 255 255
255 255 255
255 255 255
255 255 255
255 255 255
255 255 255
255 255 255
255 255 255
255 255 255
 65   0   0
 67   0   0
 68   0   0
 70   0   0
 72   0   0
 74   0   0
 77   0   0
 79   0   0
 82   0   0
 85   0   0
 89   0   0
 93   0   0
 97   0   0
103   0   0
109   0   0
 30 180  60
 30 180  60
 30 180  60
 30 180  60
 30 180  60
 30 180  60
 30 180  60
150   0   0
116   0   0
  0   0 128
  0   0 184
  0   0 219
  0   0 242
  0   0 254
  0   0 253
  0   0 239
  0   0 208
  0   0 145
154   0   0
199   0   0
216   0   0
218   0   0
210   0   0
196   0   0
178   0   0
156   0   0
134   0   0
112   0   0
 91   0   0
 72   0   0
255 255 255
255 255 255
255 255 255
255 255 255
255 255 255
255 255 255
255 255 255
255 255 255
255 255 255
255 255 255
255 255 255
255 255 255
255 255 255
255 255 255
255 255 255
255 255 255
255 255 255
255 255 255
255 255 255
255 255 255
255 255 255
255 255 255
255 255 255
255 255 255
255 255 255
255 255 255
255 255 255
255 255 255
255 150   0
255 255 255
255 255 255
255 255 255
255 255 255
255 255 255
255 255 255
255 255 255
255 255 255
255 255 255
255 255 255
255 255 255
255 255 255
255 255 255
255 255 255
255 255 255
255 255 255
255 255 255
255 255 255
  0   0   0
  0   0   0
  0   0   0
  0   0   0
255 255 255
255 255 255
255 255 255
255 255 255
255 255 255
255 255 255
255 255 255
255 255 255
255 255 255
255 255 255
255 255 255
255 255 255
255 255 255
255 255 255
255 255 255
255 255 255
255 255 255
255 150   0
255 255 255
255 255 255
255 255 255
255 255 255
255 255 255
255 255 255
255 255 255
255 255 255
255 255 255
255 255 255
255 255 255
255 255 255
255 255 255
255 255 255
255 255 255
255 157   0
255 157   0
255 157   0
255 157   0
255 157   0
255 157   0
255 157   0
255 157   0
255 157   0
255 157   0
255 157   0
255 255 255
255 255 255
255 255 255
255 255 255
255 255 255
255 255 255
255 255 255
255 255 255
255 255 255
255 255 255
255 255 255
255 255 255
255 255 255
255 255 255
255 255 255
255 255 255
255 255 255
255 255 255
255 255 255
255 255 255
255 255 255
255 255 255
255 255 255
255 255 255
255 255 255
255 255 255
255 255 255
255 255 255
255 255 255
255 255 255
255 255 255
255 255 255
255 255 255
255 255 255
255 255 255
255 255 255
255 255 255
255 255 255
255 255 255
255 255 255
255 255 255
255 255 255
255 255 255
255 255 255
255 255 255
255 255 255
255 255 255
255 255 255
255 255 255
255 255 255
255 255 255
255 255 255
255 255 255
255 255 255
255 255 255
255 255 255
255 255 255
255 255 255
255 255 255
255 255 255
255 255 255
 65   0   0
 67   0   0
 68   0   0
 70   0   0
 72   0   0
 74   0   0
 77   0   0
 79   0   0
 82   0   0
 85   0   0
 89   0   0
 93   0   0
 97   0   0
103   0   0
109   0   0
 30 180  60
 30 180  60
 30 180  60
 30 180  60
 30 180  60
 30 180  60
 30 180  60
150   0   0
117   0   0
  0   0 126
  0   0 183
  0   0 219
  0   0 242
  0   0 254
  0   0 253
  0   0 239
  0   0 209
  0   0 147
152   0   0
198   0   0
215   0   0
218   0   0
211   0   0
197   0   0
178   0   0
157   0   0
134   0   0
112   0   0
 91   0   0
 72   0   0
255 255 255
255 255 255
255 255 255
255 255 255
255 255 255
255 255 255
255 255 255
255 255 255
255 255 255
255 255 255
255 255 255
255 255 255
255 255 255
255 255 255
255 255 255
255 255 255
255 255 255
255 255 255
255 255 255
255 255 255
255 255 255
255 255 255
255 255 255
255 255 255
255 255 255
255 255 255
255 255 255
255 255 255
255 150   0
255 255 255
255 255 255
255 255 255
255 255 255
255 255 255
255 255 255
255 255 255
255 255 255
255 255 255
255 255 255
255 255 255
255 255 255
255 255 255
255 255 255
255 255 255
255 255 255
255 255 255
255 255 255
  0   0   0
  0   0   0
  0   0   0
  0   0   0
255 255 255
255 255 255
255 255 255
255 255 255
255 255 255
255 255 255
255 255 255
255 255 255
255 255 255
255 255 255
255 255 255
255 255 255
255 255 255
255 255 255
255 255 255
255 255 255
255 255 255
255 150   0
255 255 255
255 255 255
255 255 255
255 255 255
255 255 255
255 255 255
255 255 255
255 255 255
255 255 255
255 255 255
255 255 255
255 255 255
255 255 255
255 255 255
255 255 255
255 157   0
255 157   0
255 157   0
255 157   0
255 157   0
255 157   0
255 157   0
255 157   0
255 157   0
255 157   0
255 157   0
255 255 255
255 255 255
255 255 255
255 255 255
255 255 255
255 255 255
255 255 255
255 255 255
255 255 255
255 255 255
255 255 255
255 255 255
255 255 255
255 255 255
255 255 255
255 255 255
255 255 255
255 255 255
255 255 255
255 255 255
255 255 255
255 255 255
255 255 255
255 255 255
255 255 255
255 255 255
255 255 255
255 255 255
255 255 255
255 255 255
255 255 255
255 255 255
255 255 255
255 255 255
255 255 255
255 255 255
255 255 255
255 255 255
255 255 255
255 255 255
255 255 255
255 255 255
255 255 255
255 255 255
255 255 255
255 255 255
255 255 255
255 255 255
255 255 255
255 255 255
255 255 255
255 255 255
255 255 255
255 255 255
255 255 255
255 255 255
255 255 255
255 255 255
255 255 255
255 255 255
255 255 255
 65   0   0
 67   0   0
 68   0   0
 70   0   0
 72   0   0
 74   0   0
 77   0   0
 79   0   0
 82   0   0
 85   0   0
 89   0   0
 93   0   0
 97   0   0
103   0   0
109   0   0
 30 180  60
 30 180  60
 30 180  60
 30 180  60
 30 180  60
 30 180  60
 30 180  60
150   0   0
117   0   0
  0   0 126
  0   0 183
  0   0 219
  0   0 242
  0   0 254
  0   0 253
  0   0 240
  0   0 209
  0   0 147
152   0   0
198   0   0
215   0   0
218   0   0
211   0   0
197   0   0
178   0   0
157   0   0
135   0   0
112   0   0
 91   0   0
 72   0   0
255 255 255
255 255 255
255 255 255
255 255 255
255 255 255
255 255 255
255 255 255
255 255 255
255 255 255
255 255 255
255 255 255
255 255 255
255 255 255
255 255 255
255 255 255
255 255 255
255 255 255
255 255 255
255 255 255
255 255 255
255 255 255
255 255 255
255 255 255
255 255 255
255 255 255
255 255 255
255 255 255
255 255 255
255 150   0
255 255 255
255 255 255
255 255 255
255 255 255
255 255 255
255 255 255
255 255 255
255 255 255
255 255 255
255 255 255
255 255 255
255 255 255
255 255 255
255 255 255
255 255 255
255 255 255
255 255 255
255 255 255
  0   0   0
  0   0   0
  0   0   0
  0   0   0
255 255 255
255 255 255
255 255 255
255 255 255
255 255 255
255 255 255
255 255 255
255 255 255
255 255 255
255 255 255
255 255 255
255 255 255
255 255 255
255 255 255
255 255 255
255 255 255
255 255 255
255 150   0
255 255 255
255 255 255
255 255 255
255 255 255
255 255 255
255 255 255
255 255 255
255 255 255
255 255 255
255 255 255
255 255 255
255 255 255
255 255 255
255 255 255
255 255 255
255 157   0
255 157   0
255 157   0
255 157   0
255 157   0
255 157   0
255 157   0
255 157   0
255 157   0
255 157   0
255 157   0
255 255 255
255 255 255
255 255 255
255 255 255
255 255 255
255 255 255
255 255 255
255 255 255
255 255 255
255 255 255
255 255 255
255 255 255
255 255 255
255 255 255
255 255 255
255 255 255
255 255 255
255 255 255
255 255 255
255 255 255
255 255 255
255 255 255
255 255 255
255 255 255
255 255 255
255 255 255
255 255 255
255 255 255
255 255 255
255 255 255
255 255 255
255 255 255
255 255 255
255 255 255
255 255 255
255 255 255
255 255 255
255 255 255
255 255 255
255 255 255
255 255 255
255 255 255
255 255 255
255 255 255
255 255 255
255 255 255
255 255 255
255 255 255
255 255 255
255 255 255
255 255 255
255 255 255
255 255 255
255 255 255
255 255 255
255 255 255
255 255 255
255 255 255
255 255 255
255 255 255
255 255 255
 65   0   0
 67   0   0
 68   0   0
 70   0   0
 72   0   0
 74   0   0
 77   0   0
 79   0   0
 82   0   0
 85   0   0
 89   0   0
 93   0   0
 97   0   0
103   0   0
109   0   0
 30 180  60
 30 180  60
 30 180  60
 30 180  60
 30 180  60
 30 180  60
 30 180  60
150   0   0
117   0   0
  0   0 126
  0   0 183
  0   0 219
  0   0 242
  0   0 254
  0   0 253
  0   0 239
  0   0 209
  0   0 147
152   0   0
198   0   0
215   0   0
218   0   0
211   0   0
197   0   0
178   0   0
157   0   0
134   0   0
112   0   0
 91   0   0
 72   0   0
255 255 255
255 255 255
255 255 255
255 255 255
255 255 255
255 255 255
255 255 255
255 255 255
255 255 255
255 255 255
255 255 255
255 255 255
255 255 255
255 255 255
255 255 255
255 255 255
255 255 255
255 255 255
255 255 255
255 255 255
255 255 255
255 255 255
255 255 255
255 255 255
255 255 255
255 255 255
255 255 255
255 255 255
255 150   0
255 255 255
255 255 255
255 255 255
255 255 255
255 255 255
255 255 255
255 255 255
255 255 255
255 255 255
255 255 255
255 255 255
255 255 255
255 255 255
255 255 255
255 255 255
255 255 255
255 255 255
255 255 255
  0   0   0
  0   0   0
  0   0   0
  0   0   0
255 255 255
255 255 255
255 255 255
255 255 255
255 255 255
255 255 255
255 255 255
255 255 255
255 255 255
255 255 255
255 255 255
255 255 255
255 255 255
255 255 255
255 255 255
255 255 255
255 255 255
255 150   0
255 255 255
255 255 255
255 255 255
255 255 255
255 255 255
255 255 255
255 255 255
255 255 255
255 255 255
255 255 255
255 255 255
255 255 255
255 255 255
255 255 255
255 255 255
255 255 255
255 255 255
255 255 255
255 255 255
255 157   0
255 157   0
255 157   0
255 255 255
255 255 255
255 255 255
255 255 255
255 255 255
255 255 255
255 255 255
255 255 255
255 255 255
255 255 255
255 255 255
255 255 255
255 255 255
255 255 255
255 255 255
255 255 255
255 255 255
255 255 255
255 255 255
255 255 255
255 255 255
255 255 255
255 255 255
255 255 255
255 255 255
255 255 255
255 255 255
255 255 255
255 255 255
255 255 255
255 255 255
255 255 255
255 255 255
255 255 255
255 255 255
255 255 255
255 255 255
255 255 255
255 255 255
255 255 255
255 255 255
255 255 255
255 255 255
255 255 255
255 255 255
255 255 255
255 255 255
255 255 255
255 255 255
255 255 255
255 255 255
255 255 255
255 255 255
255 255 255
255 255 255
255 255 255
255 255 255
255 255 255
255 255 255
255 255 255
255 255 255
255 255 255
255 255 255
255 255 255
255 255 255
 65   0   0
 67   0   0
 68   0   0
 70   0   0
 72   0   0
 74   0   0
 77   0   0
 79   0   0
 82   0   0
 85   0   0
 89   0   0
 93   0   0
 97   0   0
103   0   0
109   0   0
 30 180  60
 30 180  60
 30 180  60
 30 180  60
 30 180  60
 30 180  60
 30 180  60
150   0   0
116   0   0
  0   0 128
  0   0 184
  0   0 219
  0   0 242
  0   0 254
  0   0 253
  0   0 239
  0   0 208
  0   0 145
154   0   0
199   0   0
216   0   0
218   0   0
210   0   0
196   0   0
178   0   0
156   0   0
134   0   0
112   0   0
 91   0   0
 72   0   0
255 255 255
255 255 255
255 255 255
255 255 255
255 255 255
255 255 255
255 255 255
255 255 255
255 255 255
255 255 255
255 255 255
255 255 255
255 255 255
255 255 255
255 255 255
255 255 255
255 255 255
255 255 255
255 255 255
255 255 255
255 255 255
255 255 255
255 255 255
255 255 255
255 255 255
255 255 255
255 255 255
255 255 255
255 150   0
255 255 255
255 255 255
255 255 255
255 255 255
255 255 255
255 255 255
255 255 255
255 255 255
255 255 255
255 255 255
255 255 255
255 255 255
255 255 255
255 255 255
255 255 255
255 255 255
255 255 255
255 255 255
  0   0   0
  0   0   0
  0   0   0
  0   0   0
255 255 255
255 255 255
255 255 255
255 255 255
255 255 255
255 255 255
255 255 255
255 255 255
255 255 255
255 255 255
255 255 255
255 255 255
255 255 255
255 255 255
255 255 255
255 255 255
255 255 255
255 150   0
255 255 255
255 255 255
255 255 255
255 255 255
255 255 255
255 255 255
255 255 255
255 255 255
255 255 255
255 255 255
255 255 255
255 255 255
255 255 255
255 255 255
255 255 255
255 255 255
255 255 255
255 255 255
255 255 255
255 157   0
255 157   0
255 157   0
255 255 255
255 255 255
255 255 255
255 255 255
255 255 255
255 255 255
255 255 255
255 255 255
255 255 255
255 255 255
255 255 255
255 255 255
255 255 255
255 255 255
255 255 255
255 255 255
255 255 255
255 255 255
255 255 255
255 255 255
255 255 255
255 255 255
255 255 255
255 255 255
255 255 255
255 255 255
255 255 255
255 255 255
255 255 255
255 255 255
255 255 255
255 255 255
255 255 255
255 255 255
255 255 255
255 255 255
255 255 255
255 255 255
255 255 255
255 255 255
255 255 255
255 255 255
255 255 255
255 255 255
255 255 255
255 255 255
255 255 255
255 255 255
255 255 255
255 255 255
255 255 255
255 255 255
255 255 255
255 255 255
255 255 255
255 255 255
255 255 255
255 255 255
255 255 255
255 255 255
255 255 255
255 255 255
255 255 255
255 255 255
255 255 255
 65   0   0
 67   0   0
 68   0   0
 70   0   0
 72   0   0
 74   0   0
 77   0   0
 79   0   0
 82   0   0
 85   0   0
 89   0   0
 93   0   0
 98   0   0
103   0   0
109   0   0
 30 180  60
 30 180  60
 30 180  60
 30 180  60
 30 180  60
 30 180  60
 30 180  60
150   0   0
114   0   0
  0   0 130
  0   0 185
  0   0 220
  0   0 243
  0   0 254
  0   0 253
  0   0 239
  0   0 207
  0   0 142
155   0   0
199   0   0
216   0   0
218   0   0
210   0   0
196   0   0
177   0   0
156   0   0
134   0   0
112   0   0
 91   0   0
 72   0   0
255 255 255
255 255 255
255 255 255
255 255 255
255 255 255
255 255 255
255 255 255
255 255 255
255 255 255
255 255 255
255 255 255
255 255 255
255 255 255
255 255 255
255 255 255
255 255 255
255 255 255
255 255 255
255 255 255
255 255 255
255 255 255
255 255 255
255 255 255
255 255 255
255 255 255
255 255 255
255 255 255
255 255 255
255 150   0
255 255 255
255 255 255
255 255 255
255 255 255
255 255 255
255 255 255
255 255 255
255 255 255
255 255 255
255 255 255
255 255 255
255 255 255
255 255 255
255 255 255
255 255 255
255 255 255
255 255 255
255 255 255
  0   0   0
  0   0   0
  0   0   0
  0   0   0
255 255 255
255 255 255
255 255 255
255 255 255
255 255 255
255 255 255
255 255 255
255 255 255
255 255 255
255 255 255
255 255 255
255 255 255
255 255 255
255 255 255
255 255 255
255 255 255
255 255 255
255 150   0
255 255 255
255 255 255
255 255 255
255 255 255
255 255 255
255 255 255
255 255 255
255 255 255
255 255 255
255 255 255
255 255 255
255 255 255
255 255 255
255 255 255
255 255 255
255 255 255
255 255 255
255 255 255
255 255 255
255 157   0
255 157   0
255 157   0
255 255 255
255 255 255
255 255 255
255 255 255
255 255 255
255 255 255
255 255 255
255 255 255
255 255 255
255 255 255
255 255 255
255 255 255
255 255 255
255 255 255
255 255 255
255 255 255
255 255 255
255 255 255
255 255 255
255 255 255
255 255 255
255 255 255
255 255 255
255 255 255
255 255 255
255 255 255
255 255 255
255 255 255
255 255 255
255 255 255
255 255 255
255 255 255
255 255 255
255 255 255
255 255 255
255 255 255
255 255 255
255 255 255
255 255 255
255 255 255
255 255 255
255 255 255
255 255 255
255 255 255
255 255 255
255 255 255
255 255 255
255 255 255
255 255 255
255 255 255
255 255 255
255 255 255
255 255 255
255 255 255
255 255 255
255 255 255
255 255 255
255 255 255
255 255 255
255 255 255
255 255 255
255 255 255
255 255 255
255 255 255
255 255 255
 65   0   0
 67   0   0
 68   0   0
 70   0   0
 72   0   0
 74   0   0
 77   0   0
 79   0   0
 82   0   0
 85   0   0
 89   0   0
 93   0   0
 98   0   0
103   0   0
110   0   0
117   0   0
125   0   0
135   0   0
144   0   0
152   0   0
158   0   0
159   0   0
149   0   0
111   0   0
  0   0 133
  0   0 187
  0   0 221
  0   0 243
  0   0 254
  0   0 253
  0   0 238
  0   0 206
  0   0 139
158   0   0
200   0   0
216   0   0
218   0   0
210   0   0
195   0   0
177   0   0
155   0   0
133   0   0
111   0   0
 90   0   0
 71   0   0
255 255 255
255 255 255
255 255 255
255 255 255
255 255 255
255 255 255
255 255 255
255 255 255
255 255 255
255 255 255
255 255 255
255 255 255
255 255 255
255 255 255
255 255 255
255 255 255
255 255 255
255 255 255
255 255 255
255 255 255
255 255 255
255 255 255
255 255 255
255 255 255
255 255 255
255 255 255
255 255 255
255 255 255
255 150   0
255 255 255
255 255 255
255 255 255
255 255 255
255 255 255
255 255 255
255 255 255
255 255 255
255 255 255
255 255 255
255 255 255
255 255 255
255 255 255
255 255 255
255 255 255
255 255 255
255 255 255
255 255 255
  0   0   0
  0   0   0
  0   0   0
  0   0   0
255 255 255
255 255 255
255 255 255
255 255 255
255 255 255
255 255 255
255 255 255
255 255 255
255 255 255
255 255 255
255 255 255
255 255 255
255 255 255
255 255 255
255 255 255
255 255 255
255 255 255
255 150   0
255 255 255
255 255 255
255 255 255
255 255 255
255 255 255
255 255 255
255 255 255
255 255 255
255 255 255
255 255 255
255 255 255
255 255 255
255 255 255
255 255 255
255 255 255
255 255 255
255 255 255
255 255 255
255 255 255
255 157   0
255 157   0
255 157   0
255 255 255
255 255 255
255 255 255
255 255 255
255 255 255
255 255 255
255 255 255
255 255 255
255 255 255
255 255 255
255 255 255
255 255 255
255 255 255
255 255 255
255 255 255
255 255 255
255 255 255
255 255 255
255 255 255
255 255 255
255 255 255
255 255 255
255 255 255
255 255 255
255 255 255
255 255 255
255 255 255
255 255 255
255 255 255
255 255 255
255 255 255
255 255 255
255 255 255
255 255 255
255 255 255
255 255 255
255 255 255
255 255 255
255 255 255
255 255 255
255 255 255
255 255 255
255 255 255
255 255 255
255 255 255
255 255 255
255 255 255
255 255 255
255 255 255
255 255 255
255 255 255
255 255 255
255 255 255
255 255 255
255 255 255
255 255 255
255 255 255
255 255 255
255 255 255
255 255 255
255 255 255
255 255 255
255 255 255
255 255 255
255 255 255
 65   0   0
 67   0   0
 69   0   0
 70   0   0
 72   0   0
 75   0   0
 77   0   0
 80   0   0
 82   0   0
 86   0   0
 89   0   0
 93   0   0
 98   0   0
104   0   0
110   0   0
117   0   0
126   0   0
135   0   0
144   0   0
153   0   0
159   0   0
159   0   0
148   0   0
107   0   0
  0   0 136
  0   0 189
  0   0 222
  0   0 244
  0   0 254
  0   0 252
  0   0 237
  0   0 204
  0   0 133
161   0   0
201   0   0
216   0   0
217   0   0
209   0   0
195   0   0
176   0   0
154   0   0
132   0   0
110   0   0
 89   0   0
 70   0   0
255 255 255
255 255 255
255 255 255
255 255 255
255 255 255
255 255 255
255 255 255
255 255 255
255 255 255
255 255 255
255 255 255
255 255 255
255 255 255
255 255 255
255 255 255
255 255 255
255 255 255
255 255 255
255 255 255
255 255 255
255 255 255
255 255 255
255 255 255
255 255 255
255 255 255
255 255 255
255 255 255
255 255 255
255 150   0
255 255 255
255 255 255
255 255 255
255 255 255
255 255 255
255 255 255
255 255 255
255 255 255
255 255 255
255 255 255
255 255 255
255 255 255
255 255 255
255 255 255
255 255 255
255 255 255
255 255 255
255 255 255
  0   0   0
  0   0   0
  0   0   0
  0   0   0
255 255 255
255 255 255
255 255 255
255 255 255
255 255 255
255 255 255
255 255 255
255 255 255
255 255 255
255 255 255
255 255 255
255 255 255
255 255 255
255 255 255
255 255 255
255 255 255
255 255 255
255 150   0
255 255 255
255 255 255
255 255 255
255 255 255
255 255 255
255 255 255
255 255 255
255 255 255
255 255 255
255 255 255
255 255 255
255 255 255
255 255 255
255 255 255
255 255 255
255 255 255
255 255 255
255 255 255
255 255 255
255 255 255
255 255 255
255 255 255
255 255 255
255 255 255
255 255 255
255 255 255
255 255 255
255 255 255
255 255 255
255 255 255
255 255 255
255 255 255
255 255 255
255 255 255
255 255 255
255 255 255
255 255 255
255 255 255
255 255 255
255 255 255
255 255 255
255 255 255
255 255 255
255 255 255
255 255 255
255 255 255
255 255 255
255 255 255
255 255 255
255 255 255
255 255 255
255 255 255
255 255 255
255 255 255
255 255 255
255 255 255
255 255 255
255 255 255
255 255 255
255 255 255
255 255 255
255 255 255
255 255 255
255 255 255
255 255 255
255 255 255
255 255 255
255 255 255
255 255 255
255 255 255
255 255 255
255 255 255
255 255 255
255 255 255
255 255 255
255 255 255
255 255 255
255 255 255
255 255 255
255 255 255
255 255 255
255 255 255
255 255 255
255 255 255
255 255 255
255 255 255
255 255 255
 65   0   0
 67   0   0
 69   0   0
 71   0   0
 73   0   0
 75   0   0
 77   0   0
 80   0   0
 83   0   0
 86   0   0
 90   0   0
 94   0   0
 98   0   0
104   0   0
110   0   0
118   0   0
126   0   0
136   0   0
145   0   0
153   0   0
159   0   0
158   0   0
147   0   0
102   0   0
  0   0 141
  0   0 191
  0   0 224
  0   0 245
  0   0 254
  0   0 252
  0   0 235
  0   0 201
  0   0 126
164   0   0
203   0   0
217   0   0
217   0   0
209   0   0
194   0   0
175   0   0
153   0   0
131   0   0
109   0   0
 88   0   0
 70   0   0
255 255 255
255 255 255
255 255 255
255 255 255
255 255 255
255 255 255
255 255 255
255 255 255
255 255 255
255 255 255
255 255 255
255 255 255
255 255 255
255 255 255
255 255 255
255 255 255
255 255 255
255 255 255
255 255 255
255 255 255
255 255 255
255 255 255
255 255 255
255 255 255
255 255 255
255 255 255
255 255 255
255 255 255
255 150   0
255 255 255
255 255 255
255 255 255
255 255 255
255 255 255
255 255 255
255 255 255
255 255 255
255 255 255
255 255 255
255 255 255
255 255 255
255 255 255
255 255 255
255 255 255
255 255 255
255 255 255
255 255 255
  0   0   0
  0   0   0
  0   0   0
  0   0   0
255 255 255
255 255 255
255 255 255
255 255 255
255 255 255
255 255 255
255 255 255
255 255 255
255 255 255
255 255 255
255 255 255
255 255 255
255 255 255
255 255 255
255 255 255
255 255 255
255 255 255
255 150   0
255 255 255
255 255 255
255 255 255
255 255 255
255 255 255
255 255 255
255 255 255
255 255 255
255 255 255
255 255 255
255 255 255
255 255 255
255 255 255
255 255 255
255 255 255
255 255 255
255 255 255
255 255 255
255 255 255
255 255 255
255 255 255
255 255 255
255 255 255
255 255 255
255 255 255
255 255 255
255 255 255
255 255 255
255 255 255
255 255 255
255 255 255
255 255 255
255 255 255
255 255 255
255 255 255
255 255 255
255 255 255
255 255 255
255 255 255
255 255 255
255 255 255
255 255 255
255 255 255
255 255 255
255 255 255
255 255 255
255 255 255
255 255 255
255 255 255
255 255 255
255 255 255
255 255 255
255 255 255
255 255 255
255 255 255
255 255 255
255 255 255
255 255 255
255 255 255
255 255 255
255 255 255
255 255 255
255 255 255
255 255 255
255 255 255
255 255 255
255 255 255
255 255 255
255 255 255
255 255 255
255 255 255
255 255 255
255 255 255
255 255 255
255 255 255
255 255 255
255 255 255
255 255 255
255 255 255
255 255 255
255 255 255
255 255 255
255 255 255
255 255 255
255 255 255
255 255 255
255 255 255
 66   0   0
 67   0   0
 69   0   0
 71   0   0
 73   0   0
 75   0   0
 77   0   0
 80   0   0
 83   0   0
 86   0   0
 90   0   0
 94   0   0
 99   0   0
104   0   0
111   0   0
119   0   0
127   0   0
136   0   0
146   0   0
154   0   0
159   0   0
158   0   0
145   0   0
 94   0   0
  0   0 145
  0   0 194
  0   0 226
  0   0 246
  0   0 255
  0   0 251
  0   0 234
  0   0 198
  0   0 116
168   0   0
204   0   0
217   0   0
217   0   0
208   0   0
193   0   0
173   0   0
152   0   0
129   0   0
108   0   0
 87   0   0
 68   0   0
255 255 255
255 255 255
255 255 255
255 255 255
255 255 255
255 255 255
255 255 255
255 255 255
255 255 255
255 255 255
255 255 255
255 255 255
255 255 255
255 255 255
255 255 255
255 255 255
255 255 255
255 255 255
255 255 255
255 255 255
255 255 255
255 255 255
255 255 255
255 255 255
255 255 255
255 255 255
255 255 255
255 255 255
255 150   0
255 255 255
255 255 255
255 255 255
255 255 255
255 255 255
255 255 255
255 255 255
255 255 255
255 255 255
255 255 255
255 255 255
255 255 255
255 255 255
255 255 255
255 255 255
255 255 255
255 255 255
255 255 255
  0   0   0
  0   0   0
  0   0   0
  0   0   0
255 255 255
255 255 255
255 255 255
255 255 255
255 255 255
255 255 255
255 255 255
255 255 255
255 255 255
255 255 255
255 255 255
255 255 255
255 255 255
255 255 255
255 255 255
255 255 255
255 255 255
255 150   0
255 255 255
255 255 255
255 255 255
255 255 255
255 255 255
255 255 255
255 255 255
255 255 255
255 255 255
255 255 255
255 255 255
255 255 255
255 255 255
255 255 255
255 255 255
255 255 255
255 255 255
255 255 255
255 255 255
255 255 255
255 255 255
255 255 255
255 255 255
255 255 255
255 255 255
255 255 255
255 255 255
255 255 255
255 255 255
255 255 255
255 255 255
255 255 255
255 255 255
255 255 255
255 255 255
255 255 255
255 255 255
255 255 255
255 255 255
255 255 255
255 255 255
255 255 255
255 255 255
255 255 255
255 255 255
255 255 255
255 255 255
255 255 255
255 255 255
255 255 255
255 255 255
255 255 255
255 255 255
255 255 255
255 255 255
255 255 255
255 255 255
255 255 255
255 255 255
255 255 255
255 255 255
255 255 255
255 255 255
255 255 255
255 255 255
255 255 255
255 255 255
255 255 255
255 255 255
255 255 255
255 255 255
255 255 255
255 255 255
255 255 255
255 255 255
255 255 255
255 255 255
255 255 255
255 255 255
255 255 255
255 255 255
255 255 255
255 255 255
255 255 255
255 255 255
255 255 255
 64   0   0
 66   0   0
 67   0   0
 69   0   0
 71   0   0
 73   0   0
 75   0   0
 78   0   0
 80   0   0
 83   0   0
 87   0   0
 90   0   0
 94   0   0
 99   0   0
105   0   0
112   0   0
119   0   0
128   0   0
137   0   0
146   0   0
154   0   0
159   0   0
157   0   0
143   0   0
 82   0   0
  0   0 150
  0   0 197
  0   0 228
  0   0 247
  0   0 255
  0   0 250
  0   0 232
  0   0 194
  0   0 101
172   0   0
206   0   0
217   0   0
217   0   0
207   0   0
191   0   0
172   0   0
150   0   0
128   0   0
106   0   0
 86   0   0
 67   0   0
255 255 255
255 255 255
255 255 255
255 255 255
255 255 255
255 255 255
255 255 255
255 255 255
255 255 255
255 255 255
255 255 255
255 255 255
255 255 255
255 255 255
255 255 255
255 255 255
255 255 255
255 255 255
255 255 255
255 255 255
255 255 255
255 255 255
255 255 255
255 255 255
255 255 255
255 255 255
255 255 255
255 255 255
255 150   0
255 255 255
255 255 255
255 255 255
255 255 255
255 255 255
255 255 255
255 255 255
255 255 255
255 255 255
255 255 255
255 255 255
255 255 255
255 255 255
255 255 255
255 255 255
255 255 255
255 255 255
255 255 255
  0   0   0
  0   0   0
  0   0   0
  0   0   0
255 255 255
255 255 255
255 255 255
255 255 255
255 255 255
255 255 255
255 255 255
255 255 255
255 255 255
255 255 255
255 255 255
255 255 255
255 255 255
255 255 255
255 255 255
255 255 255
255 255 255
255 150   0
255 255 255
255 255 255
255 255 255
255 255 255
255 255 255
255 255 255
255 255 255
255 255 255
255 255 255
255 255 255
255 255 255
255 255 255
255 255 255
255 255 255
255 255 255
255 255 255
255 255 255
255 255 255
255 255 255
255 255 255
255 255 255
255 255 255
255 255 255
255 255 255
255 255 255
255 255 255
255 255 255
255 255 255
255 255 255
255 255 255
255 255 255
255 255 255
255 255 255
255 255 255
255 255 255
255 255 255
255 255 255
255 255 255
255 255 255
255 255 255
255 255 255
255 255 255
255 255 255
255 255 255
255 255 255
255 255 255
255 255 255
255 255 255
255 255 255
255 255 255
255 255 255
255 255 255
255 255 255
255 255 255
255 255 255
255 255 255
255 255 255
255 255 255
255 255 255
255 255 255
255 255 255
255 255 255
255 255 255
255 255 255
255 255 255
255 255 255
255 255 255
255 255 255
255 255 255
255 255 255
255 255 255
255 255 255
255 255 255
255 255 255
255 255 255
255 255 255
255 255 255
255 255 255
255 255 255
255 255 255
255 255 255
255 255 255
255 255 255
255 255 255
255 255 255
255 255 255
 64   0   0
 66   0   0
 68   0   0
 69   0   0
 71   0   0
 73   0   0
 76   0   0
 78   0   0
 81   0   0
 84   0   0
 87   0   0
 91   0   0
 95   0   0
100   0   0
106   0   0
112   0   0
120   0   0
129   0   0
138   0   0
147   0   0
155   0   0
159   0   0
157   0   0
140   0   0
255 255 255
  0   0 156
  0   0 200
  0   0 230
  0   0 248
  0   0 255
  0   0 249
  0   0 229
  0   0 190
  0   0  73
177   0   0
207   0   0
218   0   0
216   0   0
206   0   0
190   0   0
170   0   0
148   0   0
126   0   0
104   0   0
 84   0   0
 66   0   0
255 255 255
255 255 255
255 255 255
255 255 255
255 255 255
255 255 255
255 255 255
255 255 255
255 255 255
255 255 255
255 255 255
255 255 255
255 255 255
255 255 255
255 255 255
255 255 255
255 255 255
255 255 255
255 255 255
255 255 255
255 255 255
255 255 255
255 255 255
255 255 255
255 255 255
255 255 255
255 255 255
255 255 255
255 150   0
255 255 255
255 255 255
255 255 255
255 255 255
255 255 255
255 255 255
255 255 255
255 255 255
255 255 255
255 255 255
255 255 255
255 255 255
255 255 255
255 255 255
255 255 255
255 255 255
255 255 255
255 255 255
  0   0   0
  0   0   0
  0   0   0
  0   0   0
255 255 255
255 255 255
255 255 255
255 255 255
255 255 255
255 255 255
255 255 255
255 255 255
255 255 255
255 255 255
255 255 255
255 255 255
255 255 255
255 255 255
255 255 255
255 255 255
255 255 255
255 150   0
255 255 255
255 255 255
255 255 255
255 255 255
255 255 255
255 255 255
255 255 255
255 255 255
255 255 255
255 255 255
255 255 255
255 255 255
255 255 255
255 255 255
255 255 255
255 255 255
255 255 255
255 255 255
255 255 255
255 255 255
255 255 255
255 255 255
255 255 255
255 255 255
255 255 255
255 255 255
255 255 255
255 255 255
255 255 255
255 255 255
255 255 255
255 255 255
255 255 255
255 255 255
255 255 255
255 255 255
255 255 255
255 255 255
255 255 255
255 255 255
255 255 255
255 255 255
255 255 255
255 255 255
255 255 255
255 255 255
255 255 255
255 255 255
255 255 255
255 255 255
255 255 255
255 255 255
255 255 255
255 255 255
255 255 255
255 255 255
255 255 255
255 255 255
255 255 255
255 255 255
255 255 255
255 255 255
255 255 255
255 255 255
255 255 255
255 255 255
255 255 255
255 255 255
255 255 255
255 255 255
255 255 255
255 255 255
255 255 255
255 255 255
255 255 255
255 255 255
255 255 255
255 255 255
255 255 255
255 255 255
255 255 255
255 255 255
255 255 255
255 255 255
255 255 255
255 255 255
 65   0   0
 66   0   0
 68   0   0
 70   0   0
 71   0   0
 74   0   0
 76   0   0
 78   0   0
 81   0   0
 84   0   0
 87   0   0
 91   0   0
 96   0   0
101   0   0
106   0   0
113   0   0
121   0   0
130   0   0
139   0   0
148   0   0
156   0   0
159   0   0
156   0   0
137   0   0
  0   0  65
  0   0 161
  0   0 204
  0   0 232
  0   0 249
  0   0 255
  0   0 248
  0   0 226
  0   0 184
 76   0   0
181   0   0
209   0   0
218   0   0
215   0   0
205   0   0
188   0   0
168   0   0
146   0   0
124   0   0
103   0   0
 83   0   0
 65   0   0
255 255 255
255 255 255
255 255 255
255 255 255
255 255 255
255 255 255
255 255 255
255 255 255
255 255 255
255 255 255
255 255 255
255 255 255
255 255 255
255 255 255
255 255 255
255 255 255
255 255 255
255 255 255
255 255 255
255 255 255
255 255 255
255 255 255
255 255 255
255 255 255
255 255 255
255 255 255
255 255 255
255 255 255
255 150   0
255 255 255
255 255 255
255 255 255
255 255 255
255 255 255
255 255 255
255 255 255
255 255 255
255 255 255
255 255 255
255 255 255
255 255 255
255 255 255
255 255 255
255 255 255
255 255 255
255 255 255
255 255 255
  0   0   0
  0   0   0
  0   0   0
  0   0   0
255 255 255
255 255 255
255 255 255
255 255 255
255 255 255
255 255 255
255 255 255
255 255 255
255 255 255
255 255 255
255 255 255
255 255 255
255 255 255
255 255 255
255 255 255
255 255 255
255 255 255
255 150   0
255 255 255
255 255 255
255 255 255
255 255 255
255 255 255
255 255 255
255 255 255
255 255 255
255 255 255
255 255 255
255 255 255
255 255 255
255 255 255
255 255 255
255 255 255
255 255 255
255 255 255
255 255 255
255 255 255
255 255 255
255 255 255
255 255 255
255 255 255
255 255 255
255 255 255
255 255 255
255 255 255
255 255 255
255 255 255
255 255 255
255 255 255
255 255 255
255 255 255
255 255 255
255 255 255
255 255 255
255 255 255
255 255 255
255 255 255
255 255 255
255 255 255
255 255 255
255 255 255
255 255 255
255 255 255
255 255 255
255 255 255
255 255 255
255 255 255
255 255 255
255 255 255
255 255 255
255 255 255
255 255 255
255 255 255
255 255 255
255 255 255
255 255 255
255 255 255
255 255 255
255 255 255
255 255 255
255 255 255
255 255 255
255 255 255
255 255 255
255 255 255
255 255 255
255 255 255
255 255 255
255 255 255
255 255 255
255 255 255
255 255 255
255 255 255
255 255 255
255 255 255
255 255 255
255 255 255
255 255 255
255 255 255
255 255 255
255 255 255
255 255 255
255 255 255
255 255 255
 65   0   0
 66   0   0
 68   0   0
 70   0   0
 72   0   0
 74   0   0
 76   0   0
 79   0   0
 81   0   0
 84   0   0
 88   0   0
 92   0   0
 96   0   0
101   0   0
107   0   0
114   0   0
122   0   0
131   0   0
140   0   0
149   0   0
157   0   0
160   0   0
155   0   0
133   0   0
  0   0  90
  0   0 167
  0   0 208
  0   0 235
  0   0 251
  0   0 255
  0   0 246
  0   0 223
  0   0 178
106   0   0
185   0   0
211   0   0
218   0   0
215   0   0
203   0   0
186   0   0
166   0   0
144   0   0
122   0   0
101   0   0
 81   0   0
255 255 255
255 255 255
255 255 255
255 255 255
255 255 255
255 255 255
255 255 255
255 255 255
255 255 255
255 255 255
255 255 255
255 255 255
255 255 255
255 255 255
255 255 255
255 255 255
255 255 255
255 255 255
255 255 255
255 255 255
255 255 255
255 255 255
255 255 255
255 255 255
255 255 255
255 255 255
255 255 255
255 255 255
255 255 255
255 150   0
255 255 255
255 255 255
255 255 255
255 255 255
255 255 255
255 255 255
255 255 255
255 255 255
255 255 255
255 255 255
255 255 255
255 255 255
255 255 255
255 255 255
255 255 255
255 255 255
255 255 255
255 255 255
  0   0   0
  0   0   0
  0   0   0
  0   0   0
255 255 255
255 255 255
255 255 255
255 255 255
255 255 255
255 255 255
255 255 255
255 255 255
255 255 255
255 255 255
255 255 255
255 255 255
255 255 255
255 255 255
255 255 255
255 255 255
255 255 255
255 150   0
255 255 255
255 255 255
255 255 255
255 255 255
255 255 255
255 255 255
255 255 255
255 255 255
255 255 255
255 255 255
255 255 255
255 255 255
255 255 255
255 255 255
255 255 255
255 255 255
255 255 255
255 255 255
255 255 255
255 255 255
255 255 255
255 255 255
255 255 255
255 255 255
255 255 255
255 255 255
255 255 255
255 255 255
255 255 255
255 255 255
255 255 255
255 255 255
255 255 255
255 255 255
255 255 255
255 255 255
255 255 255
255 255 255
255 255 255
255 255 255
255 255 255
255 255 255
255 255 255
255 255 255
255 255 255
255 255 255
255 255 255
255 255 255
255 255 255
255 255 255
255 255 255
255 255 255
255 255 255
255 255 255
255 255 255
255 255 255
255 255 255
255 255 255
255 255 255
255 255 255
255 255 255
255 255 255
255 255 255
255 255 255
255 255 255
255 255 255
255 255 255
255 255 255
255 255 255
255 255 255
255 255 255
255 255 255
255 255 255
255 255 255
255 255 255
255 255 255
255 255 255
255 255 255
255 255 255
255 255 255
255 255 255
255 255 255
255 255 255
255 255 255
255 255 255
255 255 255
 65   0   0
 67   0   0
 68   0   0
 70   0   0
 72   0   0
 74   0   0
 77   0   0
 79   0   0
 82   0   0
 85   0   0
 88   0   0
 92   0   0
 97   0   0
102   0   0
108   0   0
115   0   0
123   0   0
132   0   0
142   0   0
151   0   0
157   0   0
159   0   0
153   0   0
128   0   0
  0   0 107
  0   0 174
  0   0 212
  0   0 237
  0   0 252
  0   0 255
  0   0 244
  0   0 219
  0   0 170
124   0   0
190   0   0
212   0   0
218   0   0
214   0   0
202   0   0
184   0   0
164   0   0
142   0   0
120   0   0
 98   0   0
 79   0   0
255 255 255
255 255 255
255 255 255
255 255 255
255 255 255
255 255 255
255 255 255
255 255 255
255 255 255
255 255 255
255 255 255
255 255 255
255 255 255
255 255 255
255 255 255
255 255 255
255 255 255
255 255 255
255 255 255
255 255 255
255 255 255
255 255 255
255 255 255
255 255 255
255 255 255
255 255 255
255 255 255
255 255 255
255 255 255
255 150   0
255 255 255
255 255 255
255 255 255
255 255 255
255 255 255
255 255 255
255 255 255
255 255 255
255 255 255
255 255 255
255 255 255
255 255 255
255 255 255
255 255 255
255 255 255
255 255 255
255 255 255
255 255 255
  0   0   0
  0   0   0
  0   0   0
  0   0   0
255 255 255
255 255 255
255 255 255
255 255 255
255 255 255
255 255 255
255 255 255
255 255 255
255 255 255
255 255 255
255 255 255
255 255 255
255 255 255
255 255 255
255 255 255
255 255 255
255 255 255
255 150   0
255 255 255
255 255 255
255 255 255
255 255 255
255 255 255
255 255 255
255 255 255
255 255 255
255 255 255
255 255 255
255 255 255
255 255 255
255 255 255
255 255 255
255 255 255
255 255 255
255 255 255
255 255 255
255 255 255
255 255 255
255 255 255
255 255 255
255 255 255
255 255 255
255 255 255
255 255 255
255 255 255
255 255 255
255 255 255
255 255 255
255 255 255
255 255 255
255 255 255
255 255 255
255 255 255
255 255 255
255 255 255
255 255 255
255 255 255
255 255 255
255 255 255
255 255 255
255 255 255
255 255 255
255 255 255
255 255 255
255 255 255
255 255 255
255 255 255
255 255 255
255 255 255
255 255 255
255 255 255
255 255 255
255 255 255
255 255 255
255 255 255
255 255 255
255 255 255
255 255 255
255 255 255
255 255 255
255 255 255
255 255 255
255 255 255
255 255 255
255 255 255
255 255 255
255 255 255
255 255 255
255 255 255
255 255 255
255 255 255
255 255 255
255 255 255
255 255 255
255 255 255
255 255 255
255 255 255
255 255 255
255 255 255
255 255 255
255 255 255
255 255 255
255 255 255
255 255 255
 65   0   0
 67   0   0
 69   0   0
 71   0   0
 72   0   0
 75   0   0
 77   0   0
 80   0   0
 82   0   0
 86   0   0
 89   0   0
 93   0   0
 98   0   0
103   0   0
109   0   0
116   0   0
125   0   0
134   0   0
143   0   0
152   0   0
158   0   0
159   0   0
151   0   0
120   0   0
  0   0 120
  0   0 180
  0   0 216
  0   0 240
  0   0 253
  0   0 254
  0   0 242
  0   0 215
  0   0 160
139   0   0
194   0   0
214   0   0
218   0   0
213   0   0
200   0   0
182   0   0
161   0   0
139   0   0
117   0   0
 96   0   0
 77   0   0
255 255 255
255 255 255
255 255 255
255 255 255
255 255 255
255 255 255
255 255 255
255 255 255
255 255 255
255 255 255
255 255 255
255 255 255
255 255 255
255 255 255
255 255 255
255 255 255
255 255 255
255 255 255
255 255 255
255 255 255
255 255 255
255 255 255
255 255 255
255 255 255
255 255 255
255 255 255
255 255 255
255 255 255
255 255 255
255 150   0
255 255 255
255 255 255
255 255 255
255 255 255
255 255 255
255 255 255
255 255 255
255 255 255
255 255 255
255 255 255
255 255 255
255 255 255
255 255 255
255 255 255
255 255 255
255 255 255
255 255 255
255 255 255
  0   0   0
  0   0   0
  0   0   0
  0   0   0
255 255 255
255 255 255
255 255 255
255 255 255
255 255 255
255 255 255
255 255 255
255 255 255
255 255 255
255 255 255
255 255 255
255 255 255
255 255 255
255 255 255
255 255 255
255 255 255
255 255 255
255 150   0
255 255 255
255 255 255
255 255 255
255 255 255
255 255 255
255 255 255
255 255 255
255 255 255
255 255 255
255 255 255
255 255 255
255 255 255
255 255 255
255 255 255
255 255 255
255 255 255
255 255 255
255 255 255
255 255 255
255 255 255
255 255 255
255 255 255
255 255 255
255 255 255
255 255 255
255 255 255
255 255 255
255 255 255
255 255 255
255 255 255
255 255 255
255 255 255
255 255 255
255 255 255
255 255 255
255 255 255
255 255 255
255 255 255
255 255 255
255 255 255
255 255 255
255 255 255
255 255 255
255 255 255
255 255 255
255 255 255
255 255 255
255 255 255
255 255 255
255 255 255
255 255 255
255 255 255
255 255 255
255 255 255
255 255 255
255 255 255
255 255 255
255 255 255
255 255 255
255 255 255
255 255 255
255 255 255
255 255 255
255 255 255
255 255 255
255 255 255
255 255 255
255 255 255
255 255 255
255 255 255
255 255 255
255 255 255
255 255 255
255 255 255
255 255 255
255 255 255
255 255 255
255 255 255
255 255 255
255 255 255
255 255 255
255 255 255
255 255 255
255 255 255
255 255 255
 64   0   0
 66   0   0
 67   0   0
 69   0   0
 71   0   0
 73   0   0
 75   0   0
 77   0   0
 80   0   0
 83   0   0
 86   0   0
 90   0   0
 94   0   0
 98   0   0
104   0   0
110   0   0
118   0   0
126   0   0
135   0   0
145   0   0
153   0   0
158   0   0
159   0   0
148   0   0
111   0   0
  0   0 132
  0   0 186
  0   0 220
  0   0 243
  0   0 254
  0   0 253
  0   0 239
  0   0 209
  0   0 148
151   0   0
198   0   0
215   0   0
218   0   0
211   0   0
198   0   0
179   0   0
159   0   0
136   0   0
114   0   0
 94   0   0
 74   0   0
255 255 255
255 255 255
255 255 255
255 255 255
255 255 255
255 255 255
255 255 255
255 255 255
255 255 255
255 255 255
255 255 255
255 255 255
255 255 255
255 255 255
255 255 255
255 255 255
255 255 255
255 255 255
255 255 255
255 255 255
255 255 255
255 255 255
255 255 255
255 255 255
255 255 255
255 255 255
255 255 255
255 255 255
255 255 255
255 150   0
255 255 255
255 255 255
255 255 255
255 255 255
255 255 255
255 255 255
255 255 255
255 255 255
255 255 255
255 255 255
255 255 255
255 255 255
255 255 255
255 255 255
255 255 255
255 255 255
255 255 255
255 255 255
  0   0   0
  0   0   0
  0   0   0
  0   0   0
255 255 255
255 255 255
255 255 255
255 255 255
255 255 255
255 255 255
255 255 255
255 255 255
255 255 255
255 255 255
255 255 255
255 255 255
255 255 255
255 255 255
255 255 255
255 255 255
255 255 255
255 150   0
255 255 255
255 255 255
255 255 255
255 255 255
255 255 255
255 255 255
255 255 255
255 255 255
255 255 255
255 255 255
255 255 255
255 255 255
255 255 255
255 255 255
255 255 255
255 255 255
255 255 255
255 255 255
255 255 255
255 255 255
255 255 255
255 255 255
255 255 255
255 255 255
255 255 255
255 255 255
255 255 255
255 255 255
255 255 255
255 255 255
255 255 255
255 255 255
255 255 255
255 255 255
255 255 255
255 255 255
255 255 255
255 255 255
255 255 255
255 255 255
255 255 255
255 255 255
255 255 255
255 255 255
255 255 255
255 255 255
255 255 255
255 255 255
255 255 255
255 255 255
255 255 255
255 255 255
255 255 255
255 255 255
255 255 255
255 255 255
255 255 255
255 255 255
255 255 255
255 255 255
255 255 255
255 255 255
255 255 255
255 255 255
255 255 255
255 255 255
255 255 255
255 255 255
255 255 255
255 255 255
255 255 255
255 255 255
255 255 255
255 255 255
255 255 255
255 255 255
255 255 255
255 255 255
255 255 255
255 255 255
255 255 255
255 255 255
255 255 255
255 255 255
255 255 255
 65   0   0
 66   0   0
 68   0   0
 69   0   0
 71   0   0
 73   0   0
 76   0   0
 78   0   0
 81   0   0
 84   0   0
 87   0   0
 90   0   0
 95   0   0
 99   0   0
105   0   0
112   0   0
119   0   0
128   0   0
137   0   0
146   0   0
154   0   0
159   0   0
158   0   0
145   0   0
 96   0   0
  0   0 144
  0   0 192
  0   0 225
  0   0 245
  0   0 254
  0   0 252
  0   0 236
  0   0 203
  0   0 131
161   0   0
201   0   0
216   0   0
218   0   0
210   0   0
195   0   0
177   0   0
156   0   0
133   0   0
112   0   0
 91   0   0
 72   0   0
255 255 255
255 255 255
255 255 255
255 255 255
255 255 255
255 255 255
255 255 255
255 255 255
255 255 255
255 255 255
255 255 255
255 255 255
255 255 255
255 255 255
255 255 255
255 255 255
255 255 255
255 255 255
255 255 255
255 255 255
255 255 255
255 255 255
255 255 255
255 255 255
255 255 255
255 255 255
255 255 255
255 255 255
255 255 255
255 150   0
255 255 255
255 255 255
255 255 255
255 255 255
255 255 255
255 255 255
255 255 255
255 255 255
255 255 255
255 255 255
255 255 255
255 255 255
255 255 255
255 255 255
255 255 255
255 255 255
255 255 255
255 255 255
  0   0   0
  0   0   0
  0   0   0
  0   0   0
255 255 255
255 255 255
255 255 255
255 255 255
255 255 255
255 255 255
255 255 255
255 255 255
255 255 255
255 255 255
255 255 255
255 255 255
255 255 255
255 255 255
255 255 255
255 255 255
255 255 255
255 150   0
255 255 255
255 255 255
255 255 255
255 255 255
255 255 255
255 255 255
255 255 255
255 255 255
255 255 255
255 255 255
255 255 255
255 255 255
255 255 255
255 255 255
255 255 255
255 255 255
255 255 255
255 255 255
255 255 255
255 255 255
255 255 255
255 255 255
255 255 255
255 255 255
255 255 255
255 255 255
255 255 255
255 255 255
255 255 255
255 255 255
255 255 255
255 255 255
255 255 255
255 255 255
255 255 255
255 255 255
255 255 255
255 255 255
255 255 255
255 255 255
255 255 255
255 255 255
255 255 255
255 255 255
255 255 255
255 255 255
255 255 255
255 255 255
255 255 255
255 255 255
255 255 255
255 255 255
255 255 255
255 255 255
255 255 255
255 255 255
255 255 255
255 255 255
255 255 255
255 255 255
255 255 255
255 255 255
255 255 255
255 255 255
255 255 255
255 255 255
255 255 255
255 255 255
255 255 255
255 255 255
255 255 255
255 255 255
255 255 255
255 255 255
255 255 255
255 255 255
255 255 255
255 255 255
255 255 255
255 255 255
255 255 255
255 255 255
255 255 255
255 255 255
255 255 255
 65   0   0
 66   0   0
 68   0   0
 70   0   0
 72   0   0
 74   0   0
 76   0   0
 78   0   0
 81   0   0
 84   0   0
 87   0   0
 91   0   0
 96   0   0
100   0   0
106   0   0
113   0   0
121   0   0
129   0   0
139   0   0
148   0   0
155   0   0
159   0   0
157   0   0
141   0   0
 66   0   0
  0   0 154
  0   0 199
  0   0 229
  0   0 247
  0   0 255
  0   0 250
  0   0 232
  0   0 195
  0   0 107
170   0   0
205   0   0
217   0   0
217   0   0
208   0   0
193   0   0
174   0   0
152   0   0
130   0   0
108   0   0
 88   0   0
 70   0   0
255 255 255
255 255 255
255 255 255
255 255 255
255 255 255
255 255 255
255 255 255
255 255 255
255 255 255
255 255 255
255 255 255
255 255 255
255 255 255
255 255 255
255 255 255
255 255 255
255 255 255
255 255 255
255 255 255
255 255 255
255 255 255
255 255 255
255 255 255
255 255 255
255 255 255
255 255 255
255 255 255
255 255 255
255 255 255
255 150   0
255 255 255
255 255 255
255 255 255
255 255 255
255 255 255
255 255 255
255 255 255
255 255 255
255 255 255
255 255 255
255 255 255
255 255 255
255 255 255
255 255 255
255 255 255
255 255 255
255 255 255
255 255 255
  0   0   0
  0   0   0
  0   0   0
  0   0   0
255 255 255
255 255 255
255 255 255
255 255 255
255 255 255
255 255 255
255 255 255
255 255 255
255 255 255
255 255 255
255 255 255
255 255 255
255 255 255
255 255 255
255 255 255
255 255 255
255 255 255
255 150   0
255 255 255
255 255 255
255 255 255
255 255 255
255 255 255
255 255 255
255 255 255
255 255 255
255 255 255
255 255 255
255 255 255
255 255 255
255 255 255
255 255 255
255 255 255
255 255 255
255 255 255
255 255 255
255 255 255
255 255 255
255 255 255
255 255 255
255 255 255
255 255 255
255 255 255
255 255 255
255 255 255
255 255 255
255 255 255
255 255 255
255 255 255
255 255 255
255 255 255
255 255 255
255 255 255
255 255 255
255 255 255
255 255 255
255 255 255
255 255 255
255 255 255
255 255 255
255 255 255
255 255 255
255 255 255
255 255 255
255 255 255
255 255 255
255 255 255
255 255 255
255 255 255
255 255 255
255 255 255
255 255 255
255 255 255
255 255 255
255 255 255
255 255 255
255 255 255
255 255 255
255 255 255
255 255 255
255 255 255
255 255 255
255 255 255
255 255 255
255 255 255
255 255 255
255 255 255
255 255 255
255 255 255
255 255 255
255 255 255
255 255 255
255 255 255
255 255 255
255 255 255
255 255 255
255 255 255
255 255 255
255 255 255
255 255 255
255 255 255
255 255 255
255 255 255
 65   0   0
 67   0   0
 68   0   0
 70   0   0
 72   0   0
 74   0   0
 77   0   0
 79   0   0
 82   0   0
 85   0   0
 88   0   0
 92   0   0
 97   0   0
102   0   0
108   0   0
114   0   0
122   0   0
131   0   0
141   0   0
149   0   0
156   0   0
159   0   0
155   0   0
135   0   0
  0   0  79
  0   0 164
  0   0 205
  0   0 233
  0   0 250
  0   0 255
  0   0 248
  0   0 227
  0   0 186
255 255 255
179   0   0
208   0   0
218   0   0
216   0   0
206   0   0
190   0   0
170   0   0
149   0   0
127   0   0
105   0   0
 85   0   0
 67   0   0
255 255 255
255 255 255
255 255 255
255 255 255
255 255 255
255 255 255
255 255 255
255 255 255
255 255 255
255 255 255
255 255 255
255 255 255
255 255 255
255 255 255
255 255 255
255 255 255
255 255 255
255 255 255
255 255 255
255 255 255
255 255 255
255 255 255
255 255 255
255 255 255
255 255 255
255 255 255
255 255 255
255 255 255
255 255 255
255 150   0
255 255 255
255 255 255
255 255 255
255 255 255
255 255 255
255 255 255
255 255 255
255 255 255
255 255 255
255 255 255
255 255 255
255 255 255
255 255 255
255 255 255
255 255 255
255 255 255
255 255 255
255 255 255
  0   0   0
  0   0   0
  0   0   0
  0   0   0
255 255 255
255 255 255
255 255 255
255 255 255
255 255 255
255 255 255
255 255 255
255 255 255
255 255 255
255 255 255
255 255 255
255 255 255
255 255 255
255 255 255
255 255 255
255 255 255
255 255 255
255 150   0
255 255 255
255 255 255
255 255 255
255 255 255
255 255 255
255 255 255
255 255 255
255 255 255
255 255 255
255 255 255
255 255 255
255 255 255
255 255 255
255 255 255
255 255 255
255 255 255
255 255 255
255 255 255
255 255 255
255 255 255
255 255 255
255 255 255
255 255 255
255 255 255
255 255 255
255 255 255
255 255 255
255 255 255
255 255 255
255 255 255
255 255 255
255 255 255
255 255 255
255 255 255
255 255 255
255 255 255
255 255 255
255 255 255
255 255 255
255 255 255
255 255 255
255 255 255
255 255 255
255 255 255
255 255 255
255 255 255
255 255 255
255 255 255
255 255 255
255 255 255
255 255 255
255 255 255
255 255 255
255 255 255
255 255 255
255 255 255
255 255 255
255 255 255
255 255 255
255 255 255
255 255 255
255 255 255
255 255 255
255 255 255
255 255 255
255 255 255
255 255 255
255 255 255
255 255 255
255 255 255
255 255 255
255 255 255
255 255 255
255 255 255
255 255 255
255 255 255
255 255 255
255 255 255
255 255 255
255 255 255
255 255 255
255 255 255
255 255 255
255 255 255
 64   0   0
 66   0   0
 67   0   0
 69   0   0
 71   0   0
 73   0   0
 75   0   0
 77   0   0
 80   0   0
 83   0   0
 86   0   0
 89   0   0
 93   0   0
 98   0   0
103   0   0
109   0   0
116   0   0
124   0   0
133   0   0
142   0   0
151   0   0
157   0   0
159   0   0
153   0   0
127   0   0
  0   0 107
  0   0 173
  0   0 211
  0   0 237
  0   0 251
  0   0 255
  0   0 245
  0   0 221
  0   0 175
111   0   0
186   0   0
211   0   0
218   0   0
215   0   0
204   0   0
187   0   0
167   0   0
145   0   0
123   0   0
102   0   0
 82   0   0
 64   0   0
255 255 255
255 255 255
255 255 255
255 255 255
255 255 255
255 255 255
255 255 255
255 255 255
255 255 255
255 255 255
255 255 255
255 255 255
255 255 255
255 255 255
255 255 255
255 255 255
255 255 255
255 255 255
255 255 255
255 255 255
255 255 255
255 255 255
255 255 255
255 255 255
255 255 255
255 255 255
255 255 255
255 255 255
255 255 255
255 150   0
255 255 255
255 255 255
255 255 255
255 255 255
255 255 255
255 255 255
255 255 255
255 255 255
255 255 255
255 255 255
255 255 255
255 255 255
255 255 255
255 255 255
255 255 255
255 255 255
255 255 255
255 255 255
  0   0   0
  0   0   0
  0   0   0
  0   0   0
255 255 255
255 255 255
255 255 255
255 255 255
255 255 255
255 255 255
255 255 255
255 255 255
255 255 255
255 255 255
255 255 255
255 255 255
255 255 255
255 255 255
255 255 255
255 255 255
255 255 255
255 150   0
255 255 255
255 255 255
255 255 255
255 255 255
255 255 255
255 255 255
255 255 255
255 255 255
255 255 255
255 255 255
255 255 255
255 255 255
255 255 255
255 255 255
255 255 255
255 255 255
255 255 255
255 255 255
255 255 255
255 255 255
255 255 255
255 255 255
255 255 255
255 255 255
255 255 255
255 255 255
255 255 255
255 255 255
255 255 255
255 255 255
255 255 255
255 255 255
255 255 255
255 255 255
255 255 255
255 255 255
255 255 255
255 255 255
255 255 255
255 255 255
255 255 255
255 255 255
255 255 255
255 255 255
255 255 255
255 255 255
255 255 255
255 255 255
255 255 255
255 255 255
255 255 255
255 255 255
255 255 255
255 255 255
255 255 255
255 255 255
255 255 255
255 255 255
255 255 255
255 255 255
255 255 255
255 255 255
255 255 255
255 255 255
255 255 255
255 255 255
255 255 255
255 255 255
255 255 255
255 255 255
255 255 255
255 255 255
255 255 255
255 255 255
255 255 255
255 255 255
255 255 255
255 255 255
255 255 255
255 255 255
255 255 255
255 255 255
255 255 255
255 255 255
 65   0   0
 66   0   0
 68   0   0
 69   0   0
 71   0   0
 73   0   0
 75   0   0
 78   0   0
 80   0   0
 83   0   0
 86   0   0
 90   0   0
 94   0   0
 99   0   0
104   0   0
111   0   0
118   0   0
126   0   0
135   0   0
144   0   0
153   0   0
158   0   0
159   0   0
149   0   0
115   0   0
  0   0 127
  0   0 182
  0   0 217
  0   0 241
  0   0 253
  0   0 254
  0   0 242
  0   0 215
  0   0 161
136   0   0
193   0   0
213   0   0
218   0   0
213   0   0
201   0   0
184   0   0
163   0   0
141   0   0
119   0   0
 98   0   0
 79   0   0
255 255 255
255 255 255
255 255 255
255 255 255
255 255 255
255 255 255
255 255 255
255 255 255
255 255 255
255 255 255
255 255 255
255 255 255
255 255 255
255 255 255
255 255 255
255 255 255
255 255 255
255 255 255
255 255 255
255 255 255
255 255 255
255 255 255
255 255 255
255 255 255
255 255 255
255 255 255
255 255 255
255 255 255
255 255 255
255 255 255
255 150   0
255 255 255
255 255 255
255 255 255
255 255 255
255 255 255
255 255 255
255 255 255
255 255 255
255 255 255
255 255 255
255 255 255
255 255 255
255 255 255
255 255 255
255 255 255
255 255 255
255 255 255
255 255 255
  0   0   0
  0   0   0
  0   0   0
  0   0   0
255 255 255
255 255 255
255 255 255
255 255 255
255 255 255
255 255 255
255 255 255
255 255 255
255 255 255
255 255 255
255 255 255
255 255 255
255 255 255
255 255 255
255 255 255
255 255 255
255 255 255
255 150   0
255 255 255
255 255 255
255 255 255
255 255 255
255 255 255
255 255 255
255 255 255
255 255 255
255 255 255
255 255 255
255 255 255
255 255 255
255 255 255
255 255 255
255 255 255
255 255 255
255 255 255
255 255 255
255 255 255
255 255 255
255 255 255
255 255 255
255 255 255
255 255 255
255 255 255
255 255 255
255 255 255
255 255 255
255 255 255
255 255 255
255 255 255
255 255 255
255 255 255
255 255 255
255 255 255
255 255 255
255 255 255
255 255 255
255 255 255
255 255 255
255 255 255
255 255 255
255 255 255
255 255 255
255 255 255
255 255 255
255 255 255
255 255 255
255 255 255
255 255 255
255 255 255
255 255 255
255 255 255
255 255 255
255 255 255
255 255 255
255 255 255
255 255 255
255 255 255
255 255 255
255 255 255
255 255 255
255 255 255
255 255 255
255 255 255
255 255 255
255 255 255
255 255 255
255 255 255
255 255 255
255 255 255
255 255 255
255 255 255
255 255 255
255 255 255
255 255 255
255 255 255
255 255 255
255 255 255
255 255 255
255 255 255
255 255 255
255 255 255
255 255 255
 65   0   0
 67   0   0
 68   0   0
 70   0   0
 72   0   0
 74   0   0
 76   0   0
 79   0   0
 81   0   0
 84   0   0
 87   0   0
 91   0   0
 95   0   0
100   0   0
106   0   0
112   0   0
120   0   0
128   0   0
137   0   0
147   0   0
154   0   0
159   0   0
158   0   0
145   0   0
 97   0   0
  0   0 142
  0   0 191
  0   0 223
  0   0 244
  0   0 254
  0   0 253
  0   0 238
  0   0 207
  0   0 143
153   0   0
198   0   0
215   0   0
218   0   0
211   0   0
198   0   0
180   0   0
159   0   0
137   0   0
116   0   0
 95   0   0
 76   0   0
255 255 255
255 255 255
255 255 255
255 255 255
255 255 255
255 255 255
255 255 255
255 255 255
255 255 255
255 255 255
255 255 255
255 255 255
255 255 255
255 255 255
255 255 255
255 255 255
255 255 255
255 255 255
255 255 255
255 255 255
255 255 255
255 255 255
255 255 255
255 255 255
255 255 255
255 255 255
255 255 255
255 255 255
255 255 255
255 255 255
255 150   0
255 255 255
255 255 255
255 255 255
255 255 255
255 255 255
255 255 255
255 255 255
255 255 255
255 255 255
255 255 255
255 255 255
255 255 255
255 255 255
255 255 255
255 255 255
255 255 255
255 255 255
255 255 255
  0   0   0
  0   0   0
  0   0   0
  0   0   0
255 255 255
255 255 255
255 255 255
255 255 255
255 255 255
255 255 255
255 255 255
255 255 255
255 255 255
255 255 255
255 255 255
255 255 255
255 255 255
255 255 255
255 255 255
255 255 255
255 255 255
255 150   0
255 255 255
255 255 255
255 255 255
255 255 255
255 255 255
255 255 255
255 255 255
255 255 255
255 255 255
255 255 255
255 255 255
255 255 255
255 255 255
255 255 255
255 255 255
255 255 255
255 255 255
255 255 255
255 255 255
255 255 255
255 255 255
255 255 255
255 255 255
255 255 255
255 255 255
255 255 255
255 255 255
255 255 255
255 255 255
255 255 255
255 255 255
255 255 255
255 255 255
255 255 255
255 255 255
255 255 255
255 255 255
255 255 255
255 255 255
255 255 255
255 255 255
255 255 255
255 255 255
255 255 255
255 255 255
255 255 255
255 255 255
255 255 255
255 255 255
255 255 255
255 255 255
255 255 255
255 255 255
255 255 255
255 255 255
255 255 255
255 255 255
255 255 255
255 255 255
255 255 255
255 255 255
255 255 255
255 255 255
255 255 255
255 255 255
255 255 255
255 255 255
255 255 255
255 255 255
255 255 255
255 255 255
255 255 255
255 255 255
255 255 255
255 255 255
255 255 255
255 255 255
255 255 255
255 255 255
255 255 255
255 255 255
255 255 255
255 255 255
 64   0   0
 66   0   0
 67   0   0
 69   0   0
 71   0   0
 72   0   0
 75   0   0
 77   0   0
 79   0   0
 82   0   0
 85   0   0
 88   0   0
 92   0   0
 97   0   0
102   0   0
107   0   0
114   0   0
122   0   0
131   0   0
140   0   0
149   0   0
156   0   0
159   0   0
156   0   0
139   0   0
255 255 255
  0   0 156
  0   0 200
  0   0 229
  0   0 247
  0   0 255
  0   0 251
  0   0 233
  0   0 197
  0   0 116
167   0   0
203   0   0
217   0   0
217   0   0
209   0   0
195   0   0
176   0   0
155   0   0
133   0   0
111   0   0
 91   0   0
 72   0   0
255 255 255
255 255 255
255 255 255
255 255 255
255 255 255
255 255 255
255 255 255
255 255 255
255 255 255
255 255 255
255 255 255
255 255 255
255 255 255
255 255 255
255 255 255
255 255 255
255 255 255
255 255 255
255 255 255
255 255 255
255 255 255
255 255 255
255 255 255
255 255 255
255 255 255
255 255 255
255 255 255
255 255 255
255 255 255
255 255 255
255 150   0
255 255 255
255 255 255
255 255 255
255 255 255
255 255 255
255 255 255
255 255 255
255 255 255
255 255 255
255 255 255
255 255 255
255 255 255
255 255 255
255 255 255
255 255 255
255 255 255
255 255 255
255 255 255
  0   0   0
  0   0   0
  0   0   0
  0   0   0
255 255 255
255 255 255
255 255 255
255 255 255
255 255 255
255 255 255
255 255 255
255 255 255
255 255 255
255 255 255
255 255 255
255 255 255
255 255 255
255 255 255
255 255 255
255 255 255
255 255 255
255 150   0
255 255 255
255 255 255
255 255 255
255 255 255
255 255 255
255 255 255
255 255 255
255 255 255
255 255 255
255 255 255
255 255 255
255 255 255
255 255 255
255 255 255
255 255 255
255 255 255
255 255 255
255 255 255
255 255 255
255 255 255
255 255 255
255 255 255
255 255 255
255 255 255
255 255 255
255 255 255
255 255 255
255 255 255
255 255 255
255 255 255
255 255 255
255 255 255
255 255 255
255 255 255
255 255 255
255 255 255
255 255 255
255 255 255
255 255 255
255 255 255
255 255 255
255 255 255
255 255 255
255 255 255
255 255 255
255 255 255
255 255 255
255 255 255
255 255 255
255 255 255
255 255 255
255 255 255
255 255 255
255 255 255
255 255 255
255 255 255
255 255 255
255 255 255
255 255 255
255 255 255
255 255 255
255 255 255
255 255 255
255 255 255
255 255 255
255 255 255
255 255 255
255 255 255
255 255 255
255 255 255
255 255 255
255 255 255
255 255 255
255 255 255
255 255 255
255 255 255
255 255 255
255 255 255
255 255 255
255 255 255
255 255 255
255 255 255
255 255 255
 65   0   0
 66   0   0
 68   0   0
 69   0   0
 71   0   0
 73   0   0
 75   0   0
 78   0   0
 80   0   0
 83   0   0
 86   0   0
 89   0   0
 93   0   0
 98   0   0
103   0   0
109   0   0
116   0   0
124   0   0
133   0   0
142   0   0
151   0   0
157   0   0
159   0   0
153   0   0
130   0   0
  0   0  96
  0   0 168
  0   0 208
  0   0 234
  0   0 250
  0   0 255
  0   0 248
  0   0 227
  0   0 186
255 255 255
178   0   0
208   0   0
218   0   0
216   0   0
207   0   0
191   0   0
172   0   0
151   0   0
129   0   0
107   0   0
 87   0   0
 69   0   0
255 255 255
255 255 255
255 255 255
255 255 255
255 255 255
255 255 255
255 255 255
255 255 255
255 255 255
255 255 255
255 255 255
255 255 255
255 255 255
255 255 255
255 255 255
255 255 255
255 255 255
255 255 255
255 255 255
255 255 255
255 255 255
255 255 255
255 255 255
255 255 255
255 255 255
255 255 255
255 255 255
255 255 255
255 255 255
255 255 255
255 150   0
255 255 255
255 255 255
255 255 255
255 255 255
255 255 255
255 255 255
255 255 255
255 255 255
255 255 255
255 255 255
255 255 255
255 255 255
255 255 255
255 255 255
255 255 255
255 255 255
255 255 255
255 255 255
  0   0   0
  0   0   0
  0   0   0
  0   0   0
255 255 255
255 255 255
255 255 255
255 255 255
255 255 255
255 255 255
255 255 255
255 255 255
255 255 255
255 255 255
255 255 255
255 255 255
255 255 255
255 255 255
255 255 255
255 255 255
255 255 255
255 150   0
255 255 255
255 255 255
255 255 255
255 255 255
255 255 255
255 255 255
255 255 255
255 255 255
255 255 255
255 255 255
255 255 255
255 255 255
255 255 255
255 255 255
255 255 255
255 255 255
255 255 255
255 255 255
255 255 255
255 255 255
255 255 255
255 255 255
255 255 255
255 255 255
255 255 255
255 255 255
255 255 255
255 255 255
255 255 255
255 255 255
255 255 255
255 255 255
255 255 255
255 255 255
255 255 255
255 255 255
255 255 255
255 255 255
255 255 255
255 255 255
255 255 255
255 255 255
255 255 255
255 255 255
255 255 255
255 255 255
255 255 255
255 255 255
255 255 255
255 255 255
255 255 255
255 255 255
255 255 255
255 255 255
255 255 255
255 255 255
255 255 255
255 255 255
255 255 255
255 255 255
255 255 255
255 255 255
255 255 255
255 255 255
255 255 255
255 255 255
255 255 255
255 255 255
255 255 255
255 255 255
255 255 255
255 255 255
255 255 255
255 255 255
255 255 255
255 255 255
255 255 255
255 255 255
255 255 255
255 255 255
255 255 255
255 255 255
255 255 255
 65   0   0
 67   0   0
 68   0   0
 70   0   0
 72   0   0
 74   0   0
 76   0   0
 78   0   0
 81   0   0
 84   0   0
 87   0   0
 91   0   0
 95   0   0
 99   0   0
105   0   0
111   0   0
118   0   0
127   0   0
136   0   0
145   0   0
153   0   0
158   0   0
159   0   0
150   0   0
118   0   0
  0   0 122
  0   0 180
  0   0 215
  0   0 239
  0   0 252
  0   0 254
  0   0 244
  0   0 219
  0   0 171
119   0   0
188   0   0
211   0   0
218   0   0
215   0   0
204   0   0
187   0   0
167   0   0
146   0   0
124   0   0
103   0   0
 83   0   0
 65   0   0
255 255 255
255 255 255
255 255 255
255 255 255
255 255 255
255 255 255
255 255 255
255 255 255
255 255 255
255 255 255
255 255 255
255 255 255
255 255 255
255 255 255
255 255 255
255 255 255
255 255 255
255 255 255
255 255 255
255 255 255
255 255 255
255 255 255
255 255 255
255 255 255
255 255 255
255 255 255
255 255 255
255 255 255
255 255 255
255 255 255
255 150   0
255 255 255
255 255 255
255 255 255
255 255 255
255 255 255
255 255 255
255 255 255
255 255 255
255 255 255
255 255 255
255 255 255
255 255 255
255 255 255
255 255 255
255 255 255
255 255 255
255 255 255
255 255 255
  0   0   0
  0   0   0
  0   0   0
  0   0   0
255 255 255
255 255 255
255 255 255
255 255 255
255 255 255
255 255 255
255 255 255
255 255 255
255 255 255
255 255 255
255 255 255
255 255 255
255 255 255
255 255 255
255 255 255
255 255 255
255 255 255
255 150   0
255 255 255
255 255 255
255 255 255
255 255 255
255 255 255
255 255 255
255 255 255
255 255 255
255 255 255
255 255 255
255 255 255
255 255 255
255 255 255
255 255 255
255 255 255
255 255 255
255 255 255
255 255 255
255 255 255
255 255 255
255 255 255
255 255 255
255 255 255
255 255 255
255 255 255
255 255 255
255 255 255
255 255 255
255 255 255
255 255 255
255 255 255
255 255 255
255 255 255
255 255 255
255 255 255
255 255 255
255 255 255
255 255 255
255 255 255
255 255 255
255 255 255
255 255 255
255 255 255
255 255 255
255 255 255
255 255 255
255 255 255
255 255 255
255 255 255
255 255 255
255 255 255
255 255 255
255 255 255
255 255 255
255 255 255
255 255 255
255 255 255
255 255 255
255 255 255
255 255 255
255 255 255
255 255 255
255 255 255
255 255 255
255 255 255
255 255 255
255 255 255
255 255 255
255 255 255
255 255 255
255 255 255
255 255 255
255 255 255
255 255 255
255 255 255
255 255 255
255 255 255
255 255 255
255 255 255
255 255 255
255 255 255
255 255 255
 64   0   0
 66   0   0
 67   0   0
 69   0   0
 71   0   0
 72   0   0
 74   0   0
 77   0   0
 79   0   0
 82   0   0
 85   0   0
 88   0   0
 92   0   0
 96   0   0
101   0   0
107   0   0
113   0   0
121   0   0
129   0   0
138   0   0
147   0   0
155   0   0
159   0   0
158   0   0
144   0   0
 96   0   0
  0   0 142
  0   0 190
  0   0 223
  0   0 244
  0   0 254
  0   0 253
  0   0 239
  0   0 210
  0   0 152
146   0   0
195   0   0
214   0   0
218   0   0
213   0   0
200   0   0
183   0   0
163   0   0
141   0   0
119   0   0
 98   0   0
 79   0   0
255 255 255
255 255 255
255 255 255
255 255 255
255 255 255
255 255 255
255 255 255
255 255 255
255 255 255
255 255 255
255 255 255
255 255 255
255 255 255
255 255 255
255 255 255
255 255 255
255 255 255
255 255 255
255 255 255
255 255 255
255 255 255
255 255 255
255 255 255
255 255 255
255 255 255
255 255 255
255 255 255
255 255 255
255 255 255
255 255 255
255 255 255
255 150   0
255 255 255
255 255 255
255 255 255
255 255 255
255 255 255
255 255 255
255 255 255
255 255 255
255 255 255
255 255 255
255 255 255
255 255 255
255 255 255
255 255 255
255 255 255
255 255 255
255 255 255
255 255 255
  0   0   0
  0   0   0
  0   0   0
  0   0   0
255 255 255
255 255 255
255 255 255
255 255 255
255 255 255
255 255 255
255 255 255
255 255 255
255 255 255
255 255 255
255 255 255
255 255 255
255 255 255
255 255 255
255 255 255
255 255 255
255 255 255
255 150   0
255 255 255
255 255 255
255 255 255
255 255 255
255 255 255
255 255 255
255 255 255
255 255 255
255 255 255
255 255 255
255 255 255
255 255 255
255 255 255
255 255 255
255 255 255
255 255 255
255 255 255
255 255 255
255 255 255
255 255 255
255 255 255
255 255 255
255 255 255
255 255 255
255 255 255
255 255 255
255 255 255
255 255 255
255 255 255
255 255 255
255 255 255
255 255 255
255 255 255
255 255 255
255 255 255
255 255 255
255 255 255
255 255 255
255 255 255
255 255 255
255 255 255
255 255 255
255 255 255
255 255 255
255 255 255
255 255 255
255 255 255
255 255 255
255 255 255
255 255 255
255 255 255
255 255 255
255 255 255
255 255 255
255 255 255
255 255 255
255 255 255
255 255 255
255 255 255
255 255 255
255 255 255
255 255 255
255 255 255
255 255 255
255 255 255
255 255 255
255 255 255
255 255 255
255 255 255
255 255 255
255 255 255
255 255 255
255 255 255
255 255 255
255 255 255
255 255 255
255 255 255
255 255 255
255 255 255
255 255 255
255 255 255
255 255 255
 65   0   0
 66   0   0
 68   0   0
 69   0   0
 71   0   0
 73   0   0
 75   0   0
 78   0   0
 80   0   0
 83   0   0
 86   0   0
 89   0   0
 93   0   0
 98   0   0
103   0   0
109   0   0
115   0   0
123   0   0
132   0   0
141   0   0
150   0   0
156   0   0
159   0   0
155   0   0
137   0   0
255 255 255
  0   0 158
  0   0 200
  0   0 229
  0   0 247
  0   0 255
  0   0 251
  0   0 233
  0   0 199
  0   0 124
164   0   0
202   0   0
216   0   0
218   0   0
210   0   0
196   0   0
178   0   0
158   0   0
136   0   0
114   0   0
 94   0   0
 75   0   0
255 255 255
255 255 255
255 255 255
255 255 255
255 255 255
255 255 255
255 255 255
255 255 255
255 255 255
255 255 255
255 255 255
255 255 255
255 255 255
255 255 255
255 255 255
255 255 255
255 255 255
255 255 255
255 255 255
255 255 255
255 255 255
255 255 255
255 255 255
255 255 255
255 255 255
255 255 255
255 255 255
255 255 255
255 255 255
255 255 255
255 255 255
255 150   0
255 255 255
255 255 255
255 255 255
255 255 255
255 255 255
255 255 255
255 255 255
255 255 255
255 255 255
255 255 255
255 255 255
255 255 255
255 255 255
255 255 255
255 255 255
255 255 255
255 255 255
255 255 255
  0   0   0
  0   0   0
  0   0   0
  0   0   0
255 255 255
255 255 255
255 255 255
255 255 255
255 255 255
255 255 255
255 255 255
255 255 255
255 255 255
255 255 255
255 255 255
255 255 255
255 255 255
255 255 255
255 255 255
255 255 255
255 255 255
255 150   0
255 255 255
255 255 255
255 255 255
255 255 255
255 255 255
255 255 255
255 255 255
255 255 255
255 255 255
255 255 255
255 255 255
255 255 255
255 255 255
255 255 255
255 255 255
255 255 255
255 255 255
255 255 255
255 255 255
255 255 255
255 255 255
255 255 255
255 255 255
255 255 255
255 255 255
255 255 255
255 255 255
255 255 255
255 255 255
255 255 255
255 255 255
255 255 255
255 255 255
255 255 255
255 255 255
255 255 255
255 255 255
255 255 255
255 255 255
255 255 255
255 255 255
255 255 255
255 255 255
255 255 255
255 255 255
255 255 255
255 255 255
255 255 255
255 255 255
255 255 255
255 255 255
255 255 255
255 255 255
255 255 255
255 255 255
255 255 255
255 255 255
255 255 255
255 255 255
255 255 255
255 255 255
255 255 255
255 255 255
255 255 255
255 255 255
255 255 255
255 255 255
255 255 255
255 255 255
255 255 255
255 255 255
255 255 255
255 255 255
255 255 255
255 255 255
255 255 255
255 255 255
255 255 255
255 255 255
255 255 255
255 255 255
255 255 255
 65   0   0
 67   0   0
 68   0   0
 70   0   0
 72   0   0
 74   0   0
 76   0   0
 78   0   0
 81   0   0
 84   0   0
 87   0   0
 91   0   0
 95   0   0
 99   0   0
105   0   0
111   0   0
118   0   0
126   0   0
135   0   0
144   0   0
152   0   0
158   0   0
159   0   0
152   0   0
125   0   0
  0   0 108
  0   0 172
  0   0 210
  0   0 235
  0   0 251
  0   0 255
  0   0 247
  0   0 226
  0   0 185
255 255 255
178   0   0
207   0   0
218   0   0
217   0   0
207   0   0
192   0   0
173   0   0
152   0   0
131   0   0
109   0   0
 89   0   0
 71   0   0
255 255 255
255 255 255
255 255 255
255 255 255
255 255 255
255 255 255
255 255 255
255 255 255
255 255 255
255 255 255
255 255 255
255 255 255
255 255 255
255 255 255
255 255 255
255 255 255
255 255 255
255 255 255
255 255 255
255 255 255
255 255 255
255 255 255
255 255 255
255 255 255
255 255 255
255 255 255
255 255 255
255 255 255
255 255 255
255 255 255
255 255 255
255 150   0
255 255 255
255 255 255
255 255 255
255 255 255
255 255 255
255 255 255
255 255 255
255 255 255
255 255 255
255 255 255
255 255 255
255 255 255
255 255 255
255 255 255
255 255 255
255 255 255
255 255 255
255 255 255
  0   0   0
  0   0   0
  0   0   0
  0   0   0
255 255 255
255 255 255
255 255 255
255 255 255
255 255 255
255 255 255
255 255 255
255 255 255
255 255 255
255 255 255
255 255 255
255 255 255
255 255 255
255 255 255
255 255 255
255 255 255
255 255 255
255 150   0
255 255 255
255 255 255
255 255 255
255 255 255
255 255 255
255 255 255
255 255 255
255 255 255
255 255 255
255 255 255
255 255 255
255 255 255
255 255 255
255 255 255
255 255 255
255 255 255
255 255 255
255 255 255
255 255 255
255 255 255
255 255 255
255 255 255
255 255 255
255 255 255
255 255 255
255 255 255
255 255 255
255 255 255
255 255 255
255 255 255
255 255 255
255 255 255
255 255 255
255 255 255
255 255 255
255 255 255
255 255 255
255 255 255
255 255 255
255 255 255
255 255 255
255 255 255
255 255 255
255 255 255
255 255 255
255 255 255
255 255 255
255 255 255
255 255 255
255 255 255
255 255 255
255 255 255
255 255 255
255 255 255
255 255 255
255 255 255
255 255 255
255 255 255
255 255 255
255 255 255
255 255 255
255 255 255
255 255 255
255 255 255
255 255 255
255 255 255
255 255 255
255 255 255
255 255 255
255 255 255
255 255 255
255 255 255
255 255 255
255 255 255
255 255 255
255 255 255
255 255 255
255 255 255
255 255 255
255 255 255
255 255 255
 65   0   0
 66   0   0
 67   0   0
 69   0   0
 71   0   0
 73   0   0
 75   0   0
 77   0   0
 79   0   0
 82   0   0
 85   0   0
 88   0   0
 92   0   0
 96   0   0
101   0   0
107   0   0
113   0   0
121   0   0
129   0   0
138   0   0
147   0   0
154   0   0
159   0   0
158   0   0
147   0   0
107   0   0
  0   0 133
  0   0 185
  0   0 219
  0   0 241
  0   0 253
  0   0 254
  0   0 243
  0   0 217
  0   0 168
124   0   0
188   0   0
212   0   0
218   0   0
215   0   0
204   0   0
188   0   0
168   0   0
147   0   0
125   0   0
104   0   0
 84   0   0
 67   0   0
255 255 255
255 255 255
255 255 255
255 255 255
255 255 255
255 255 255
255 255 255
255 255 255
255 255 255
255 255 255
255 255 255
255 255 255
255 255 255
255 255 255
255 255 255
255 255 255
255 255 255
255 255 255
255 255 255
255 255 255
255 255 255
255 255 255
255 255 255
255 255 255
255 255 255
255 255 255
255 255 255
255 255 255
255 255 255
255 255 255
255 255 255
255 150   0
255 255 255
255 255 255
255 255 255
255 255 255
255 255 255
255 255 255
255 255 255
255 255 255
255 255 255
255 255 255
255 255 255
255 255 255
255 255 255
255 255 255
255 255 255
255 255 255
255 255 255
255 255 255
  0   0   0
  0   0   0
  0   0   0
  0   0   0
255 255 255
255 255 255
255 255 255
255 255 255
255 255 255
255 255 255
255 255 255
255 255 255
255 255 255
255 255 255
255 255 255
255 255 255
255 255 255
255 255 255
255 255 255
255 255 255
255 255 255
255 150   0
255 255 255
255 255 255
255 255 255
255 255 255
255 255 255
255 255 255
255 255 255
255 255 255
255 255 255
255 255 255
255 255 255
255 255 255
255 255 255
255 255 255
255 255 255
255 255 255
255 255 255
255 255 255
255 255 255
255 255 255
255 255 255
255 255 255
255 255 255
255 255 255
255 255 255
255 255 255
255 255 255
255 255 255
255 255 255
255 255 255
255 255 255
255 255 255
255 255 255
255 255 255
255 255 255
255 255 255
255 255 255
255 255 255
255 255 255
255 255 255
255 255 255
255 255 255
255 255 255
255 255 255
255 255 255
255 255 255
255 255 255
255 255 255
255 255 255
255 255 255
255 255 255
255 255 255
255 255 255
255 255 255
255 255 255
255 255 255
255 255 255
255 255 255
255 255 255
255 255 255
255 255 255
255 255 255
255 255 255
255 255 255
255 255 255
255 255 255
255 255 255
255 255 255
255 255 255
255 255 255
255 255 255
255 255 255
255 255 255
255 255 255
255 255 255
255 255 255
255 255 255
255 255 255
255 255 255
255 255 255
255 255 255
 65   0   0
 67   0   0
 68   0   0
 70   0   0
 72   0   0
 74   0   0
 76   0   0
 78   0   0
 80   0   0
 83   0   0
 86   0   0
 90   0   0
 93   0   0
 98   0   0
103   0   0
109   0   0
116   0   0
123   0   0
132   0   0
141   0   0
149   0   0
156   0   0
159   0   0
156   0   0
139   0   0
255 255 255
  0   0 153
  0   0 197
  0   0 227
  0   0 246
  0   0 254
  0   0 252
  0   0 237
  0   0 206
  0   0 144
152   0   0
197   0   0
215   0   0
218   0   0
212   0   0
200   0   0
183   0   0
162   0   0
141   0   0
119   0   0
 99   0   0
 80   0   0
255 255 255
255 255 255
255 255 255
255 255 255
255 255 255
255 255 255
255 255 255
255 255 255
255 255 255
255 255 255
255 255 255
255 255 255
255 255 255
255 255 255
255 255 255
255 255 255
255 255 255
255 255 255
255 255 255
255 255 255
255 255 255
255 255 255
255 255 255
255 255 255
255 255 255
255 255 255
255 255 255
255 255 255
255 255 255
255 255 255
255 255 255
255 255 255
255 150   0
255 255 255
255 255 255
255 255 255
255 255 255
255 255 255
255 255 255
255 255 255
255 255 255
255 255 255
255 255 255
255 255 255
255 255 255
255 255 255
255 255 255
255 255 255
255 255 255
255 255 255
255 255 255
  0   0   0
  0   0   0
  0   0   0
  0   0   0
255 255 255
255 255 255
255 255 255
255 255 255
255 255 255
255 255 255
255 255 255
255 255 255
255 255 255
255 255 255
255 255 255
255 255 255
255 255 255
255 255 255
255 255 255
255 255 255
255 255 255
255 150   0
255 255 255
255 255 255
255 255 255
255 255 255
255 255 255
255 255 255
255 255 255
255 255 255
255 255 255
255 255 255
255 255 255
255 255 255
255 255 255
255 255 255
255 255 255
255 255 255
255 255 255
255 255 255
255 255 255
255 255 255
255 255 255
255 255 255
255 255 255
255 255 255
255 255 255
255 255 255
255 255 255
255 255 255
255 255 255
255 255 255
255 255 255
255 255 255
255 255 255
255 255 255
255 255 255
255 255 255
255 255 255
255 255 255
255 255 255
255 255 255
255 255 255
255 255 255
255 255 255
255 255 255
255 255 255
255 255 255
255 255 255
255 255 255
255 255 255
255 255 255
255 255 255
255 255 255
255 255 255
255 255 255
255 255 255
255 255 255
255 255 255
255 255 255
255 255 255
255 255 255
255 255 255
255 255 255
255 255 255
255 255 255
255 255 255
255 255 255
255 255 255
255 255 255
255 255 255
255 255 255
255 255 255
255 255 255
255 255 255
255 255 255
255 255 255
255 255 255
255 255 255
255 255 255
255 255 255
255 255 255
 64   0   0
 66   0   0
 67   0   0
 69   0   0
 71   0   0
 72   0   0
 74   0   0
 77   0   0
 79   0   0
 82   0   0
 84   0   0
 88   0   0
 91   0   0
 95   0   0
100   0   0
105   0   0
111   0   0
118   0   0
126   0   0
135   0   0
144   0   0
152   0   0
158   0   0
159   0   0
152   0   0
127   0   0
  0   0 103
  0   0 169
  0   0 208
  0   0 234
  0   0 250
  0   0 255
  0   0 249
  0   0 230
  0   0 192
  0   0 101
170   0   0
204   0   0
217   0   0
217   0   0
209   0   0
195   0   0
177   0   0
157   0   0
135   0   0
114   0   0
 93   0   0
 75   0   0
255 255 255
255 255 255
255 255 255
255 255 255
255 255 255
255 255 255
255 255 255
255 255 255
255 255 255
255 255 255
255 255 255
255 255 255
255 255 255
255 255 255
255 255 255
255 255 255
255 255 255
255 255 255
255 255 255
255 255 255
255 255 255
255 255 255
255 255 255
255 255 255
255 255 255
255 255 255
255 255 255
255 255 255
255 255 255
255 255 255
255 255 255
255 255 255
255 150   0
255 255 255
255 255 255
255 255 255
255 255 255
255 255 255
255 255 255
255 255 255
255 255 255
255 255 255
255 255 255
255 255 255
255 255 255
255 255 255
255 255 255
255 255 255
255 255 255
255 255 255
255 255 255
  0   0   0
  0   0   0
  0   0   0
  0   0   0
255 255 255
255 255 255
255 255 255
255 255 255
255 255 255
255 255 255
255 255 255
255 255 255
255 255 255
255 255 255
255 255 255
255 255 255
255 255 255
255 255 255
255 255 255
255 255 255
255 255 255
255 150   0
255 255 255
255 255 255
255 255 255
255 255 255
255 255 255
255 255 255
255 255 255
255 255 255
255 255 255
255 255 255
255 255 255
255 255 255
255 255 255
255 255 255
255 255 255
255 255 255
255 255 255
255 255 255
255 255 255
255 255 255
255 255 255
255 255 255
255 255 255
255 255 255
255 255 255
255 255 255
255 255 255
255 255 255
255 255 255
255 255 255
255 255 255
255 255 255
255 255 255
255 255 255
255 255 255
255 255 255
255 255 255
255 255 255
255 255 255
255 255 255
255 255 255
255 255 255
255 255 255
255 255 255
255 255 255
255 255 255
255 255 255
255 255 255
255 255 255
255 255 255
255 255 255
255 255 255
255 255 255
255 255 255
255 255 255
255 255 255
255 255 255
255 255 255
255 255 255
255 255 255
255 255 255
255 255 255
255 255 255
255 255 255
255 255 255
255 255 255
255 255 255
255 255 255
255 255 255
255 255 255
255 255 255
255 255 255
255 255 255
255 255 255
255 255 255
255 255 255
255 255 255
255 255 255
255 255 255
255 255 255
 65   0   0
 67   0   0
 68   0   0
 70   0   0
 71   0   0
 73   0   0
 75   0   0
 78   0   0
 80   0   0
 83   0   0
 86   0   0
 89   0   0
 93   0   0
 97   0   0
102   0   0
107   0   0
114   0   0
121   0   0
130   0   0
138   0   0
147   0   0
154   0   0
159   0   0
158   0   0
146   0   0
107   0   0
  0   0 133
  0   0 184
  0   0 218
  0   0 240
  0   0 253
  0   0 254
  0   0 244
  0   0 220
  0   0 174
108   0   0
184   0   0
210   0   0
218   0   0
216   0   0
206   0   0
190   0   0
171   0   0
150   0   0
129   0   0
108   0   0
 88   0   0
 70   0   0
255 255 255
255 255 255
255 255 255
255 255 255
255 255 255
255 255 255
255 255 255
255 255 255
255 255 255
255 255 255
255 255 255
255 255 255
255 255 255
255 255 255
255 255 255
255 255 255
255 255 255
255 255 255
255 255 255
255 255 255
255 255 255
255 255 255
255 255 255
255 255 255
255 255 255
255 255 255
255 255 255
255 255 255
255 255 255
255 255 255
255 255 255
255 255 255
255 150   0
255 255 255
255 255 255
255 255 255
255 255 255
255 255 255
255 255 255
255 255 255
255 255 255
255 255 255
255 255 255
255 255 255
255 255 255
255 255 255
255 255 255
255 255 255
255 255 255
255 255 255
255 255 255
  0   0   0
  0   0   0
  0   0   0
  0   0   0
255 255 255
255 255 255
255 255 255
255 255 255
255 255 255
255 255 255
255 255 255
255 255 255
255 255 255
255 255 255
255 255 255
255 255 255
255 255 255
255 255 255
255 255 255
255 255 255
255 255 255
255 150   0
255 255 255
255 255 255
255 255 255
255 255 255
255 255 255
255 255 255
255 255 255
255 255 255
255 255 255
255 255 255
255 255 255
255 255 255
255 255 255
255 255 255
255 255 255
255 255 255
255 255 255
255 255 255
255 255 255
255 255 255
255 255 255
255 255 255
255 255 255
255 255 255
255 255 255
255 255 255
255 255 255
255 255 255
255 255 255
255 255 255
255 255 255
255 255 255
255 255 255
255 255 255
255 255 255
255 255 255
255 255 255
255 255 255
255 255 255
255 255 255
255 255 255
255 255 255
255 255 255
255 255 255
255 255 255
255 255 255
255 255 255
255 255 255
255 255 255
255 255 255
255 255 255
255 255 255
255 255 255
255 255 255
255 255 255
255 255 255
255 255 255
255 255 255
255 255 255
255 255 255
255 255 255
255 255 255
255 255 255
255 255 255
255 255 255
255 255 255
255 255 255
255 255 255
255 255 255
255 255 255
255 255 255
255 255 255
255 255 255
255 255 255
255 255 255
255 255 255
255 255 255
255 255 255
255 255 255
 64   0   0
 66   0   0
 67   0   0
 69   0   0
 71   0   0
 72   0   0
 74   0   0
 76   0   0
 79   0   0
 81   0   0
 84   0   0
 87   0   0
 90   0   0
 94   0   0
 99   0   0
104   0   0
110   0   0
117   0   0
125   0   0
133   0   0
142   0   0
150   0   0
157   0   0
159   0   0
155   0   0
137   0   0
255 255 255
  0   0 154
  0   0 197
  0   0 227
  0   0 246
  0   0 254
  0   0 252
  0   0 238
  0   0 208
  0   0 150
146   0   0
195   0   0
214   0   0
218   0   0
213   0   0
202   0   0
185   0   0
165   0   0
144   0   0
123   0   0
102   0   0
 83   0   0
 65   0   0
255 255 255
255 255 255
255 255 255
255 255 255
255 255 255
255 255 255
255 255 255
255 255 255
255 255 255
255 255 255
255 255 255
255 255 255
255 255 255
255 255 255
255 255 255
255 255 255
255 255 255
255 255 255
255 255 255
255 255 255
255 255 255
255 255 255
255 255 255
255 255 255
255 255 255
255 255 255
255 255 255
255 255 255
255 255 255
255 255 255
255 255 255
255 255 255
255 150   0
255 255 255
255 255 255
255 255 255
255 255 255
255 255 255
255 255 255
255 255 255
255 255 255
255 255 255
255 255 255
255 255 255
255 255 255
255 255 255
255 255 255
255 255 255
255 255 255
255 255 255
255 255 255
  0   0   0
  0   0   0
  0   0   0
  0   0   0
255 255 255
255 255 255
255 255 255
255 255 255
255 255 255
255 255 255
255 255 255
255 255 255
255 255 255
255 255 255
255 255 255
255 255 255
255 255 255
255 255 255
255 255 255
255 255 255
255 255 255
255 150   0
255 255 255
255 255 255
255 255 255
255 255 255
255 255 255
255 255 255
255 255 255
255 255 255
255 255 255
255 255 255
255 255 255
255 255 255
255 255 255
255 255 255
255 255 255
255 255 255
255 255 255
255 255 255
255 255 255
255 255 255
255 255 255
255 255 255
255 255 255
255 255 255
255 255 255
255 255 255
255 255 255
255 255 255
255 255 255
255 255 255
255 255 255
255 255 255
255 255 255
255 255 255
255 255 255
255 255 255
255 255 255
255 255 255
255 255 255
255 255 255
255 255 255
255 255 255
255 255 255
255 255 255
255 255 255
255 255 255
255 255 255
255 255 255
255 255 255
255 255 255
255 255 255
255 255 255
255 255 255
255 255 255
255 255 255
255 255 255
255 255 255
255 255 255
255 255 255
255 255 255
255 255 255
255 255 255
255 255 255
255 255 255
255 255 255
255 255 255
255 255 255
255 255 255
255 255 255
255 255 255
255 255 255
255 255 255
255 255 255
255 255 255
255 255 255
255 255 255
255 255 255
255 255 255
255 255 255
 65   0   0
 67   0   0
 68   0   0
 70   0   0
 71   0   0
 73   0   0
 75   0   0
 77   0   0
 80   0   0
 82   0   0
 85   0   0
 89   0   0
 92   0   0
 96   0   0
101   0   0
106   0   0
113   0   0
120   0   0
128   0   0
137   0   0
145   0   0
153   0   0
158   0   0
159   0   0
151   0   0
123   0   0
  0   0 110
  0   0 172
  0   0 209
  0   0 234
  0   0 250
  0   0 255
  0   0 249
  0   0 230
  0   0 193
  0   0 108
168   0   0
203   0   0
217   0   0
218   0   0
210   0   0
197   0   0
179   0   0
159   0   0
138   0   0
116   0   0
 96   0   0
 77   0   0
255 255 255
255 255 255
255 255 255
255 255 255
255 255 255
255 255 255
255 255 255
255 255 255
255 255 255
255 255 255
255 255 255
255 255 255
255 255 255
255 255 255
255 255 255
255 255 255
255 255 255
255 255 255
255 255 255
255 255 255
255 255 255
255 255 255
255 255 255
255 255 255
255 255 255
255 255 255
255 255 255
255 255 255
255 255 255
255 255 255
255 255 255
255 255 255
255 255 255
255 150   0
255 255 255
255 255 255
255 255 255
255 255 255
255 255 255
255 255 255
255 255 255
255 255 255
255 255 255
255 255 255
255 255 255
255 255 255
255 255 255
255 255 255
255 255 255
255 255 255
255 255 255
255 255 255
  0   0   0
  0   0   0
  0   0   0
  0   0   0
255 255 255
255 255 255
255 255 255
255 255 255
255 255 255
255 255 255
255 255 255
255 255 255
255 255 255
255 255 255
255 255 255
255 255 255
255 255 255
255 255 255
255 255 255
255 255 255
255 255 255
255 150   0
255 255 255
255 255 255
255 255 255
255 255 255
255 255 255
255 255 255
255 255 255
255 255 255
255 255 255
255 255 255
255 255 255
255 255 255
255 255 255
255 255 255
255 255 255
255 255 255
255 255 255
255 255 255
255 255 255
255 255 255
255 255 255
255 255 255
255 255 255
255 255 255
255 255 255
255 255 255
255 255 255
255 255 255
255 255 255
255 255 255
255 255 255
255 255 255
255 255 255
255 255 255
255 255 255
255 255 255
255 255 255
255 255 255
255 255 255
255 255 255
255 255 255
255 255 255
255 255 255
255 255 255
255 255 255
255 255 255
255 255 255
255 255 255
255 255 255
255 255 255
255 255 255
255 255 255
255 255 255
255 255 255
255 255 255
255 255 255
255 255 255
255 255 255
255 255 255
255 255 255
255 255 255
255 255 255
255 255 255
255 255 255
255 255 255
255 255 255
255 255 255
255 255 255
255 255 255
255 255 255
255 255 255
255 255 255
255 255 255
255 255 255
255 255 255
255 255 255
255 255 255
255 255 255
 65   0   0
 66   0   0
 67   0   0
 69   0   0
 71   0   0
 72   0   0
 74   0   0
 76   0   0
 79   0   0
 81   0   0
 84   0   0
 87   0   0
 90   0   0
 94   0   0
 98   0   0
103   0   0
109   0   0
116   0   0
123   0   0
132   0   0
140   0   0
149   0   0
156   0   0
159   0   0
157   0   0
143   0   0
 96   0   0
  0   0 140
  0   0 188
  0   0 220
  0   0 241
  0   0 253
  0   0 254
  0   0 244
  0   0 220
  0   0 174
107   0   0
184   0   0
210   0   0
218   0   0
216   0   0
206   0   0
191   0   0
173   0   0
152   0   0
131   0   0
110   0   0
 90   0   0
 72   0   0
255 255 255
255 255 255
255 255 255
255 255 255
255 255 255
255 255 255
255 255 255
255 255 255
255 255 255
255 255 255
255 255 255
255 255 255
255 255 255
255 255 255
255 255 255
255 255 255
255 255 255
255 255 255
255 255 255
255 255 255
255 255 255
255 255 255
255 255 255
255 255 255
255 255 255
255 255 255
255 255 255
255 255 255
255 255 255
255 255 255
255 255 255
255 255 255
255 255 255
255 150   0
255 255 255
255 255 255
255 255 255
255 255 255
255 255 255
255 255 255
255 255 255
255 255 255
255 255 255
255 255 255
255 255 255
255 255 255
255 255 255
255 255 255
255 255 255
255 255 255
255 255 255
255 255 255
  0   0   0
  0   0   0
  0   0   0
  0   0   0
255 255 255
255 255 255
255 255 255
255 255 255
255 255 255
255 255 255
255 255 255
255 255 255
255 255 255
255 255 255
255 255 255
255 255 255
255 255 255
255 255 255
255 255 255
255 255 255
255 255 255
255 150   0
255 255 255
255 255 255
255 255 255
255 255 255
255 255 255
255 255 255
255 255 255
255 255 255
255 255 255
255 255 255
255 255 255
255 255 255
255 255 255
255 255 255
255 255 255
255 255 255
255 255 255
255 255 255
255 255 255
255 255 255
255 255 255
255 255 255
255 255 255
255 255 255
255 255 255
255 255 255
255 255 255
255 255 255
255 255 255
255 255 255
255 255 255
255 255 255
255 255 255
255 255 255
255 255 255
255 255 255
255 255 255
255 255 255
255 255 255
255 255 255
255 255 255
255 255 255
255 255 255
255 255 255
255 255 255
255 255 255
255 255 255
255 255 255
255 255 255
255 255 255
255 255 255
255 255 255
255 255 255
255 255 255
255 255 255
255 255 255
255 255 255
255 255 255
255 255 255
255 255 255
255 255 255
255 255 255
255 255 255
255 255 255
255 255 255
255 255 255
255 255 255
255 255 255
255 255 255
255 255 255
255 255 255
255 255 255
255 255 255
255 255 255
255 255 255
255 255 255
255 255 255
255 255 255
 65   0   0
 67   0   0
 68   0   0
 70   0   0
 71   0   0
 73   0   0
 75   0   0
 77   0   0
 80   0   0
 82   0   0
 85   0   0
 88   0   0
 92   0   0
 96   0   0
100   0   0
106   0   0
112   0   0
119   0   0
127   0   0
135   0   0
144   0   0
152   0   0
158   0   0
159   0   0
153   0   0
132   0   0
  0   0  82
  0   0 161
  0   0 201
  0   0 229
  0   0 247
  0   0 255
  0   0 252
  0   0 237
  0   0 206
  0   0 146
148   0   0
196   0   0
214   0   0
219   0   0
214   0   0
202   0   0
186   0   0
166   0   0
145   0   0
124   0   0
103   0   0
 84   0   0
 67   0   0
255 255 255
255 255 255
255 255 255
255 255 255
255 255 255
255 255 255
255 255 255
255 255 255
255 255 255
255 255 255
255 255 255
255 255 255
255 255 255
255 255 255
255 255 255
255 255 255
255 255 255
255 255 255
255 255 255
255 255 255
255 255 255
255 255 255
255 255 255
255 255 255
255 255 255
255 255 255
255 255 255
255 255 255
255 255 255
255 255 255
255 255 255
255 255 255
255 255 255
255 150   0
255 255 255
255 255 255
255 255 255
255 255 255
255 255 255
255 255 255
255 255 255
255 255 255
255 255 255
255 255 255
255 255 255
255 255 255
255 255 255
255 255 255
255 255 255
255 255 255
255 255 255
255 255 255
  0   0   0
  0   0   0
  0   0   0
  0   0   0
255 255 255
255 255 255
255 255 255
255 255 255
255 255 255
255 255 255
255 255 255
255 255 255
255 255 255
255 255 255
255 255 255
255 255 255
255 255 255
255 255 255
255 255 255
255 255 255
255 255 255
255 150   0
255 255 255
255 255 255
255 255 255
255 255 255
255 255 255
255 255 255
255 255 255
255 255 255
255 255 255
255 255 255
255 255 255
255 255 255
255 255 255
255 255 255
255 255 255
255 255 255
255 255 255
255 255 255
255 255 255
255 255 255
255 255 255
255 255 255
255 255 255
255 255 255
255 255 255
255 255 255
255 255 255
255 255 255
255 255 255
255 255 255
255 255 255
255 255 255
255 255 255
255 255 255
255 255 255
255 255 255
255 255 255
255 255 255
255 255 255
255 255 255
255 255 255
255 255 255
255 255 255
255 255 255
255 255 255
255 255 255
255 255 255
255 255 255
255 255 255
255 255 255
255 255 255
255 255 255
255 255 255
255 255 255
255 255 255
255 255 255
255 255 255
255 255 255
255 255 255
255 255 255
255 255 255
255 255 255
255 255 255
255 255 255
255 255 255
255 255 255
255 255 255
255 255 255
255 255 255
255 255 255
255 255 255
255 255 255
255 255 255
255 255 255
255 255 255
255 255 255
255 255 255
 65   0   0
 66   0   0
 68   0   0
 69   0   0
 71   0   0
 72   0   0
 74   0   0
 76   0   0
 79   0   0
 81   0   0
 84   0   0
 87   0   0
 90   0   0
 94   0   0
 98   0   0
103   0   0
109   0   0
115   0   0
122   0   0
131   0   0
139   0   0
148   0   0
155   0   0
159   0   0
158   0   0
147   0   0
111   0   0
  0   0 126
  0   0 180
  0   0 214
  0   0 237
  0   0 251
  0   0 255
  0   0 247
  0   0 227
  0   0 189
  0   0  91
171   0   0
204   0   0
217   0   0
218   0   0
210   0   0
197   0   0
179   0   0
159   0   0
138   0   0
117   0   0
 97   0   0
 78   0   0
255 255 255
255 255 255
255 255 255
255 255 255
255 255 255
255 255 255
255 255 255
255 255 255
255 255 255
255 255 255
255 255 255
255 255 255
255 255 255
255 255 255
255 255 255
255 255 255
255 255 255
255 255 255
255 255 255
255 255 255
255 255 255
255 255 255
255 255 255
255 255 255
255 255 255
255 255 255
255 255 255
255 255 255
255 255 255
255 255 255
255 255 255
255 255 255
255 255 255
255 255 255
255 150   0
255 255 255
255 255 255
255 255 255
255 255 255
255 255 255
255 255 255
255 255 255
255 255 255
255 255 255
255 255 255
255 255 255
255 255 255
255 255 255
255 255 255
255 255 255
255 255 255
255 255 255
255 255 255
  0   0   0
  0   0   0
  0   0   0
  0   0   0
255 255 255
255 255 255
255 255 255
255 255 255
255 255 255
255 255 255
255 255 255
255 255 255
255 255 255
255 255 255
255 255 255
255 255 255
255 255 255
255 255 255
255 255 255
255 255 255
255 255 255
255 150   0
255 255 255
255 255 255
255 255 255
255 255 255
255 255 255
255 255 255
255 255 255
255 255 255
255 255 255
255 255 255
255 255 255
255 255 255
255 255 255
255 255 255
255 255 255
255 255 255
255 255 255
255 255 255
255 255 255
255 255 255
255 255 255
255 255 255
255 255 255
255 255 255
255 255 255
255 255 255
255 255 255
255 255 255
255 255 255
255 255 255
255 255 255
255 255 255
255 255 255
255 255 255
255 255 255
255 255 255
255 255 255
255 255 255
255 255 255
255 255 255
255 255 255
255 255 255
255 255 255
255 255 255
255 255 255
255 255 255
255 255 255
255 255 255
255 255 255
255 255 255
255 255 255
255 255 255
255 255 255
255 255 255
255 255 255
255 255 255
255 255 255
255 255 255
255 255 255
255 255 255
255 255 255
255 255 255
255 255 255
255 255 255
255 255 255
255 255 255
255 255 255
255 255 255
255 255 255
255 255 255
255 255 255
255 255 255
255 255 255
255 255 255
255 255 255
255 255 255
 64   0   0
 66   0   0
 67   0   0
 68   0   0
 70   0   0
 72   0   0
 74   0   0
 76   0   0
 78   0   0
 80   0   0
 83   0   0
 85   0   0
 88   0   0
 92   0   0
 96   0   0
100   0   0
106   0   0
112   0   0
119   0   0
126   0   0
135   0   0
143   0   0
151   0   0
157   0   0
159   0   0
155   0   0
137   0   0
255 255 255
  0   0 153
  0   0 195
  0   0 225
  0   0 244
  0   0 254
  0   0 253
  0   0 241
  0   0 215
  0   0 166
123   0   0
187   0   0
211   0   0
218   0   0
216   0   0
206   0   0
191   0   0
172   0   0
152   0   0
131   0   0
110   0   0
 90   0   0
 72   0   0
255 255 255
255 255 255
255 255 255
255 255 255
255 255 255
255 255 255
255 255 255
255 255 255
255 255 255
255 255 255
255 255 255
255 255 255
255 255 255
255 255 255
255 255 255
255 255 255
255 255 255
255 255 255
255 255 255
255 255 255
255 255 255
255 255 255
255 255 255
255 255 255
255 255 255
255 255 255
255 255 255
255 255 255
255 255 255
255 255 255
255 255 255
255 255 255
255 255 255
255 255 255
255 150   0
255 255 255
255 255 255
255 255 255
255 255 255
255 255 255
255 255 255
255 255 255
255 255 255
255 255 255
255 255 255
255 255 255
255 255 255
255 255 255
255 255 255
255 255 255
255 255 255
255 255 255
255 255 255
  0   0   0
  0   0   0
  0   0   0
  0   0   0
255 255 255
255 255 255
255 255 255
255 255 255
255 255 255
255 255 255
255 255 255
255 255 255
255 255 255
255 255 255
255 255 255
255 255 255
255 255 255
255 255 255
255 255 255
255 255 255
255 255 255
255 150   0
255 255 255
255 255 255
255 255 255
255 255 255
255 255 255
255 255 255
255 255 255
255 255 255
255 255 255
255 255 255
255 255 255
255 255 255
255 255 255
255 255 255
255 255 255
255 255 255
255 255 255
255 255 255
255 255 255
255 255 255
255 255 255
255 255 255
255 255 255
255 255 255
255 255 255
255 255 255
255 255 255
255 255 255
255 255 255
255 255 255
255 255 255
255 255 255
255 255 255
255 255 255
255 255 255
255 255 255
255 255 255
255 255 255
255 255 255
255 255 255
255 255 255
255 255 255
255 255 255
255 255 255
255 255 255
255 255 255
255 255 255
255 255 255
255 255 255
255 255 255
255 255 255
255 255 255
255 255 255
255 255 255
255 255 255
255 255 255
255 255 255
255 255 255
255 255 255
255 255 255
255 255 255
255 255 255
255 255 255
255 255 255
255 255 255
255 255 255
255 255 255
255 255 255
255 255 255
255 255 255
255 255 255
255 255 255
255 255 255
255 255 255
255 255 255
255 255 255
 65   0   0
 66   0   0
 68   0   0
 69   0   0
 71   0   0
 73   0   0
 75   0   0
 77   0   0
 79   0   0
 81   0   0
 84   0   0
 87   0   0
 90   0   0
 94   0   0
 98   0   0
103   0   0
109   0   0
115   0   0
122   0   0
130   0   0
139   0   0
147   0   0
154   0   0
159   0   0
158   0   0
149   0   0
119   0   0
  0   0 115
  0   0 173
  0   0 209
  0   0 234
  0   0 249
  0   0 255
  0   0 250
  0   0 233
  0   0 199
  0   0 130
158   0   0
199   0   0
215   0   0
218   0   0
213   0   0
201   0   0
184   0   0
165   0   0
144   0   0
123   0   0
103   0   0
 84   0   0
 67   0   0
255 255 255
255 255 255
255 255 255
255 255 255
255 255 255
255 255 255
255 255 255
255 255 255
255 255 255
255 255 255
255 255 255
255 255 255
255 255 255
255 255 255
255 255 255
255 255 255
255 255 255
255 255 255
255 255 255
255 255 255
255 255 255
255 255 255
255 255 255
255 255 255
255 255 255
255 255 255
255 255 255
255 255 255
255 255 255
255 255 255
255 255 255
255 255 255
255 255 255
255 255 255
255 150   0
255 255 255
255 255 255
255 255 255
255 255 255
255 255 255
255 255 255
255 255 255
255 255 255
255 255 255
255 255 255
255 255 255
255 255 255
255 255 255
255 255 255
255 255 255
255 255 255
255 255 255
255 255 255
  0   0   0
  0   0   0
  0   0   0
  0   0   0
255 255 255
255 255 255
255 255 255
255 255 255
255 255 255
255 255 255
255 255 255
255 255 255
255 255 255
255 255 255
255 255 255
255 255 255
255 255 255
255 255 255
255 255 255
255 255 255
255 255 255
255 150   0
255 255 255
255 255 255
255 255 255
255 255 255
255 255 255
255 255 255
255 255 255
255 255 255
255 255 255
255 255 255
255 255 255
255 255 255
255 255 255
255 255 255
255 255 255
255 255 255
255 255 255
255 255 255
255 255 255
255 255 255
255 255 255
255 255 255
255 255 255
255 255 255
255 255 255
255 255 255
255 255 255
255 255 255
255 255 255
255 255 255
255 255 255
255 255 255
255 255 255
255 255 255
255 255 255
255 255 255
255 255 255
255 255 255
255 255 255
255 255 255
255 255 255
255 255 255
255 255 255
255 255 255
255 255 255
255 255 255
255 255 255
255 255 255
255 255 255
255 255 255
255 255 255
255 255 255
255 255 255
255 255 255
255 255 255
255 255 255
255 255 255
255 255 255
255 255 255
255 255 255
255 255 255
255 255 255
255 255 255
255 255 255
255 255 255
255 255 255
255 255 255
255 255 255
255 255 255
255 255 255
255 255 255
255 255 255
255 255 255
255 255 255
255 255 255
 65   0   0
 66   0   0
 67   0   0
 69   0   0
 70   0   0
 72   0   0
 74   0   0
 76   0   0
 78   0   0
 80   0   0
 83   0   0
 86   0   0
 89   0   0
 92   0   0
 96   0   0
101   0   0
106   0   0
112   0   0
119   0   0
126   0   0
134   0   0
143   0   0
151   0   0
157   0   0
159   0   0
155   0   0
139   0   0
 76   0   0
  0   0 146
  0   0 191
  0   0 221
  0   0 242
  0   0 253
  0   0 254
  0   0 244
  0   0 221
  0   0 178
 86   0   0
179   0   0
207   0   0
218   0   0
217   0   0
209   0   0
195   0   0
177   0   0
157   0   0
136   0   0
115   0   0
 96   0   0
 77   0   0
255 255 255
255 255 255
255 255 255
255 255 255
255 255 255
255 255 255
255 255 255
255 255 255
255 255 255
255 255 255
255 255 255
255 255 255
255 255 255
255 255 255
255 255 255
255 255 255
255 255 255
255 255 255
255 255 255
255 255 255
255 255 255
255 255 255
255 255 255
255 255 255
255 255 255
255 255 255
255 255 255
255 255 255
255 255 255
255 255 255
255 255 255
255 255 255
255 255 255
255 255 255
255 255 255
255 150   0
255 255 255
255 255 255
255 255 255
255 255 255
255 255 255
255 255 255
255 255 255
255 255 255
255 255 255
255 255 255
255 255 255
255 255 255
255 255 255
255 255 255
255 255 255
255 255 255
255 255 255
255 255 255
  0   0   0
  0   0   0
  0   0   0
  0   0   0
255 255 255
255 255 255
255 255 255
255 255 255
255 255 255
255 255 255
255 255 255
255 255 255
255 255 255
255 255 255
255 255 255
255 255 255
255 255 255
255 255 255
255 255 255
255 255 255
255 255 255
255 150   0
255 255 255
255 255 255
255 255 255
255 255 255
255 255 255
255 255 255
255 255 255
255 255 255
255 255 255
255 255 255
255 255 255
255 255 255
255 255 255
255 255 255
255 255 255
255 255 255
255 255 255
255 255 255
255 255 255
255 255 255
255 255 255
255 255 255
255 255 255
255 255 255
255 255 255
255 255 255
255 255 255
255 255 255
255 255 255
255 255 255
255 255 255
255 255 255
255 255 255
255 255 255
255 255 255
255 255 255
255 255 255
255 255 255
255 255 255
255 255 255
255 255 255
255 255 255
255 255 255
255 255 255
255 255 255
255 255 255
255 255 255
255 255 255
255 255 255
255 255 255
255 255 255
255 255 255
255 255 255
255 255 255
255 255 255
255 255 255
255 255 255
255 255 255
255 255 255
255 255 255
255 255 255
255 255 255
255 255 255
255 255 255
255 255 255
255 255 255
255 255 255
255 255 255
255 255 255
255 255 255
255 255 255
255 255 255
255 255 255
255 255 255
 64   0   0
 66   0   0
 67   0   0
 68   0   0
 70   0   0
 72   0   0
 73   0   0
 75   0   0
 77   0   0
 79   0   0
 82   0   0
 84   0   0
 87   0   0
 91   0   0
 94   0   0
 99   0   0
103   0   0
109   0   0
115   0   0
122   0   0
130   0   0
139   0   0
147   0   0
154   0   0
159   0   0
158   0   0
150   0   0
122   0   0
  0   0 108
  0   0 169
  0   0 206
  0   0 232
  0   0 248
  0   0 255
  0   0 251
  0   0 236
  0   0 206
  0   0 148
145   0   0
194   0   0
213   0   0
219   0   0
215   0   0
204   0   0
188   0   0
170   0   0
149   0   0
128   0   0
108   0   0
 89   0   0
 71   0   0
255 255 255
255 255 255
255 255 255
255 255 255
255 255 255
255 255 255
255 255 255
255 255 255
255 255 255
255 255 255
255 255 255
255 255 255
255 255 255
255 255 255
255 255 255
255 255 255
255 255 255
255 255 255
255 255 255
255 255 255
255 255 255
255 255 255
255 255 255
255 255 255
255 255 255
255 255 255
255 255 255
255 255 255
255 255 255
255 255 255
255 255 255
255 255 255
255 255 255
255 255 255
255 255 255
255 150   0
255 255 255
255 255 255
255 255 255
255 255 255
255 255 255
255 255 255
255 255 255
255 255 255
255 255 255
255 255 255
255 255 255
255 255 255
255 255 255
255 255 255
255 255 255
255 255 255
255 255 255
255 255 255
  0   0   0
  0   0   0
  0   0   0
  0   0   0
255 255 255
255 255 255
255 255 255
255 255 255
255 255 255
255 255 255
255 255 255
255 255 255
255 255 255
255 255 255
255 255 255
255 255 255
255 255 255
255 255 255
255 255 255
255 255 255
255 255 255
255 150   0
255 255 255
255 255 255
255 255 255
255 255 255
255 255 255
255 255 255
255 255 255
255 255 255
255 255 255
255 255 255
255 255 255
255 255 255
255 255 255
255 255 255
255 255 255
255 255 255
255 255 255
255 255 255
255 255 255
255 255 255
255 255 255
255 255 255
255 255 255
255 255 255
255 255 255
255 255 255
255 255 255
255 255 255
255 255 255
255 255 255
255 255 255
255 255 255
255 255 255
255 255 255
255 255 255
255 255 255
255 255 255
255 255 255
255 255 255
255 255 255
255 255 255
255 255 255
255 255 255
255 255 255
255 255 255
255 255 255
255 255 255
255 255 255
255 255 255
255 255 255
255 255 255
255 255 255
255 255 255
255 255 255
255 255 255
255 255 255
255 255 255
255 255 255
255 255 255
255 255 255
255 255 255
255 255 255
255 255 255
255 255 255
255 255 255
255 255 255
255 255 255
255 255 255
255 255 255
255 255 255
255 255 255
255 255 255
255 255 255
 64   0   0
 65   0   0
 67   0   0
 68   0   0
 69   0   0
 71   0   0
 73   0   0
 74   0   0
 76   0   0
 79   0   0
 81   0   0
 83   0   0
 86   0   0
 89   0   0
 93   0   0
 97   0   0
101   0   0
106   0   0
112   0   0
119   0   0
127   0   0
135   0   0
143   0   0
151   0   0
157   0   0
159   0   0
156   0   0
140   0   0
 83   0   0
  0   0 143
  0   0 188
  0   0 219
  0   0 240
  0   0 252
  0   0 254
  0   0 246
  0   0 225
  0   0 186
  0   0  80
172   0   0
204   0   0
217   0   0
218   0   0
211   0   0
198   0   0
181   0   0
162   0   0
141   0   0
120   0   0
100   0   0
 82   0   0
 65   0   0
255 255 255
255 255 255
255 255 255
255 255 255
255 255 255
255 255 255
255 255 255
255 255 255
255 255 255
255 255 255
255 255 255
255 255 255
255 255 255
255 255 255
255 255 255
255 255 255
255 255 255
255 255 255
255 255 255
255 255 255
255 255 255
255 255 255
255 255 255
255 255 255
255 255 255
255 255 255
255 255 255
255 255 255
255 255 255
255 255 255
255 255 255
255 255 255
255 255 255
255 255 255
255 255 255
255 150   0
255 255 255
255 255 255
255 255 255
255 255 255
255 255 255
255 255 255
255 255 255
255 255 255
255 255 255
255 255 255
255 255 255
255 255 255
255 255 255
255 255 255
255 255 255
255 255 255
255 255 255
255 255 255
  0   0   0
  0   0   0
  0   0   0
  0   0   0
255 255 255
255 255 255
255 255 255
255 255 255
255 255 255
255 255 255
255 255 255
255 255 255
255 255 255
255 255 255
255 255 255
255 255 255
255 255 255
255 255 255
255 255 255
255 255 255
255 255 255
255 150   0
255 255 255
255 255 255
255 255 255
255 255 255
255 255 255
255 255 255
255 255 255
255 255 255
255 255 255
255 255 255
255 255 255
255 255 255
255 255 255
255 255 255
255 255 255
255 255 255
255 255 255
255 255 255
255 255 255
255 255 255
255 255 255
255 255 255
255 255 255
255 255 255
255 255 255
255 255 255
255 255 255
255 255 255
255 255 255
255 255 255
255 255 255
255 255 255
255 255 255
255 255 255
255 255 255
255 255 255
255 255 255
255 255 255
255 255 255
255 255 255
255 255 255
255 255 255
255 255 255
255 255 255
255 255 255
255 255 255
255 255 255
255 255 255
255 255 255
255 255 255
255 255 255
255 255 255
255 255 255
255 255 255
255 255 255
255 255 255
255 255 255
255 255 255
255 255 255
255 255 255
255 255 255
255 255 255
255 255 255
255 255 255
255 255 255
255 255 255
255 255 255
255 255 255
255 255 255
255 255 255
255 255 255
255 255 255
255 255 255
 65   0   0
 66   0   0
 68   0   0
 69   0   0
 71   0   0
 72   0   0
 74   0   0
 76   0   0
 78   0   0
 80   0   0
 82   0   0
 85   0   0
 88   0   0
 91   0   0
 95   0   0
 99   0   0
104   0   0
110   0   0
116   0   0
123   0   0
131   0   0
139   0   0
147   0   0
154   0   0
159   0   0
158   0   0
150   0   0
122   0   0
  0   0 106
  0   0 168
  0   0 205
  0   0 231
  0   0 247
  0   0 255
  0   0 252
  0   0 238
  0   0 210
  0   0 158
134   0   0
190   0   0
211   0   0
219   0   0
216   0   0
206   0   0
191   0   0
173   0   0
153   0   0
132   0   0
112   0   0
 93   0   0
 75   0   0
255 255 255
255 255 255
255 255 255
255 255 255
255 255 255
255 255 255
255 255 255
255 255 255
255 255 255
255 255 255
255 255 255
255 255 255
255 255 255
255 255 255
255 255 255
255 255 255
255 255 255
255 255 255
255 255 255
255 255 255
255 255 255
255 255 255
255 255 255
255 255 255
255 255 255
255 255 255
255 255 255
255 255 255
255 255 255
255 255 255
255 255 255
255 255 255
255 255 255
255 255 255
255 255 255
255 255 255
255 150   0
255 255 255
255 255 255
255 255 255
255 255 255
255 255 255
255 255 255
255 255 255
255 255 255
255 255 255
255 255 255
255 255 255
255 255 255
255 255 255
255 255 255
255 255 255
255 255 255
255 255 255
255 255 255
  0   0   0
  0   0   0
  0   0   0
  0   0   0
255 255 255
255 255 255
255 255 255
255 255 255
255 255 255
255 255 255
255 255 255
255 255 255
255 255 255
255 255 255
255 255 255
255 255 255
255 255 255
255 255 255
255 255 255
255 255 255
255 255 255
255 150   0
255 255 255
255 255 255
255 255 255
255 255 255
255 255 255
255 255 255
255 255 255
255 255 255
255 255 255
255 255 255
255 255 255
255 255 255
255 255 255
255 255 255
255 255 255
255 255 255
255 255 255
255 255 255
255 255 255
255 255 255
255 255 255
255 255 255
255 255 255
255 255 255
255 255 255
255 255 255
255 255 255
255 255 255
255 255 255
255 255 255
255 255 255
255 255 255
255 255 255
255 255 255
255 255 255
255 255 255
255 255 255
255 255 255
255 255 255
255 255 255
255 255 255
255 255 255
255 255 255
255 255 255
255 255 255
255 255 255
255 255 255
255 255 255
255 255 255
255 255 255
255 255 255
255 255 255
255 255 255
255 255 255
255 255 255
255 255 255
255 255 255
255 255 255
255 255 255
255 255 255
255 255 255
255 255 255
255 255 255
255 255 255
255 255 255
255 255 255
255 255 255
255 255 255
255 255 255
255 255 255
255 255 255
255 255 255
 65   0   0
 66   0   0
 67   0   0
 69   0   0
 70   0   0
 72   0   0
 73   0   0
 75   0   0
 77   0   0
 79   0   0
 82   0   0
 84   0   0
 87   0   0
 90   0   0
 94   0   0
 98   0   0
102   0   0
107   0   0
113   0   0
120   0   0
128   0   0
136   0   0
144   0   0
151   0   0
157   0   0
159   0   0
155   0   0
139   0   0
 80   0   0
  0   0 144
  0   0 188
  0   0 219
  0   0 240
  0   0 252
  0   0 255
  0   0 247
  0   0 227
  0   0 191
  0   0 105
167   0   0
202   0   0
216   0   0
218   0   0
212   0   0
200   0   0
184   0   0
165   0   0
145   0   0
124   0   0
104   0   0
 85   0   0
 68   0   0
255 255 255
255 255 255
255 255 255
255 255 255
255 255 255
255 255 255
255 255 255
255 255 255
255 255 255
255 255 255
255 255 255
255 255 255
255 255 255
255 255 255
255 255 255
255 255 255
255 255 255
255 255 255
255 255 255
255 255 255
255 255 255
255 255 255
255 255 255
255 255 255
255 255 255
255 255 255
255 255 255
255 255 255
255 255 255
255 255 255
255 255 255
255 255 255
255 255 255
255 255 255
255 255 255
255 255 255
255 150   0
255 255 255
255 255 255
255 255 255
255 255 255
255 255 255
255 255 255
255 255 255
255 255 255
255 255 255
255 255 255
255 255 255
255 255 255
255 255 255
255 255 255
255 255 255
255 255 255
255 255 255
255 255 255
  0   0   0
  0   0   0
  0   0   0
  0   0   0
255 255 255
255 255 255
255 255 255
255 255 255
255 255 255
255 255 255
255 255 255
255 255 255
255 255 255
255 255 255
255 255 255
255 255 255
255 255 255
255 255 255
255 255 255
255 255 255
255 255 255
255 150   0
255 255 255
255 255 255
255 255 255
255 255 255
255 255 255
255 255 255
255 255 255
255 255 255
255 255 255
255 255 255
255 255 255
255 255 255
255 255 255
255 255 255
255 255 255
255 255 255
255 255 255
255 255 255
255 255 255
255 255 255
255 255 255
255 255 255
255 255 255
255 255 255
255 255 255
255 255 255
255 255 255
255 255 255
255 255 255
255 255 255
255 255 255
255 255 255
255 255 255
255 255 255
255 255 255
255 255 255
255 255 255
255 255 255
255 255 255
255 255 255
255 255 255
255 255 255
255 255 255
255 255 255
255 255 255
255 255 255
255 255 255
255 255 255
255 255 255
255 255 255
255 255 255
255 255 255
255 255 255
255 255 255
255 255 255
255 255 255
255 255 255
255 255 255
255 255 255
255 255 255
255 255 255
255 255 255
255 255 255
255 255 255
255 255 255
255 255 255
255 255 255
255 255 255
255 255 255
255 255 255
255 255 255
 65   0   0
 66   0   0
 67   0   0
 68   0   0
 70   0   0
 71   0   0
 73   0   0
 75   0   0
 77   0   0
 79   0   0
 81   0   0
 83   0   0
 86   0   0
 89   0   0
 92   0   0
 96   0   0
100   0   0
105   0   0
111   0   0
117   0   0
125   0   0
132   0   0
141   0   0
148   0   0
155   0   0
159   0   0
158   0   0
149   0   0
119   0   0
  0   0 110
  0   0 169
  0   0 205
  0   0 231
  0   0 247
  0   0 254
  0   0 252
  0   0 239
  0   0 212
  0   0 162
126   0   0
187   0   0
210   0   0
218   0   0
217   0   0
208   0   0
193   0   0
176   0   0
156   0   0
136   0   0
115   0   0
 96   0   0
 78   0   0
255 255 255
255 255 255
255 255 255
255 255 255
255 255 255
255 255 255
255 255 255
255 255 255
255 255 255
255 255 255
255 255 255
255 255 255
255 255 255
255 255 255
255 255 255
255 255 255
255 255 255
255 255 255
255 255 255
255 255 255
255 255 255
255 255 255
255 255 255
255 255 255
255 255 255
255 255 255
255 255 255
255 255 255
255 255 255
255 255 255
255 255 255
255 255 255
255 255 255
255 255 255
255 255 255
255 255 255
255 255 255
255 150   0
255 255 255
255 255 255
255 255 255
255 255 255
255 255 255
255 255 255
255 255 255
255 255 255
255 255 255
255 255 255
255 255 255
255 255 255
255 255 255
255 255 255
255 255 255
255 255 255
255 255 255
255 255 255
  0   0   0
  0   0   0
  0   0   0
  0   0   0
255 255 255
255 255 255
255 255 255
255 255 255
255 255 255
255 255 255
255 255 255
255 255 255
255 255 255
255 255 255
255 255 255
255 255 255
255 255 255
255 255 255
255 255 255
255 255 255
255 255 255
255 150   0
255 255 255
255 255 255
255 255 255
255 255 255
255 255 255
255 255 255
255 255 255
255 255 255
255 255 255
255 255 255
255 255 255
255 255 255
255 255 255
255 255 255
255 255 255
255 255 255
255 255 255
255 255 255
255 255 255
255 255 255
255 255 255
255 255 255
255 255 255
255 255 255
255 255 255
255 255 255
255 255 255
255 255 255
255 255 255
255 255 255
255 255 255
255 255 255
255 255 255
255 255 255
255 255 255
255 255 255
255 255 255
255 255 255
255 255 255
255 255 255
255 255 255
255 255 255
255 255 255
255 255 255
255 255 255
255 255 255
255 255 255
255 255 255
255 255 255
255 255 255
255 255 255
255 255 255
255 255 255
255 255 255
255 255 255
255 255 255
255 255 255
255 255 255
255 255 255
255 255 255
255 255 255
255 255 255
255 255 255
255 255 255
255 255 255
255 255 255
255 255 255
255 255 255
255 255 255
255 255 255
 64   0   0
 66   0   0
 67   0   0
 68   0   0
 69   0   0
 71   0   0
 73   0   0
 74   0   0
 76   0   0
 78   0   0
 80   0   0
 83   0   0
 85   0   0
 88   0   0
 91   0   0
 95   0   0
 99   0   0
104   0   0
109   0   0
115   0   0
122   0   0
129   0   0
137   0   0
145   0   0
152   0   0
158   0   0
159   0   0
154   0   0
136   0   0
255 255 255
  0   0 147
  0   0 190
  0   0 220
  0   0 240
  0   0 252
  0   0 255
  0   0 247
  0   0 228
  0   0 192
  0   0 112
164   0   0
201   0   0
216   0   0
219   0   0
213   0   0
202   0   0
186   0   0
167   0   0
147   0   0
127   0   0
107   0   0
 88   0   0
 71   0   0
255 255 255
255 255 255
255 255 255
255 255 255
255 255 255
255 255 255
255 255 255
255 255 255
255 255 255
255 255 255
255 255 255
255 255 255
255 255 255
255 255 255
255 255 255
255 255 255
255 255 255
255 255 255
255 255 255
255 255 255
255 255 255
255 255 255
255 255 255
255 255 255
255 255 255
255 255 255
255 255 255
255 255 255
255 255 255
255 255 255
255 255 255
255 255 255
255 255 255
255 255 255
255 255 255
255 255 255
255 255 255
255 150   0
255 255 255
255 255 255
255 255 255
255 255 255
255 255 255
255 255 255
255 255 255
255 255 255
255 255 255
255 255 255
255 255 255
255 255 255
255 255 255
255 255 255
255 255 255
255 255 255
255 255 255
255 255 255
  0   0   0
  0   0   0
  0   0   0
  0   0   0
255 255 255
255 255 255
255 255 255
255 255 255
255 255 255
255 255 255
255 255 255
255 255 255
255 255 255
255 255 255
255 255 255
255 255 255
255 255 255
255 255 255
255 255 255
255 255 255
255 255 255
255 150   0
255 255 255
255 255 255
255 255 255
255 255 255
255 255 255
255 255 255
255 255 255
255 255 255
255 255 255
255 255 255
255 255 255
255 255 255
255 255 255
255 255 255
255 255 255
255 255 255
255 255 255
255 255 255
255 255 255
255 255 255
255 255 255
255 255 255
255 255 255
255 255 255
255 255 255
255 255 255
255 255 255
255 255 255
255 255 255
255 255 255
255 255 255
255 255 255
255 255 255
255 255 255
255 255 255
255 255 255
255 255 255
255 255 255
255 255 255
255 255 255
255 255 255
255 255 255
255 255 255
255 255 255
255 255 255
255 255 255
255 255 255
255 255 255
255 255 255
255 255 255
255 255 255
255 255 255
255 255 255
255 255 255
255 255 255
255 255 255
255 255 255
255 255 255
255 255 255
255 255 255
255 255 255
255 255 255
255 255 255
255 255 255
255 255 255
255 255 255
255 255 255
255 255 255
255 255 255
 64   0   0
 65   0   0
 67   0   0
 68   0   0
 69   0   0
 71   0   0
 72   0   0
 74   0   0
 76   0   0
 78   0   0
 80   0   0
 82   0   0
 84   0   0
 87   0   0
 90   0   0
 94   0   0
 98   0   0
102   0   0
107   0   0
113   0   0
119   0   0
127   0   0
134   0   0
142   0   0
150   0   0
156   0   0
159   0   0
157   0   0
146   0   0
113   0   0
  0   0 119
  0   0 173
  0   0 208
  0   0 232
  0   0 248
  0   0 255
  0   0 252
  0   0 239
  0   0 212
  0   0 163
124   0   0
186   0   0
210   0   0
218   0   0
217   0   0
208   0   0
195   0   0
178   0   0
158   0   0
138   0   0
118   0   0
 98   0   0
 80   0   0
255 255 255
255 255 255
255 255 255
255 255 255
255 255 255
255 255 255
255 255 255
255 255 255
255 255 255
255 255 255
255 255 255
255 255 255
255 255 255
255 255 255
255 255 255
255 255 255
255 255 255
255 255 255
255 255 255
255 255 255
255 255 255
255 255 255
255 255 255
255 255 255
255 255 255
255 255 255
255 255 255
255 255 255
255 255 255
255 255 255
255 255 255
255 255 255
255 255 255
255 255 255
255 255 255
255 255 255
255 255 255
255 255 255
255 150   0
255 255 255
255 255 255
255 255 255
255 255 255
255 255 255
255 255 255
255 255 255
255 255 255
255 255 255
255 255 255
255 255 255
255 255 255
255 255 255
255 255 255
255 255 255
255 255 255
255 255 255
255 255 255
  0   0   0
  0   0   0
  0   0   0
  0   0   0
255 255 255
255 255 255
255 255 255
255 255 255
255 255 255
255 255 255
255 255 255
255 255 255
255 255 255
255 255 255
255 255 255
255 255 255
255 255 255
255 255 255
255 255 255
255 255 255
255 255 255
255 150   0
255 255 255
255 255 255
255 255 255
255 255 255
255 255 255
255 255 255
255 255 255
255 255 255
255 255 255
255 255 255
255 255 255
255 255 255
255 255 255
255 255 255
255 255 255
255 255 255
255 255 255
255 255 255
255 255 255
255 255 255
255 255 255
255 255 255
255 255 255
255 255 255
255 255 255
255 255 255
255 255 255
255 255 255
255 255 255
255 255 255
255 255 255
255 255 255
255 255 255
255 255 255
255 255 255
255 255 255
255 255 255
255 255 255
255 255 255
255 255 255
255 255 255
255 255 255
255 255 255
255 255 255
255 255 255
255 255 255
255 255 255
255 255 255
255 255 255
255 255 255
255 255 255
255 255 255
255 255 255
255 255 255
255 255 255
255 255 255
255 255 255
255 255 255
255 255 255
255 255 255
255 255 255
255 255 255
255 255 255
255 255 255
255 255 255
255 255 255
255 255 255
255 255 255
 64   0   0
 65   0   0
 66   0   0
 68   0   0
 69   0   0
 70   0   0
 72   0   0
 74   0   0
 75   0   0
 77   0   0
 79   0   0
 81   0   0
 84   0   0
 86   0   0
 89   0   0
 93   0   0
 96   0   0
101   0   0
105   0   0
111   0   0
117   0   0
124   0   0
132   0   0
139   0   0
147   0   0
154   0   0
158   0   0
159   0   0
152   0   0
131   0   0
  0   0  68
  0   0 154
  0   0 194
  0   0 222
  0   0 242
  0   0 253
  0   0 254
  0   0 246
  0   0 227
  0   0 191
  0   0 109
164   0   0
200   0   0
215   0   0
219   0   0
214   0   0
202   0   0
187   0   0
169   0   0
149   0   0
128   0   0
108   0   0
 90   0   0
 73   0   0
255 255 255
255 255 255
255 255 255
255 255 255
255 255 255
255 255 255
255 255 255
255 255 255
255 255 255
255 255 255
255 255 255
255 255 255
255 255 255
255 255 255
255 255 255
255 255 255
255 255 255
255 255 255
255 255 255
255 255 255
255 255 255
255 255 255
255 255 255
255 255 255
255 255 255
255 255 255
255 255 255
255 255 255
255 255 255
255 255 255
255 255 255
255 255 255
255 255 255
255 255 255
255 255 255
255 255 255
255 255 255
255 255 255
255 150   0
255 255 255
255 255 255
255 255 255
255 255 255
255 255 255
255 255 255
255 255 255
255 255 255
255 255 255
255 255 255
255 255 255
255 255 255
255 255 255
255 255 255
255 255 255
255 255 255
255 255 255
255 255 255
  0   0   0
  0   0   0
  0   0   0
  0   0   0
255 255 255
255 255 255
255 255 255
255 255 255
255 255 255
255 255 255
255 255 255
255 255 255
255 255 255
255 255 255
255 255 255
255 255 255
255 255 255
255 255 255
255 255 255
255 255 255
255 255 255
255 150   0
255 255 255
255 255 255
255 255 255
255 255 255
255 255 255
255 255 255
255 255 255
255 255 255
255 255 255
255 255 255
255 255 255
255 255 255
255 255 255
255 255 255
255 255 255
255 255 255
255 255 255
255 255 255
255 255 255
255 255 255
255 255 255
255 255 255
255 255 255
255 255 255
255 255 255
255 255 255
255 255 255
255 255 255
255 255 255
255 255 255
255 255 255
255 255 255
255 255 255
255 255 255
255 255 255
255 255 255
255 255 255
255 255 255
255 255 255
255 255 255
255 255 255
255 255 255
255 255 255
255 255 255
255 255 255
255 255 255
255 255 255
255 255 255
255 255 255
255 255 255
255 255 255
255 255 255
255 255 255
255 255 255
255 255 255
255 255 255
255 255 255
255 255 255
255 255 255
255 255 255
255 255 255
255 255 255
255 255 255
255 255 255
255 255 255
255 255 255
255 255 255
 64   0   0
 65   0   0
 66   0   0
 68   0   0
 69   0   0
 70   0   0
 72   0   0
 73   0   0
 75   0   0
 77   0   0
 79   0   0
 81   0   0
 83   0   0
 86   0   0
 89   0   0
 92   0   0
 95   0   0
 99   0   0
104   0   0
109   0   0
115   0   0
122   0   0
129   0   0
137   0   0
145   0   0
152   0   0
157   0   0
159   0   0
156   0   0
142   0   0
 99   0   0
  0   0 131
  0   0 179
  0   0 212
  0   0 234
  0   0 249
  0   0 255
  0   0 251
  0   0 237
  0   0 210
  0   0 159
128   0   0
187   0   0
210   0   0
218   0   0
217   0   0
209   0   0
195   0   0
178   0   0
159   0   0
139   0   0
119   0   0
100   0   0
 82   0   0
 65   0   0
255 255 255
255 255 255
255 255 255
255 255 255
255 255 255
255 255 255
255 255 255
255 255 255
255 255 255
255 255 255
255 255 255
255 255 255
255 255 255
255 255 255
255 255 255
255 255 255
255 255 255
255 255 255
255 255 255
255 255 255
255 255 255
255 255 255
255 255 255
255 255 255
255 255 255
255 255 255
255 255 255
255 255 255
255 255 255
255 255 255
255 255 255
255 255 255
255 255 255
255 255 255
255 255 255
255 255 255
255 255 255
255 255 255
255 150   0
255 255 255
255 255 255
255 255 255
255 255 255
255 255 255
255 255 255
255 255 255
255 255 255
255 255 255
255 255 255
255 255 255
255 255 255
255 255 255
255 255 255
255 255 255
255 255 255
255 255 255
255 255 255
  0   0   0
  0   0   0
  0   0   0
  0   0   0
255 255 255
255 255 255
255 255 255
255 255 255
255 255 255
255 255 255
255 255 255
255 255 255
255 255 255
255 255 255
255 255 255
255 255 255
255 255 255
255 255 255
255 255 255
255 255 255
255 255 255
255 150   0
255 255 255
255 255 255
255 255 255
255 255 255
255 255 255
255 255 255
255 255 255
255 255 255
255 255 255
255 255 255
255 255 255
255 255 255
255 255 255
255 255 255
255 255 255
255 255 255
255 255 255
255 255 255
255 255 255
255 255 255
255 255 255
255 255 255
255 255 255
255 255 255
255 255 255
255 255 255
255 255 255
255 255 255
255 255 255
255 255 255
255 255 255
255 255 255
255 255 255
255 255 255
255 255 255
255 255 255
255 255 255
255 255 255
255 255 255
255 255 255
255 255 255
255 255 255
255 255 255
255 255 255
255 255 255
255 255 255
255 255 255
255 255 255
255 255 255
255 255 255
255 255 255
255 255 255
255 255 255
255 255 255
255 255 255
255 255 255
255 255 255
255 255 255
255 255 255
255 255 255
255 255 255
255 255 255
255 255 255
255 255 255
255 255 255
255 255 255
 64   0   0
 65   0   0
 66   0   0
 68   0   0
 69   0   0
 70   0   0
 72   0   0
 73   0   0
 75   0   0
 77   0   0
 78   0   0
 81   0   0
 83   0   0
 85   0   0
 88   0   0
 91   0   0
 94   0   0
 98   0   0
103   0   0
108   0   0
113   0   0
120   0   0
127   0   0
134   0   0
142   0   0
149   0   0
155   0   0
159   0   0
158   0   0
149   0   0
122   0   0
  0   0 100
  0   0 163
  0   0 200
  0   0 226
  0   0 244
  0   0 253
  0   0 254
  0   0 245
  0   0 224
  0   0 186
  0   0  94
168   0   0
202   0   0
216   0   0
219   0   0
213   0   0
202   0   0
187   0   0
169   0   0
149   0   0
129   0   0
109   0   0
 91   0   0
 74   0   0
255 255 255
255 255 255
255 255 255
255 255 255
255 255 255
255 255 255
255 255 255
255 255 255
255 255 255
255 255 255
255 255 255
255 255 255
255 255 255
255 255 255
255 255 255
255 255 255
255 255 255
255 255 255
255 255 255
255 255 255
255 255 255
255 255 255
255 255 255
255 255 255
255 255 255
255 255 255
255 255 255
255 255 255
255 255 255
255 255 255
255 255 255
255 255 255
255 255 255
255 255 255
255 255 255
255 255 255
255 255 255
255 255 255
255 255 255
255 150   0
255 255 255
255 255 255
255 255 255
255 255 255
255 255 255
255 255 255
255 255 255
255 255 255
255 255 255
255 255 255
255 255 255
255 255 255
255 255 255
255 255 255
255 255 255
255 255 255
255 255 255
255 255 255
  0   0   0
  0   0   0
  0   0   0
  0   0   0
255 255 255
255 255 255
255 255 255
255 255 255
255 255 255
255 255 255
255 255 255
255 255 255
255 255 255
255 255 255
255 255 255
255 255 255
255 255 255
255 255 255
255 255 255
255 255 255
255 255 255
255 150   0
255 255 255
255 255 255
255 255 255
255 255 255
255 255 255
255 255 255
255 255 255
255 255 255
255 255 255
255 255 255
255 255 255
255 255 255
255 255 255
255 255 255
255 255 255
255 255 255
255 255 255
255 255 255
255 255 255
255 255 255
255 255 255
255 255 255
255 255 255
255 255 255
255 255 255
255 255 255
255 255 255
255 255 255
255 255 255
255 255 255
255 255 255
255 255 255
255 255 255
255 255 255
255 255 255
255 255 255
255 255 255
255 255 255
255 255 255
255 255 255
255 255 255
255 255 255
255 255 255
255 255 255
255 255 255
255 255 255
255 255 255
255 255 255
255 255 255
255 255 255
255 255 255
255 255 255
255 255 255
255 255 255
255 255 255
255 255 255
255 255 255
255 255 255
255 255 255
255 255 255
255 255 255
255 255 255
255 255 255
255 255 255
255 255 255
 64   0   0
 65   0   0
 66   0   0
 68   0   0
 69   0   0
 70   0   0
 72   0   0
 73   0   0
 75   0   0
 76   0   0
 78   0   0
 80   0   0
 82   0   0
 85   0   0
 88   0   0
 90   0   0
 94   0   0
 97   0   0
102   0   0
106   0   0
112   0   0
118   0   0
125   0   0
132   0   0
140   0   0
147   0   0
154   0   0
158   0   0
159   0   0
153   0   0
135   0   0
255 255 255
  0   0 145
  0   0 187
  0   0 217
  0   0 238
  0   0 251
  0   0 255
  0   0 250
  0   0 234
  0   0 205
  0   0 151
138   0   0
190   0   0
211   0   0
218   0   0
217   0   0
208   0   0
195   0   0
178   0   0
159   0   0
139   0   0
119   0   0
100   0   0
 82   0   0
 66   0   0
255 255 255
255 255 255
255 255 255
255 255 255
255 255 255
255 255 255
255 255 255
255 255 255
255 255 255
255 255 255
255 255 255
255 255 255
255 255 255
255 255 255
255 255 255
255 255 255
255 255 255
255 255 255
255 255 255
255 255 255
255 255 255
255 255 255
255 255 255
255 255 255
255 255 255
255 255 255
255 255 255
255 255 255
255 255 255
255 255 255
255 255 255
255 255 255
255 255 255
255 255 255
255 255 255
255 255 255
255 255 255
255 255 255
255 255 255
255 150   0
255 255 255
255 255 255
255 255 255
255 255 255
255 255 255
255 255 255
255 255 255
255 255 255
255 255 255
255 255 255
255 255 255
255 255 255
255 255 255
255 255 255
255 255 255
255 255 255
255 255 255
255 255 255
  0   0   0
  0   0   0
  0   0   0
  0   0   0
255 255 255
255 255 255
255 255 255
255 255 255
255 255 255
255 255 255
255 255 255
255 255 255
255 255 255
255 255 255
255 255 255
255 255 255
255 255 255
255 255 255
255 255 255
255 255 255
255 255 255
255 150   0
255 255 255
255 255 255
255 255 255
255 255 255
255 255 255
255 255 255
255 255 255
255 255 255
255 255 255
255 255 255
255 255 255
255 255 255
255 255 255
255 255 255
255 255 255
255 255 255
255 255 255
255 255 255
255 255 255
255 255 255
255 255 255
255 255 255
255 255 255
255 255 255
255 255 255
255 255 255
255 255 255
255 255 255
255 255 255
255 255 255
255 255 255
255 255 255
255 255 255
255 255 255
255 255 255
255 255 255
255 255 255
255 255 255
255 255 255
255 255 255
255 255 255
255 255 255
255 255 255
255 255 255
255 255 255
255 255 255
255 255 255
255 255 255
255 255 255
255 255 255
255 255 255
255 255 255
255 255 255
255 255 255
255 255 255
255 255 255
255 255 255
255 255 255
255 255 255
255 255 255
255 255 255
255 255 255
255 255 255
255 255 255
 64   0   0
 65   0   0
 66   0   0
 68   0   0
 69   0   0
 70   0   0
 71   0   0
 73   0   0
 75   0   0
 76   0   0
 78   0   0
 80   0   0
 82   0   0
 85   0   0
 87   0   0
 90   0   0
 93   0   0
 97   0   0
101   0   0
105   0   0
110   0   0
116   0   0
123   0   0
130   0   0
138   0   0
145   0   0
152   0   0
157   0   0
159   0   0
156   0   0
143   0   0
106   0   0
  0   0 124
  0   0 174
  0   0 207
  0   0 231
  0   0 247
  0   0 254
  0   0 253
  0   0 242
  0   0 219
  0   0 179
255 255 255
173   0   0
204   0   0
216   0   0
218   0   0
213   0   0
202   0   0
186   0   0
168   0   0
149   0   0
129   0   0
109   0   0
 91   0   0
 74   0   0
255 255 255
255 255 255
255 255 255
255 255 255
255 255 255
255 255 255
255 255 255
255 255 255
255 255 255
255 255 255
255 255 255
255 255 255
255 255 255
255 255 255
255 255 255
255 255 255
255 255 255
255 255 255
255 255 255
255 255 255
255 255 255
255 255 255
255 255 255
255 255 255
255 255 255
255 255 255
255 255 255
255 255 255
255 255 255
255 255 255
255 255 255
255 255 255
255 255 255
255 255 255
255 255 255
255 255 255
255 255 255
255 255 255
255 255 255
255 255 255
255 150   0
255 255 255
255 255 255
255 255 255
255 255 255
255 255 255
255 255 255
255 255 255
255 255 255
255 255 255
255 255 255
255 255 255
255 255 255
255 255 255
255 255 255
255 255 255
255 255 255
255 255 255
255 255 255
  0   0   0
  0   0   0
  0   0   0
  0   0   0
255 255 255
255 255 255
255 255 255
255 255 255
255 255 255
255 255 255
255 255 255
255 255 255
255 255 255
255 255 255
255 255 255
255 255 255
255 255 255
255 255 255
255 255 255
255 255 255
255 255 255
255 150   0
255 255 255
255 255 255
255 255 255
255 255 255
255 255 255
255 255 255
255 255 255
255 255 255
255 255 255
255 255 255
255 255 255
255 255 255
255 255 255
255 255 255
255 255 255
255 255 255
255 255 255
255 255 255
255 255 255
255 255 255
255 255 255
255 255 255
255 255 255
255 255 255
255 255 255
255 255 255
255 255 255
255 255 255
255 255 255
255 255 255
255 255 255
255 255 255
255 255 255
255 255 255
255 255 255
255 255 255
255 255 255
255 255 255
255 255 255
255 255 255
255 255 255
255 255 255
255 255 255
255 255 255
255 255 255
255 255 255
255 255 255
255 255 255
255 255 255
255 255 255
255 255 255
255 255 255
255 255 255
255 255 255
255 255 255
255 255 255
255 255 255
255 255 255
255 255 255
255 255 255
255 255 255
255 255 255
255 255 255
 65   0   0
 66   0   0
 67   0   0
 68   0   0
 69   0   0
 70   0   0
 72   0   0
 73   0   0
 75   0   0
 76   0   0
 78   0   0
 80   0   0
 82   0   0
 84   0   0
 87   0   0
 90   0   0
 93   0   0
 96   0   0
100   0   0
104   0   0
109   0   0
115   0   0
121   0   0
128   0   0
136   0   0
143   0   0
150   0   0
156   0   0
159   0   0
158   0   0
149   0   0
123   0   0
  0   0  95
  0   0 160
  0   0 197
  0   0 223
  0   0 242
  0   0 252
  0   0 255
  0   0 248
  0   0 230
  0   0 198
  0   0 135
150   0   0
194   0   0
213   0   0
219   0   0
216   0   0
207   0   0
194   0   0
177   0   0
158   0   0
138   0   0
118   0   0
 99   0   0
 82   0   0
 66   0   0
255 255 255
255 255 255
255 255 255
255 255 255
255 255 255
255 255 255
255 255 255
255 255 255
255 255 255
255 255 255
255 255 255
255 255 255
255 255 255
255 255 255
255 255 255
255 255 255
255 255 255
255 255 255
255 255 255
255 255 255
255 255 255
255 255 255
255 255 255
255 255 255
255 255 255
255 255 255
255 255 255
255 255 255
255 255 255
255 255 255
255 255 255
255 255 255
255 255 255
255 255 255
255 255 255
255 255 255
255 255 255
255 255 255
255 255 255
255 255 255
255 150   0
255 255 255
255 255 255
255 255 255
255 255 255
255 255 255
255 255 255
255 255 255
255 255 255
255 255 255
255 255 255
255 255 255
255 255 255
255 255 255
255 255 255
255 255 255
255 255 255
255 255 255
255 255 255
  0   0   0
  0   0   0
  0   0   0
  0   0   0
255 255 255
255 255 255
255 255 255
255 255 255
255 255 255
255 255 255
255 255 255
255 255 255
255 255 255
255 255 255
255 255 255
255 255 255
255 255 255
255 255 255
255 255 255
255 255 255
255 255 255
255 150   0
255 255 255
255 255 255
255 255 255
255 255 255
255 255 255
255 255 255
255 255 255
255 255 255
255 255 255
255 255 255
255 255 255
255 255 255
255 255 255
255 255 255
255 255 255
255 255 255
255 255 255
255 255 255
255 255 255
255 255 255
255 255 255
255 255 255
255 255 255
255 255 255
255 255 255
255 255 255
255 255 255
255 255 255
255 255 255
255 255 255
255 255 255
255 255 255
255 255 255
255 255 255
255 255 255
255 255 255
255 255 255
255 255 255
255 255 255
255 255 255
255 255 255
255 255 255
255 255 255
255 255 255
255 255 255
255 255 255
255 255 255
255 255 255
255 255 255
255 255 255
255 255 255
255 255 255
255 255 255
255 255 255
255 255 255
255 255 255
255 255 255
255 255 255
255 255 255
255 255 255
255 255 255
255 255 255
 65   0   0
 66   0   0
 67   0   0
 68   0   0
 69   0   0
 70   0   0
 72   0   0
 73   0   0
 75   0   0
 76   0   0
 78   0   0
 80   0   0
 82   0   0
 84   0   0
 87   0   0
 89   0   0
 92   0   0
 96   0   0
 99   0   0
104   0   0
108   0   0
114   0   0
120   0   0
127   0   0
134   0   0
141   0   0
149   0   0
155   0   0
159   0   0
159   0   0
152   0   0
134   0   0
255 255 255
  0   0 145
  0   0 186
  0   0 215
  0   0 236
  0   0 250
  0   0 255
  0   0 251
  0   0 238
  0   0 212
  0   0 167
110   0   0
181   0   0
207   0   0
217   0   0
218   0   0
212   0   0
200   0   0
184   0   0
166   0   0
147   0   0
127   0   0
108   0   0
 90   0   0
 73   0   0
255 255 255
255 255 255
255 255 255
255 255 255
255 255 255
255 255 255
255 255 255
255 255 255
255 255 255
255 255 255
255 255 255
255 255 255
255 255 255
255 255 255
255 255 255
255 255 255
255 255 255
255 255 255
255 255 255
255 255 255
255 255 255
255 255 255
255 255 255
255 255 255
255 255 255
255 255 255
255 255 255
255 255 255
255 255 255
255 255 255
255 255 255
255 255 255
255 255 255
255 255 255
255 255 255
255 255 255
255 255 255
255 255 255
255 255 255
255 255 255
255 255 255
255 150   0
255 255 255
255 255 255
255 255 255
255 255 255
255 255 255
255 255 255
255 255 255
255 255 255
255 255 255
255 255 255
255 255 255
255 255 255
255 255 255
255 255 255
255 255 255
255 255 255
255 255 255
255 255 255
  0   0   0
  0   0   0
  0   0   0
  0   0   0
255 255 255
255 255 255
255 255 255
255 255 255
255 255 255
255 255 255
255 255 255
255 255 255
255 255 255
255 255 255
255 255 255
255 255 255
255 255 255
255 255 255
255 255 255
255 255 255
255 255 255
255 150   0
255 255 255
255 255 255
255 255 255
255 255 255
255 255 255
255 255 255
255 255 255
255 255 255
255 255 255
255 255 255
255 255 255
255 255 255
255 255 255
255 255 255
255 255 255
255 255 255
255 255 255
255 255 255
255 255 255
255 255 255
255 255 255
255 255 255
255 255 255
255 255 255
255 255 255
255 255 255
255 255 255
255 255 255
255 255 255
255 255 255
255 255 255
255 255 255
255 255 255
255 255 255
255 255 255
255 255 255
255 255 255
255 255 255
255 255 255
255 255 255
255 255 255
255 255 255
255 255 255
255 255 255
255 255 255
255 255 255
255 255 255
255 255 255
255 255 255
255 255 255
255 255 255
255 255 255
255 255 255
255 255 255
255 255 255
255 255 255
255 255 255
255 255 255
255 255 255
255 255 255
 64   0   0
 65   0   0
 66   0   0
 67   0   0
 68   0   0
 69   0   0
 70   0   0
 72   0   0
 73   0   0
 75   0   0
 76   0   0
 78   0   0
 80   0   0
 82   0   0
 84   0   0
 86   0   0
 89   0   0
 92   0   0
 95   0   0
 99   0   0
103   0   0
108   0   0
113   0   0
119   0   0
125   0   0
133   0   0
140   0   0
147   0   0
153   0   0
158   0   0
159   0   0
155   0   0
141   0   0
 99   0   0
  0   0 128
  0   0 175
  0   0 207
  0   0 230
  0   0 246
  0   0 254
  0   0 254
  0   0 244
  0   0 223
  0   0 187
  0   0 105
163   0   0
199   0   0
215   0   0
219   0   0
215   0   0
205   0   0
191   0   0
174   0   0
156   0   0
136   0   0
117   0   0
 98   0   0
 81   0   0
 65   0   0
255 255 255
255 255 255
255 255 255
255 255 255
255 255 255
255 255 255
255 255 255
255 255 255
255 255 255
255 255 255
255 255 255
255 255 255
255 255 255
255 255 255
255 255 255
255 255 255
255 255 255
255 255 255
255 255 255
255 255 255
255 255 255
255 255 255
255 255 255
255 255 255
255 255 255
255 255 255
255 255 255
255 255 255
255 255 255
255 255 255
255 255 255
255 255 255
255 255 255
255 255 255
255 255 255
255 255 255
255 255 255
255 255 255
255 255 255
255 255 255
255 255 255
255 150   0
255 255 255
255 255 255
255 255 255
255 255 255
255 255 255
255 255 255
255 255 255
255 255 255
255 255 255
255 255 255
255 255 255
255 255 255
255 255 255
255 255 255
255 255 255
255 255 255
255 255 255
255 255 255
  0   0   0
  0   0   0
  0   0   0
  0   0   0
255 255 255
255 255 255
255 255 255
255 255 255
255 255 255
255 255 255
255 255 255
255 255 255
255 255 255
255 255 255
255 255 255
255 255 255
255 255 255
255 255 255
255 255 255
255 255 255
255 255 255
255 150   0
255 255 255
255 255 255
255 255 255
255 255 255
255 255 255
255 255 255
255 255 255
255 255 255
255 255 255
255 255 255
255 255 255
255 255 255
255 255 255
255 255 255
255 255 255
255 255 255
255 255 255
255 255 255
255 255 255
255 255 255
255 255 255
255 255 255
255 255 255
255 255 255
255 255 255
255 255 255
255 255 255
255 255 255
255 255 255
255 255 255
255 255 255
255 255 255
255 255 255
255 255 255
255 255 255
255 255 255
255 255 255
255 255 255
255 255 255
255 255 255
255 255 255
255 255 255
255 255 255
255 255 255
255 255 255
255 255 255
255 255 255
255 255 255
255 255 255
255 255 255
255 255 255
255 255 255
255 255 255
255 255 255
255 255 255
255 255 255
255 255 255
255 255 255
255 255 255
 64   0   0
 65   0   0
 66   0   0
 67   0   0
 68   0   0
 69   0   0
 71   0   0
 72   0   0
 73   0   0
 75   0   0
 76   0   0
 78   0   0
 80   0   0
 82   0   0
 84   0   0
 86   0   0
 89   0   0
 92   0   0
 95   0   0
 98   0   0
102   0   0
107   0   0
112   0   0
118   0   0
124   0   0
131   0   0
139   0   0
146   0   0
152   0   0
157   0   0
159   0   0
157   0   0
146   0   0
116   0   0
  0   0 108
  0   0 164
  0   0 199
  0   0 224
  0   0 242
  0   0 252
  0   0 255
  0   0 248
  0   0 232
  0   0 202
  0   0 147
139   0   0
189   0   0
210   0   0
218   0   0
217   0   0
210   0   0
198   0   0
182   0   0
164   0   0
144   0   0
125   0   0
106   0   0
 88   0   0
 72   0   0
255 255 255
255 255 255
255 255 255
255 255 255
255 255 255
255 255 255
255 255 255
255 255 255
255 255 255
255 255 255
255 255 255
255 255 255
255 255 255
255 255 255
255 255 255
255 255 255
255 255 255
255 255 255
255 255 255
255 255 255
255 255 255
255 255 255
255 255 255
255 255 255
255 255 255
255 255 255
255 255 255
255 255 255
255 255 255
255 255 255
255 255 255
255 255 255
255 255 255
255 255 255
255 255 255
255 255 255
255 255 255
255 255 255
255 255 255
255 255 255
255 255 255
255 255 255
255 150   0
255 255 255
255 255 255
255 255 255
255 255 255
255 255 255
255 255 255
255 255 255
255 255 255
255 255 255
255 255 255
255 255 255
255 255 255
255 255 255
255 255 255
255 255 255
255 255 255
255 255 255
255 255 255
  0   0   0
  0   0   0
  0   0   0
  0   0   0
255 255 255
255 255 255
255 255 255
255 255 255
255 255 255
255 255 255
255 255 255
255 255 255
255 255 255
255 255 255
255 255 255
255 255 255
255 255 255
255 255 255
255 255 255
255 255 255
255 255 255
255 150   0
255 255 255
255 255 255
255 255 255
255 255 255
255 255 255
255 255 255
255 255 255
255 255 255
255 255 255
255 255 255
255 255 255
255 255 255
255 255 255
255 255 255
255 255 255
255 255 255
255 255 255
255 255 255
255 255 255
255 255 255
255 255 255
255 255 255
255 255 255
255 255 255
255 255 255
255 255 255
255 255 255
255 255 255
255 255 255
255 255 255
255 255 255
255 255 255
255 255 255
255 255 255
255 255 255
255 255 255
255 255 255
255 255 255
255 255 255
255 255 255
255 255 255
255 255 255
255 255 255
255 255 255
255 255 255
255 255 255
255 255 255
255 255 255
255 255 255
255 255 255
255 255 255
255 255 255
255 255 255
255 255 255
255 255 255
255 255 255
255 255 255
255 255 255
 65   0   0
 66   0   0
 67   0   0
 68   0   0
 69   0   0
 70   0   0
 71   0   0
 72   0   0
 74   0   0
 75   0   0
 77   0   0
 78   0   0
 80   0   0
 82   0   0
 84   0   0
 86   0   0
 89   0   0
 92   0   0
 95   0   0
 98   0   0
102   0   0
107   0   0
112   0   0
117   0   0
124   0   0
130   0   0
137   0   0
145   0   0
151   0   0
156   0   0
159   0   0
158   0   0
149   0   0
126   0   0
  0   0  80
  0   0 153
  0   0 191
  0   0 218
  0   0 238
  0   0 250
  0   0 255
  0   0 251
  0   0 238
  0   0 214
  0   0 171
 93   0   0
176   0   0
204   0   0
217   0   0
219   0   0
213   0   0
203   0   0
188   0   0
171   0   0
152   0   0
133   0   0
114   0   0
 96   0   0
 79   0   0
255 255 255
255 255 255
255 255 255
255 255 255
255 255 255
255 255 255
255 255 255
255 255 255
255 255 255
255 255 255
255 255 255
255 255 255
255 255 255
255 255 255
255 255 255
255 255 255
255 255 255
255 255 255
255 255 255
255 255 255
255 255 255
255 255 255
255 255 255
255 255 255
255 255 255
255 255 255
255 255 255
255 255 255
255 255 255
255 255 255
255 255 255
255 255 255
255 255 255
255 255 255
255 255 255
255 255 255
255 255 255
255 255 255
255 255 255
255 255 255
255 255 255
255 255 255
255 255 255
255 150   0
255 255 255
255 255 255
255 255 255
255 255 255
255 255 255
255 255 255
255 255 255
255 255 255
255 255 255
255 255 255
255 255 255
255 255 255
255 255 255
255 255 255
255 255 255
255 255 255
255 255 255
255 255 255
  0   0   0
  0   0   0
  0   0   0
  0   0   0
255 255 255
255 255 255
255 255 255
255 255 255
255 255 255
255 255 255
255 255 255
255 255 255
255 255 255
255 255 255
255 255 255
255 255 255
255 255 255
255 255 255
255 255 255
255 255 255
255 255 255
255 150   0
255 255 255
255 255 255
255 255 255
255 255 255
255 255 255
255 255 255
255 255 255
255 255 255
255 255 255
255 255 255
255 255 255
255 255 255
255 255 255
255 255 255
255 255 255
255 255 255
255 255 255
255 255 255
255 255 255
255 255 255
255 255 255
255 255 255
255 255 255
255 255 255
255 255 255
255 255 255
255 255 255
255 255 255
255 255 255
255 255 255
255 255 255
255 255 255
255 255 255
255 255 255
255 255 255
255 255 255
255 255 255
255 255 255
255 255 255
255 255 255
255 255 255
255 255 255
255 255 255
255 255 255
255 255 255
255 255 255
255 255 255
255 255 255
255 255 255
255 255 255
255 255 255
255 255 255
255 255 255
255 255 255
255 255 255
255 255 255
 64   0   0
 65   0   0
 66   0   0
 67   0   0
 68   0   0
 69   0   0
 70   0   0
 71   0   0
 73   0   0
 74   0   0
 75   0   0
 77   0   0
 78   0   0
 80   0   0
 82   0   0
 84   0   0
 87   0   0
 89   0   0
 92   0   0
 95   0   0
 98   0   0
102   0   0
106   0   0
111   0   0
117   0   0
123   0   0
130   0   0
137   0   0
144   0   0
150   0   0
156   0   0
159   0   0
158   0   0
152   0   0
133   0   0
255 255 255
  0   0 142
  0   0 183
  0   0 212
  0   0 233
  0   0 247
  0   0 254
  0   0 253
  0   0 243
  0   0 223
  0   0 188
  0   0 110
160   0   0
197   0   0
214   0   0
219   0   0
216   0   0
207   0   0
194   0   0
178   0   0
160   0   0
141   0   0
122   0   0
103   0   0
 86   0   0
 70   0   0
255 255 255
255 255 255
255 255 255
255 255 255
255 255 255
255 255 255
255 255 255
255 255 255
255 255 255
255 255 255
255 255 255
255 255 255
255 255 255
255 255 255
255 255 255
255 255 255
255 255 255
255 255 255
255 255 255
255 255 255
255 255 255
255 255 255
255 255 255
255 255 255
255 255 255
255 255 255
255 255 255
255 255 255
255 255 255
255 255 255
255 255 255
255 255 255
255 255 255
255 255 255
255 255 255
255 255 255
255 255 255
255 255 255
255 255 255
255 255 255
255 255 255
255 255 255
255 255 255
255 150   0
255 255 255
255 255 255
255 255 255
255 255 255
255 255 255
255 255 255
255 255 255
255 255 255
255 255 255
255 255 255
255 255 255
255 255 255
255 255 255
255 255 255
255 255 255
255 255 255
255 255 255
255 255 255
  0   0   0
  0   0   0
  0   0   0
  0   0   0
255 255 255
255 255 255
255 255 255
255 255 255
255 255 255
255 255 255
255 255 255
255 255 255
255 255 255
255 255 255
255 255 255
255 255 255
255 255 255
255 255 255
255 255 255
255 255 255
255 255 255
255 150   0
255 255 255
255 255 255
255 255 255
255 255 255
255 255 255
255 255 255
255 255 255
255 255 255
255 255 255
255 255 255
255 255 255
255 255 255
255 255 255
255 255 255
255 255 255
 65   0   0
 65   0   0
 64   0   0
255 255 255
255 255 255
255 255 255
255 255 255
255 255 255
255 255 255
255 255 255
255 255 255
255 255 255
255 255 255
255 255 255
255 255 255
255 255 255
255 255 255
255 255 255
255 255 255
255 255 255
255 255 255
255 255 255
255 255 255
255 255 255
255 255 255
255 255 255
255 255 255
255 255 255
255 255 255
255 255 255
255 255 255
255 255 255
255 255 255
255 255 255
255 255 255
255 255 255
255 255 255
255 255 255
255 255 255
255 255 255
 65   0   0
 66   0   0
 66   0   0
 67   0   0
 68   0   0
 69   0   0
 71   0   0
 72   0   0
 73   0   0
 74   0   0
 76   0   0
 77   0   0
 79   0   0
 81   0   0
 82   0   0
 85   0   0
 87   0   0
 89   0   0
 92   0   0
 95   0   0
 98   0   0
102   0   0
106   0   0
111   0   0
116   0   0
122   0   0
129   0   0
136   0   0
143   0   0
149   0   0
155   0   0
159   0   0
159   0   0
153   0   0
138   0   0
 92   0   0
  0   0 130
  0   0 175
  0   0 206
  0   0 229
  0   0 244
  0   0 253
  0   0 254
  0   0 247
  0   0 230
  0   0 200
  0   0 145
139   0   0
188   0   0
210   0   0
218   0   0
218   0   0
211   0   0
199   0   0
184   0   0
167   0   0
148   0   0
129   0   0
110   0   0
 92   0   0
 76   0   0
255 255 255
255 255 255
255 255 255
255 255 255
255 255 255
255 255 255
255 255 255
255 255 255
255 255 255
255 255 255
255 255 255
255 255 255
255 255 255
255 255 255
255 255 255
255 255 255
255 255 255
255 255 255
255 255 255
255 255 255
255 255 255
255 255 255
255 255 255
255 255 255
255 255 255
255 255 255
255 255 255
255 255 255
255 255 255
255 255 255
255 255 255
255 255 255
255 255 255
255 255 255
255 255 255
255 255 255
255 255 255
255 255 255
255 255 255
255 255 255
255 255 255
255 255 255
255 255 255
255 255 255
255 150   0
255 255 255
255 255 255
255 255 255
255 255 255
255 255 255
255 255 255
255 255 255
255 255 255
255 255 255
255 255 255
255 255 255
255 255 255
255 255 255
255 255 255
255 255 255
255 255 255
255 255 255
255 255 255
  0   0   0
  0   0   0
  0   0   0
  0   0   0
255 255 255
255 255 255
255 255 255
255 255 255
255 255 255
255 255 255
255 255 255
255 255 255
255 255 255
255 255 255
255 255 255
255 255 255
255 255 255
255 255 255
255 255 255
255 255 255
255 255 255
255 150   0
255 255 255
255 255 255
255 255 255
255 255 255
255 255 255
255 255 255
255 255 255
255 255 255
255 255 255
255 255 255
255 255 255
255 255 255
255 255 255
 64   0   0
 66   0   0
 66   0   0
 66   0   0
 64   0   0
255 255 255
255 255 255
255 255 255
255 255 255
255 255 255
255 255 255
255 255 255
255 255 255
255 255 255
255 255 255
255 255 255
255 255 255
255 255 255
255 255 255
255 255 255
255 255 255
255 255 255
255 255 255
255 255 255
255 255 255
255 255 255
255 255 255
255 255 255
255 255 255
255 255 255
255 255 255
255 255 255
255 255 255
255 255 255
255 255 255
255 255 255
255 255 255
255 255 255
255 255 255
255 255 255
 65   0   0
 65   0   0
 66   0   0
 67   0   0
 68   0   0
 69   0   0
 70   0   0
 71   0   0
 72   0   0
 73   0   0
 75   0   0
 76   0   0
 78   0   0
 79   0   0
 81   0   0
 83   0   0
 85   0   0
 87   0   0
 90   0   0
 92   0   0
 95   0   0
 98   0   0
102   0   0
106   0   0
111   0   0
116   0   0
122   0   0
129   0   0
135   0   0
142   0   0
149   0   0
154   0   0
158   0   0
159   0   0
155   0   0
141   0   0
105   0   0
  0   0 119
  0   0 168
  0   0 200
  0   0 224
  0   0 242
  0   0 252
  0   0 255
  0   0 250
  0   0 236
  0   0 210
  0   0 165
105   0   0
178   0   0
205   0   0
217   0   0
219   0   0
214   0   0
204   0   0
190   0   0
173   0   0
155   0   0
136   0   0
117   0   0
 99   0   0
 82   0   0
 67   0   0
255 255 255
255 255 255
255 255 255
255 255 255
255 255 255
255 255 255
255 255 255
255 255 255
255 255 255
255 255 255
255 255 255
255 255 255
255 255 255
255 255 255
255 255 255
255 255 255
255 255 255
255 255 255
255 255 255
255 255 255
255 255 255
255 255 255
255 255 255
255 255 255
255 255 255
255 255 255
255 255 255
255 255 255
255 255 255
255 255 255
255 255 255
255 255 255
255 255 255
255 255 255
255 255 255
255 255 255
255 255 255
255 255 255
255 255 255
255 255 255
255 255 255
255 255 255
255 255 255
255 255 255
255 150   0
255 255 255
255 255 255
255 255 255
255 255 255
255 255 255
255 255 255
255 255 255
255 255 255
255 255 255
255 255 255
255 255 255
255 255 255
255 255 255
255 255 255
255 255 255
255 255 255
255 255 255
255 255 255
  0   0   0
  0   0   0
  0   0   0
  0   0   0
255 255 255
255 255 255
255 255 255
255 255 255
255 255 255
255 255 255
255 255 255
255 255 255
255 255 255
255 255 255
255 255 255
255 255 255
255 255 255
255 255 255
255 255 255
255 255 255
255 255 255
255 150   0
255 255 255
255 255 255
255 255 255
255 255 255
255 255 255
255 255 255
255 255 255
255 255 255
255 255 255
255 255 255
255 255 255
255 255 255
 65   0   0
 66   0   0
 67   0   0
 67   0   0
 66   0   0
255 255 255
255 255 255
255 255 255
255 255 255
255 255 255
255 255 255
255 255 255
255 255 255
255 255 255
255 255 255
255 255 255
255 255 255
255 255 255
255 255 255
255 255 255
255 255 255
255 255 255
255 255 255
255 255 255
255 255 255
255 255 255
255 255 255
255 255 255
255 255 255
255 255 255
255 255 255
255 255 255
255 255 255
255 255 255
255 255 255
255 255 255
255 255 255
255 255 255
255 255 255
 64   0   0
 65   0   0
 66   0   0
 67   0   0
 68   0   0
 68   0   0
 69   0   0
 70   0   0
 72   0   0
 73   0   0
 74   0   0
 75   0   0
 77   0   0
 78   0   0
 80   0   0
 81   0   0
 83   0   0
 85   0   0
 88   0   0
 90   0   0
 93   0   0
 96   0   0
 99   0   0
102   0   0
107   0   0
111   0   0
116   0   0
122   0   0
129   0   0
135   0   0
142   0   0
148   0   0
154   0   0
158   0   0
159   0   0
156   0   0
144   0   0
114   0   0
  0   0 106
  0   0 161
  0   0 195
  0   0 220
  0   0 239
  0   0 250
  0   0 255
  0   0 252
  0   0 240
  0   0 218
  0   0 180
  0   0  83
166   0   0
199   0   0
214   0   0
219   0   0
216   0   0
208   0   0
195   0   0
179   0   0
161   0   0
143   0   0
124   0   0
106   0   0
 88   0   0
 73   0   0
255 255 255
255 255 255
255 255 255
255 255 255
255 255 255
255 255 255
255 255 255
255 255 255
255 255 255
255 255 255
255 255 255
255 255 255
255 255 255
255 255 255
255 255 255
255 255 255
255 255 255
255 255 255
255 255 255
255 255 255
255 255 255
255 255 255
255 255 255
255 255 255
255 255 255
255 255 255
255 255 255
255 255 255
255 255 255
255 255 255
255 255 255
255 255 255
255 255 255
255 255 255
255 255 255
255 255 255
255 255 255
255 255 255
255 255 255
255 255 255
255 255 255
255 255 255
255 255 255
255 255 255
255 255 255
255 150   0
255 255 255
255 255 255
255 255 255
255 255 255
255 255 255
255 255 255
255 255 255
255 255 255
255 255 255
255 255 255
255 255 255
255 255 255
255 255 255
255 255 255
255 255 255
255 255 255
255 255 255
255 255 255
  0   0   0
  0   0   0
  0   0   0
  0   0   0
255 255 255
255 255 255
255 255 255
255 255 255
255 255 255
255 255 255
255 255 255
255 255 255
255 255 255
255 255 255
255 255 255
255 255 255
255 255 255
255 255 255
255 255 255
255 255 255
255 255 255
255 150   0
255 255 255
255 255 255
255 255 255
255 255 255
255 255 255
255 255 255
255 255 255
255 255 255
255 255 255
255 255 255
255 255 255
 66   0   0
 67   0   0
 68   0   0
 68   0   0
 67   0   0
 65   0   0
255 255 255
255 255 255
255 255 255
255 255 255
255 255 255
255 255 255
255 255 255
255 255 255
255 255 255
255 255 255
255 255 255
255 255 255
255 255 255
255 255 255
255 255 255
255 255 255
255 255 255
255 255 255
255 255 255
255 255 255
255 255 255
255 255 255
255 255 255
255 255 255
255 255 255
255 255 255
255 255 255
255 255 255
255 255 255
255 255 255
255 255 255
255 255 255
 64   0   0
 65   0   0
 66   0   0
 67   0   0
 67   0   0
 68   0   0
 69   0   0
 70   0   0
 71   0   0
 72   0   0
 73   0   0
 74   0   0
 76   0   0
 77   0   0
 79   0   0
 80   0   0
 82   0   0
 84   0   0
 86   0   0
 88   0   0
 90   0   0
 93   0   0
 96   0   0
 99   0   0
103   0   0
107   0   0
112   0   0
117   0   0
122   0   0
129   0   0
135   0   0
142   0   0
148   0   0
154   0   0
158   0   0
159   0   0
156   0   0
146   0   0
119   0   0
  0   0  94
  0   0 155
  0   0 191
  0   0 217
  0   0 236
  0   0 248
  0   0 254
  0   0 253
  0   0 243
  0   0 224
  0   0 191
  0   0 126
151   0   0
192   0   0
211   0   0
218   0   0
218   0   0
211   0   0
199   0   0
184   0   0
167   0   0
149   0   0
130   0   0
112   0   0
 94   0   0
 78   0   0
255 255 255
255 255 255
255 255 255
255 255 255
255 255 255
255 255 255
255 255 255
255 255 255
255 255 255
255 255 255
255 255 255
255 255 255
255 255 255
255 255 255
255 255 255
255 255 255
255 255 255
255 255 255
255 255 255
255 255 255
255 255 255
255 255 255
255 255 255
255 255 255
255 255 255
255 255 255
255 255 255
255 255 255
255 255 255
255 255 255
255 255 255
255 255 255
255 255 255
255 255 255
255 255 255
255 255 255
255 255 255
255 255 255
255 255 255
255 255 255
255 255 255
255 255 255
255 255 255
255 255 255
255 255 255
255 255 255
255 150   0
255 255 255
255 255 255
255 255 255
255 255 255
255 255 255
255 255 255
255 255 255
255 255 255
255 255 255
255 255 255
255 255 255
255 255 255
255 255 255
255 255 255
255 255 255
255 255 255
255 255 255
255 255 255
  0   0   0
  0   0   0
  0   0   0
  0   0   0
255 255 255
255 255 255
255 255 255
255 255 255
255 255 255
255 255 255
255 255 255
255 255 255
255 255 255
255 255 255
255 255 255
255 255 255
255 255 255
255 255 255
255 255 255
255 255 255
255 255 255
255 150   0
255 255 255
255 255 255
255 255 255
255 255 255
255 255 255
255 255 255
255 255 255
255 255 255
255 255 255
 64   0   0
 67   0   0
 68   0   0
 69   0   0
 70   0   0
 69   0   0
 67   0   0
 64   0   0
255 255 255
255 255 255
255 255 255
255 255 255
255 255 255
255 255 255
255 255 255
255 255 255
255 255 255
255 255 255
255 255 255
255 255 255
255 255 255
255 255 255
255 255 255
255 255 255
255 255 255
255 255 255
255 255 255
255 255 255
255 255 255
255 255 255
255 255 255
255 255 255
255 255 255
255 255 255
255 255 255
255 255 255
255 255 255
255 255 255
 65   0   0
 65   0   0
 66   0   0
 67   0   0
 67   0   0
 68   0   0
 69   0   0
 70   0   0
 71   0   0
 72   0   0
 73   0   0
 74   0   0
 75   0   0
 76   0   0
 78   0   0
 79   0   0
 81   0   0
 83   0   0
 84   0   0
 86   0   0
 89   0   0
 91   0   0
 94   0   0
 97   0   0
100   0   0
104   0   0
108   0   0
112   0   0
117   0   0
123   0   0
129   0   0
135   0   0
142   0   0
148   0   0
154   0   0
158   0   0
159   0   0
156   0   0
147   0   0
123   0   0
  0   0  81
  0   0 150
  0   0 187
  0   0 213
  0   0 233
  0   0 247
  0   0 254
  0   0 254
  0   0 246
  0   0 229
  0   0 200
  0   0 147
133   0   0
185   0   0
208   0   0
217   0   0
218   0   0
213   0   0
203   0   0
189   0   0
173   0   0
155   0   0
136   0   0
118   0   0
100   0   0
 84   0   0
 68   0   0
255 255 255
255 255 255
255 255 255
255 255 255
255 255 255
255 255 255
255 255 255
255 255 255
255 255 255
255 255 255
255 255 255
255 255 255
255 255 255
255 255 255
255 255 255
255 255 255
255 255 255
255 255 255
255 255 255
255 255 255
255 255 255
255 255 255
255 255 255
255 255 255
255 255 255
255 255 255
255 255 255
255 255 255
255 255 255
255 255 255
255 255 255
255 255 255
255 255 255
255 255 255
255 255 255
255 255 255
255 255 255
255 255 255
255 255 255
255 255 255
255 255 255
255 255 255
255 255 255
255 255 255
255 255 255
255 255 255
255 150   0
255 255 255
255 255 255
255 255 255
255 255 255
255 255 255
255 255 255
255 255 255
255 255 255
255 255 255
255 255 255
255 255 255
255 255 255
255 255 255
255 255 255
255 255 255
255 255 255
255 255 255
255 255 255
  0   0   0
  0   0   0
  0   0   0
  0   0   0
255 255 255
255 255 255
255 255 255
255 255 255
255 255 255
255 255 255
255 255 255
255 255 255
255 255 255
255 255 255
255 255 255
255 255 255
255 255 255
255 255 255
255 255 255
255 255 255
255 255 255
255 150   0
255 255 255
255 255 255
255 255 255
255 255 255
255 255 255
255 255 255
255 255 255
255 255 255
 65   0   0
 68   0   0
 70   0   0
 71   0   0
 71   0   0
 70   0   0
 69   0   0
 66   0   0
255 255 255
255 255 255
255 255 255
255 255 255
255 255 255
255 255 255
255 255 255
255 255 255
255 255 255
255 255 255
255 255 255
255 255 255
255 255 255
255 255 255
255 255 255
255 255 255
255 255 255
255 255 255
255 255 255
255 255 255
255 255 255
255 255 255
255 255 255
255 255 255
255 255 255
255 255 255
255 255 255
255 255 255
 64   0   0
 65   0   0
 65   0   0
 66   0   0
 67   0   0
 67   0   0
 68   0   0
 69   0   0
 70   0   0
 71   0   0
 72   0   0
 73   0   0
 74   0   0
 75   0   0
 76   0   0
 77   0   0
 79   0   0
 80   0   0
 82   0   0
 83   0   0
 85   0   0
 87   0   0
 89   0   0
 92   0   0
 94   0   0
 97   0   0
101   0   0
104   0   0
108   0   0
113   0   0
118   0   0
124   0   0
130   0   0
136   0   0
142   0   0
148   0   0
154   0   0
158   0   0
159   0   0
157   0   0
148   0   0
125   0   0
  0   0  69
  0   0 146
  0   0 184
  0   0 211
  0   0 231
  0   0 245
  0   0 253
  0   0 254
  0   0 248
  0   0 233
  0   0 207
  0   0 162
108   0   0
177   0   0
204   0   0
216   0   0
219   0   0
215   0   0
206   0   0
193   0   0
178   0   0
160   0   0
142   0   0
124   0   0
106   0   0
 89   0   0
 73   0   0
255 255 255
255 255 255
255 255 255
255 255 255
255 255 255
255 255 255
255 255 255
255 255 255
255 255 255
255 255 255
255 255 255
255 255 255
255 255 255
255 255 255
255 255 255
255 255 255
255 255 255
255 255 255
255 255 255
255 255 255
255 255 255
255 255 255
255 255 255
255 255 255
255 255 255
255 255 255
255 255 255
255 255 255
255 255 255
255 255 255
255 255 255
255 255 255
255 255 255
255 255 255
255 255 255
255 255 255
255 255 255
255 255 255
255 255 255
255 255 255
255 255 255
255 255 255
255 255 255
255 255 255
255 255 255
255 255 255
255 255 255
255 150   0
255 255 255
255 255 255
255 255 255
255 255 255
255 255 255
255 255 255
255 255 255
255 255 255
255 255 255
255 255 255
255 255 255
255 255 255
255 255 255
255 255 255
255 255 255
255 255 255
255 255 255
255 255 255
  0   0   0
  0   0   0
  0   0   0
  0   0   0
255 255 255
255 255 255
255 255 255
255 255 255
255 255 255
255 255 255
255 255 255
255 255 255
255 255 255
 64   0   0
 65   0   0
 64   0   0
255 255 255
255 255 255
255 255 255
255 255 255
255 255 255
255 150   0
255 255 255
255 255 255
255 255 255
255 255 255
255 255 255
255 255 255
255 255 255
 66   0   0
 69   0   0
 71   0   0
 72   0   0
 73   0   0
 72   0   0
 70   0   0
 68   0   0
 65   0   0
255 255 255
255 255 255
255 255 255
255 255 255
255 255 255
255 255 255
255 255 255
255 255 255
255 255 255
255 255 255
255 255 255
255 255 255
255 255 255
255 255 255
255 255 255
255 255 255
255 255 255
255 255 255
255 255 255
255 255 255
255 255 255
255 255 255
255 255 255
255 255 255
255 255 255
 64   0   0
 65   0   0
 65   0   0
 66   0   0
 66   0   0
 67   0   0
 67   0   0
 68   0   0
 69   0   0
 70   0   0
 71   0   0
 71   0   0
 72   0   0
 73   0   0
 74   0   0
 76   0   0
 77   0   0
 78   0   0
 79   0   0
 81   0   0
 82   0   0
 84   0   0
 86   0   0
 88   0   0
 90   0   0
 93   0   0
 95   0   0
 98   0   0
102   0   0
105   0   0
109   0   0
114   0   0
119   0   0
124   0   0
130   0   0
137   0   0
143   0   0
149   0   0
154   0   0
158   0   0
159   0   0
157   0   0
148   0   0
126   0   0
255 255 255
  0   0 144
  0   0 181
  0   0 209
  0   0 229
  0   0 244
  0   0 253
  0   0 255
  0   0 249
  0   0 236
  0   0 212
  0   0 173
255 255 255
169   0   0
200   0   0
214   0   0
219   0   0
217   0   0
209   0   0
197   0   0
182   0   0
165   0   0
147   0   0
129   0   0
111   0   0
 94   0   0
 78   0   0
255 255 255
255 255 255
255 255 255
255 255 255
255 255 255
255 255 255
255 255 255
255 255 255
255 255 255
255 255 255
255 255 255
255 255 255
255 255 255
255 255 255
255 255 255
255 255 255
255 255 255
255 255 255
255 255 255
255 255 255
255 255 255
255 255 255
255 255 255
255 255 255
255 255 255
255 255 255
255 255 255
255 255 255
255 255 255
255 255 255
255 255 255
255 255 255
255 255 255
255 255 255
255 255 255
255 255 255
255 255 255
255 255 255
255 255 255
255 255 255
255 255 255
255 255 255
255 255 255
255 255 255
255 255 255
255 255 255
255 255 255
255 255 255
255 150   0
255 255 255
255 255 255
255 255 255
255 255 255
255 255 255
255 255 255
255 255 255
255 255 255
255 255 255
255 255 255
255 255 255
255 255 255
255 255 255
255 255 255
255 255 255
255 255 255
255 255 255
255 255 255
  0   0   0
  0   0   0
  0   0   0
  0   0   0
255 255 255
255 255 255
255 255 255
255 255 255
255 255 255
255 255 255
255 255 255
255 255 255
 65   0   0
 65   0   0
 65   0   0
 65   0   0
 64   0   0
255 255 255
255 255 255
255 255 255
255 255 255
255 150   0
255 255 255
255 255 255
255 255 255
255 255 255
255 255 255
 65   0   0
 68   0   0
 70   0   0
 72   0   0
 74   0   0
 74   0   0
 74   0   0
 72   0   0
 70   0   0
 67   0   0
255 255 255
255 255 255
255 255 255
255 255 255
255 255 255
255 255 255
255 255 255
255 255 255
255 255 255
255 255 255
255 255 255
255 255 255
255 255 255
255 255 255
255 255 255
255 255 255
255 255 255
255 255 255
255 255 255
255 255 255
255 255 255
255 255 255
255 255 255
 64   0   0
 65   0   0
 65   0   0
 66   0   0
 66   0   0
 67   0   0
 67   0   0
 68   0   0
 68   0   0
 69   0   0
 70   0   0
 71   0   0
 71   0   0
 72   0   0
 73   0   0
 74   0   0
 75   0   0
 76   0   0
 78   0   0
 79   0   0
 80   0   0
 82   0   0
 83   0   0
 85   0   0
 87   0   0
 89   0   0
 91   0   0
 94   0   0
 96   0   0
 99   0   0
103   0   0
106   0   0
110   0   0
115   0   0
120   0   0
125   0   0
131   0   0
137   0   0
144   0   0
149   0   0
154   0   0
158   0   0
159   0   0
156   0   0
148   0   0
126   0   0
255 255 255
  0   0 142
  0   0 180
  0   0 207
  0   0 228
  0   0 243
  0   0 252
  0   0 255
  0   0 250
  0   0 238
  0   0 217
  0   0 181
  0   0  97
160   0   0
195   0   0
212   0   0
219   0   0
218   0   0
211   0   0
200   0   0
186   0   0
170   0   0
152   0   0
134   0   0
116   0   0
 99   0   0
 83   0   0
 68   0   0
255 255 255
255 255 255
255 255 255
255 255 255
255 255 255
255 255 255
255 255 255
255 255 255
255 255 255
255 255 255
255 255 255
255 255 255
255 255 255
255 255 255
255 255 255
255 255 255
255 255 255
255 255 255
255 255 255
255 255 255
255 255 255
255 255 255
255 255 255
255 255 255
255 255 255
255 255 255
255 255 255
255 255 255
255 255 255
255 255 255
255 255 255
255 255 255
255 255 255
255 255 255
255 255 255
255 255 255
255 255 255
255 255 255
255 255 255
255 255 255
255 255 255
255 255 255
255 255 255
255 255 255
255 255 255
255 255 255
255 255 255
255 255 255
255 150   0
255 255 255
255 255 255
255 255 255
255 255 255
255 255 255
255 255 255
255 255 255
255 255 255
255 255 255
255 255 255
255 255 255
255 255 255
255 255 255
255 255 255
255 255 255
255 255 255
255 255 255
255 255 255
  0   0   0
  0   0   0
  0   0   0
  0   0   0
255 255 255
255 255 255
255 255 255
255 255 255
255 255 255
255 255 255
255 255 255
 65   0   0
 66   0   0
 66   0   0
 66   0   0
 66   0   0
 65   0   0
 64   0   0
255 255 255
255 255 255
255 255 255
255 150   0
255 255 255
255 255 255
255 255 255
 64   0   0
 67   0   0
 69   0   0
 72   0   0
 74   0   0
 75   0   0
 76   0   0
 75   0   0
 74   0   0
 72   0   0
 69   0   0
 65   0   0
255 255 255
255 255 255
255 255 255
255 255 255
255 255 255
255 255 255
255 255 255
255 255 255
255 255 255
255 255 255
255 255 255
255 255 255
255 255 255
255 255 255
255 255 255
255 255 255
255 255 255
255 255 255
255 255 255
 64   0   0
 65   0   0
 65   0   0
 65   0   0
 66   0   0
 66   0   0
 67   0   0
 67   0   0
 68   0   0
 68   0   0
 69   0   0
 69   0   0
 70   0   0
 71   0   0
 72   0   0
 72   0   0
 73   0   0
 74   0   0
 75   0   0
 76   0   0
 77   0   0
 79   0   0
 80   0   0
 81   0   0
 83   0   0
 84   0   0
 86   0   0
 88   0   0
 90   0   0
 92   0   0
 95   0   0
 98   0   0
101   0   0
104   0   0
108   0   0
112   0   0
116   0   0
121   0   0
127   0   0
133   0   0
139   0   0
145   0   0
150   0   0
155   0   0
158   0   0
159   0   0
156   0   0
147   0   0
125   0   0
255 255 255
  0   0 142
  0   0 179
  0   0 207
  0   0 227
  0   0 242
  0   0 252
  0   0 255
  0   0 251
  0   0 240
  0   0 220
  0   0 187
  0   0 119
151   0   0
191   0   0
210   0   0
218   0   0
218   0   0
213   0   0
203   0   0
189   0   0
174   0   0
156   0   0
138   0   0
121   0   0
103   0   0
 87   0   0
 72   0   0
255 255 255
255 255 255
255 255 255
255 255 255
255 255 255
255 255 255
255 255 255
255 255 255
255 255 255
255 255 255
255 255 255
255 255 255
255 255 255
255 255 255
255 255 255
255 255 255
255 255 255
255 255 255
255 255 255
255 255 255
255 255 255
255 255 255
255 255 255
255 255 255
255 255 255
255 255 255
255 255 255
255 255 255
255 255 255
255 255 255
255 255 255
255 255 255
255 255 255
255 255 255
255 255 255
255 255 255
255 255 255
255 255 255
255 255 255
255 255 255
255 255 255
255 255 255
255 255 255
255 255 255
255 255 255
255 255 255
255 255 255
255 255 255
255 255 255
255 150   0
255 255 255
255 255 255
255 255 255
255 255 255
255 255 255
255 255 255
255 255 255
255 255 255
255 255 255
255 255 255
255 255 255
255 255 255
255 255 255
255 255 255
255 255 255
255 255 255
255 255 255
255 255 255
  0   0   0
  0   0   0
  0   0   0
  0   0   0
255 255 255
255 255 255
255 255 255
255 255 255
255 255 255
255 255 255
255 255 255
 66   0   0
 67   0   0
 67   0   0
 67   0   0
 67   0   0
 66   0   0
 65   0   0
255 255 255
255 255 255
255 255 255
255 150   0
255 255 255
 64   0   0
 66   0   0
 68   0   0
 71   0   0
 73   0   0
 75   0   0
 77   0   0
 77   0   0
 77   0   0
 76   0   0
 74   0   0
 71   0   0
 67   0   0
255 255 255
255 255 255
255 255 255
255 255 255
255 255 255
255 255 255
255 255 255
255 255 255
255 255 255
255 255 255
255 255 255
255 255 255
255 255 255
255 255 255
255 255 255
 64   0   0
 65   0   0
 65   0   0
 65   0   0
 65   0   0
 66   0   0
 66   0   0
 66   0   0
 67   0   0
 67   0   0
 68   0   0
 68   0   0
 69   0   0
 69   0   0
 70   0   0
 71   0   0
 71   0   0
 72   0   0
 73   0   0
 74   0   0
 74   0   0
 75   0   0
 76   0   0
 77   0   0
 79   0   0
 80   0   0
 81   0   0
 83   0   0
 84   0   0
 86   0   0
 87   0   0
 89   0   0
 91   0   0
 94   0   0
 96   0   0
 99   0   0
102   0   0
105   0   0
109   0   0
113   0   0
118   0   0
123   0   0
128   0   0
134   0   0
140   0   0
146   0   0
151   0   0
156   0   0
159   0   0
159   0   0
156   0   0
146   0   0
123   0   0
  0   0  69
  0   0 144
  0   0 180
  0   0 207
  0   0 227
  0   0 242
  0   0 251
  0   0 255
  0   0 252
  0   0 241
  0   0 222
  0   0 191
  0   0 132
143   0   0
187   0   0
208   0   0
217   0   0
219   0   0
214   0   0
205   0   0
192   0   0
177   0   0
160   0   0
143   0   0
125   0   0
107   0   0
 91   0   0
 76   0   0
255 255 255
255 255 255
255 255 255
255 255 255
255 255 255
255 255 255
255 255 255
255 255 255
255 255 255
255 255 255
255 255 255
255 255 255
255 255 255
255 255 255
255 255 255
255 255 255
255 255 255
255 255 255
255 255 255
255 255 255
255 255 255
255 255 255
255 255 255
255 255 255
255 255 255
255 255 255
255 255 255
255 255 255
255 255 255
255 255 255
255 255 255
255 255 255
255 255 255
255 255 255
255 255 255
255 255 255
255 255 255
255 255 255
255 255 255
255 255 255
255 255 255
255 255 255
255 255 255
255 255 255
255 255 255
255 255 255
255 255 255
255 255 255
255 255 255
255 255 255
255 150   0
255 255 255
255 255 255
255 255 255
255 255 255
255 255 255
255 255 255
255 255 255
255 255 255
255 255 255
255 255 255
255 255 255
255 255 255
255 255 255
255 255 255
255 255 255
255 255 255
255 255 255
255 255 255
  0   0   0
  0   0   0
  0   0   0
  0   0   0
255 255 255
255 255 255
255 255 255
255 255 255
255 255 255
255 255 255
 65   0   0
 67   0   0
 68   0   0
 68   0   0
 68   0   0
 68   0   0
 67   0   0
 66   0   0
 65   0   0
 65   0   0
 64   0   0
255 150   0
 66   0   0
 68   0   0
 71   0   0
 73   0   0
 75   0   0
 77   0   0
 79   0   0
 79   0   0
 79   0   0
 78   0   0
 76   0   0
 73   0   0
 69   0   0
 65   0   0
255 255 255
255 255 255
255 255 255
255 255 255
255 255 255
255 255 255
255 255 255
255 255 255
255 255 255
255 255 255
255 255 255
 64   0   0
 65   0   0
 65   0   0
 66   0   0
 66   0   0
 66   0   0
 66   0   0
 67   0   0
 67   0   0
 67   0   0
 68   0   0
 68   0   0
 68   0   0
 69   0   0
 69   0   0
 70   0   0
 71   0   0
 71   0   0
 72   0   0
 72   0   0
 73   0   0
 74   0   0
 75   0   0
 76   0   0
 77   0   0
 78   0   0
 79   0   0
 80   0   0
 81   0   0
 82   0   0
 84   0   0
 85   0   0
 87   0   0
 89   0   0
 91   0   0
 93   0   0
 95   0   0
 98   0   0
100   0   0
104   0   0
107   0   0
111   0   0
115   0   0
120   0   0
125   0   0
130   0   0
136   0   0
141   0   0
147   0   0
152   0   0
156   0   0
159   0   0
159   0   0
155   0   0
144   0   0
119   0   0
  0   0  81
  0   0 146
  0   0 181
  0   0 207
  0   0 227
  0   0 242
  0   0 251
  0   0 255
  0   0 252
  0   0 242
  0   0 224
  0   0 194
  0   0 141
135   0   0
184   0   0
206   0   0
217   0   0
219   0   0
215   0   0
207   0   0
195   0   0
180   0   0
164   0   0
146   0   0
129   0   0
111   0   0
 95   0   0
 79   0   0
 65   0   0
255 255 255
255 255 255
255 255 255
255 255 255
255 255 255
255 255 255
255 255 255
255 255 255
255 255 255
255 255 255
255 255 255
255 255 255
255 255 255
255 255 255
255 255 255
255 255 255
255 255 255
255 255 255
255 255 255
255 255 255
255 255 255
255 255 255
255 255 255
255 255 255
255 255 255
255 255 255
255 255 255
255 255 255
255 255 255
255 255 255
255 255 255
255 255 255
255 255 255
255 255 255
255 255 255
255 255 255
255 255 255
255 255 255
255 255 255
255 255 255
255 255 255
255 255 255
255 255 255
255 255 255
255 255 255
255 255 255
255 255 255
255 255 255
255 255 255
255 255 255
255 150   0
255 255 255
255 255 255
255 255 255
255 255 255
255 255 255
255 255 255
255 255 255
255 255 255
255 255 255
255 255 255
255 255 255
255 255 255
255 255 255
255 255 255
255 255 255
255 255 255
255 255 255
255 255 255
  0   0   0
  0   0   0
  0   0   0
  0   0   0
255 255 255
255 255 255
255 255 255
255 255 255
255 255 255
255 255 255
 66   0   0
 68   0   0
 69   0   0
 69   0   0
 69   0   0
 69   0   0
 68   0   0
 67   0   0
 67   0   0
 67   0   0
 68   0   0
255 150   0
 71   0   0
 73   0   0
 75   0   0
 78   0   0
 80   0   0
 81   0   0
 81   0   0
 81   0   0
 80   0   0
 78   0   0
 75   0   0
 71   0   0
 67   0   0
255 255 255
255 255 255
255 255 255
255 255 255
255 255 255
255 255 255
255 255 255
255 255 255
255 255 255
255 255 255
 65   0   0
 66   0   0
 66   0   0
 67   0   0
 67   0   0
 67   0   0
 68   0   0
 68   0   0
 68   0   0
 68   0   0
 69   0   0
 69   0   0
 69   0   0
 70   0   0
 70   0   0
 71   0   0
 71   0   0
 72   0   0
 72   0   0
 73   0   0
 74   0   0
 74   0   0
 75   0   0
 76   0   0
 77   0   0
 78   0   0
 79   0   0
 80   0   0
 81   0   0
 82   0   0
 84   0   0
 85   0   0
 87   0   0
 88   0   0
 90   0   0
 92   0   0
 94   0   0
 97   0   0
 99   0   0
102   0   0
105   0   0
109   0   0
113   0   0
117   0   0
122   0   0
127   0   0
132   0   0
138   0   0
143   0   0
149   0   0
153   0   0
157   0   0
159   0   0
158   0   0
153   0   0
141   0   0
114   0   0
  0   0  94
  0   0 150
  0   0 184
  0   0 209
  0   0 228
  0   0 242
  0   0 251
  0   0 255
  0   0 252
  0   0 243
  0   0 225
  0   0 196
  0   0 146
127   0   0
181   0   0
204   0   0
216   0   0
219   0   0
216   0   0
208   0   0
197   0   0
183   0   0
167   0   0
150   0   0
132   0   0
115   0   0
 98   0   0
 83   0   0
 69   0   0
255 255 255
255 255 255
255 255 255
255 255 255
255 255 255
255 255 255
255 255 255
255 255 255
255 255 255
255 255 255
255 255 255
255 255 255
255 255 255
255 255 255
255 255 255
255 255 255
255 255 255
255 255 255
255 255 255
255 255 255
255 255 255
255 255 255
255 255 255
255 255 255
255 255 255
255 255 255
255 255 255
255 255 255
255 255 255
255 255 255
255 255 255
255 255 255
255 255 255
255 255 255
255 255 255
255 255 255
255 255 255
255 255 255
255 255 255
255 255 255
255 255 255
255 255 255
255 255 255
255 255 255
255 255 255
255 255 255
255 255 255
255 255 255
255 255 255
255 255 255
255 255 255
255 150   0
255 255 255
255 255 255
255 255 255
255 255 255
255 255 255
255 255 255
255 255 255
255 255 255
255 255 255
255 255 255
255 255 255
255 255 255
255 255 255
255 255 255
255 255 255
255 255 255
255 255 255
255 255 255
  0   0   0
  0   0   0
  0   0   0
  0   0   0
255 255 255
255 255 255
255 255 255
255 255 255
255 255 255
 65   0   0
 67   0   0
 69   0   0
 70   0   0
 70   0   0
 70   0   0
 70   0   0
 70   0   0
 70   0   0
 70   0   0
 71   0   0
 72   0   0
255 150   0
 76   0   0
 78   0   0
 80   0   0
 82   0   0
 83   0   0
 84   0   0
 83   0   0
 82   0   0
 80   0   0
 77   0   0
 74   0   0
 70   0   0
 66   0   0
255 255 255
255 255 255
255 255 255
255 255 255
255 255 255
255 255 255
255 255 255
255 255 255
 65   0   0
 66   0   0
 67   0   0
 68   0   0
 68   0   0
 69   0   0
 69   0   0
 69   0   0
 69   0   0
 70   0   0
 70   0   0
 70   0   0
 71   0   0
 71   0   0
 71   0   0
 72   0   0
 72   0   0
 73   0   0
 73   0   0
 74   0   0
 75   0   0
 75   0   0
 76   0   0
 77   0   0
 78   0   0
 78   0   0
 79   0   0
 80   0   0
 82   0   0
 83   0   0
 84   0   0
 85   0   0
 87   0   0
 88   0   0
 90   0   0
 92   0   0
 94   0   0
 96   0   0
 99   0   0
101   0   0
104   0   0
107   0   0
111   0   0
115   0   0
119   0   0
124   0   0
129   0   0
134   0   0
140   0   0
145   0   0
150   0   0
155   0   0
158   0   0
159   0   0
158   0   0
152   0   0
138   0   0
105   0   0
  0   0 106
  0   0 155
  0   0 187
  0   0 211
  0   0 229
  0   0 243
  0   0 252
  0   0 255
  0   0 252
  0   0 243
  0   0 225
  0   0 197
  0   0 149
122   0   0
178   0   0
203   0   0
215   0   0
219   0   0
217   0   0
210   0   0
199   0   0
185   0   0
169   0   0
153   0   0
135   0   0
118   0   0
102   0   0
 86   0   0
 72   0   0
255 255 255
255 255 255
255 255 255
255 255 255
255 255 255
255 255 255
255 255 255
255 255 255
255 255 255
255 255 255
255 255 255
255 255 255
255 255 255
255 255 255
255 255 255
255 255 255
255 255 255
255 255 255
255 255 255
255 255 255
255 255 255
255 255 255
255 255 255
255 255 255
255 255 255
255 255 255
255 255 255
255 255 255
255 255 255
255 255 255
255 255 255
255 255 255
255 255 255
255 255 255
255 255 255
255 255 255
255 255 255
255 255 255
255 255 255
255 255 255
255 255 255
255 255 255
255 255 255
255 255 255
255 255 255
255 255 255
255 255 255
255 255 255
255 255 255
255 255 255
255 255 255
255 255 255
255 150   0
255 255 255
255 255 255
255 255 255
255 255 255
255 255 255
255 255 255
255 255 255
255 255 255
255 255 255
255 255 255
255 255 255
255 255 255
255 255 255
255 255 255
255 255 255
255 255 255
255 255 255
255 255 255
  0   0   0
  0   0   0
  0   0   0
  0   0   0
255 255 255
255 255 255
255 255 255
255 255 255
255 255 255
 66   0   0
 69   0   0
 70   0   0
 71   0   0
 72   0   0
 72   0   0
 72   0   0
 73   0   0
 73   0   0
 74   0   0
 75   0   0
 77   0   0
255 150   0
 81   0   0
 83   0   0
 85   0   0
 86   0   0
 86   0   0
 86   0   0
 85   0   0
 82   0   0
 80   0   0
 76   0   0
 72   0   0
 68   0   0
 65   0   0
255 255 255
255 255 255
255 255 255
255 255 255
255 255 255
 64   0   0
 66   0   0
 67   0   0
 68   0   0
 69   0   0
 69   0   0
 70   0   0
 70   0   0
 70   0   0
 71   0   0
 71   0   0
 71   0   0
 71   0   0
 72   0   0
 72   0   0
 73   0   0
 73   0   0
 73   0   0
 74   0   0
 74   0   0
 75   0   0
 75   0   0
 76   0   0
 77   0   0
 78   0   0
 78   0   0
 79   0   0
 80   0   0
 81   0   0
 82   0   0
 83   0   0
 84   0   0
 86   0   0
 87   0   0
 89   0   0
 90   0   0
 92   0   0
 94   0   0
 96   0   0
 98   0   0
101   0   0
103   0   0
106   0   0
110   0   0
113   0   0
117   0   0
122   0   0
127   0   0
132   0   0
137   0   0
142   0   0
147   0   0
152   0   0
156   0   0
159   0   0
159   0   0
157   0   0
149   0   0
133   0   0
 92   0   0
  0   0 119
  0   0 161
  0   0 191
  0   0 213
  0   0 231
  0   0 244
  0   0 252
  0   0 255
  0   0 252
  0   0 242
  0   0 225
  0   0 197
  0   0 150
119   0   0
177   0   0
202   0   0
215   0   0
219   0   0
217   0   0
210   0   0
200   0   0
187   0   0
172   0   0
155   0   0
138   0   0
121   0   0
104   0   0
 89   0   0
 74   0   0
255 255 255
255 255 255
255 255 255
255 255 255
255 255 255
255 255 255
255 255 255
255 255 255
255 255 255
255 255 255
255 255 255
255 255 255
255 255 255
255 255 255
255 255 255
255 255 255
255 255 255
255 255 255
255 255 255
255 255 255
255 255 255
255 255 255
255 255 255
255 255 255
255 255 255
255 255 255
255 255 255
255 255 255
255 255 255
255 255 255
255 255 255
255 255 255
255 255 255
255 255 255
255 255 255
255 255 255
255 255 255
255 255 255
255 255 255
255 255 255
255 255 255
255 255 255
255 255 255
255 255 255
255 255 255
255 255 255
255 255 255
255 255 255
255 255 255
255 255 255
255 255 255
255 255 255
255 255 255
255 150   0
255 255 255
255 255 255
255 255 255
255 255 255
255 255 255
255 255 255
255 255 255
255 255 255
255 255 255
255 255 255
255 255 255
255 255 255
255 255 255
255 255 255
255 255 255
255 255 255
255 255 255
255 255 255
  0   0   0
  0   0   0
  0   0   0
  0   0   0
255 255 255
255 255 255
255 255 255
255 255 255
 66   0   0
 68   0   0
 70   0   0
 72   0   0
 73   0   0
 74   0   0
 75   0   0
 76   0   0
 76   0   0
 77   0   0
 79   0   0
 80   0   0
 82   0   0
255 150   0
 86   0   0
 88   0   0
 89   0   0
 89   0   0
 89   0   0
 87   0   0
 85   0   0
 82   0   0
 78   0   0
 75   0   0
 71   0   0
 67   0   0
 65   0   0
255 255 255
255 255 255
255 255 255
 65   0   0
 66   0   0
 68   0   0
 69   0   0
 70   0   0
 71   0   0
 71   0   0
 72   0   0
 72   0   0
 72   0   0
 73   0   0
 73   0   0
 73   0   0
 73   0   0
 74   0   0
 74   0   0
 74   0   0
 75   0   0
 75   0   0
 76   0   0
 76   0   0
 77   0   0
 77   0   0
 78   0   0
 79   0   0
 79   0   0
 80   0   0
 81   0   0
 82   0   0
 83   0   0
 84   0   0
 85   0   0
 86   0   0
 88   0   0
 89   0   0
 90   0   0
 92   0   0
 94   0   0
 96   0   0
 98   0   0
100   0   0
103   0   0
106   0   0
109   0   0
112   0   0
116   0   0
120   0   0
125   0   0
129   0   0
134   0   0
139   0   0
145   0   0
149   0   0
154   0   0
157   0   0
159   0   0
159   0   0
155   0   0
146   0   0
126   0   0
255 255 255
  0   0 130
  0   0 168
  0   0 195
  0   0 217
  0   0 233
  0   0 245
  0   0 253
  0   0 255
  0   0 251
  0   0 241
  0   0 224
  0   0 196
  0   0 149
119   0   0
177   0   0
202   0   0
214   0   0
219   0   0
217   0   0
211   0   0
201   0   0
188   0   0
173   0   0
157   0   0
140   0   0
123   0   0
107   0   0
 91   0   0
 77   0   0
255 255 255
255 255 255
255 255 255
255 255 255
255 255 255
255 255 255
255 255 255
255 255 255
255 255 255
255 255 255
255 255 255
255 255 255
255 255 255
255 255 255
255 255 255
255 255 255
255 255 255
255 255 255
255 255 255
255 255 255
255 255 255
255 255 255
255 255 255
255 255 255
255 255 255
255 255 255
255 255 255
255 255 255
255 255 255
255 255 255
255 255 255
255 255 255
255 255 255
255 255 255
255 255 255
255 255 255
255 255 255
255 255 255
255 255 255
255 255 255
255 255 255
255 255 255
255 255 255
255 255 255
255 255 255
255 255 255
255 255 255
255 255 255
255 255 255
255 255 255
255 255 255
255 255 255
255 255 255
255 255 255
255 150   0
255 255 255
255 255 255
255 255 255
255 255 255
255 255 255
255 255 255
255 255 255
255 255 255
255 255 255
255 255 255
255 255 255
255 255 255
255 255 255
255 255 255
255 255 255
255 255 255
255 255 255
255 255 255
  0   0   0
  0   0   0
  0   0   0
  0   0   0
255 255 255
255 255 255
255 255 255
 65   0   0
 68   0   0
 71   0   0
 73   0   0
 75   0   0
 76   0   0
 78   0   0
 79   0   0
 80   0   0
 81   0   0
 83   0   0
 85   0   0
 86   0   0
 88   0   0
255 150   0
 91   0   0
 92   0   0
 92   0   0
 91   0   0
 90   0   0
 88   0   0
 85   0   0
 81   0   0
 77   0   0
 74   0   0
 70   0   0
 68   0   0
 66   0   0
 66   0   0
 66   0   0
 67   0   0
 69   0   0
 70   0   0
 71   0   0
 72   0   0
 73   0   0
 73   0   0
 74   0   0
 74   0   0
 74   0   0
 75   0   0
 75   0   0
 75   0   0
 75   0   0
 76   0   0
 76   0   0
 76   0   0
 77   0   0
 77   0   0
 77   0   0
 78   0   0
 78   0   0
 79   0   0
 80   0   0
 80   0   0
 81   0   0
 82   0   0
 83   0   0
 84   0   0
 85   0   0
 86   0   0
 87   0   0
 88   0   0
 90   0   0
 91   0   0
 93   0   0
 94   0   0
 96   0   0
 98   0   0
100   0   0
103   0   0
106   0   0
109   0   0
112   0   0
115   0   0
119   0   0
123   0   0
128   0   0
132   0   0
137   0   0
142   0   0
147   0   0
152   0   0
155   0   0
158   0   0
159   0   0
158   0   0
152   0   0
141   0   0
116   0   0
  0   0  80
  0   0 142
  0   0 175
  0   0 200
  0   0 220
  0   0 236
  0   0 247
  0   0 253
  0   0 255
  0   0 250
  0   0 240
  0   0 222
  0   0 194
  0   0 146
122   0   0
177   0   0
202   0   0
214   0   0
219   0   0
218   0   0
212   0   0
202   0   0
189   0   0
175   0   0
159   0   0
142   0   0
126   0   0
109   0   0
 93   0   0
 79   0   0
 66   0   0
255 255 255
255 255 255
255 255 255
255 255 255
255 255 255
255 255 255
255 255 255
255 255 255
255 255 255
255 255 255
255 255 255
255 255 255
255 255 255
255 255 255
255 255 255
255 255 255
255 255 255
255 255 255
255 255 255
255 255 255
255 255 255
255 255 255
255 255 255
255 255 255
255 255 255
255 255 255
255 255 255
255 255 255
255 255 255
255 255 255
255 255 255
255 255 255
255 255 255
255 255 255
255 255 255
255 255 255
255 255 255
255 255 255
255 255 255
255 255 255
255 255 255
255 255 255
255 255 255
255 255 255
255 255 255
255 255 255
255 255 255
255 255 255
255 255 255
255 255 255
255 255 255
255 255 255
255 255 255
255 255 255
255 150   0
255 255 255
255 255 255
255 255 255
255 255 255
255 255 255
255 255 255
255 255 255
255 255 255
255 255 255
255 255 255
255 255 255
255 255 255
255 255 255
255 255 255
255 255 255
255 255 255
255 255 255
255 255 255
  0   0   0
  0   0   0
  0   0   0
  0   0   0
255 255 255
255 255 255
 65   0   0
 68   0   0
 72   0   0
 74   0   0
 77   0   0
 79   0   0
 81   0   0
 83   0   0
 84   0   0
 86   0   0
 88   0   0
 89   0   0
 91   0   0
 93   0   0
 94   0   0
255 150   0
 96   0   0
 95   0   0
 95   0   0
 93   0   0
 91   0   0
 88   0   0
 84   0   0
 80   0   0
 77   0   0
 73   0   0
 71   0   0
 69   0   0
 69   0   0
 69   0   0
 70   0   0
 71   0   0
 73   0   0
 74   0   0
 74   0   0
 75   0   0
 76   0   0
 76   0   0
 76   0   0
 77   0   0
 77   0   0
 77   0   0
 77   0   0
 77   0   0
 78   0   0
 78   0   0
 78   0   0
 79   0   0
 79   0   0
 80   0   0
 80   0   0
 81   0   0
 81   0   0
 82   0   0
 83   0   0
 83   0   0
 84   0   0
 85   0   0
 86   0   0
 87   0   0
 88   0   0
 89   0   0
 91   0   0
 92   0   0
 93   0   0
 95   0   0
 97   0   0
 99   0   0
101   0   0
103   0   0
106   0   0
109   0   0
112   0   0
115   0   0
119   0   0
122   0   0
127   0   0
131   0   0
136   0   0
141   0   0
145   0   0
150   0   0
154   0   0
157   0   0
159   0   0
159   0   0
156   0   0
149   0   0
134   0   0
 99   0   0
  0   0 108
  0   0 153
  0   0 183
  0   0 206
  0   0 224
  0   0 239
  0   0 248
  0   0 254
  0   0 254
  0   0 249
  0   0 238
  0   0 220
  0   0 191
  0   0 141
127   0   0
178   0   0
202   0   0
214   0   0
219   0   0
218   0   0
212   0   0
202   0   0
190   0   0
176   0   0
160   0   0
144   0   0
127   0   0
111   0   0
 95   0   0
 81   0   0
 67   0   0
255 255 255
255 255 255
255 255 255
255 255 255
255 255 255
255 255 255
255 255 255
255 255 255
255 255 255
255 255 255
255 255 255
255 255 255
255 255 255
255 255 255
255 255 255
255 255 255
255 255 255
255 255 255
255 255 255
255 255 255
255 255 255
255 255 255
255 255 255
255 255 255
255 255 255
255 255 255
255 255 255
255 255 255
255 255 255
255 255 255
255 255 255
255 255 255
255 255 255
255 255 255
255 255 255
255 255 255
255 255 255
255 255 255
255 255 255
255 255 255
255 255 255
255 255 255
255 255 255
255 255 255
255 255 255
255 255 255
255 255 255
255 255 255
255 255 255
255 255 255
255 255 255
255 255 255
255 255 255
255 255 255
255 255 255
255 150   0
255 255 255
255 255 255
255 255 255
255 255 255
255 255 255
255 255 255
255 255 255
255 255 255
255 255 255
255 255 255
255 255 255
255 255 255
255 255 255
255 255 255
255 255 255
255 255 255
255 255 255
255 255 255
  0   0   0
  0   0   0
  0   0   0
  0   0   0
255 255 255
 65   0   0
 70   0   0
 74   0   0
 77   0   0
 80   0   0
 83   0   0
 85   0   0
 88   0   0
 90   0   0
 91   0   0
 93   0   0
 95   0   0
 96   0   0
 98   0   0
 99   0   0
100   0   0
255 150   0
 99   0   0
 98   0   0
 96   0   0
 94   0   0
 91   0   0
 87   0   0
 83   0   0
 80   0   0
 77   0   0
 74   0   0
 73   0   0
 72   0   0
 72   0   0
 73   0   0
 74   0   0
 75   0   0
 76   0   0
 77   0   0
 78   0   0
 78   0   0
 79   0   0
 79   0   0
 79   0   0
 79   0   0
 79   0   0
 80   0   0
 80   0   0
 80   0   0
 80   0   0
 81   0   0
 81   0   0
 81   0   0
 82   0   0
 82   0   0
 83   0   0
 84   0   0
 84   0   0
 85   0   0
 86   0   0
 86   0   0
 87   0   0
 88   0   0
 89   0   0
 91   0   0
 92   0   0
 93   0   0
 95   0   0
 96   0   0
 98   0   0
100   0   0
102   0   0
104   0   0
106   0   0
109   0   0
112   0   0
115   0   0
119   0   0
122   0   0
126   0   0
130   0   0
135   0   0
139   0   0
144   0   0
148   0   0
152   0   0
156   0   0
158   0   0
159   0   0
158   0   0
153   0   0
143   0   0
123   0   0
255 255 255
  0   0 128
  0   0 164
  0   0 191
  0   0 212
  0   0 229
  0   0 242
  0   0 250
  0   0 254
  0   0 254
  0   0 248
  0   0 236
  0   0 217
  0   0 187
  0   0 132
135   0   0
181   0   0
203   0   0
215   0   0
219   0   0
218   0   0
212   0   0
202   0   0
190   0   0
176   0   0
161   0   0
145   0   0
128   0   0
112   0   0
 97   0   0
 82   0   0
 69   0   0
255 255 255
255 255 255
255 255 255
255 255 255
255 255 255
255 255 255
255 255 255
255 255 255
255 255 255
255 255 255
255 255 255
255 255 255
255 255 255
255 255 255
255 255 255
255 255 255
255 255 255
255 255 255
255 255 255
255 255 255
255 255 255
255 255 255
255 255 255
255 255 255
255 255 255
255 255 255
255 255 255
255 255 255
255 255 255
255 255 255
255 255 255
255 255 255
255 255 255
255 255 255
255 255 255
255 255 255
255 255 255
255 255 255
255 255 255
255 255 255
255 255 255
255 255 255
255 255 255
255 255 255
255 255 255
255 255 255
255 255 255
255 255 255
255 255 255
255 255 255
255 255 255
255 255 255
255 255 255
255 255 255
255 255 255
255 255 255
255 150   0
255 255 255
255 255 255
255 255 255
255 255 255
255 255 255
255 255 255
255 255 255
255 255 255
255 255 255
255 255 255
255 255 255
255 255 255
255 255 255
255 255 255
255 255 255
255 255 255
255 255 255
255 255 255
  0   0   0
  0   0   0
  0   0   0
  0   0   0
 65   0   0
 72   0   0
 77   0   0
 82   0   0
 85   0   0
 88   0   0
 91   0   0
 94   0   0
 96   0   0
 98   0   0
100   0   0
101   0   0
103   0   0
104   0   0
104   0   0
105   0   0
104   0   0
255 150   0
102   0   0
100   0   0
 98   0   0
 94   0   0
 91   0   0
 87   0   0
 83   0   0
 80   0   0
 78   0   0
 77   0   0
 76   0   0
 76   0   0
 77   0   0
 78   0   0
 79   0   0
 79   0   0
 80   0   0
 81   0   0
 81   0   0
 81   0   0
 82   0   0
 82   0   0
 82   0   0
 82   0   0
 82   0   0
 82   0   0
 83   0   0
 83   0   0
 83   0   0
 84   0   0
 84   0   0
 84   0   0
 85   0   0
 86   0   0
 86   0   0
 87   0   0
 87   0   0
 88   0   0
 89   0   0
 90   0   0
 91   0   0
 92   0   0
 93   0   0
 95   0   0
 96   0   0
 98   0   0
 99   0   0
101   0   0
103   0   0
105   0   0
107   0   0
110   0   0
113   0   0
116   0   0
119   0   0
122   0   0
126   0   0
130   0   0
134   0   0
139   0   0
143   0   0
147   0   0
151   0   0
155   0   0
158   0   0
159   0   0
159   0   0
156   0   0
149   0   0
135   0   0
106   0   0
  0   0  95
  0   0 145
  0   0 175
  0   0 199
  0   0 218
  0   0 233
  0   0 244
  0   0 252
  0   0 255
  0   0 253
  0   0 246
  0   0 233
  0   0 212
  0   0 181
  0   0 119
143   0   0
184   0   0
204   0   0
215   0   0
219   0   0
217   0   0
212   0   0
202   0   0
190   0   0
177   0   0
161   0   0
145   0   0
129   0   0
113   0   0
 98   0   0
 83   0   0
 70   0   0
255 255 255
255 255 255
255 255 255
255 255 255
255 255 255
255 255 255
255 255 255
255 255 255
255 255 255
255 255 255
255 255 255
255 255 255
255 255 255
255 255 255
255 255 255
255 255 255
255 255 255
255 255 255
255 255 255
255 255 255
255 255 255
255 255 255
255 255 255
255 255 255
255 255 255
255 255 255
255 255 255
255 255 255
255 255 255
255 255 255
255 255 255
255 255 255
255 255 255
255 255 255
255 255 255
255 255 255
255 255 255
255 255 255
255 255 255
255 255 255
255 255 255
255 255 255
255 255 255
255 255 255
255 255 255
255 255 255
255 255 255
255 255 255
255 255 255
255 255 255
255 255 255
255 255 255
255 255 255
255 255 255
255 255 255
255 255 255
255 255 255
255 150   0
255 255 255
255 255 255
255 255 255
255 255 255
255 255 255
255 255 255
255 255 255
255 255 255
255 255 255
255 255 255
255 255 255
255 255 255
255 255 255
255 255 255
255 255 255
255 255 255
255 255 255
255 255 255
  0   0   0
  0   0   0
  0   0   0
  0   0   0
 73   0   0
 81   0   0
 87   0   0
 91   0   0
 95   0   0
 98   0   0
101   0   0
104   0   0
106   0   0
107   0   0
109   0   0
110   0   0
111   0   0
111   0   0
111   0   0
110   0   0
109   0   0
255 150   0
105   0   0
102   0   0
 98   0   0
 95   0   0
 91   0   0
 88   0   0
 85   0   0
 82   0   0
 81   0   0
 80   0   0
 80   0   0
 81   0   0
 82   0   0
 82   0   0
 83   0   0
 84   0   0
 84   0   0
 84   0   0
 85   0   0
 85   0   0
 85   0   0
 85   0   0
 85   0   0
 85   0   0
 85   0   0
 86   0   0
 86   0   0
 86   0   0
 87   0   0
 87   0   0
 87   0   0
 88   0   0
 88   0   0
 89   0   0
 90   0   0
 90   0   0
 91   0   0
 92   0   0
 93   0   0
 94   0   0
 95   0   0
 97   0   0
 98   0   0
 99   0   0
101   0   0
103   0   0
105   0   0
107   0   0
109   0   0
111   0   0
114   0   0
117   0   0
120   0   0
123   0   0
127   0   0
131   0   0
135   0   0
139   0   0
143   0   0
147   0   0
151   0   0
154   0   0
157   0   0
159   0   0
159   0   0
157   0   0
152   0   0
142   0   0
122   0   0
255 255 255
  0   0 124
  0   0 160
  0   0 186
  0   0 207
  0   0 224
  0   0 238
  0   0 247
  0   0 253
  0   0 255
  0   0 252
  0   0 243
  0   0 229
  0   0 207
  0   0 173
  0   0  97
151   0   0
187   0   0
206   0   0
216   0   0
219   0   0
217   0   0
211   0   0
202   0   0
190   0   0
176   0   0
161   0   0
146   0   0
130   0   0
114   0   0
 99   0   0
 84   0   0
 71   0   0
255 255 255
255 255 255
255 255 255
255 255 255
255 255 255
255 255 255
255 255 255
255 255 255
255 255 255
255 255 255
255 255 255
255 255 255
255 255 255
255 255 255
255 255 255
255 255 255
255 255 255
255 255 255
255 255 255
255 255 255
255 255 255
255 255 255
255 255 255
255 255 255
255 255 255
255 255 255
255 255 255
255 255 255
255 255 255
255 255 255
255 255 255
255 255 255
255 255 255
255 255 255
255 255 255
255 255 255
255 255 255
255 255 255
255 255 255
255 255 255
255 255 255
255 255 255
255 255 255
255 255 255
255 255 255
255 255 255
255 255 255
255 255 255
255 255 255
255 255 255
255 255 255
255 255 255
255 255 255
255 255 255
255 255 255
255 255 255
255 255 255
255 255 255
255 150   0
255 255 255
255 255 255
255 255 255
255 255 255
255 255 255
255 255 255
255 255 255
255 255 255
255 255 255
255 255 255
255 255 255
255 255 255
255 255 255
255 255 255
255 255 255
255 255 255
255 255 255
255 255 255
  0   0   0
  0   0   0
  0   0   0
  0   0   0
 82   0   0
 91   0   0
 98   0   0
103   0   0
107   0   0
110   0   0
113   0   0
115   0   0
116   0   0
118   0   0
118   0   0
119   0   0
118   0   0
118   0   0
117   0   0
115   0   0
113   0   0
255 150   0
107   0   0
103   0   0
100   0   0
 96   0   0
 93   0   0
 90   0   0
 88   0   0
 86   0   0
 85   0   0
 85   0   0
 86   0   0
 86   0   0
 87   0   0
 87   0   0
 88   0   0
 88   0   0
 88   0   0
 88   0   0
 88   0   0
 88   0   0
 89   0   0
 89   0   0
 89   0   0
 89   0   0
 89   0   0
 89   0   0
 90   0   0
 90   0   0
 90   0   0
 91   0   0
 91   0   0
 92   0   0
 92   0   0
 93   0   0
 94   0   0
 95   0   0
 96   0   0
 97   0   0
 98   0   0
 99   0   0
100   0   0
102   0   0
103   0   0
105   0   0
107   0   0
109   0   0
111   0   0
113   0   0
116   0   0
118   0   0
121   0   0
125   0   0
128   0   0
132   0   0
135   0   0
139   0   0
143   0   0
147   0   0
151   0   0
154   0   0
157   0   0
159   0   0
159   0   0
158   0   0
154   0   0
146   0   0
131   0   0
 99   0   0
  0   0 100
  0   0 145
  0   0 174
  0   0 197
  0   0 215
  0   0 230
  0   0 242
  0   0 250
  0   0 254
  0   0 254
  0   0 250
  0   0 240
  0   0 224
  0   0 200
  0   0 162
255 255 255
160   0   0
191   0   0
208   0   0
217   0   0
219   0   0
217   0   0
210   0   0
201   0   0
189   0   0
176   0   0
161   0   0
145   0   0
130   0   0
114   0   0
 99   0   0
 85   0   0
 72   0   0
255 255 255
255 255 255
255 255 255
255 255 255
255 255 255
255 255 255
255 255 255
255 255 255
255 255 255
255 255 255
255 255 255
255 255 255
255 255 255
255 255 255
255 255 255
255 255 255
255 255 255
255 255 255
255 255 255
255 255 255
255 255 255
255 255 255
255 255 255
255 255 255
255 255 255
255 255 255
255 255 255
255 255 255
255 255 255
255 255 255
255 255 255
255 255 255
255 255 255
255 255 255
255 255 255
255 255 255
255 255 255
255 255 255
255 255 255
255 255 255
255 255 255
255 255 255
255 255 255
255 255 255
255 255 255
255 255 255
255 255 255
255 255 255
255 255 255
255 255 255
255 255 255
255 255 255
255 255 255
255 255 255
255 255 255
255 255 255
255 255 255
255 255 255
255 255 255
255 150   0
255 255 255
255 255 255
255 255 255
255 255 255
255 255 255
255 255 255
255 255 255
255 255 255
255 255 255
255 255 255
255 255 255
255 255 255
255 255 255
255 255 255
255 255 255
255 255 255
255 255 255
255 255 255
  0   0   0
  0   0   0
  0   0   0
  0   0   0
 91   0   0
101   0   0
109   0   0
115   0   0
119   0   0
122   0   0
125   0   0
126   0   0
128   0   0
128   0   0
128   0   0
127   0   0
126   0   0
125   0   0
122   0   0
120   0   0
117   0   0
255 150   0
110   0   0
106   0   0
102   0   0
 99   0   0
 96   0   0
 94   0   0
 92   0   0
 91   0   0
 91   0   0
 91   0   0
 91   0   0
 92   0   0
 92   0   0
 92   0   0
 92   0   0
 93   0   0
 93   0   0
 93   0   0
 93   0   0
 93   0   0
 93   0   0
 93   0   0
 93   0   0
 93   0   0
 93   0   0
 93   0   0
 94   0   0
 94   0   0
 94   0   0
 95   0   0
 96   0   0
 96   0   0
 97   0   0
 98   0   0
 98   0   0
 99   0   0
100   0   0
102   0   0
103   0   0
104   0   0
106   0   0
107   0   0
109   0   0
111   0   0
113   0   0
115   0   0
118   0   0
121   0   0
123   0   0
126   0   0
130   0   0
133   0   0
137   0   0
140   0   0
144   0   0
148   0   0
151   0   0
154   0   0
157   0   0
159   0   0
159   0   0
158   0   0
155   0   0
149   0   0
136   0   0
113   0   0
  0   0  68
  0   0 131
  0   0 163
  0   0 187
  0   0 207
  0   0 223
  0   0 236
  0   0 246
  0   0 252
  0   0 255
  0   0 253
  0   0 247
  0   0 236
  0   0 218
  0   0 191
  0   0 147
108   0   0
169   0   0
195   0   0
210   0   0
217   0   0
219   0   0
216   0   0
210   0   0
200   0   0
188   0   0
175   0   0
160   0   0
145   0   0
129   0   0
114   0   0
 99   0   0
 85   0   0
 72   0   0
255 255 255
255 255 255
255 255 255
255 255 255
255 255 255
255 255 255
255 255 255
255 255 255
255 255 255
255 255 255
255 255 255
255 255 255
255 255 255
255 255 255
255 255 255
255 255 255
255 255 255
255 255 255
255 255 255
255 255 255
255 255 255
255 255 255
255 255 255
255 255 255
255 255 255
255 255 255
255 255 255
255 255 255
255 255 255
255 255 255
255 255 255
255 255 255
255 255 255
255 255 255
255 255 255
255 255 255
255 255 255
255 255 255
255 255 255
255 255 255
255 255 255
255 255 255
255 255 255
255 255 255
255 255 255
255 255 255
255 255 255
255 255 255
255 255 255
255 255 255
255 255 255
255 255 255
255 255 255
255 255 255
255 255 255
255 255 255
255 255 255
255 255 255
255 255 255
255 255 255
255 150   0
255 255 255
255 255 255
255 255 255
255 255 255
255 255 255
255 255 255
255 255 255
255 255 255
255 255 255
255 255 255
255 255 255
255 255 255
255 255 255
255 255 255
255 255 255
255 255 255
255 255 255
255 255 255
  0   0   0
  0   0   0
  0   0   0
  0   0   0
 99   0   0
111   0   0
120   0   0
126   0   0
131   0   0
134   0   0
137   0   0
138   0   0
138   0   0
138   0   0
137   0   0
136   0   0
134   0   0
131   0   0
128   0   0
125   0   0
121   0   0
255 150   0
113   0   0
109   0   0
106   0   0
103   0   0
101   0   0
 99   0   0
 98   0   0
 98   0   0
 97   0   0
 97   0   0
 98   0   0
 98   0   0
 98   0   0
 98   0   0
 98   0   0
 98   0   0
 97   0   0
 97   0   0
 97   0   0
 97   0   0
 97   0   0
 97   0   0
 97   0   0
 98   0   0
 98   0   0
 98   0   0
 98   0   0
 99   0   0
 99   0   0
100   0   0
101   0   0
101   0   0
102   0   0
103   0   0
104   0   0
105   0   0
106   0   0
108   0   0
109   0   0
111   0   0
112   0   0
114   0   0
116   0   0
118   0   0
121   0   0
123   0   0
126   0   0
129   0   0
132   0   0
135   0   0
138   0   0
142   0   0
145   0   0
149   0   0
152   0   0
155   0   0
157   0   0
159   0   0
159   0   0
158   0   0
156   0   0
150   0   0
139   0   0
119   0   0
255 255 255
  0   0 119
  0   0 154
  0   0 179
  0   0 200
  0   0 217
  0   0 231
  0   0 242
  0   0 250
  0   0 254
  0   0 255
  0   0 251
  0   0 243
  0   0 230
  0   0 210
  0   0 180
  0   0 126
133   0   0
177   0   0
200   0   0
212   0   0
218   0   0
219   0   0
215   0   0
208   0   0
199   0   0
187   0   0
173   0   0
159   0   0
144   0   0
128   0   0
113   0   0
 99   0   0
 85   0   0
 72   0   0
255 255 255
255 255 255
255 255 255
255 255 255
255 255 255
255 255 255
255 255 255
255 255 255
255 255 255
255 255 255
255 255 255
255 255 255
255 255 255
255 255 255
255 255 255
255 255 255
255 255 255
255 255 255
255 255 255
255 255 255
255 255 255
255 255 255
255 255 255
255 255 255
255 255 255
255 255 255
255 255 255
255 255 255
255 255 255
255 255 255
255 255 255
255 255 255
255 255 255
255 255 255
255 255 255
255 255 255
255 255 255
255 255 255
255 255 255
255 255 255
255 255 255
255 255 255
255 255 255
255 255 255
255 255 255
255 255 255
255 255 255
255 255 255
255 255 255
255 255 255
255 255 255
255 255 255
255 255 255
255 255 255
255 255 255
255 255 255
255 255 255
255 255 255
255 255 255
255 255 255
255 255 255
255 150   0
255 255 255
255 255 255
255 255 255
255 255 255
255 255 255
255 255 255
255 255 255
255 255 255
255 255 255
255 255 255
255 255 255
255 255 255
255 255 255
255 255 255
255 255 255
255 255 255
255 255 255
255 255 255
  0   0   0
  0   0   0
  0   0   0
  0   0   0
105   0   0
118   0   0
128   0   0
135   0   0
141   0   0
144   0   0
147   0   0
148   0   0
148   0   0
148   0   0
146   0   0
144   0   0
141   0   0
138   0   0
134   0   0
130   0   0
126   0   0
255 150   0
118   0   0
115   0   0
112   0   0
110   0   0
108   0   0
107   0   0
106   0   0
105   0   0
105   0   0
105   0   0
104   0   0
104   0   0
104   0   0
104   0   0
103   0   0
103   0   0
103   0   0
103   0   0
103   0   0
103   0   0
103   0   0
103   0   0
103   0   0
103   0   0
103   0   0
103   0   0
104   0   0
104   0   0
105   0   0
106   0   0
106   0   0
107   0   0
108   0   0
109   0   0
110   0   0
112   0   0
113   0   0
114   0   0
116   0   0
118   0   0
120   0   0
122   0   0
124   0   0
127   0   0
129   0   0
132   0   0
135   0   0
138   0   0
141   0   0
144   0   0
147   0   0
150   0   0
153   0   0
156   0   0
158   0   0
159   0   0
159   0   0
158   0   0
155   0   0
150   0   0
140   0   0
122   0   0
 80   0   0
  0   0 110
  0   0 147
  0   0 173
  0   0 194
  0   0 212
  0   0 226
  0   0 238
  0   0 247
  0   0 252
  0   0 255
  0   0 254
  0   0 248
  0   0 238
  0   0 223
  0   0 200
  0   0 165
  0   0  83
151   0   0
185   0   0
204   0   0
214   0   0
219   0   0
218   0   0
214   0   0
207   0   0
197   0   0
185   0   0
172   0   0
157   0   0
142   0   0
127   0   0
112   0   0
 98   0   0
 84   0   0
 72   0   0
255 255 255
255 255 255
255 255 255
255 255 255
255 255 255
255 255 255
255 255 255
255 255 255
255 255 255
255 255 255
255 255 255
255 255 255
255 255 255
255 255 255
255 255 255
255 255 255
255 255 255
255 255 255
255 255 255
255 255 255
255 255 255
255 255 255
255 255 255
255 255 255
255 255 255
255 255 255
255 255 255
255 255 255
255 255 255
255 255 255
255 255 255
255 255 255
255 255 255
255 255 255
255 255 255
255 255 255
255 255 255
255 255 255
255 255 255
255 255 255
255 255 255
255 255 255
255 255 255
255 255 255
255 255 255
255 255 255
255 255 255
255 255 255
255 255 255
255 255 255
255 255 255
255 255 255
255 255 255
255 255 255
255 255 255
255 255 255
255 255 255
255 255 255
255 255 255
255 255 255
255 255 255
255 255 255
255 150   0
255 255 255
255 255 255
255 255 255
255 255 255
255 255 255
255 255 255
255 255 255
255 255 255
255 255 255
255 255 255
255 255 255
255 255 255
255 255 255
255 255 255
255 255 255
255 255 255
255 255 255
255 255 255
  0   0   0
  0   0   0
  0   0   0
  0   0   0
255 150   0
255 150   0
255 150   0
255 150   0
255 150   0
255 150   0
255 150   0
255 150   0
255 150   0
255 150   0
255 150   0
255 150   0
255 150   0
255 150   0
255 150   0
255 150   0
255 150   0
255 150   0
255 150   0
255 150   0
255 150   0
255 150   0
255 150   0
255 150   0
255 150   0
255 150   0
255 150   0
255 150   0
255 150   0
255 150   0
255 150   0
255 150   0
255 150   0
255 150   0
255 150   0
255 150   0
255 150   0
255 150   0
255 150   0
255 150   0
255 150   0
255 150   0
255 150   0
255 150   0
255 150   0
255 150   0
255 150   0
255 150   0
255 150   0
255 150   0
255 150   0
255 150   0
255 150   0
255 150   0
255 150   0
255 150   0
255 150   0
255 150   0
255 150   0
255 150   0
255 150   0
255 150   0
255 150   0
255 150   0
255 150   0
255 150   0
255 150   0
255 150   0
255 150   0
255 150   0
255 150   0
255 150   0
255 150   0
255 150   0
255 150   0
255 150   0
255 150   0
255 150   0
255 150   0
255 150   0
255 150   0
255 150   0
255 150   0
255 150   0
255 150   0
255 150   0
255 150   0
255 150   0
255 150   0
255 150   0
255 150   0
255 150   0
255 150   0
255 150   0
255 150   0
255 150   0
255 150   0
255 150   0
255 150   0
255 150   0
255 150   0
255 150   0
255 150   0
255 150   0
255 150   0
255 150   0
255 150   0
255 150   0
255 150   0
255 150   0
255 150   0
255 150   0
255 150   0
255 150   0
255 150   0
255 150   0
255 150   0
255 150   0
255 150   0
255 150   0
255 150   0
255 150   0
255 150   0
255 150   0
255 150   0
255 150   0
255 150   0
255 150   0
255 150   0
255 150   0
255 150   0
255 150   0
255 150   0
255 150   0
255 150   0
255 150   0
255 150   0
255 150   0
255 150   0
255 150   0
255 150   0
255 150   0
255 150   0
255 150   0
255 150   0
255 150   0
255 150   0
255 150   0
255 150   0
255 150   0
255 150   0
255 150   0
255 150   0
255 150   0
255 150   0
255 150   0
255 150   0
255 150   0
255 150   0
255 150   0
255 150   0
255 150   0
255 150   0
255 150   0
255 150   0
255 150   0
255 150   0
255 150   0
255 150   0
255 150   0
255 150   0
255 150   0
255 150   0
255 150   0
255 150   0
255 150   0
255 150   0
255 150   0
255 150   0
255 150   0
255 150   0
255 150   0
255 150   0
255 150   0
255 150   0
255 150   0
255 150   0
255 150   0
255 150   0
255 150   0
255 150   0
255 150   0
255 150   0
255 150   0
255 150   0
255 150   0
255 150   0
  0   0   0
  0   0   0
  0   0   0
  0   0   0
100   0   0
116   0   0
128   0   0
138   0   0
146   0   0
152   0   0
156   0   0
159   0   0
160   0   0
160   0   0
159   0   0
157   0   0
154   0   0
151   0   0
147   0   0
144   0   0
140   0   0
255 150   0
134   0   0
131   0   0
129   0   0
127   0   0
126   0   0
125   0   0
124   0   0
123   0   0
122   0   0
121   0   0
120   0   0
119   0   0
119   0   0
118   0   0
118   0   0
117   0   0
117   0   0
116   0   0
116   0   0
116   0   0
116   0   0
116   0   0
116   0   0
116   0   0
117   0   0
117   0   0
118   0   0
118   0   0
119   0   0
120   0   0
121   0   0
122   0   0
123   0   0
124   0   0
126   0   0
128   0   0
129   0   0
131   0   0
133   0   0
135   0   0
137   0   0
140   0   0
142   0   0
144   0   0
147   0   0
149   0   0
152   0   0
154   0   0
156   0   0
158   0   0
159   0   0
159   0   0
159   0   0
157   0   0
153   0   0
147   0   0
136   0   0
118   0   0
 75   0   0
  0   0 108
  0   0 143
  0   0 168
  0   0 188
  0   0 205
  0   0 220
  0   0 232
  0   0 241
  0   0 249
  0   0 253
  0   0 255
  0   0 253
  0   0 247
  0   0 238
  0   0 223
  0   0 202
  0   0 171
  0   0 110
139   0   0
178   0   0
199   0   0
211   0   0
217   0   0
219   0   0
216   0   0
211   0   0
203   0   0
192   0   0
180   0   0
167   0   0
153   0   0
138   0   0
123   0   0
109   0   0
 95   0   0
 82   0   0
 70   0   0
255 255 255
255 255 255
255 255 255
255 255 255
255 255 255
255 255 255
255 255 255
255 255 255
255 255 255
255 255 255
255 255 255
255 255 255
255 255 255
255 255 255
255 255 255
255 255 255
255 255 255
255 255 255
255 255 255
255 255 255
255 255 255
255 255 255
255 255 255
255 255 255
255 255 255
255 255 255
255 255 255
255 255 255
255 255 255
255 255 255
255 255 255
255 255 255
255 255 255
255 255 255
255 255 255
255 255 255
255 255 255
255 255 255
255 255 255
255 255 255
255 255 255
255 255 255
255 255 255
255 255 255
255 255 255
255 255 255
255 255 255
255 255 255
255 255 255
255 255 255
255 255 255
255 255 255
255 255 255
255 255 255
255 255 255
255 255 255
255 255 255
255 255 255
255 255 255
255 255 255
255 255 255
255 255 255
255 255 255
255 255 255
255 150   0
255 255 255
255 255 255
255 255 255
255 255 255
255 255 255
255 255 255
255 255 255
255 255 255
255 255 255
255 255 255
255 255 255
255 255 255
255 255 255
255 255 255
255 255 255
255 255 255
255 255 255
255 255 255
  0   0   0
  0   0   0
  0   0   0
  0   0   0
 75   0   0
 94   0   0
110   0   0
123   0   0
134   0   0
143   0   0
149   0   0
154   0   0
157   0   0
159   0   0
159   0   0
159   0   0
157   0   0
155   0   0
153   0   0
150   0   0
147   0   0
255 150   0
143   0   0
140   0   0
139   0   0
137   0   0
136   0   0
134   0   0
133   0   0
132   0   0
131   0   0
130   0   0
129   0   0
128   0   0
127   0   0
126   0   0
126   0   0
125   0   0
125   0   0
124   0   0
124   0   0
124   0   0
124   0   0
124   0   0
124   0   0
124   0   0
125   0   0
125   0   0
126   0   0
126   0   0
127   0   0
128   0   0
129   0   0
130   0   0
132   0   0
133   0   0
135   0   0
136   0   0
138   0   0
140   0   0
142   0   0
144   0   0
146   0   0
148   0   0
150   0   0
152   0   0
154   0   0
156   0   0
157   0   0
158   0   0
159   0   0
158   0   0
157   0   0
154   0   0
150   0   0
142   0   0
131   0   0
110   0   0
255 255 255
  0   0 116
  0   0 146
  0   0 169
  0   0 188
  0   0 204
  0   0 218
  0   0 230
  0   0 240
  0   0 247
  0   0 252
  0   0 254
  0   0 253
  0   0 249
  0   0 241
  0   0 229
  0   0 212
  0   0 186
  0   0 146
 94   0   0
160   0   0
188   0   0
204   0   0
214   0   0
218   0   0
218   0   0
215   0   0
208   0   0
200   0   0
189   0   0
177   0   0
163   0   0
149   0   0
135   0   0
121   0   0
107   0   0
 93   0   0
 80   0   0
 69   0   0
255 255 255
255 255 255
255 255 255
255 255 255
255 255 255
255 255 255
255 255 255
255 255 255
255 255 255
255 255 255
255 255 255
255 255 255
255 255 255
255 255 255
255 255 255
255 255 255
255 255 255
255 255 255
255 255 255
255 255 255
255 255 255
255 255 255
255 255 255
255 255 255
255 255 255
255 255 255
255 255 255
255 255 255
255 255 255
255 255 255
255 255 255
255 255 255
255 255 255
255 255 255
255 255 255
255 255 255
255 255 255
255 255 255
255 255 255
255 255 255
255 255 255
255 255 255
255 255 255
255 255 255
255 255 255
255 255 255
255 255 255
255 255 255
255 255 255
255 255 255
255 255 255
255 255 255
255 255 255
255 255 255
255 255 255
255 255 255
255 255 255
255 255 255
255 255 255
255 255 255
255 255 255
255 255 255
255 255 255
255 255 255
255 255 255
255 150   0
255 255 255
255 255 255
255 255 255
255 255 255
255 255 255
255 255 255
255 255 255
255 255 255
255 255 255
255 255 255
255 255 255
255 255 255
255 255 255
255 255 255
255 255 255
255 255 255
255 255 255
255 255 255
  0   0   0
  0   0   0
  0   0   0
  0   0   0
  0   0  89
  0   0  89
  0   0  76
255 255 255
 90   0   0
111   0   0
125   0   0
136   0   0
143   0   0
149   0   0
152   0   0
154   0   0
155   0   0
155   0   0
155   0   0
154   0   0
152   0   0
255 150   0
150   0   0
148   0   0
147   0   0
146   0   0
144   0   0
143   0   0
142   0   0
141   0   0
140   0   0
138   0   0
137   0   0
136   0   0
136   0   0
135   0   0
134   0   0
133   0   0
133   0   0
133   0   0
132   0   0
132   0   0
132   0   0
132   0   0
132   0   0
133   0   0
133   0   0
133   0   0
134   0   0
135   0   0
136   0   0
137   0   0
138   0   0
139   0   0
140   0   0
141   0   0
143   0   0
144   0   0
146   0   0
148   0   0
149   0   0
151   0   0
153   0   0
154   0   0
155   0   0
156   0   0
157   0   0
157   0   0
157   0   0
156   0   0
154   0   0
150   0   0
144   0   0
135   0   0
120   0   0
 91   0   0
  0   0  86
  0   0 127
  0   0 153
  0   0 173
  0   0 190
  0   0 205
  0   0 218
  0   0 229
  0   0 238
  0   0 245
  0   0 250
  0   0 253
  0   0 253
  0   0 249
  0   0 243
  0   0 232
  0   0 217
  0   0 196
  0   0 165
  0   0 101
139   0   0
176   0   0
197   0   0
209   0   0
215   0   0
218   0   0
216   0   0
212   0   0
205   0   0
196   0   0
185   0   0
173   0   0
159   0   0
146   0   0
131   0   0
117   0   0
104   0   0
 91   0   0
 78   0   0
 67   0   0
255 255 255
255 255 255
255 255 255
255 255 255
255 255 255
255 255 255
255 255 255
255 255 255
255 255 255
255 255 255
255 255 255
255 255 255
255 255 255
255 255 255
255 255 255
255 255 255
255 255 255
255 255 255
255 255 255
255 255 255
255 255 255
255 255 255
255 255 255
255 255 255
255 255 255
255 255 255
255 255 255
255 255 255
255 255 255
255 255 255
255 255 255
255 255 255
255 255 255
255 255 255
255 255 255
255 255 255
255 255 255
255 255 255
255 255 255
255 255 255
255 255 255
255 255 255
255 255 255
255 255 255
255 255 255
255 255 255
255 255 255
255 255 255
255 255 255
255 255 255
255 255 255
255 255 255
255 255 255
255 255 255
255 255 255
255 255 255
255 255 255
255 255 255
255 255 255
255 255 255
255 255 255
255 255 255
255 255 255
255 255 255
255 255 255
255 255 255
255 150   0
255 255 255
255 255 255
255 255 255
255 255 255
255 255 255
255 255 255
255 255 255
255 255 255
255 255 255
255 255 255
255 255 255
255 255 255
255 255 255
255 255 255
255 255 255
255 255 255
255 255 255
255 255 255
  0   0   0
  0   0   0
  0   0   0
  0   0   0
  0   0 124
  0   0 134
  0   0 137
  0   0 135
  0   0 128
  0   0 115
  0   0  93
255 255 255
 98   0   0
117   0   0
130   0   0
138   0   0
144   0   0
147   0   0
150   0   0
152   0   0
152   0   0
255 150   0
153   0   0
153   0   0
152   0   0
151   0   0
151   0   0
150   0   0
149   0   0
148   0   0
147   0   0
146   0   0
145   0   0
144   0   0
143   0   0
142   0   0
142   0   0
141   0   0
141   0   0
140   0   0
140   0   0
140   0   0
140   0   0
140   0   0
140   0   0
140   0   0
141   0   0
141   0   0
142   0   0
142   0   0
143   0   0
144   0   0
145   0   0
146   0   0
147   0   0
148   0   0
149   0   0
151   0   0
152   0   0
153   0   0
154   0   0
155   0   0
155   0   0
156   0   0
156   0   0
155   0   0
154   0   0
151   0   0
148   0   0
142   0   0
134   0   0
122   0   0
100   0   0
255 255 255
  0   0 113
  0   0 140
  0   0 161
  0   0 178
  0   0 194
  0   0 207
  0   0 219
  0   0 229
  0   0 237
  0   0 244
  0   0 249
  0   0 251
  0   0 251
  0   0 248
  0   0 243
  0   0 233
  0   0 220
  0   0 202
  0   0 175
  0   0 130
113   0   0
163   0   0
188   0   0
203   0   0
212   0   0
216   0   0
216   0   0
214   0   0
208   0   0
201   0   0
191   0   0
180   0   0
168   0   0
154   0   0
141   0   0
127   0   0
114   0   0
100   0   0
 88   0   0
 76   0   0
 65   0   0
255 255 255
255 255 255
255 255 255
255 255 255
255 255 255
255 255 255
255 255 255
255 255 255
255 255 255
255 255 255
255 255 255
255 255 255
255 255 255
255 255 255
255 255 255
255 255 255
255 255 255
255 255 255
255 255 255
255 255 255
255 255 255
255 255 255
255 255 255
255 255 255
255 255 255
255 255 255
255 255 255
255 255 255
255 255 255
255 255 255
255 255 255
255 255 255
255 255 255
255 255 255
255 255 255
255 255 255
255 255 255
255 255 255
255 255 255
255 255 255
255 255 255
255 255 255
255 255 255
255 255 255
255 255 255
255 255 255
255 255 255
255 255 255
255 255 255
255 255 255
255 255 255
255 255 255
255 255 255
255 255 255
255 255 255
255 255 255
255 255 255
255 255 255
255 255 255
255 255 255
255 255 255
255 255 255
255 255 255
255 255 255
255 255 255
255 255 255
255 255 255
255 150   0
255 255 255
255 255 255
255 255 255
255 255 255
255 255 255
255 255 255
255 255 255
255 255 255
255 255 255
255 255 255
255 255 255
255 255 255
255 255 255
255 255 255
255 255 255
255 255 255
255 255 255
255 255 255
  0   0   0
  0   0   0
  0   0   0
  0   0   0
  0   0 145
  0   0 160
  0   0 167
  0   0 171
  0   0 170
  0   0 166
  0   0 158
  0   0 147
  0   0 133
  0   0 113
  0   0  81
 78   0   0
107   0   0
122   0   0
132   0   0
138   0   0
143   0   0
255 150   0
149   0   0
150   0   0
151   0   0
152   0   0
152   0   0
152   0   0
152   0   0
151   0   0
151   0   0
150   0   0
150   0   0
149   0   0
148   0   0
148   0   0
147   0   0
147   0   0
147   0   0
146   0   0
146   0   0
146   0   0
146   0   0
146   0   0
146   0   0
146   0   0
147   0   0
147   0   0
147   0   0
148   0   0
148   0   0
149   0   0
150   0   0
150   0   0
151   0   0
152   0   0
152   0   0
153   0   0
153   0   0
153   0   0
153   0   0
152   0   0
151   0   0
149   0   0
146   0   0
142   0   0
137   0   0
129   0   0
116   0   0
 95   0   0
255 255 255
  0   0 109
  0   0 134
  0   0 154
  0   0 171
  0   0 185
  0   0 198
  0   0 210
  0   0 220
  0   0 229
  0   0 237
  0   0 242
  0   0 246
  0   0 248
  0   0 248
  0   0 246
  0   0 240
  0   0 232
  0   0 220
  0   0 203
  0   0 180
  0   0 143
 77   0   0
151   0   0
179   0   0
196   0   0
207   0   0
213   0   0
215   0   0
214   0   0
210   0   0
203   0   0
195   0   0
185   0   0
174   0   0
162   0   0
149   0   0
136   0   0
122   0   0
109   0   0
 96   0   0
 84   0   0
 73   0   0
255 255 255
255 255 255
255 255 255
255 255 255
255 255 255
255 255 255
255 255 255
255 255 255
255 255 255
255 255 255
255 255 255
255 255 255
255 255 255
255 255 255
255 255 255
255 255 255
255 255 255
255 255 255
255 255 255
255 255 255
255 255 255
255 255 255
255 255 255
255 255 255
255 255 255
255 255 255
255 255 255
255 255 255
255 255 255
255 255 255
255 255 255
255 255 255
255 255 255
255 255 255
255 255 255
255 255 255
255 255 255
255 255 255
255 255 255
255 255 255
255 255 255
255 255 255
255 255 255
255 255 255
255 255 255
255 255 255
255 255 255
255 255 255
255 255 255
255 255 255
255 255 255
255 255 255
255 255 255
255 255 255
255 255 255
255 255 255
255 255 255
255 255 255
255 255 255
255 255 255
255 255 255
255 255 255
255 255 255
255 255 255
255 255 255
255 255 255
255 255 255
255 255 255
255 255 255
255 150   0
255 255 255
255 255 255
255 255 255
255 255 255
255 255 255
255 255 255
255 255 255
255 255 255
255 255 255
255 255 255
255 255 255
255 255 255
255 255 255
255 255 255
255 255 255
255 255 255
255 255 255
255 255 255
  0   0   0
  0   0   0
  0   0   0
  0   0   0
  0   0 157
  0   0 174
  0   0 185
  0   0 192
  0   0 195
  0   0 194
  0   0 191
  0   0 185
  0   0 177
  0   0 167
  0   0 155
  0   0 140
  0   0 122
  0   0  97
255 255 255
 93   0   0
112   0   0
255 150   0
131   0   0
136   0   0
140   0   0
143   0   0
145   0   0
147   0   0
148   0   0
149   0   0
149   0   0
149   0   0
149   0   0
149   0   0
149   0   0
149   0   0
149   0   0
149   0   0
148   0   0
148   0   0
148   0   0
148   0   0
148   0   0
148   0   0
148   0   0
148   0   0
148   0   0
149   0   0
149   0   0
149   0   0
149   0   0
149   0   0
149   0   0
149   0   0
149   0   0
149   0   0
148   0   0
147   0   0
146   0   0
144   0   0
141   0   0
138   0   0
133   0   0
126   0   0
117   0   0
102   0   0
 71   0   0
  0   0  84
  0   0 115
  0   0 135
  0   0 152
  0   0 167
  0   0 180
  0   0 192
  0   0 203
  0   0 213
  0   0 222
  0   0 229
  0   0 235
  0   0 240
  0   0 243
  0   0 245
  0   0 244
  0   0 242
  0   0 236
  0   0 228
  0   0 217
  0   0 201
  0   0 180
  0   0 147
255 255 255
140   0   0
171   0   0
190   0   0
202   0   0
209   0   0
212   0   0
212   0   0
209   0   0
204   0   0
197   0   0
188   0   0
178   0   0
167   0   0
155   0   0
142   0   0
129   0   0
116   0   0
104   0   0
 92   0   0
 80   0   0
 69   0   0
255 255 255
255 255 255
255 255 255
255 255 255
255 255 255
255 255 255
255 255 255
255 255 255
255 255 255
255 255 255
255 255 255
255 255 255
255 255 255
255 255 255
255 255 255
255 255 255
255 255 255
255 255 255
255 255 255
255 255 255
255 255 255
255 255 255
255 255 255
255 255 255
255 255 255
255 255 255
255 255 255
255 255 255
255 255 255
255 255 255
255 255 255
255 255 255
255 255 255
255 255 255
255 255 255
255 255 255
255 255 255
255 255 255
255 255 255
255 255 255
255 255 255
255 255 255
255 255 255
255 255 255
255 255 255
255 255 255
255 255 255
255 255 255
255 255 255
255 255 255
255 255 255
255 255 255
255 255 255
255 255 255
255 255 255
255 255 255
255 255 255
255 255 255
255 255 255
255 255 255
255 255 255
255 255 255
255 255 255
255 255 255
255 255 255
255 255 255
255 255 255
255 255 255
255 255 255
255 255 255
255 150   0
255 255 255
255 255 255
255 255 255
255 255 255
255 255 255
255 255 255
255 255 255
255 255 255
255 255 255
255 255 255
255 255 255
255 255 255
255 255 255
255 255 255
255 255 255
255 255 255
255 255 255
255 255 255
  0   0   0
  0   0   0
  0   0   0
  0   0   0
  0   0 160
  0   0 179
  0   0 193
  0   0 202
  0   0 207
  0   0 210
  0   0 210
  0   0 208
  0   0 203
  0   0 197
  0   0 189
  0   0 180
  0   0 170
  0   0 158
  0   0 145
  0   0 130
  0   0 113
255 150   0
255 255 255
 87   0   0
104   0   0
115   0   0
122   0   0
127   0   0
131   0   0
134   0   0
137   0   0
138   0   0
140   0   0
141   0   0
142   0   0
142   0   0
143   0   0
143   0   0
143   0   0
144   0   0
144   0   0
144   0   0
144   0   0
144   0   0
144   0   0
144   0   0
143   0   0
143   0   0
143   0   0
142   0   0
142   0   0
141   0   0
140   0   0
138   0   0
137   0   0
134   0   0
131   0   0
128   0   0
122   0   0
116   0   0
106   0   0
 90   0   0
255 255 255
  0   0  83
  0   0 109
  0   0 127
  0   0 142
  0   0 155
  0   0 167
  0   0 179
  0   0 189
  0   0 199
  0   0 207
  0   0 215
  0   0 222
  0   0 228
  0   0 233
  0   0 237
  0   0 239
  0   0 240
  0   0 239
  0   0 236
  0   0 230
  0   0 222
  0   0 211
  0   0 196
  0   0 176
  0   0 146
  0   0  76
133   0   0
165   0   0
184   0   0
196   0   0
204   0   0
208   0   0
209   0   0
207   0   0
203   0   0
197   0   0
190   0   0
180   0   0
170   0   0
159   0   0
147   0   0
135   0   0
122   0   0
110   0   0
 98   0   0
 86   0   0
 75   0   0
 65   0   0
255 255 255
255 255 255
255 255 255
255 255 255
255 255 255
255 255 255
255 255 255
255 255 255
255 255 255
255 255 255
255 255 255
255 255 255
255 255 255
255 255 255
255 255 255
255 255 255
255 255 255
255 255 255
255 255 255
255 255 255
255 255 255
255 255 255
255 255 255
255 255 255
255 255 255
255 255 255
255 255 255
255 255 255
255 255 255
255 255 255
255 255 255
255 255 255
255 255 255
255 255 255
255 255 255
255 255 255
255 255 255
255 255 255
255 255 255
255 255 255
255 255 255
255 255 255
255 255 255
255 255 255
255 255 255
255 255 255
255 255 255
255 255 255
255 255 255
255 255 255
255 255 255
255 255 255
255 255 255
255 255 255
255 255 255
255 255 255
255 255 255
255 255 255
255 255 255
255 255 255
255 255 255
255 255 255
255 255 255
255 255 255
255 255 255
255 255 255
255 255 255
255 255 255
255 255 255
255 255 255
255 255 255
255 150   0
255 255 255
255 255 255
255 255 255
255 255 255
255 255 255
255 255 255
255 255 255
255 255 255
255 255 255
255 255 255
255 255 255
255 255 255
255 255 255
255 255 255
255 255 255
255 255 255
255 255 255
255 255 255
  0   0   0
  0   0   0
  0   0   0
  0   0   0
  0   0 155
  0   0 175
  0   0 190
  0   0 201
  0   0 209
  0   0 214
  0   0 217
  0   0 218
  0   0 217
  0   0 214
  0   0 209
  0   0 204
  0   0 197
  0   0 189
  0   0 181
  0   0 172
  0   0 163
255 150   0
  0   0 142
  0   0 130
  0   0 118
  0   0 103
  0   0  85
255 255 255
 70   0   0
 88   0   0
 98   0   0
106   0   0
111   0   0
115   0   0
118   0   0
121   0   0
123   0   0
124   0   0
125   0   0
126   0   0
127   0   0
127   0   0
127   0   0
127   0   0
127   0   0
126   0   0
125   0   0
124   0   0
123   0   0
121   0   0
118   0   0
115   0   0
111   0   0
106   0   0
 98   0   0
 88   0   0
 70   0   0
255 255 255
  0   0  84
  0   0 103
  0   0 117
  0   0 130
  0   0 141
  0   0 152
  0   0 162
  0   0 171
  0   0 180
  0   0 188
  0   0 196
  0   0 204
  0   0 210
  0   0 216
  0   0 222
  0   0 226
  0   0 230
  0   0 232
  0   0 233
  0   0 233
  0   0 231
  0   0 228
  0   0 222
  0   0 214
  0   0 203
  0   0 188
  0   0 168
  0   0 138
255 255 255
130   0   0
160   0   0
179   0   0
191   0   0
199   0   0
203   0   0
204   0   0
204   0   0
200   0   0
195   0   0
189   0   0
180   0   0
171   0   0
161   0   0
150   0   0
138   0   0
126   0   0
114   0   0
103   0   0
 91   0   0
 81   0   0
 70   0   0
255 255 255
255 255 255
255 255 255
255 255 255
255 255 255
255 255 255
255 255 255
255 255 255
255 255 255
255 255 255
255 255 255
255 255 255
255 255 255
255 255 255
255 255 255
255 255 255
255 255 255
255 255 255
255 255 255
255 255 255
255 255 255
255 255 255
255 255 255
255 255 255
255 255 255
255 255 255
255 255 255
255 255 255
255 255 255
255 255 255
255 255 255
255 255 255
255 255 255
255 255 255
255 255 255
255 255 255
255 255 255
255 255 255
255 255 255
255 255 255
255 255 255
255 255 255
255 255 255
255 255 255
255 255 255
255 255 255
255 255 255
255 255 255
255 255 255
255 255 255
255 255 255
255 255 255
255 255 255
255 255 255
255 255 255
255 255 255
255 255 255
255 255 255
255 255 255
255 255 255
255 255 255
255 255 255
255 255 255
255 255 255
255 255 255
255 255 255
255 255 255
255 255 255
255 255 255
255 255 255
255 255 255
255 255 255
255 255 255
255 150   0
255 255 255
255 255 255
255 255 255
255 255 255
255 255 255
255 255 255
255 255 255
255 255 255
255 255 255
255 255 255
255 255 255
255 255 255
255 255 255
255 255 255
255 255 255
255 255 255
255 255 255
255 255 255
  0   0   0
  0   0   0
  0   0   0
  0   0   0
  0   0 140
  0   0 160
  0   0 176
  0   0 189
  0   0 199
  0   0 207
  0   0 213
  0   0 217
  0   0 219
  0   0 219
  0   0 217
  0   0 215
  0   0 211
  0   0 206
  0   0 201
  0   0 195
  0   0 189
255 150   0
  0   0 176
  0   0 169
  0   0 162
  0   0 155
  0   0 147
  0   0 140
  0   0 133
  0   0 125
  0   0 117
  0   0 109
  0   0 100
  0   0  92
  0   0  82
  0   0  71
255 255 255
255 255 255
255 255 255
255 255 255
 65   0   0
 68   0   0
 68   0   0
 68   0   0
 65   0   0
255 255 255
255 255 255
255 255 255
255 255 255
  0   0  71
  0   0  82
  0   0  92
  0   0 100
  0   0 109
  0   0 117
  0   0 125
  0   0 133
  0   0 140
  0   0 147
  0   0 155
  0   0 162
  0   0 169
  0   0 176
  0   0 182
  0   0 189
  0   0 195
  0   0 201
  0   0 206
  0   0 211
  0   0 215
  0   0 219
  0   0 222
  0   0 224
  0   0 225
  0   0 225
  0   0 224
  0   0 221
  0   0 217
  0   0 211
  0   0 202
  0   0 191
  0   0 176
  0   0 155
  0   0 124
 69   0   0
132   0   0
158   0   0
174   0   0
185   0   0
193   0   0
197   0   0
199   0   0
198   0   0
196   0   0
192   0   0
186   0   0
178   0   0
170   0   0
160   0   0
150   0   0
139   0   0
128   0   0
117   0   0
106   0   0
 95   0   0
 84   0   0
 74   0   0
 65   0   0
255 255 255
255 255 255
255 255 255
255 255 255
255 255 255
255 255 255
255 255 255
255 255 255
255 255 255
255 255 255
255 255 255
255 255 255
255 255 255
255 255 255
255 255 255
255 255 255
255 255 255
255 255 255
255 255 255
255 255 255
255 255 255
255 255 255
255 255 255
255 255 255
255 255 255
255 255 255
255 255 255
255 255 255
255 255 255
255 255 255
255 255 255
255 255 255
255 255 255
255 255 255
255 255 255
255 255 255
255 255 255
255 255 255
255 255 255
255 255 255
255 255 255
255 255 255
255 255 255
255 255 255
255 255 255
255 255 255
255 255 255
255 255 255
255 255 255
255 255 255
255 255 255
255 255 255
255 255 255
255 255 255
255 255 255
255 255 255
255 255 255
255 255 255
255 255 255
255 255 255
255 255 255
255 255 255
255 255 255
255 255 255
255 255 255
255 255 255
255 255 255
255 255 255
255 255 255
255 255 255
255 255 255
255 255 255
255 255 255
255 255 255
255 150   0
255 255 255
255 255 255
255 255 255
255 255 255
255 255 255
255 255 255
255 255 255
255 255 255
255 255 255
255 255 255
255 255 255
255 255 255
255 255 255
255 255 255
255 255 255
255 255 255
255 255 255
255 255 255
  0   0   0
  0   0   0
  0   0   0
  0   0   0
  0   0 113
  0   0 133
  0   0 150
  0   0 165
  0   0 178
  0   0 188
  0   0 197
  0   0 204
  0   0 209
  0   0 212
  0   0 214
  0   0 214
  0   0 213
  0   0 211
  0   0 209
  0   0 206
  0   0 202
255 150   0
  0   0 194
  0   0 189
  0   0 185
  0   0 180
  0   0 175
  0   0 171
  0   0 166
  0   0 161
  0   0 157
  0   0 153
  0   0 149
  0   0 145
  0   0 141
  0   0 138
  0   0 135
  0   0 132
  0   0 130
  0   0 128
  0   0 127
  0   0 126
  0   0 126
  0   0 126
  0   0 127
  0   0 128
  0   0 130
  0   0 132
  0   0 135
  0   0 138
  0   0 141
  0   0 145
  0   0 149
  0   0 153
  0   0 157
  0   0 161
  0   0 166
  0   0 171
  0   0 175
  0   0 180
  0   0 185
  0   0 189
  0   0 194
  0   0 198
  0   0 202
  0   0 205
  0   0 209
  0   0 211
  0   0 214
  0   0 215
  0   0 216
  0   0 216
  0   0 215
  0   0 212
  0   0 209
  0   0 203
  0   0 196
  0   0 187
  0   0 175
  0   0 160
  0   0 137
  0   0  99
 98   0   0
136   0   0
156   0   0
170   0   0
180   0   0
186   0   0
190   0   0
192   0   0
192   0   0
190   0   0
186   0   0
181   0   0
174   0   0
166   0   0
158   0   0
149   0   0
139   0   0
128   0   0
118   0   0
107   0   0
 97   0   0
 87   0   0
 77   0   0
 68   0   0
255 255 255
255 255 255
255 255 255
255 255 255
255 255 255
255 255 255
255 255 255
255 255 255
255 255 255
255 255 255
255 255 255
255 255 255
255 255 255
255 255 255
255 255 255
255 255 255
255 255 255
255 255 255
255 255 255
255 255 255
255 255 255
255 255 255
255 255 255
255 255 255
255 255 255
255 255 255
255 255 255
255 255 255
255 255 255
255 255 255
255 255 255
255 255 255
255 255 255
255 255 255
255 255 255
255 255 255
255 255 255
255 255 255
255 255 255
255 255 255
255 255 255
255 255 255
255 255 255
255 255 255
255 255 255
255 255 255
255 255 255
255 255 255
255 255 255
255 255 255
255 255 255
255 255 255
255 255 255
255 255 255
255 255 255
255 255 255
255 255 255
255 255 255
255 255 255
255 255 255
255 255 255
255 255 255
255 255 255
255 255 255
255 255 255
255 255 255
255 255 255
255 255 255
255 255 255
255 255 255
255 255 255
255 255 255
255 255 255
255 255 255
255 255 255
255 255 255
255 150   0
255 255 255
255 255 255
255 255 255
255 255 255
255 255 255
255 255 255
255 255 255
255 255 255
255 255 255
255 255 255
255 255 255
255 255 255
255 255 255
255 255 255
255 255 255
255 255 255
255 255 255
255 255 255
  0   0   0
  0   0   0
  0   0   0
  0   0   0
255 255 255
  0   0  81
  0   0 105
  0   0 124
  0   0 142
  0   0 156
  0   0 168
  0   0 179
  0   0 187
  0   0 193
  0   0 198
  0   0 201
  0   0 203
  0   0 204
  0   0 204
  0   0 204
  0   0 203
255 150   0
  0   0 199
  0   0 196
  0   0 194
  0   0 191
  0   0 188
  0   0 185
  0   0 182
  0   0 179
  0   0 176
  0   0 174
  0   0 171
  0   0 169
  0   0 166
  0   0 164
  0   0 162
  0   0 161
  0   0 159
  0   0 158
  0   0 157
  0   0 157
  0   0 157
  0   0 157
  0   0 157
  0   0 158
  0   0 159
  0   0 161
  0   0 162
  0   0 164
  0   0 166
  0   0 169
  0   0 171
  0   0 174
  0   0 176
  0   0 179
  0   0 182
  0   0 185
  0   0 188
  0   0 191
  0   0 194
  0   0 196
  0   0 199
  0   0 201
  0   0 202
  0   0 204
  0   0 204
  0   0 205
  0   0 204
  0   0 203
  0   0 200
  0   0 197
  0   0 193
  0   0 187
  0   0 179
  0   0 169
  0   0 156
  0   0 138
  0   0 111
255 255 255
115   0   0
139   0   0
155   0   0
166   0   0
174   0   0
179   0   0
183   0   0
184   0   0
184   0   0
182   0   0
178   0   0
174   0   0
168   0   0
161   0   0
153   0   0
145   0   0
136   0   0
126   0   0
116   0   0
107   0   0
 97   0   0
 87   0   0
 78   0   0
 69   0   0
255 255 255
255 255 255
255 255 255
255 255 255
255 255 255
255 255 255
255 255 255
255 255 255
255 255 255
255 255 255
255 255 255
255 255 255
255 255 255
255 255 255
255 255 255
255 255 255
255 255 255
255 255 255
255 255 255
255 255 255
255 255 255
255 255 255
255 255 255
255 255 255
255 255 255
255 255 255
255 255 255
255 255 255
255 255 255
255 255 255
255 255 255
255 255 255
255 255 255
255 255 255
255 255 255
255 255 255
255 255 255
255 255 255
255 255 255
255 255 255
255 255 255
255 255 255
255 255 255
255 255 255
255 255 255
255 255 255
255 255 255
255 255 255
255 255 255
255 255 255
255 255 255
255 255 255
255 255 255
255 255 255
255 255 255
255 255 255
255 255 255
255 255 255
255 255 255
255 255 255
255 255 255
255 255 255
255 255 255
255 255 255
255 255 255
255 255 255
255 255 255
255 255 255
255 255 255
255 255 255
255 255 255
255 255 255
255 255 255
255 255 255
255 255 255
255 255 255
255 255 255
255 255 255
255 150   0
255 255 255
255 255 255
255 255 255
255 255 255
255 255 255
255 255 255
255 255 255
255 255 255
255 255 255
255 255 255
255 255 255
255 255 255
255 255 255
255 255 255
255 255 255
255 255 255
255 255 255
255 255 255
  0   0   0
  0   0   0
  0   0   0
  0   0   0
 94   0   0
 98   0   0
 94   0   0
 78   0   0
255 255 255
  0   0 100
  0   0 122
  0   0 139
  0   0 152
  0   0 162
  0   0 170
  0   0 177
  0   0 182
  0   0 186
  0   0 188
  0   0 190
  0   0 191
255 150   0
  0   0 192
  0   0 191
  0   0 191
  0   0 190
  0   0 189
  0   0 187
  0   0 186
  0   0 184
  0   0 183
  0   0 181
  0   0 179
  0   0 178
  0   0 176
  0   0 175
  0   0 174
  0   0 173
  0   0 172
  0   0 171
  0   0 171
  0   0 171
  0   0 171
  0   0 171
  0   0 171
  0   0 171
  0   0 172
  0   0 173
  0   0 174
  0   0 175
  0   0 176
  0   0 178
  0   0 179
  0   0 181
  0   0 183
  0   0 184
  0   0 186
  0   0 187
  0   0 189
  0   0 190
  0   0 191
  0   0 191
  0   0 192
  0   0 192
  0   0 191
  0   0 190
  0   0 189
  0   0 186
  0   0 183
  0   0 179
  0   0 173
  0   0 166
  0   0 157
  0   0 146
  0   0 130
  0   0 108
255 255 255
100   0   0
125   0   0
141   0   0
153   0   0
161   0   0
167   0   0
171   0   0
174   0   0
175   0   0
174   0   0
172   0   0
169   0   0
165   0   0
159   0   0
153   0   0
146   0   0
139   0   0
131   0   0
122   0   0
113   0   0
104   0   0
 95   0   0
 86   0   0
 77   0   0
 69   0   0
255 255 255
255 255 255
255 255 255
255 255 255
255 255 255
255 255 255
255 255 255
255 255 255
255 255 255
255 255 255
255 255 255
255 255 255
255 255 255
255 255 255
255 255 255
255 255 255
255 255 255
255 255 255
255 255 255
255 255 255
255 255 255
255 255 255
255 255 255
255 255 255
255 255 255
255 255 255
255 255 255
255 255 255
255 255 255
255 255 255
255 255 255
255 255 255
255 255 255
255 255 255
255 255 255
255 255 255
255 255 255
255 255 255
255 255 255
255 255 255
255 255 255
255 255 255
255 255 255
255 255 255
255 255 255
255 255 255
255 255 255
255 255 255
255 255 255
255 255 255
255 255 255
255 255 255
255 255 255
255 255 255
255 255 255
255 255 255
255 255 255
255 255 255
255 255 255
255 255 255
255 255 255
255 255 255
255 255 255
255 255 255
255 255 255
255 255 255
255 255 255
255 255 255
255 255 255
255 255 255
255 255 255
255 255 255
255 255 255
255 255 255
255 255 255
255 255 255
255 255 255
255 255 255
255 255 255
255 255 255
255 150   0
255 255 255
255 255 255
255 255 255
255 255 255
255 255 255
255 255 255
255 255 255
255 255 255
255 255 255
255 255 255
255 255 255
255 255 255
255 255 255
255 255 255
255 255 255
255 255 255
255 255 255
255 255 255
  0   0   0
  0   0   0
  0   0   0
  0   0   0
105   0   0
115   0   0
120   0   0
120   0   0
116   0   0
108   0   0
 92   0   0
255 255 255
  0   0  89
  0   0 112
  0   0 128
  0   0 139
  0   0 148
  0   0 155
  0   0 161
  0   0 165
  0   0 169
255 150   0
  0   0 174
  0   0 175
  0   0 176
  0   0 177
  0   0 177
  0   0 178
  0   0 177
  0   0 177
  0   0 177
  0   0 176
  0   0 176
  0   0 175
  0   0 175
  0   0 174
  0   0 173
  0   0 173
  0   0 172
  0   0 172
  0   0 172
  0   0 172
  0   0 172
  0   0 172
  0   0 172
  0   0 172
  0   0 172
  0   0 173
  0   0 173
  0   0 174
  0   0 175
  0   0 175
  0   0 176
  0   0 176
  0   0 177
  0   0 177
  0   0 177
  0   0 178
  0   0 177
  0   0 177
  0   0 176
  0   0 175
  0   0 174
  0   0 172
  0   0 169
  0   0 165
  0   0 161
  0   0 156
  0   0 149
  0   0 141
  0   0 130
  0   0 116
  0   0  94
255 255 255
 95   0   0
116   0   0
130   0   0
141   0   0
149   0   0
155   0   0
159   0   0
162   0   0
163   0   0
164   0   0
163   0   0
161   0   0
158   0   0
154   0   0
149   0   0
144   0   0
138   0   0
131   0   0
123   0   0
116   0   0
108   0   0
100   0   0
 91   0   0
 83   0   0
 75   0   0
 68   0   0
255 255 255
255 255 255
255 255 255
255 255 255
255 255 255
255 255 255
255 255 255
255 255 255
255 255 255
255 255 255
255 255 255
255 255 255
255 255 255
255 255 255
255 255 255
255 255 255
255 255 255
255 255 255
255 255 255
255 255 255
255 255 255
255 255 255
255 255 255
255 255 255
255 255 255
255 255 255
255 255 255
255 255 255
255 255 255
255 255 255
255 255 255
255 255 255
255 255 255
255 255 255
255 255 255
255 255 255
255 255 255
255 255 255
255 255 255
255 255 255
255 255 255
255 255 255
255 255 255
255 255 255
255 255 255
255 255 255
255 255 255
255 255 255
255 255 255
255 255 255
255 255 255
255 255 255
255 255 255
255 255 255
255 255 255
255 255 255
255 255 255
255 255 255
255 255 255
255 255 255
255 255 255
255 255 255
255 255 255
255 255 255
255 255 255
255 255 255
255 255 255
255 255 255
255 255 255
255 255 255
255 255 255
255 255 255
255 255 255
255 255 255
255 255 255
255 255 255
255 255 255
255 255 255
255 255 255
255 255 255
255 255 255
255 255 255
255 150   0
255 255 255
255 255 255
255 255 255
255 255 255
255 255 255
255 255 255
255 255 255
255 255 255
255 255 255
255 255 255
255 255 255
255 255 255
255 255 255
255 255 255
255 255 255
255 255 255
255 255 255
255 255 255
  0   0   0
  0   0   0
  0   0   0
  0   0   0
104   0   0
115   0   0
122   0   0
127   0   0
128   0   0
128   0   0
124   0   0
118   0   0
110   0   0
 96   0   0
 73   0   0
255 255 255
  0   0  92
  0   0 108
  0   0 119
  0   0 128
  0   0 134
255 150   0
  0   0 144
  0   0 148
  0   0 151
  0   0 154
  0   0 156
  0   0 157
  0   0 158
  0   0 159
  0   0 160
  0   0 161
  0   0 161
  0   0 161
  0   0 162
  0   0 162
  0   0 162
  0   0 162
  0   0 162
  0   0 162
  0   0 162
  0   0 162
  0   0 162
  0   0 162
  0   0 162
  0   0 162
  0   0 162
  0   0 162
  0   0 162
  0   0 162
  0   0 162
  0   0 161
  0   0 161
  0   0 161
  0   0 160
  0   0 159
  0   0 158
  0   0 157
  0   0 156
  0   0 154
  0   0 151
  0   0 148
  0   0 144
  0   0 140
  0   0 134
  0   0 128
  0   0 119
  0   0 108
  0   0  93
  0   0  65
 71   0   0
 96   0   0
111   0   0
122   0   0
131   0   0
137   0   0
143   0   0
147   0   0
149   0   0
151   0   0
152   0   0
152   0   0
151   0   0
149   0   0
146   0   0
142   0   0
138   0   0
133   0   0
127   0   0
121   0   0
115   0   0
108   0   0
101   0   0
 94   0   0
 86   0   0
 79   0   0
 72   0   0
 65   0   0
255 255 255
255 255 255
255 255 255
255 255 255
255 255 255
255 255 255
255 255 255
255 255 255
255 255 255
255 255 255
255 255 255
255 255 255
255 255 255
255 255 255
255 255 255
255 255 255
255 255 255
255 255 255
255 255 255
255 255 255
255 255 255
255 255 255
255 255 255
255 255 255
255 255 255
255 255 255
255 255 255
255 255 255
255 255 255
255 255 255
255 255 255
255 255 255
255 255 255
255 255 255
255 255 255
255 255 255
255 255 255
255 255 255
255 255 255
255 255 255
255 255 255
255 255 255
255 255 255
255 255 255
255 255 255
255 255 255
255 255 255
255 255 255
255 255 255
255 255 255
255 255 255
255 255 255
255 255 255
255 255 255
255 255 255
255 255 255
255 255 255
255 255 255
255 255 255
255 255 255
255 255 255
255 255 255
255 255 255
255 255 255
255 255 255
255 255 255
255 255 255
255 255 255
255 255 255
255 255 255
255 255 255
255 255 255
255 255 255
255 255 255
255 255 255
255 255 255
255 255 255
255 255 255
255 255 255
255 255 255
255 255 255
255 255 255
255 255 255
255 255 255
255 150   0
255 255 255
255 255 255
255 255 255
255 255 255
255 255 255
255 255 255
255 255 255
255 255 255
255 255 255
255 255 255
255 255 255
255 255 255
255 255 255
255 255 255
255 255 255
255 255 255
255 255 255
255 255 255
  0   0   0
  0   0   0
  0   0   0
  0   0   0
 95   0   0
107   0   0
115   0   0
121   0   0
125   0   0
127   0   0
128   0   0
127   0   0
124   0   0
121   0   0
115   0   0
109   0   0
100   0   0
 88   0   0
 69   0   0
255 255 255
  0   0  75
255 150   0
  0   0 100
  0   0 107
  0   0 113
  0   0 118
  0   0 122
  0   0 126
  0   0 129
  0   0 131
  0   0 133
  0   0 135
  0   0 136
  0   0 137
  0   0 138
  0   0 139
  0   0 140
  0   0 140
  0   0 141
  0   0 141
  0   0 141
  0   0 141
  0   0 141
  0   0 141
  0   0 141
  0   0 141
  0   0 141
  0   0 140
  0   0 140
  0   0 139
  0   0 138
  0   0 137
  0   0 136
  0   0 135
  0   0 133
  0   0 131
  0   0 129
  0   0 126
  0   0 122
  0   0 118
  0   0 113
  0   0 107
  0   0 100
  0   0  89
  0   0  74
255 255 255
 69   0   0
 88   0   0
100   0   0
109   0   0
116   0   0
122   0   0
127   0   0
131   0   0
134   0   0
137   0   0
138   0   0
139   0   0
139   0   0
138   0   0
137   0   0
135   0   0
132   0   0
129   0   0
125   0   0
120   0   0
115   0   0
110   0   0
104   0   0
 98   0   0
 92   0   0
 86   0   0
 79   0   0
 73   0   0
 67   0   0
255 255 255
255 255 255
255 255 255
255 255 255
255 255 255
255 255 255
255 255 255
255 255 255
255 255 255
255 255 255
255 255 255
255 255 255
255 255 255
255 255 255
255 255 255
255 255 255
255 255 255
255 255 255
255 255 255
255 255 255
255 255 255
255 255 255
255 255 255
255 255 255
255 255 255
255 255 255
255 255 255
255 255 255
255 255 255
255 255 255
255 255 255
255 255 255
255 255 255
255 255 255
255 255 255
255 255 255
255 255 255
255 255 255
255 255 255
255 255 255
255 255 255
255 255 255
255 255 255
255 255 255
255 255 255
255 255 255
255 255 255
255 255 255
255 255 255
255 255 255
255 255 255
255 255 255
255 255 255
255 255 255
255 255 255
255 255 255
255 255 255
255 255 255
255 255 255
255 255 255
255 255 255
255 255 255
255 255 255
255 255 255
255 255 255
255 255 255
255 255 255
255 255 255
255 255 255
255 255 255
255 255 255
255 255 255
255 255 255
255 255 255
255 255 255
255 255 255
255 255 255
255 255 255
255 255 255
255 255 255
255 255 255
255 255 255
255 255 255
255 255 255
255 255 255
255 255 255
255 255 255
255 150   0
255 255 255
255 255 255
255 255 255
255 255 255
255 255 255
255 255 255
255 255 255
255 255 255
255 255 255
255 255 255
255 255 255
255 255 255
255 255 255
255 255 255
255 255 255
255 255 255
255 255 255
255 255 255
  0   0   0
  0   0   0
  0   0   0
  0   0   0
 83   0   0
 94   0   0
102   0   0
109   0   0
113   0   0
117   0   0
120   0   0
121   0   0
122   0   0
121   0   0
120   0   0
118   0   0
115   0   0
112   0   0
108   0   0
103   0   0
 97   0   0
255 150   0
 82   0   0
 71   0   0
255 255 255
255 255 255
255 255 255
  0   0  73
  0   0  81
  0   0  87
  0   0  92
  0   0  95
  0   0  99
  0   0 101
  0   0 103
  0   0 105
  0   0 107
  0   0 108
  0   0 109
  0   0 109
  0   0 110
  0   0 110
  0   0 110
  0   0 110
  0   0 110
  0   0 109
  0   0 109
  0   0 108
  0   0 107
  0   0 105
  0   0 103
  0   0 101
  0   0  99
  0   0  95
  0   0  92
  0   0  87
  0   0  81
  0   0  73
255 255 255
255 255 255
255 255 255
 71   0   0
 82   0   0
 90   0   0
 97   0   0
103   0   0
108   0   0
112   0   0
116   0   0
119   0   0
121   0   0
123   0   0
125   0   0
126   0   0
126   0   0
126   0   0
126   0   0
125   0   0
123   0   0
121   0   0
118   0   0
115   0   0
111   0   0
107   0   0
103   0   0
 98   0   0
 93   0   0
 88   0   0
 83   0   0
 77   0   0
 72   0   0
 66   0   0
255 255 255
255 255 255
255 255 255
255 255 255
255 255 255
255 255 255
255 255 255
255 255 255
255 255 255
255 255 255
255 255 255
255 255 255
255 255 255
255 255 255
255 255 255
255 255 255
255 255 255
255 255 255
255 255 255
255 255 255
255 255 255
255 255 255
255 255 255
255 255 255
255 255 255
255 255 255
255 255 255
255 255 255
255 255 255
255 255 255
255 255 255
255 255 255
255 255 255
255 255 255
255 255 255
255 255 255
255 255 255
255 255 255
255 255 255
255 255 255
255 255 255
255 255 255
255 255 255
255 255 255
255 255 255
255 255 255
255 255 255
255 255 255
255 255 255
255 255 255
255 255 255
255 255 255
255 255 255
255 255 255
255 255 255
255 255 255
255 255 255
255 255 255
255 255 255
255 255 255
255 255 255
255 255 255
255 255 255
255 255 255
255 255 255
255 255 255
255 255 255
255 255 255
255 255 255
255 255 255
255 255 255
255 255 255
255 255 255
255 255 255
255 255 255
255 255 255
255 255 255
255 255 255
255 255 255
255 255 255
255 255 255
255 255 255
255 255 255
255 255 255
255 255 255
255 255 255
255 255 255
255 255 255
255 255 255
255 255 255
255 150   0
255 255 255
255 255 255
255 255 255
255 255 255
255 255 255
255 255 255
255 255 255
255 255 255
255 255 255
255 255 255
255 255 255
255 255 255
255 255 255
255 255 255
255 255 255
255 255 255
255 255 255
255 255 255
  0   0   0
  0   0   0
  0   0   0
  0   0   0
 71   0   0
 80   0   0
 88   0   0
 94   0   0
100   0   0
104   0   0
108   0   0
110   0   0
113   0   0
114   0   0
115   0   0
115   0   0
115   0   0
114   0   0
113   0   0
111   0   0
109   0   0
255 150   0
105   0   0
102   0   0
 99   0   0
 96   0   0
 92   0   0
 89   0   0
 85   0   0
 80   0   0
 76   0   0
 71   0   0
 65   0   0
255 255 255
255 255 255
255 255 255
255 255 255
255 255 255
255 255 255
255 255 255
255 255 255
255 255 255
255 255 255
255 255 255
255 255 255
255 255 255
255 255 255
255 255 255
255 255 255
255 255 255
255 255 255
255 255 255
 65   0   0
 71   0   0
 76   0   0
 80   0   0
 85   0   0
 89   0   0
 92   0   0
 96   0   0
 99   0   0
102   0   0
105   0   0
107   0   0
109   0   0
111   0   0
113   0   0
114   0   0
115   0   0
116   0   0
116   0   0
116   0   0
116   0   0
115   0   0
114   0   0
112   0   0
110   0   0
108   0   0
105   0   0
102   0   0
 99   0   0
 95   0   0
 91   0   0
 87   0   0
 83   0   0
 78   0   0
 73   0   0
 69   0   0
255 255 255
255 255 255
255 255 255
255 255 255
255 255 255
255 255 255
255 255 255
255 255 255
255 255 255
255 255 255
255 255 255
255 255 255
255 255 255
255 255 255
255 255 255
255 255 255
255 255 255
255 255 255
255 255 255
255 255 255
255 255 255
255 255 255
255 255 255
255 255 255
255 255 255
255 255 255
255 255 255
255 255 255
255 255 255
255 255 255
255 255 255
255 255 255
255 255 255
255 255 255
255 255 255
255 255 255
255 255 255
255 255 255
255 255 255
255 255 255
255 255 255
255 255 255
255 255 255
255 255 255
255 255 255
255 255 255
255 255 255
255 255 255
255 255 255
255 255 255
255 255 255
255 255 255
255 255 255
255 255 255
255 255 255
255 255 255
255 255 255
255 255 255
255 255 255
255 255 255
255 255 255
255 255 255
255 255 255
255 255 255
255 255 255
255 255 255
255 255 255
255 255 255
255 255 255
255 255 255
255 255 255
255 255 255
255 255 255
255 255 255
255 255 255
255 255 255
255 255 255
255 255 255
255 255 255
255 255 255
255 255 255
255 255 255
255 255 255
255 255 255
255 255 255
255 255 255
255 255 255
255 255 255
255 255 255
255 255 255
255 255 255
255 255 255
255 255 255
255 255 255
255 150   0
255 255 255
255 255 255
255 255 255
255 255 255
255 255 255
255 255 255
255 255 255
255 255 255
255 255 255
255 255 255
255 255 255
255 255 255
255 255 255
255 255 255
255 255 255
255 255 255
255 255 255
255 255 255
  0   0   0
  0   0   0
  0   0   0
  0   0   0
  0   0   0
  0   0   0
  0   0   0
  0   0   0
  0   0   0
  0   0   0
  0   0   0
  0   0   0
  0   0   0
  0   0   0
  0   0   0
  0   0   0
  0   0   0
  0   0   0
  0   0   0
  0   0   0
  0   0   0
  0   0   0
  0   0   0
  0   0   0
  0   0   0
  0   0   0
  0   0   0
  0   0   0
  0   0   0
  0   0   0
  0   0   0
  0   0   0
  0   0   0
  0   0   0
  0   0   0
  0   0   0
  0   0   0
  0   0   0
  0   0   0
  0   0   0
  0   0   0
  0   0   0
  0   0   0
  0   0   0
  0   0   0
  0   0   0
  0   0   0
  0   0   0
  0   0   0
  0   0   0
  0   0   0
  0   0   0
  0   0   0
  0   0   0
  0   0   0
  0   0   0
  0   0   0
  0   0   0
  0   0   0
  0   0   0
  0   0   0
  0   0   0
  0   0   0
  0   0   0
  0   0   0
  0   0   0
  0   0   0
  0   0   0
  0   0   0
  0   0   0
  0   0   0
  0   0   0
  0   0   0
  0   0   0
  0   0   0
  0   0   0
  0   0   0
  0   0   0
  0   0   0
  0   0   0
  0   0   0
  0   0   0
  0   0   0
  0   0   0
  0   0   0
  0   0   0
  0   0   0
  0   0   0
  0   0   0
  0   0   0
  0   0   0
  0   0   0
  0   0   0
  0   0   0
  0   0   0
  0   0   0
  0   0   0
  0   0   0
  0   0   0
  0   0   0
  0   0   0
  0   0   0
  0   0   0
  0   0   0
  0   0   0
  0   0   0
  0   0   0
  0   0   0
  0   0   0
  0   0   0
  0   0   0
  0   0   0
  0   0   0
  0   0   0
  0   0   0
  0   0   0
  0   0   0
  0   0   0
  0   0   0
  0   0   0
  0   0   0
  0   0   0
  0   0   0
  0   0   0
  0   0   0
  0   0   0
  0   0   0
  0   0   0
  0   0   0
  0   0   0
  0   0   0
  0   0   0
  0   0   0
  0   0   0
  0   0   0
  0   0   0
  0   0   0
  0   0   0
  0   0   0
  0   0   0
  0   0   0
  0   0   0
  0   0   0
  0   0   0
  0   0   0
  0   0   0
  0   0   0
  0   0   0
  0   0   0
  0   0   0
  0   0   0
  0   0   0
  0   0   0
  0   0   0
  0   0   0
  0   0   0
  0   0   0
  0   0   0
  0   0   0
  0   0   0
  0   0   0
  0   0   0
  0   0   0
  0   0   0
  0   0   0
  0   0   0
  0   0   0
  0   0   0
  0   0   0
  0   0   0
  0   0   0
  0   0   0
  0   0   0
  0   0   0
  0   0   0
  0   0   0
  0   0   0
  0   0   0
  0   0   0
  0   0   0
  0   0   0
  0   0   0
  0   0   0
  0   0   0
  0   0   0
  0   0   0
  0   0   0
  0   0   0
  0   0   0
  0   0   0
  0   0   0
  0   0   0
  0   0   0
  0   0   0
  0   0   0
  0   0   0
  0   0   0
  0   0   0
  0   0   0
  0   0   0
  0   0   0
  0   0   0
  0   0   0
  0   0   0
  0   0   0
  0   0   0
  0   0   0
  0   0   0
  0   0   0
  0   0   0
  0   0   0
  0   0   0
  0   0   0
  0   0   0
  0   0   0
  0   0   0
  0   0   0
  0   0   0
  0   0   0
  0   0   0
  0   0   0
  0   0   0
  0   0   0
  0   0   0
  0   0   0
  0   0   0
  0   0   0
  0   0   0
  0   0   0
  0   0   0
  0   0   0
  0   0   0
  0   0   0
  0   0   0
  0   0   0
  0   0   0
  0   0   0
  0   0   0
  0   0   0
  0   0   0
  0   0   0
  0   0   0
  0   0   0
  0   0   0
  0   0   0
  0   0   0
  0   0   0
  0   0   0
  0   0   0
  0   0   0
  0   0   0
  0   0   0
  0   0   0
  0   0   0
  0   0   0
  0   0   0
  0   0   0
  0   0   0
  0   0   0
  0   0   0
  0   0   0
  0   0   0
  0   0   0
  0   0   0
  0   0   0
  0   0   0
  0   0   0
  0   0   0
  0   0   0
  0   0   0
  0   0   0
  0   0   0
  0   0   0
  0   0   0
  0   0   0
  0   0   0
  0   0   0
  0   0   0
  0   0   0
  0   0   0
  0   0   0
  0   0   0
  0   0   0
  0   0   0
  0   0   0
  0   0   0
  0   0   0
  0   0   0
  0   0   0
  0   0   0
  0   0   0
  0   0   0
  0   0   0
  0   0   0
  0   0   0
  0   0   0
  0   0   0
  0   0   0
  0   0   0
  0   0   0
  0   0   0
  0   0   0
  0   0   0
  0   0   0
  0   0   0
  0   0   0
  0   0   0
  0   0   0
  0   0   0
  0   0   0
  0   0   0
  0   0   0
  0   0   0
  0   0   0
  0   0   0
  0   0   0
  0   0   0
  0   0   0
  0   0   0
  0   0   0
  0   0   0
  0   0   0
  0   0   0
  0   0   0
  0   0   0
  0   0   0
  0   0   0
  0   0   0
  0   0   0
  0   0   0
  0   0   0
  0   0   0
  0   0   0
  0   0   0
  0   0   0
  0   0   0
  0   0   0
  0   0   0
  0   0   0
  0   0   0
  0   0   0
  0   0   0
  0   0   0
  0   0   0
  0   0   0
  0   0   0
  0   0   0
  0   0   0
  0   0   0
  0   0   0
  0   0   0
  0   0   0
  0   0   0
  0   0   0
  0   0   0
  0   0   0
  0   0   0
  0   0   0
  0   0   0
  0   0   0
  0   0   0
  0   0   0
  0   0   0
  0   0   0
  0   0   0
  0   0   0
  0   0   0
  0   0   0
  0   0   0
  0   0   0
  0   0   0
  0   0   0
  0   0   0
  0   0   0
  0   0   0
  0   0   0
  0   0   0
  0   0   0
  0   0   0
  0   0   0
  0   0   0
  0   0   0
  0   0   0
  0   0   0
  0   0   0
  0   0   0
  0   0   0
  0   0   0
  0   0   0
  0   0   0
  0   0   0
  0   0   0
  0   0   0
  0   0   0
  0   0   0
  0   0   0
  0   0   0
  0   0   0
  0   0   0
  0   0   0
  0   0   0
  0   0   0
  0   0   0
  0   0   0
