P3
         201         201
 255
  0   0   0
  0   0   0
  0   0   0
  0   0   0
  0   0   0
  0   0   0
  0   0   0
  0   0   0
  0   0   0
  0   0   0
  0   0   0
  0   0   0
  0   0   0
  0   0   0
  0   0   0
  0   0   0
  0   0   0
  0   0   0
  0   0   0
  0   0   0
  0   0   0
  0   0   0
  0   0   0
  0   0   0
  0   0   0
  0   0   0
  0   0   0
  0   0   0
  0   0   0
  0   0   0
  0   0   0
  0   0   0
  0   0   0
  0   0   0
  0   0   0
  0   0   0
  0   0   0
  0   0   0
  0   0   0
  0   0   0
  0   0   0
  0   0   0
  0   0   0
  0   0   0
  0   0   0
  0   0   0
  0   0   0
  0   0   0
  0   0   0
  0   0   0
  0   0   0
  0   0   0
  0   0   0
  0   0   0
  0   0   0
  0   0   0
  0   0   0
  0   0   0
  0   0   0
  0   0   0
  0   0   0
  0   0   0
  0   0   0
  0   0   0
  0   0   0
  0   0   0
  0   0   0
  0   0   0
  0   0   0
  0   0   0
  0   0   0
  0   0   0
  0   0   0
  0   0   0
  0   0   0
  0   0   0
  0   0   0
  0   0   0
  0   0   0
  0   0   0
  0   0   0
  0   0   0
  0   0   0
  0   0   0
  0   0   0
  0   0   0
  0   0   0
  0   0   0
  0   0   0
  0   0   0
  0   0   0
  0   0   0
  0   0   0
  0   0   0
  0   0   0
  0   0   0
  0   0   0
  0   0   0
  0   0   0
  0   0   0
  0   0   0
  0   0   0
  0   0   0
  0   0   0
  0   0   0
  0   0   0
  0   0   0
  0   0   0
  0   0   0
  0   0   0
  0   0   0
  0   0   0
  0   0   0
  0   0   0
  0   0   0
  0   0   0
  0   0   0
  0   0   0
  0   0   0
  0   0   0
  0   0   0
  0   0   0
  0   0   0
  0   0   0
  0   0   0
  0   0   0
  0   0   0
  0   0   0
  0   0   0
  0   0   0
  0   0   0
  0   0   0
  0   0   0
  0   0   0
  0   0   0
  0   0   0
  0   0   0
  0   0   0
  0   0   0
  0   0   0
  0   0   0
  0   0   0
  0   0   0
  0   0   0
  0   0   0
  0   0   0
  0   0   0
  0   0   0
  0   0   0
  0   0   0
  0   0   0
  0   0   0
  0   0   0
  0   0   0
  0   0   0
  0   0   0
  0   0   0
  0   0   0
  0   0   0
  0   0   0
  0   0   0
  0   0   0
  0   0   0
  0   0   0
  0   0   0
  0   0   0
  0   0   0
  0   0   0
  0   0   0
  0   0   0
  0   0   0
  0   0   0
  0   0   0
  0   0   0
  0   0   0
  0   0   0
  0   0   0
  0   0   0
  0   0   0
  0   0   0
  0   0   0
  0   0   0
  0   0   0
  0   0   0
  0   0   0
  0   0   0
  0   0   0
  0   0   0
  0   0   0
  0   0   0
  0   0   0
  0   0   0
  0   0   0
  0   0   0
  0   0   0
  0   0   0
  0   0   0
  0   0   0
  0   0   0
  0   0   0
  0   0   0
  0   0   0
  0   0   0
  0   0   0
  0   0   0
  0   0   0
  0   0   0
  0   0   0
  0   0   0
  0   0   0
  0   0   0
  0   0   0
  0   0   0
  0   0   0
  0   0   0
  0   0   0
  0   0   0
  0   0   0
  0   0   0
  0   0   0
  0   0   0
  0   0   0
  0   0   0
  0   0   0
  0   0   0
  0   0   0
  0   0   0
  0   0   0
  0   0   0
  0   0   0
  0   0   0
  0   0   0
  0   0   0
  0   0   0
  0   0   0
  0   0   0
  0   0   0
  0   0   0
  0   0   0
  0   0   0
  0   0   0
  0   0   0
  0   0   0
  0   0   0
  0   0   0
  0   0   0
  0   0   0
  0   0   0
  0   0   0
  0   0   0
  0   0   0
  0   0   0
  0   0   0
  0   0   0
  0   0   0
  0   0   0
  0   0   0
  0   0   0
  0   0   0
  0   0   0
  0   0   0
  0   0   0
  0   0   0
  0   0   0
  0   0   0
  0   0   0
  0   0   0
  0   0   0
  0   0   0
  0   0   0
  0   0   0
  0   0   0
  0   0   0
  0   0   0
  0   0   0
  0   0   0
  0   0   0
  0   0   0
  0   0   0
  0   0   0
  0   0   0
  0   0   0
  0   0   0
  0   0   0
  0   0   0
  0   0   0
  0   0   0
  0   0   0
  0   0   0
  0   0   0
  0   0   0
  0   0   0
  0   0   0
  0   0   0
  0   0   0
  0   0   0
  0   0   0
  0   0   0
  0   0   0
  0   0   0
  0   0   0
  0   0   0
  0   0   0
  0   0   0
  0   0   0
  0   0   0
  0   0   0
  0   0   0
  0   0   0
  0   0   0
  0   0   0
  0   0   0
  0   0   0
  0   0   0
  0   0   0
  0   0   0
  0   0   0
  0   0   0
  0   0   0
  0   0   0
  0   0   0
  0   0   0
  0   0   0
  0   0   0
  0   0   0
  0   0   0
  0   0   0
  0   0   0
  0   0   0
  0   0   0
  0   0   0
  0   0   0
  0   0   0
  0   0   0
  0   0   0
  0   0   0
  0   0   0
  0   0   0
  0   0   0
  0   0   0
  0   0   0
  0   0   0
  0   0   0
  0   0   0
  0   0   0
  0   0   0
  0   0   0
  0   0   0
  0   0   0
  0   0   0
  0   0   0
  0   0   0
  0   0   0
  0   0   0
  0   0   0
  0   0   0
  0   0   0
  0   0   0
  0   0   0
  0   0   0
  0   0   0
  0   0   0
  0   0   0
  0   0   0
  0   0   0
  0   0   0
  0   0   0
  0   0   0
  0   0   0
  0   0   0
  0   0   0
  0   0   0
  0   0   0
  0   0   0
  0   0   0
  0   0   0
  0   0   0
  0   0   0
  0   0   0
  0   0   0
  0   0   0
  0   0   0
  0   0   0
  0   0   0
  0   0   0
  0   0   0
  0   0   0
  0   0   0
  0   0   0
  0   0   0
  0   0   0
  0   0   0
  0   0   0
  0   0   0
  0   0   0
  0   0   0
  0   0   0
  0   0   0
  0   0   0
  0   0   0
  0   0   0
  0   0   0
  0   0   0
  0   0   0
255 255 255
255 255 255
255 255 255
255 255 255
255 255 255
255 255 255
255 255 255
255 255 255
255 255 255
255 255 255
255 255 255
255 255 255
255 255 255
255 255 255
255 255 255
255 255 255
255 255 255
255 150   0
255 255 255
255 255 255
255 255 255
255 255 255
255 255 255
255 255 255
255 255 255
255 255 255
255 255 255
255 255 255
255 255 255
255 255 255
255 255 255
255 255 255
255 255 255
255 255 255
255 255 255
255 255 255
255 255 255
255 255 255
255 255 255
255 255 255
255 255 255
255 255 255
255 255 255
255 255 255
255 255 255
255 255 255
255 255 255
255 255 255
255 255 255
255 255 255
255 255 255
255 255 255
255 255 255
255 255 255
255 255 255
255 255 255
255 255 255
255 255 255
255 255 255
255 255 255
255 255 255
255 255 255
255 255 255
255 255 255
255 255 255
255 255 255
255 255 255
255 255 255
255 255 255
255 255 255
255 255 255
255 255 255
255 255 255
255 255 255
255 255 255
255 255 255
255 255 255
255 255 255
255 255 255
255 255 255
255 255 255
255 255 255
255 255 255
255 255 255
255 255 255
255 255 255
255 255 255
255 255 255
255 255 255
255 255 255
255 255 255
255 255 255
255 255 255
255 255 255
255 255 255
255 255 255
255 255 255
255 255 255
255 255 255
255 255 255
255 255 255
255 255 255
255 255 255
255 255 255
255 255 255
255 255 255
255 255 255
255 255 255
255 255 255
255 255 255
255 255 255
255 255 255
255 255 255
255 255 255
255 255 255
255 255 255
255 255 255
255 255 255
255 255 255
255 255 255
255 255 255
255 255 255
255 255 255
255 255 255
255 255 255
255 255 255
255 255 255
255 255 255
255 255 255
255 255 255
255 255 255
255 255 255
255 255 255
255 255 255
255 255 255
255 255 255
255 255 255
255 255 255
255 255 255
255 255 255
255 255 255
255 255 255
255 255 255
255 255 255
255 255 255
255 255 255
255 255 255
255 255 255
255 255 255
255 255 255
255 255 255
255 255 255
255 255 255
255 255 255
255 255 255
255 255 255
255 255 255
255 255 255
255 255 255
255 255 255
255 255 255
255 255 255
255 255 255
255 255 255
255 255 255
255 255 255
255 255 255
255 255 255
255 255 255
255 255 255
255 255 255
255 255 255
255 255 255
255 255 255
255 255 255
255 255 255
255 255 255
255 255 255
255 150   0
255 255 255
255 255 255
255 255 255
255 255 255
255 255 255
255 255 255
255 255 255
255 255 255
255 255 255
255 255 255
255 255 255
255 255 255
255 255 255
255 255 255
255 255 255
255 255 255
255 255 255
255 255 255
  0   0   0
  0   0   0
  0   0   0
  0   0   0
255 255 255
255 255 255
255 255 255
255 255 255
255 255 255
255 255 255
255 255 255
255 255 255
255 255 255
255 255 255
255 255 255
255 255 255
255 255 255
255 255 255
255 255 255
255 255 255
255 255 255
255 150   0
255 255 255
255 255 255
255 255 255
255 255 255
255 255 255
255 255 255
255 255 255
255 255 255
255 255 255
255 255 255
255 255 255
255 255 255
255 255 255
255 255 255
255 255 255
255 255 255
255 255 255
255 255 255
255 255 255
255 255 255
255 255 255
255 255 255
255 255 255
255 255 255
255 255 255
255 255 255
255 255 255
255 255 255
255 255 255
255 255 255
255 255 255
255 255 255
255 255 255
255 255 255
255 255 255
255 255 255
255 255 255
255 255 255
255 255 255
255 255 255
255 255 255
255 255 255
255 255 255
255 255 255
255 255 255
255 255 255
255 255 255
255 255 255
255 255 255
255 255 255
255 255 255
255 255 255
255 255 255
255 255 255
255 255 255
255 255 255
255 255 255
255 255 255
255 255 255
255 255 255
255 255 255
255 255 255
255 255 255
255 255 255
255 255 255
255 255 255
255 255 255
255 255 255
255 255 255
255 255 255
255 255 255
255 255 255
255 255 255
255 255 255
255 255 255
255 255 255
255 255 255
255 255 255
255 255 255
255 255 255
255 255 255
255 255 255
255 255 255
255 255 255
255 255 255
255 255 255
255 255 255
255 255 255
255 255 255
255 255 255
255 255 255
255 255 255
255 255 255
255 255 255
255 255 255
255 255 255
255 255 255
255 255 255
255 255 255
255 255 255
255 255 255
255 255 255
255 255 255
255 255 255
255 255 255
255 255 255
255 255 255
255 255 255
255 255 255
255 255 255
255 255 255
255 255 255
255 255 255
255 255 255
255 255 255
255 255 255
255 255 255
255 255 255
255 255 255
255 255 255
255 255 255
255 255 255
255 255 255
255 255 255
255 255 255
255 255 255
255 255 255
255 255 255
255 255 255
255 255 255
255 255 255
255 255 255
255 255 255
255 255 255
255 255 255
255 255 255
255 255 255
255 255 255
255 255 255
255 255 255
255 255 255
255 255 255
255 255 255
255 255 255
255 255 255
255 255 255
255 255 255
255 255 255
255 255 255
255 255 255
255 255 255
255 255 255
255 255 255
255 255 255
255 255 255
255 255 255
255 255 255
255 255 255
255 255 255
255 255 255
255 150   0
255 255 255
255 255 255
255 255 255
255 255 255
255 255 255
255 255 255
255 255 255
255 255 255
255 255 255
255 255 255
255 255 255
255 255 255
255 255 255
255 255 255
255 255 255
255 255 255
255 255 255
255 255 255
  0   0   0
  0   0   0
  0   0   0
  0   0   0
255 255 255
255 255 255
255 255 255
255 255 255
255 255 255
255 255 255
255 255 255
255 255 255
255 255 255
255 255 255
255 255 255
255 255 255
255 255 255
255 255 255
255 255 255
255 255 255
255 255 255
255 150   0
255 255 255
255 255 255
255 255 255
255 255 255
255 255 255
255 255 255
255 255 255
255 255 255
255 255 255
255 255 255
255 255 255
255 255 255
255 255 255
255 255 255
255 255 255
255 255 255
255 255 255
255 255 255
255 255 255
255 255 255
255 255 255
255 255 255
255 255 255
255 255 255
255 255 255
255 255 255
255 255 255
255 255 255
255 255 255
255 255 255
255 255 255
255 255 255
255 255 255
255 255 255
255 255 255
255 255 255
255 255 255
255 255 255
255 255 255
255 255 255
255 255 255
255 255 255
255 255 255
255 255 255
255 255 255
255 255 255
255 255 255
255 255 255
255 255 255
255 255 255
255 255 255
255 255 255
255 255 255
255 255 255
255 255 255
255 255 255
255 255 255
255 255 255
255 255 255
255 255 255
255 255 255
255 255 255
255 255 255
255 255 255
255 255 255
255 255 255
255 255 255
255 255 255
255 255 255
255 255 255
255 255 255
255 255 255
255 255 255
255 255 255
255 255 255
255 255 255
255 255 255
255 255 255
255 255 255
255 255 255
255 255 255
255 255 255
255 255 255
255 255 255
255 255 255
255 255 255
255 255 255
255 255 255
255 255 255
255 255 255
255 255 255
255 255 255
255 255 255
255 255 255
255 255 255
255 255 255
255 255 255
255 255 255
255 255 255
255 255 255
255 255 255
255 255 255
255 255 255
255 255 255
255 255 255
255 255 255
255 255 255
255 255 255
255 255 255
255 255 255
255 255 255
255 255 255
255 255 255
255 255 255
255 255 255
255 255 255
255 255 255
255 255 255
255 255 255
255 255 255
255 255 255
255 255 255
255 255 255
255 255 255
255 255 255
255 255 255
255 255 255
255 255 255
255 255 255
255 255 255
255 255 255
255 255 255
255 255 255
255 255 255
255 255 255
255 255 255
255 255 255
255 255 255
255 255 255
255 255 255
255 255 255
255 255 255
255 255 255
255 255 255
255 255 255
255 255 255
255 255 255
255 255 255
255 255 255
255 255 255
255 255 255
255 255 255
255 255 255
255 255 255
255 255 255
255 255 255
255 255 255
255 255 255
255 255 255
255 255 255
255 150   0
255 255 255
255 255 255
255 255 255
255 255 255
255 255 255
255 255 255
255 255 255
255 255 255
255 255 255
255 255 255
255 255 255
255 255 255
255 255 255
255 255 255
255 255 255
255 255 255
255 255 255
255 255 255
  0   0   0
  0   0   0
  0   0   0
  0   0   0
255 255 255
255 255 255
255 255 255
255 255 255
255 255 255
255 255 255
255 255 255
255 255 255
255 255 255
255 255 255
255 255 255
255 255 255
255 255 255
255 255 255
255 255 255
255 255 255
255 255 255
255 150   0
255 255 255
255 255 255
255 255 255
255 255 255
255 255 255
255 255 255
255 255 255
255 255 255
255 255 255
255 255 255
255 255 255
255 255 255
255 255 255
255 255 255
255 255 255
255 255 255
255 255 255
255 255 255
255 255 255
255 255 255
255 255 255
255 255 255
255 255 255
255 255 255
255 255 255
255 255 255
255 255 255
255 255 255
255 255 255
255 255 255
255 255 255
255 255 255
255 255 255
255 255 255
255 255 255
255 255 255
255 255 255
255 255 255
255 255 255
255 255 255
255 255 255
255 255 255
255 255 255
255 255 255
255 255 255
255 255 255
255 255 255
255 255 255
255 255 255
255 255 255
255 255 255
255 255 255
255 255 255
255 255 255
255 255 255
255 255 255
255 255 255
255 255 255
255 255 255
255 255 255
255 255 255
255 255 255
255 255 255
255 255 255
255 255 255
255 255 255
255 255 255
255 255 255
255 255 255
255 255 255
255 255 255
255 255 255
255 255 255
255 255 255
255 255 255
255 255 255
255 255 255
255 255 255
255 255 255
255 255 255
255 255 255
255 255 255
255 255 255
255 255 255
255 255 255
255 255 255
255 255 255
255 255 255
255 255 255
255 255 255
255 255 255
255 255 255
255 255 255
255 255 255
255 255 255
255 255 255
255 255 255
255 255 255
255 255 255
255 255 255
255 255 255
255 255 255
255 255 255
255 255 255
255 255 255
255 255 255
255 255 255
255 255 255
255 255 255
255 255 255
255 255 255
255 255 255
255 255 255
255 255 255
255 255 255
255 255 255
255 255 255
255 255 255
255 255 255
255 255 255
255 255 255
255 255 255
255 255 255
255 255 255
255 255 255
255 255 255
255 255 255
255 255 255
255 255 255
255 255 255
255 255 255
255 255 255
255 255 255
255 255 255
255 255 255
255 255 255
255 255 255
255 255 255
255 255 255
255 255 255
255 255 255
255 255 255
255 255 255
255 255 255
255 255 255
255 255 255
255 255 255
255 255 255
255 255 255
255 255 255
255 255 255
255 255 255
255 255 255
255 255 255
255 255 255
255 255 255
255 255 255
255 255 255
255 255 255
255 255 255
255 150   0
255 255 255
255 255 255
255 255 255
255 255 255
255 255 255
255 255 255
255 255 255
255 255 255
255 255 255
255 255 255
255 255 255
255 255 255
255 255 255
255 255 255
255 255 255
255 255 255
255 255 255
255 255 255
  0   0   0
  0   0   0
  0   0   0
  0   0   0
255 255 255
255 255 255
255 255 255
255 255 255
255 255 255
255 255 255
255 255 255
255 255 255
255 255 255
255 255 255
255 255 255
255 255 255
255 255 255
255 255 255
255 255 255
255 255 255
255 255 255
255 150   0
255 255 255
255 255 255
255 255 255
255 255 255
255 255 255
255 255 255
255 255 255
255 255 255
255 255 255
255 255 255
255 255 255
255 255 255
255 255 255
255 255 255
255 255 255
255 255 255
255 255 255
255 255 255
255 255 255
255 255 255
255 255 255
255 255 255
255 255 255
255 255 255
255 255 255
255 255 255
255 255 255
255 255 255
255 255 255
255 255 255
255 255 255
255 255 255
255 255 255
255 255 255
255 255 255
255 255 255
255 255 255
255 255 255
255 255 255
255 255 255
255 255 255
255 255 255
255 255 255
255 255 255
255 255 255
255 255 255
255 255 255
255 255 255
255 255 255
255 255 255
255 255 255
255 255 255
255 255 255
255 255 255
255 255 255
255 255 255
255 255 255
255 255 255
255 255 255
255 255 255
255 255 255
255 255 255
255 255 255
255 255 255
255 255 255
255 255 255
255 255 255
255 255 255
255 255 255
255 255 255
255 255 255
255 255 255
255 255 255
255 255 255
255 255 255
255 255 255
255 255 255
255 255 255
255 255 255
255 255 255
255 255 255
255 255 255
255 255 255
255 255 255
255 255 255
255 255 255
255 255 255
255 255 255
255 255 255
255 255 255
255 255 255
255 255 255
255 255 255
255 255 255
255 255 255
255 255 255
255 255 255
255 255 255
255 255 255
255 255 255
255 255 255
255 255 255
255 255 255
255 255 255
255 255 255
255 255 255
255 255 255
255 255 255
255 255 255
255 255 255
255 255 255
255 255 255
255 255 255
255 255 255
255 255 255
255 255 255
255 255 255
255 255 255
255 255 255
255 255 255
255 255 255
255 255 255
255 255 255
255 255 255
255 255 255
255 255 255
255 255 255
255 255 255
255 255 255
255 255 255
255 255 255
255 255 255
255 255 255
255 255 255
255 255 255
255 255 255
255 255 255
255 255 255
255 255 255
255 255 255
255 255 255
255 255 255
255 255 255
255 255 255
255 255 255
255 255 255
255 255 255
255 255 255
255 255 255
255 255 255
255 255 255
255 255 255
255 255 255
255 255 255
255 255 255
255 255 255
255 255 255
255 255 255
255 255 255
255 255 255
255 150   0
255 255 255
255 255 255
255 255 255
255 255 255
255 255 255
255 255 255
255 255 255
255 255 255
255 255 255
255 255 255
255 255 255
255 255 255
255 255 255
255 255 255
255 255 255
255 255 255
255 255 255
255 255 255
  0   0   0
  0   0   0
  0   0   0
  0   0   0
255 255 255
255 255 255
255 255 255
255 255 255
255 255 255
255 255 255
255 255 255
255 255 255
255 255 255
255 255 255
255 255 255
255 255 255
255 255 255
255 255 255
255 255 255
255 255 255
255 255 255
255 150   0
255 255 255
255 255 255
255 255 255
255 255 255
255 255 255
255 255 255
255 255 255
255 255 255
255 255 255
255 255 255
255 255 255
255 255 255
255 255 255
255 255 255
255 255 255
255 255 255
255 255 255
255 255 255
255 255 255
255 255 255
255 255 255
255 255 255
255 255 255
255 255 255
255 255 255
255 255 255
255 255 255
255 255 255
255 255 255
255 255 255
255 255 255
255 255 255
255 255 255
255 255 255
255 255 255
255 255 255
255 255 255
255 255 255
255 255 255
255 255 255
255 255 255
255 255 255
255 255 255
255 255 255
255 255 255
255 255 255
255 255 255
255 255 255
255 255 255
255 255 255
255 255 255
255 255 255
255 255 255
255 255 255
255 255 255
255 255 255
255 255 255
255 255 255
255 255 255
255 255 255
255 255 255
255 255 255
255 255 255
255 255 255
255 255 255
255 255 255
255 255 255
255 255 255
255 255 255
255 255 255
255 255 255
255 255 255
255 255 255
255 255 255
255 255 255
255 255 255
255 255 255
255 255 255
255 255 255
255 255 255
255 255 255
255 255 255
255 255 255
255 255 255
255 255 255
255 255 255
255 255 255
255 255 255
255 255 255
255 255 255
255 255 255
255 255 255
255 255 255
255 255 255
255 255 255
255 255 255
255 255 255
255 255 255
255 255 255
255 255 255
255 255 255
255 255 255
255 255 255
255 255 255
255 255 255
255 255 255
255 255 255
255 255 255
255 255 255
255 255 255
255 255 255
255 255 255
255 255 255
255 255 255
255 255 255
255 255 255
255 255 255
255 255 255
255 255 255
255 255 255
255 255 255
255 255 255
255 255 255
255 255 255
255 255 255
255 255 255
255 255 255
255 255 255
255 255 255
255 255 255
255 255 255
255 255 255
255 255 255
255 255 255
255 255 255
255 255 255
255 255 255
255 255 255
255 255 255
255 255 255
255 255 255
255 255 255
255 255 255
255 255 255
255 255 255
255 255 255
255 255 255
255 255 255
255 255 255
255 255 255
255 255 255
255 255 255
255 255 255
255 255 255
255 255 255
255 255 255
255 255 255
255 255 255
255 255 255
255 255 255
255 150   0
255 255 255
255 255 255
255 255 255
255 255 255
255 255 255
255 255 255
255 255 255
255 255 255
255 255 255
255 255 255
255 255 255
255 255 255
255 255 255
255 255 255
255 255 255
255 255 255
255 255 255
255 255 255
  0   0   0
  0   0   0
  0   0   0
  0   0   0
255 255 255
255 255 255
255 255 255
255 255 255
255 255 255
255 255 255
255 255 255
255 255 255
255 255 255
255 255 255
255 255 255
255 255 255
255 255 255
255 255 255
255 255 255
255 255 255
255 255 255
255 150   0
255 255 255
255 255 255
255 255 255
255 255 255
255 255 255
255 255 255
255 255 255
255 255 255
255 255 255
255 255 255
255 255 255
255 255 255
255 255 255
255 255 255
255 255 255
255 255 255
255 255 255
255 255 255
255 255 255
255 255 255
255 255 255
255 255 255
255 255 255
255 255 255
255 255 255
255 255 255
255 255 255
255 255 255
255 255 255
255 255 255
255 255 255
255 255 255
255 255 255
255 255 255
255 255 255
255 255 255
255 255 255
255 255 255
255 255 255
255 255 255
255 255 255
255 255 255
255 255 255
255 255 255
255 255 255
255 255 255
255 255 255
255 255 255
255 255 255
255 255 255
255 255 255
255 255 255
255 255 255
255 255 255
255 255 255
255 255 255
255 255 255
255 255 255
255 255 255
255 255 255
255 255 255
255 255 255
255 255 255
255 255 255
255 255 255
255 255 255
255 255 255
255 255 255
255 255 255
255 255 255
255 255 255
255 255 255
255 255 255
255 255 255
255 255 255
255 255 255
255 255 255
255 255 255
255 255 255
255 255 255
255 255 255
255 255 255
255 255 255
255 255 255
255 255 255
255 255 255
255 255 255
255 255 255
255 255 255
255 255 255
255 255 255
255 255 255
255 255 255
255 255 255
255 255 255
255 255 255
255 255 255
255 255 255
255 255 255
255 255 255
255 255 255
255 255 255
255 255 255
255 255 255
255 255 255
255 255 255
255 255 255
255 255 255
255 255 255
255 255 255
255 255 255
255 255 255
255 255 255
255 255 255
255 255 255
255 255 255
255 255 255
255 255 255
255 255 255
255 255 255
255 255 255
255 255 255
255 255 255
255 255 255
255 255 255
255 255 255
255 255 255
255 255 255
255 255 255
255 255 255
255 255 255
255 255 255
255 255 255
255 255 255
255 255 255
255 255 255
255 255 255
255 255 255
255 255 255
255 255 255
255 255 255
255 255 255
255 255 255
255 255 255
255 255 255
255 255 255
255 255 255
255 255 255
255 255 255
255 255 255
255 255 255
255 255 255
255 255 255
255 255 255
255 255 255
255 255 255
255 255 255
255 255 255
255 255 255
255 255 255
255 150   0
255 255 255
255 255 255
255 255 255
255 255 255
255 255 255
255 255 255
255 255 255
255 255 255
255 255 255
255 255 255
255 255 255
255 255 255
255 255 255
255 255 255
255 255 255
255 255 255
255 255 255
255 255 255
  0   0   0
  0   0   0
  0   0   0
  0   0   0
255 255 255
255 255 255
255 255 255
255 255 255
255 255 255
255 255 255
255 255 255
255 255 255
255 255 255
255 255 255
255 255 255
255 255 255
255 255 255
255 255 255
255 255 255
255 255 255
255 255 255
255 150   0
255 255 255
255 255 255
255 255 255
255 255 255
255 255 255
255 255 255
255 255 255
255 255 255
255 255 255
255 255 255
255 255 255
255 255 255
255 255 255
255 255 255
255 255 255
255 255 255
255 255 255
255 255 255
255 255 255
255 255 255
255 255 255
255 255 255
255 255 255
255 255 255
255 255 255
255 255 255
255 255 255
255 255 255
255 255 255
255 255 255
255 255 255
255 255 255
255 255 255
255 255 255
255 255 255
255 255 255
255 255 255
255 255 255
255 255 255
255 255 255
255 255 255
255 255 255
255 255 255
255 255 255
255 255 255
255 255 255
255 255 255
255 255 255
255 255 255
255 255 255
255 255 255
255 255 255
255 255 255
255 255 255
255 255 255
255 255 255
255 255 255
255 255 255
255 255 255
255 255 255
255 255 255
255 255 255
255 255 255
255 255 255
255 255 255
255 255 255
255 255 255
255 255 255
255 255 255
255 255 255
255 255 255
255 255 255
255 255 255
255 255 255
255 255 255
255 255 255
255 255 255
255 255 255
255 255 255
255 255 255
255 255 255
255 255 255
255 255 255
255 255 255
255 255 255
255 255 255
255 255 255
255 255 255
255 255 255
255 255 255
255 255 255
255 255 255
255 255 255
255 255 255
255 255 255
255 255 255
255 255 255
255 255 255
255 255 255
255 255 255
255 255 255
255 255 255
255 255 255
255 255 255
255 255 255
255 255 255
255 255 255
255 255 255
255 255 255
255 255 255
255 255 255
255 255 255
255 255 255
255 255 255
255 255 255
255 255 255
255 255 255
255 255 255
255 255 255
255 255 255
255 255 255
255 255 255
255 255 255
255 255 255
255 255 255
255 255 255
255 255 255
255 255 255
255 255 255
255 255 255
255 255 255
255 255 255
255 255 255
255 255 255
255 255 255
255 255 255
255 255 255
255 255 255
255 255 255
255 255 255
255 255 255
255 255 255
255 255 255
255 255 255
255 255 255
255 255 255
255 255 255
255 255 255
255 255 255
255 255 255
255 255 255
255 255 255
255 255 255
255 255 255
255 255 255
255 255 255
255 255 255
255 255 255
255 255 255
255 255 255
255 150   0
255 255 255
255 255 255
255 255 255
255 255 255
255 255 255
255 255 255
255 255 255
255 255 255
255 255 255
255 255 255
255 255 255
255 255 255
255 255 255
255 255 255
255 255 255
255 255 255
255 255 255
255 255 255
  0   0   0
  0   0   0
  0   0   0
  0   0   0
255 255 255
255 255 255
255 255 255
255 255 255
255 255 255
255 255 255
255 255 255
255 255 255
255 255 255
255 255 255
255 255 255
255 255 255
255 255 255
255 255 255
255 255 255
255 255 255
255 255 255
255 150   0
255 255 255
255 255 255
255 255 255
255 255 255
255 255 255
255 255 255
255 255 255
255 255 255
255 255 255
255 255 255
255 255 255
255 255 255
255 255 255
255 255 255
255 255 255
255 255 255
255 255 255
255 255 255
255 255 255
255 255 255
255 255 255
255 255 255
255 255 255
255 255 255
255 255 255
255 255 255
255 255 255
255 255 255
255 255 255
255 255 255
255 255 255
255 255 255
255 255 255
255 255 255
255 255 255
255 255 255
255 255 255
255 255 255
255 255 255
255 255 255
255 255 255
255 255 255
255 255 255
255 255 255
255 255 255
255 255 255
255 255 255
255 255 255
255 255 255
255 255 255
255 255 255
255 255 255
255 255 255
255 255 255
255 255 255
255 255 255
255 255 255
255 255 255
255 255 255
255 255 255
255 255 255
255 255 255
255 255 255
255 255 255
255 255 255
255 255 255
255 255 255
255 255 255
255 255 255
255 255 255
255 255 255
255 255 255
255 255 255
255 255 255
255 255 255
255 255 255
255 255 255
255 255 255
255 255 255
255 255 255
255 255 255
255 255 255
255 255 255
255 255 255
255 255 255
255 255 255
255 255 255
255 255 255
255 255 255
255 255 255
255 255 255
255 255 255
255 255 255
255 255 255
255 255 255
255 255 255
255 255 255
255 255 255
255 255 255
255 255 255
255 255 255
255 255 255
255 255 255
255 255 255
255 255 255
255 255 255
255 255 255
255 255 255
255 255 255
255 255 255
255 255 255
255 255 255
255 255 255
255 255 255
255 255 255
255 255 255
255 255 255
255 255 255
255 255 255
255 255 255
255 255 255
255 255 255
255 255 255
255 255 255
255 255 255
255 255 255
255 255 255
255 255 255
255 255 255
255 255 255
255 255 255
255 255 255
255 255 255
255 255 255
255 255 255
255 255 255
255 255 255
255 255 255
255 255 255
255 255 255
255 255 255
255 255 255
255 255 255
255 255 255
255 255 255
255 255 255
255 255 255
255 255 255
255 255 255
255 255 255
255 255 255
255 255 255
255 255 255
255 255 255
255 255 255
255 255 255
255 255 255
255 255 255
255 255 255
255 255 255
255 150   0
255 255 255
255 255 255
255 255 255
255 255 255
255 255 255
255 255 255
255 255 255
255 255 255
255 255 255
255 255 255
255 255 255
255 255 255
255 255 255
255 255 255
255 255 255
255 255 255
255 255 255
255 255 255
  0   0   0
  0   0   0
  0   0   0
  0   0   0
255 255 255
255 255 255
255 255 255
255 255 255
255 255 255
255 255 255
255 255 255
255 255 255
255 255 255
255 255 255
255 255 255
255 255 255
255 255 255
255 255 255
255 255 255
255 255 255
255 255 255
255 150   0
255 255 255
255 255 255
255 255 255
255 255 255
255 255 255
255 255 255
255 255 255
255 255 255
255 255 255
255 255 255
255 255 255
255 255 255
255 255 255
255 255 255
255 255 255
255 255 255
255 255 255
255 255 255
255 255 255
255 255 255
255 255 255
255 255 255
255 255 255
255 255 255
255 255 255
255 255 255
255 255 255
255 255 255
255 255 255
255 255 255
255 255 255
255 255 255
255 255 255
255 255 255
255 255 255
255 255 255
255 255 255
255 255 255
255 255 255
255 255 255
255 255 255
255 255 255
255 255 255
255 255 255
255 255 255
255 255 255
255 255 255
255 255 255
255 255 255
255 255 255
255 255 255
255 255 255
255 255 255
255 255 255
255 255 255
255 255 255
255 255 255
255 255 255
255 255 255
255 255 255
255 255 255
255 255 255
255 255 255
255 255 255
255 255 255
255 255 255
255 255 255
255 255 255
255 255 255
255 255 255
255 255 255
255 255 255
255 255 255
255 255 255
255 255 255
255 255 255
255 255 255
255 255 255
255 255 255
255 255 255
255 255 255
255 255 255
255 255 255
255 255 255
255 255 255
255 255 255
255 255 255
255 255 255
255 255 255
255 255 255
255 255 255
255 255 255
255 255 255
255 255 255
255 255 255
255 255 255
255 255 255
255 255 255
255 255 255
255 255 255
255 255 255
255 255 255
255 255 255
255 255 255
255 255 255
255 255 255
255 255 255
255 255 255
255 255 255
255 255 255
255 255 255
255 255 255
255 255 255
255 255 255
255 255 255
255 255 255
255 255 255
255 255 255
255 255 255
255 255 255
255 255 255
255 255 255
255 255 255
255 255 255
255 255 255
255 255 255
255 255 255
255 255 255
255 255 255
255 255 255
255 255 255
255 255 255
255 255 255
255 255 255
255 255 255
255 255 255
255 255 255
255 255 255
255 255 255
255 255 255
255 255 255
255 255 255
255 255 255
255 255 255
255 255 255
255 255 255
255 255 255
255 255 255
255 255 255
255 255 255
255 255 255
255 255 255
255 255 255
255 255 255
255 255 255
255 255 255
255 255 255
255 255 255
255 255 255
255 255 255
255 150   0
255 255 255
255 255 255
255 255 255
255 255 255
255 255 255
255 255 255
255 255 255
255 255 255
255 255 255
255 255 255
255 255 255
255 255 255
255 255 255
255 255 255
255 255 255
255 255 255
255 255 255
255 255 255
  0   0   0
  0   0   0
  0   0   0
  0   0   0
255 255 255
255 255 255
255 255 255
255 255 255
255 255 255
255 255 255
255 255 255
255 255 255
255 255 255
255 255 255
255 255 255
255 255 255
255 255 255
255 255 255
255 255 255
255 255 255
255 255 255
255 150   0
255 255 255
255 255 255
255 255 255
255 255 255
255 255 255
255 255 255
255 255 255
255 255 255
255 255 255
255 255 255
255 255 255
255 255 255
255 255 255
255 255 255
255 255 255
255 255 255
255 255 255
255 255 255
255 255 255
255 255 255
255 255 255
255 255 255
255 255 255
255 255 255
255 255 255
255 255 255
255 255 255
255 255 255
255 255 255
255 255 255
255 255 255
255 255 255
255 255 255
255 255 255
255 255 255
255 255 255
255 255 255
255 255 255
255 255 255
255 255 255
255 255 255
255 255 255
255 255 255
255 255 255
255 255 255
255 255 255
255 255 255
255 255 255
255 255 255
255 255 255
255 255 255
255 255 255
255 255 255
255 255 255
255 255 255
255 255 255
255 255 255
255 255 255
255 255 255
255 255 255
255 255 255
255 255 255
255 255 255
255 255 255
255 255 255
255 255 255
255 255 255
255 255 255
255 255 255
255 255 255
255 255 255
255 255 255
255 255 255
255 255 255
255 255 255
255 255 255
255 255 255
255 255 255
255 255 255
255 255 255
255 255 255
255 255 255
255 255 255
255 255 255
255 255 255
255 255 255
255 255 255
255 255 255
255 255 255
255 255 255
255 255 255
255 255 255
255 255 255
255 255 255
255 255 255
255 255 255
255 255 255
255 255 255
255 255 255
255 255 255
255 255 255
255 255 255
255 255 255
255 255 255
255 255 255
255 255 255
255 255 255
255 255 255
255 255 255
255 255 255
255 255 255
255 255 255
255 255 255
255 255 255
255 255 255
255 255 255
255 255 255
255 255 255
255 255 255
255 255 255
255 255 255
255 255 255
255 255 255
255 255 255
255 255 255
255 255 255
255 255 255
255 255 255
255 255 255
255 255 255
255 255 255
255 255 255
255 255 255
255 255 255
255 255 255
255 255 255
255 255 255
255 255 255
255 255 255
255 255 255
255 255 255
255 255 255
255 255 255
255 255 255
255 255 255
255 255 255
255 255 255
255 255 255
255 255 255
255 255 255
255 255 255
255 255 255
255 255 255
255 255 255
255 255 255
255 255 255
255 255 255
255 255 255
255 255 255
255 255 255
255 150   0
255 255 255
255 255 255
255 255 255
255 255 255
255 255 255
255 255 255
255 255 255
255 255 255
255 255 255
255 255 255
255 255 255
255 255 255
255 255 255
255 255 255
255 255 255
255 255 255
255 255 255
255 255 255
  0   0   0
  0   0   0
  0   0   0
  0   0   0
255 255 255
255 255 255
255 255 255
255 255 255
255 255 255
255 255 255
255 255 255
255 255 255
255 255 255
255 255 255
255 255 255
255 255 255
255 255 255
255 255 255
255 255 255
255 255 255
255 255 255
255 150   0
255 255 255
255 255 255
255 255 255
255 255 255
255 255 255
255 255 255
255 255 255
255 255 255
255 255 255
255 255 255
255 255 255
255 255 255
255 255 255
255 255 255
255 255 255
255 255 255
255 255 255
255 255 255
255 255 255
255 255 255
255 255 255
255 255 255
255 255 255
255 255 255
255 255 255
255 255 255
255 255 255
255 255 255
255 255 255
255 255 255
255 255 255
255 255 255
255 255 255
255 255 255
255 255 255
255 255 255
255 255 255
255 255 255
255 255 255
255 255 255
255 255 255
255 255 255
255 255 255
255 255 255
255 255 255
255 255 255
255 255 255
255 255 255
255 255 255
255 255 255
255 255 255
255 255 255
255 255 255
255 255 255
255 255 255
255 255 255
255 255 255
255 255 255
255 255 255
255 255 255
255 255 255
255 255 255
255 255 255
255 255 255
255 255 255
255 255 255
255 255 255
255 255 255
255 255 255
255 255 255
255 255 255
255 255 255
255 255 255
255 255 255
255 255 255
255 255 255
255 255 255
255 255 255
255 255 255
255 255 255
255 255 255
255 255 255
255 255 255
255 255 255
255 255 255
255 255 255
255 255 255
255 255 255
255 255 255
255 255 255
255 255 255
255 255 255
255 255 255
255 255 255
255 255 255
255 255 255
255 255 255
255 255 255
255 255 255
255 255 255
255 255 255
255 255 255
255 255 255
255 255 255
255 255 255
255 255 255
255 255 255
255 255 255
255 255 255
255 255 255
255 255 255
255 255 255
255 255 255
255 255 255
255 255 255
255 255 255
255 255 255
255 255 255
255 255 255
255 255 255
255 255 255
255 255 255
255 255 255
255 255 255
255 255 255
255 255 255
255 255 255
255 255 255
255 255 255
255 255 255
255 255 255
255 255 255
255 255 255
255 255 255
255 255 255
255 255 255
255 255 255
255 255 255
255 255 255
255 255 255
255 255 255
255 255 255
255 255 255
255 255 255
255 255 255
255 255 255
255 255 255
255 255 255
255 255 255
255 255 255
255 255 255
255 255 255
255 255 255
255 255 255
255 255 255
255 255 255
255 255 255
255 255 255
255 255 255
255 255 255
255 150   0
255 255 255
255 255 255
255 255 255
255 255 255
255 255 255
255 255 255
255 255 255
255 255 255
255 255 255
255 255 255
255 255 255
255 255 255
255 255 255
255 255 255
255 255 255
255 255 255
255 255 255
255 255 255
  0   0   0
  0   0   0
  0   0   0
  0   0   0
255 255 255
255 255 255
255 255 255
255 255 255
255 255 255
255 255 255
255 255 255
255 255 255
255 255 255
255 255 255
255 255 255
255 255 255
255 255 255
255 255 255
255 255 255
255 255 255
255 255 255
255 150   0
255 255 255
255 255 255
255 255 255
255 255 255
255 255 255
255 255 255
255 255 255
255 255 255
255 255 255
255 255 255
255 255 255
255 255 255
255 255 255
255 255 255
255 255 255
255 255 255
255 255 255
255 255 255
255 255 255
255 255 255
255 255 255
255 255 255
255 255 255
255 255 255
255 255 255
255 255 255
255 255 255
255 255 255
255 255 255
255 255 255
255 255 255
255 255 255
255 255 255
255 255 255
255 255 255
255 255 255
255 255 255
255 255 255
255 255 255
255 255 255
255 255 255
255 255 255
255 255 255
255 255 255
255 255 255
255 255 255
255 255 255
255 255 255
255 255 255
255 255 255
255 255 255
255 255 255
255 255 255
255 255 255
255 255 255
255 255 255
255 255 255
255 255 255
255 255 255
255 255 255
255 255 255
255 255 255
255 255 255
255 255 255
255 255 255
255 255 255
255 255 255
255 255 255
255 255 255
255 255 255
255 255 255
255 255 255
255 255 255
255 255 255
255 255 255
255 255 255
255 255 255
255 255 255
255 255 255
255 255 255
255 255 255
255 255 255
255 255 255
255 255 255
255 255 255
255 255 255
255 255 255
255 255 255
255 255 255
255 255 255
255 255 255
255 255 255
255 255 255
255 255 255
255 255 255
255 255 255
255 255 255
255 255 255
255 255 255
255 255 255
255 255 255
255 255 255
255 255 255
255 255 255
255 255 255
255 255 255
255 255 255
255 255 255
255 255 255
255 255 255
255 255 255
255 255 255
255 255 255
255 255 255
255 255 255
255 255 255
255 255 255
255 255 255
255 255 255
255 255 255
255 255 255
255 255 255
255 255 255
255 255 255
255 255 255
255 255 255
255 255 255
255 255 255
255 255 255
255 255 255
255 255 255
255 255 255
255 255 255
255 255 255
255 255 255
255 255 255
255 255 255
255 255 255
255 255 255
255 255 255
255 255 255
255 255 255
255 255 255
255 255 255
255 255 255
255 255 255
255 255 255
255 255 255
255 255 255
255 255 255
255 255 255
255 255 255
255 255 255
255 255 255
255 255 255
255 255 255
255 255 255
255 255 255
255 255 255
255 255 255
255 150   0
255 255 255
255 255 255
255 255 255
255 255 255
255 255 255
255 255 255
255 255 255
255 255 255
255 255 255
255 255 255
255 255 255
255 255 255
255 255 255
255 255 255
255 255 255
255 255 255
255 255 255
255 255 255
  0   0   0
  0   0   0
  0   0   0
  0   0   0
255 255 255
255 255 255
255 255 255
255 255 255
255 255 255
255 255 255
255 255 255
255 255 255
255 255 255
255 255 255
255 255 255
255 255 255
255 255 255
255 255 255
255 255 255
255 255 255
255 255 255
255 150   0
255 255 255
255 255 255
255 255 255
255 255 255
255 255 255
255 255 255
255 255 255
255 255 255
255 255 255
255 255 255
255 255 255
255 255 255
255 255 255
255 255 255
255 255 255
255 255 255
255 255 255
255 255 255
255 255 255
255 255 255
255 255 255
255 255 255
255 255 255
255 255 255
255 255 255
255 255 255
255 255 255
255 255 255
255 255 255
255 255 255
255 255 255
255 255 255
255 255 255
255 255 255
255 255 255
255 255 255
255 255 255
255 255 255
255 255 255
255 255 255
255 255 255
255 255 255
255 255 255
255 255 255
255 255 255
255 255 255
255 255 255
255 255 255
255 255 255
255 255 255
255 255 255
255 255 255
255 255 255
255 255 255
255 255 255
255 255 255
255 255 255
255 255 255
255 255 255
255 255 255
255 255 255
255 255 255
255 255 255
255 255 255
255 255 255
255 255 255
255 255 255
255 255 255
255 255 255
255 255 255
255 255 255
255 255 255
255 255 255
255 255 255
255 255 255
255 255 255
255 255 255
255 255 255
255 255 255
255 255 255
255 255 255
255 255 255
255 255 255
255 255 255
255 255 255
255 255 255
255 255 255
255 255 255
255 255 255
255 255 255
255 255 255
255 255 255
255 255 255
255 255 255
255 255 255
255 255 255
255 255 255
255 255 255
255 255 255
255 255 255
255 255 255
255 255 255
255 255 255
255 255 255
255 255 255
255 255 255
255 255 255
255 255 255
255 255 255
255 255 255
255 255 255
255 255 255
255 255 255
255 255 255
255 255 255
255 255 255
255 255 255
255 255 255
255 255 255
255 255 255
255 255 255
255 255 255
255 255 255
255 255 255
255 255 255
255 255 255
255 255 255
255 255 255
255 255 255
255 255 255
255 255 255
255 255 255
255 255 255
255 255 255
255 255 255
255 255 255
255 255 255
255 255 255
255 255 255
255 255 255
255 255 255
255 255 255
255 255 255
255 255 255
255 255 255
255 255 255
255 255 255
255 255 255
255 255 255
255 255 255
255 255 255
255 255 255
255 255 255
255 255 255
255 255 255
255 255 255
255 255 255
255 255 255
255 255 255
255 255 255
255 150   0
255 255 255
255 255 255
255 255 255
255 255 255
255 255 255
255 255 255
255 255 255
255 255 255
255 255 255
255 255 255
255 255 255
255 255 255
255 255 255
255 255 255
255 255 255
255 255 255
255 255 255
255 255 255
  0   0   0
  0   0   0
  0   0   0
  0   0   0
255 255 255
255 255 255
255 255 255
255 255 255
255 255 255
255 255 255
255 255 255
255 255 255
255 255 255
255 255 255
255 255 255
255 255 255
255 255 255
255 255 255
255 255 255
255 255 255
255 255 255
255 150   0
255 255 255
255 255 255
255 255 255
255 255 255
255 255 255
255 255 255
255 255 255
255 255 255
255 255 255
255 255 255
255 255 255
255 255 255
255 255 255
255 255 255
255 255 255
255 255 255
255 255 255
255 255 255
255 255 255
255 255 255
255 255 255
255 255 255
255 255 255
255 255 255
255 255 255
255 255 255
255 255 255
255 255 255
255 255 255
255 255 255
255 255 255
255 255 255
255 255 255
255 255 255
255 255 255
255 255 255
255 255 255
255 255 255
255 255 255
255 255 255
255 255 255
255 255 255
255 255 255
255 255 255
255 255 255
255 255 255
255 255 255
255 255 255
255 255 255
255 255 255
255 255 255
255 255 255
255 255 255
255 255 255
255 255 255
255 255 255
255 255 255
255 255 255
255 255 255
255 255 255
255 255 255
255 255 255
255 255 255
255 255 255
255 255 255
255 255 255
255 255 255
255 255 255
255 255 255
255 255 255
255 255 255
255 255 255
255 255 255
255 255 255
255 255 255
255 255 255
255 255 255
255 255 255
255 255 255
255 255 255
255 255 255
255 255 255
255 255 255
255 255 255
255 255 255
255 255 255
255 255 255
255 255 255
255 255 255
255 255 255
255 255 255
255 255 255
255 255 255
255 255 255
255 255 255
255 255 255
255 255 255
255 255 255
255 255 255
255 255 255
255 255 255
255 255 255
255 255 255
255 255 255
255 255 255
255 255 255
255 255 255
255 255 255
255 255 255
255 255 255
255 255 255
255 255 255
255 255 255
255 255 255
255 255 255
255 255 255
255 255 255
255 255 255
255 255 255
255 255 255
255 255 255
255 255 255
255 255 255
255 255 255
255 255 255
255 255 255
255 255 255
255 255 255
255 255 255
255 255 255
255 255 255
255 255 255
255 255 255
255 255 255
255 255 255
255 255 255
255 255 255
255 255 255
255 255 255
255 255 255
255 255 255
255 255 255
255 255 255
255 255 255
255 255 255
255 255 255
255 255 255
255 255 255
255 255 255
255 255 255
255 255 255
255 255 255
255 255 255
255 255 255
255 255 255
255 255 255
255 255 255
255 255 255
255 255 255
255 255 255
255 150   0
255 255 255
255 255 255
255 255 255
255 255 255
255 255 255
255 255 255
255 255 255
255 255 255
255 255 255
255 255 255
255 255 255
255 255 255
255 255 255
255 255 255
255 255 255
255 255 255
255 255 255
255 255 255
  0   0   0
  0   0   0
  0   0   0
  0   0   0
255 255 255
255 255 255
255 255 255
255 255 255
255 255 255
255 255 255
255 255 255
255 255 255
255 255 255
255 255 255
255 255 255
255 255 255
255 255 255
255 255 255
255 255 255
255 255 255
255 255 255
255 150   0
255 255 255
255 255 255
255 255 255
255 255 255
255 255 255
255 255 255
255 255 255
255 255 255
255 255 255
255 255 255
255 255 255
255 255 255
255 255 255
255 255 255
255 255 255
255 255 255
255 255 255
255 255 255
255 255 255
255 255 255
255 255 255
255 255 255
255 255 255
255 255 255
255 255 255
255 255 255
255 255 255
255 255 255
255 255 255
255 255 255
255 255 255
255 255 255
255 255 255
255 255 255
255 255 255
255 255 255
255 255 255
255 255 255
255 255 255
255 255 255
255 255 255
255 255 255
255 255 255
255 255 255
255 255 255
255 255 255
255 255 255
255 255 255
255 255 255
255 255 255
255 255 255
255 255 255
255 255 255
255 255 255
255 255 255
255 255 255
255 255 255
255 255 255
255 255 255
255 255 255
255 255 255
255 255 255
255 255 255
255 255 255
255 255 255
255 255 255
255 255 255
255 255 255
255 255 255
255 255 255
255 255 255
255 255 255
255 255 255
255 255 255
255 255 255
255 255 255
255 255 255
255 255 255
255 255 255
255 255 255
255 255 255
255 255 255
255 255 255
255 255 255
255 255 255
255 255 255
255 255 255
255 255 255
255 255 255
255 255 255
255 255 255
255 255 255
255 255 255
255 255 255
255 255 255
255 255 255
255 255 255
255 255 255
255 255 255
255 255 255
255 255 255
255 255 255
255 255 255
255 255 255
255 255 255
255 255 255
255 255 255
255 255 255
255 255 255
255 255 255
255 255 255
255 255 255
255 255 255
255 255 255
255 255 255
255 255 255
255 255 255
255 255 255
255 255 255
255 255 255
255 255 255
255 255 255
255 255 255
255 255 255
255 255 255
255 255 255
255 255 255
255 255 255
255 255 255
255 255 255
255 255 255
255 255 255
255 255 255
255 255 255
255 255 255
255 255 255
255 255 255
255 255 255
255 255 255
255 255 255
255 255 255
255 255 255
255 255 255
255 255 255
255 255 255
255 255 255
255 255 255
255 255 255
255 255 255
255 255 255
255 255 255
255 255 255
255 255 255
255 255 255
255 255 255
255 255 255
255 255 255
255 255 255
255 255 255
255 255 255
255 150   0
255 255 255
255 255 255
255 255 255
255 255 255
255 255 255
255 255 255
255 255 255
255 255 255
255 255 255
255 255 255
255 255 255
255 255 255
255 255 255
255 255 255
255 255 255
255 255 255
255 255 255
255 255 255
  0   0   0
  0   0   0
  0   0   0
  0   0   0
255 255 255
255 255 255
255 255 255
255 255 255
255 255 255
255 255 255
255 255 255
255 255 255
255 255 255
255 255 255
255 255 255
255 255 255
255 255 255
255 255 255
255 255 255
255 255 255
255 255 255
255 150   0
255 255 255
255 255 255
255 255 255
255 255 255
255 255 255
255 255 255
255 255 255
255 255 255
255 255 255
255 255 255
255 255 255
255 255 255
255 255 255
255 255 255
255 255 255
255 255 255
255 255 255
255 255 255
255 255 255
255 255 255
255 255 255
255 255 255
255 255 255
255 255 255
255 255 255
255 255 255
255 255 255
255 255 255
255 255 255
255 255 255
255 255 255
255 255 255
255 255 255
255 255 255
255 255 255
255 255 255
255 255 255
255 255 255
255 255 255
255 255 255
255 255 255
255 255 255
255 255 255
255 255 255
255 255 255
255 255 255
255 255 255
255 255 255
255 255 255
255 255 255
255 255 255
255 255 255
255 255 255
255 255 255
255 255 255
255 255 255
255 255 255
255 255 255
255 255 255
255 255 255
255 255 255
255 255 255
255 255 255
255 255 255
255 255 255
255 255 255
255 255 255
255 255 255
255 255 255
255 255 255
255 255 255
255 255 255
255 255 255
255 255 255
255 255 255
255 255 255
255 255 255
255 255 255
255 255 255
255 255 255
255 255 255
255 255 255
255 255 255
255 255 255
255 255 255
255 255 255
255 255 255
255 255 255
255 255 255
255 255 255
255 255 255
255 255 255
255 255 255
255 255 255
255 255 255
255 255 255
255 255 255
255 255 255
255 255 255
255 255 255
255 255 255
255 255 255
255 255 255
255 255 255
255 255 255
255 255 255
255 255 255
255 255 255
255 255 255
255 255 255
255 255 255
255 255 255
255 255 255
255 255 255
255 255 255
255 255 255
255 255 255
255 255 255
255 255 255
255 255 255
255 255 255
255 255 255
255 255 255
255 255 255
255 255 255
255 255 255
255 255 255
255 255 255
255 255 255
255 255 255
255 255 255
255 255 255
255 255 255
255 255 255
255 255 255
255 255 255
255 255 255
255 255 255
255 255 255
255 255 255
255 255 255
255 255 255
255 255 255
255 255 255
255 255 255
255 255 255
255 255 255
255 255 255
255 255 255
255 255 255
255 255 255
255 255 255
255 255 255
255 255 255
255 255 255
255 255 255
255 255 255
255 255 255
255 255 255
255 255 255
255 150   0
255 255 255
255 255 255
255 255 255
255 255 255
255 255 255
255 255 255
255 255 255
255 255 255
255 255 255
255 255 255
255 255 255
255 255 255
255 255 255
255 255 255
255 255 255
255 255 255
255 255 255
255 255 255
  0   0   0
  0   0   0
  0   0   0
  0   0   0
255 255 255
255 255 255
255 255 255
255 255 255
255 255 255
255 255 255
255 255 255
255 255 255
255 255 255
255 255 255
255 255 255
255 255 255
255 255 255
255 255 255
255 255 255
255 255 255
255 255 255
255 150   0
255 255 255
255 255 255
255 255 255
255 255 255
255 255 255
255 255 255
255 255 255
255 255 255
255 255 255
255 255 255
255 255 255
255 255 255
255 255 255
255 255 255
255 255 255
255 255 255
255 255 255
255 255 255
255 255 255
255 255 255
255 255 255
255 255 255
255 255 255
255 255 255
255 255 255
255 255 255
255 255 255
255 255 255
255 255 255
255 255 255
255 255 255
255 255 255
255 255 255
255 255 255
255 255 255
255 255 255
255 255 255
255 255 255
255 255 255
255 255 255
255 255 255
255 255 255
255 255 255
255 255 255
255 255 255
255 255 255
255 255 255
255 255 255
255 255 255
255 255 255
255 255 255
255 255 255
255 255 255
255 255 255
255 255 255
255 255 255
255 255 255
255 255 255
255 255 255
255 255 255
255 255 255
255 255 255
255 255 255
255 255 255
255 255 255
255 255 255
255 255 255
255 255 255
255 255 255
255 255 255
255 255 255
255 255 255
255 255 255
255 255 255
255 255 255
255 255 255
255 255 255
255 255 255
255 255 255
255 255 255
255 255 255
255 255 255
255 255 255
255 255 255
255 255 255
255 255 255
255 255 255
255 255 255
255 255 255
255 255 255
255 255 255
255 255 255
255 255 255
255 255 255
255 255 255
255 255 255
255 255 255
255 255 255
255 255 255
255 255 255
255 255 255
255 255 255
255 255 255
255 255 255
255 255 255
255 255 255
255 255 255
255 255 255
255 255 255
255 255 255
255 255 255
255 255 255
255 255 255
255 255 255
255 255 255
255 255 255
255 255 255
255 255 255
255 255 255
255 255 255
255 255 255
255 255 255
255 255 255
255 255 255
255 255 255
255 255 255
255 255 255
255 255 255
255 255 255
255 255 255
255 255 255
255 255 255
255 255 255
255 255 255
255 255 255
255 255 255
255 255 255
255 255 255
255 255 255
255 255 255
255 255 255
255 255 255
255 255 255
255 255 255
255 255 255
255 255 255
255 255 255
255 255 255
255 255 255
255 255 255
255 255 255
255 255 255
255 255 255
255 255 255
255 255 255
255 255 255
255 255 255
255 255 255
255 255 255
255 255 255
255 150   0
255 255 255
255 255 255
255 255 255
255 255 255
255 255 255
255 255 255
255 255 255
255 255 255
255 255 255
255 255 255
255 255 255
255 255 255
255 255 255
255 255 255
255 255 255
255 255 255
255 255 255
255 255 255
  0   0   0
  0   0   0
  0   0   0
  0   0   0
255 150   0
255 150   0
255 150   0
255 150   0
255 150   0
255 150   0
255 150   0
255 150   0
255 150   0
255 150   0
255 150   0
255 150   0
255 150   0
255 150   0
255 150   0
255 150   0
255 150   0
255 150   0
255 150   0
255 150   0
255 150   0
255 150   0
255 150   0
255 150   0
255 150   0
255 150   0
255 150   0
255 150   0
255 150   0
255 150   0
255 150   0
255 150   0
255 150   0
255 150   0
255 150   0
255 150   0
255 150   0
255 150   0
255 150   0
255 150   0
255 150   0
255 150   0
255 150   0
255 150   0
255 150   0
255 150   0
255 150   0
255 150   0
255 150   0
255 150   0
255 150   0
255 150   0
255 150   0
255 150   0
255 150   0
255 150   0
255 150   0
255 150   0
255 150   0
255 150   0
255 150   0
255 150   0
255 150   0
255 150   0
255 150   0
255 150   0
255 150   0
255 150   0
255 150   0
255 150   0
255 150   0
255 150   0
255 150   0
255 150   0
255 150   0
255 150   0
255 150   0
255 150   0
255 150   0
255 150   0
255 150   0
255 150   0
255 150   0
255 150   0
255 150   0
255 150   0
255 150   0
255 150   0
255 150   0
255 150   0
255 150   0
255 150   0
255 150   0
255 150   0
255 150   0
255 150   0
255 150   0
255 150   0
255 150   0
255 150   0
255 150   0
255 150   0
255 150   0
255 150   0
255 150   0
255 150   0
255 150   0
255 150   0
255 150   0
255 150   0
255 150   0
255 150   0
255 150   0
255 150   0
255 150   0
255 150   0
255 150   0
255 150   0
255 150   0
255 150   0
255 150   0
255 150   0
255 150   0
255 150   0
255 150   0
255 150   0
255 150   0
255 150   0
255 150   0
255 150   0
255 150   0
255 150   0
255 150   0
255 150   0
255 150   0
255 150   0
255 150   0
255 150   0
255 150   0
255 150   0
255 150   0
255 150   0
255 150   0
255 150   0
255 150   0
255 150   0
255 150   0
255 150   0
255 150   0
255 150   0
255 150   0
255 150   0
255 150   0
255 150   0
255 150   0
255 150   0
255 150   0
255 150   0
255 150   0
255 150   0
255 150   0
255 150   0
255 150   0
255 150   0
255 150   0
255 150   0
255 150   0
255 150   0
255 150   0
255 150   0
255 150   0
255 150   0
255 150   0
255 150   0
255 150   0
255 150   0
255 150   0
255 150   0
255 150   0
255 150   0
255 150   0
255 150   0
255 150   0
255 150   0
255 150   0
255 150   0
255 150   0
255 150   0
255 150   0
255 150   0
255 150   0
255 150   0
255 150   0
255 150   0
255 150   0
255 150   0
255 150   0
  0   0   0
  0   0   0
  0   0   0
  0   0   0
255 255 255
255 255 255
255 255 255
255 255 255
255 255 255
255 255 255
255 255 255
255 255 255
255 255 255
255 255 255
255 255 255
255 255 255
255 255 255
255 255 255
255 255 255
255 255 255
255 255 255
255 150   0
255 255 255
255 255 255
255 255 255
255 255 255
255 255 255
255 255 255
255 255 255
255 255 255
255 255 255
255 255 255
255 255 255
255 255 255
255 255 255
255 255 255
255 255 255
255 255 255
255 255 255
255 255 255
255 255 255
255 255 255
255 255 255
255 255 255
255 255 255
255 255 255
255 255 255
255 255 255
255 255 255
255 255 255
255 255 255
255 255 255
255 255 255
255 255 255
255 255 255
255 255 255
255 255 255
255 255 255
255 255 255
255 255 255
255 255 255
255 255 255
255 255 255
255 255 255
255 255 255
255 255 255
255 255 255
255 255 255
255 255 255
255 255 255
255 255 255
255 255 255
255 255 255
255 255 255
255 255 255
255 255 255
255 255 255
255 255 255
255 255 255
255 255 255
255 255 255
255 255 255
255 255 255
255 255 255
255 255 255
255 255 255
255 255 255
255 255 255
255 255 255
255 255 255
255 255 255
255 255 255
255 255 255
255 255 255
255 255 255
255 255 255
255 255 255
255 255 255
255 255 255
255 255 255
255 255 255
255 255 255
255 255 255
255 255 255
255 255 255
255 255 255
255 255 255
255 255 255
255 255 255
255 255 255
255 255 255
255 255 255
255 255 255
255 255 255
255 255 255
255 255 255
255 255 255
255 255 255
255 255 255
255 255 255
255 255 255
255 255 255
255 255 255
255 255 255
255 255 255
255 255 255
255 255 255
255 255 255
255 255 255
255 255 255
255 255 255
255 255 255
255 255 255
255 255 255
255 255 255
255 255 255
255 255 255
255 255 255
255 255 255
255 255 255
255 255 255
255 255 255
255 255 255
255 255 255
255 255 255
255 255 255
255 255 255
255 255 255
255 255 255
255 255 255
255 255 255
255 255 255
255 255 255
255 255 255
255 255 255
255 255 255
255 255 255
255 255 255
255 255 255
255 255 255
255 255 255
255 255 255
255 255 255
255 255 255
255 255 255
255 255 255
255 255 255
255 255 255
255 255 255
255 255 255
255 255 255
255 255 255
255 255 255
255 255 255
255 255 255
255 255 255
255 255 255
255 255 255
255 255 255
255 255 255
255 255 255
255 255 255
255 150   0
255 255 255
255 255 255
255 255 255
255 255 255
255 255 255
255 255 255
255 255 255
255 255 255
255 255 255
255 255 255
255 255 255
255 255 255
255 255 255
255 255 255
255 255 255
255 255 255
255 255 255
255 255 255
  0   0   0
  0   0   0
  0   0   0
  0   0   0
255 255 255
255 255 255
255 255 255
255 255 255
255 255 255
255 255 255
255 255 255
255 255 255
255 255 255
255 255 255
255 255 255
255 255 255
255 255 255
255 255 255
255 255 255
255 255 255
255 255 255
255 150   0
255 255 255
255 255 255
255 255 255
255 255 255
255 255 255
255 255 255
255 255 255
255 255 255
255 255 255
255 255 255
255 255 255
255 255 255
255 255 255
255 255 255
255 255 255
255 255 255
255 255 255
255 255 255
255 255 255
255 255 255
255 255 255
255 255 255
255 255 255
255 255 255
255 255 255
255 255 255
255 255 255
255 255 255
255 255 255
255 255 255
255 255 255
255 255 255
255 255 255
255 255 255
255 255 255
255 255 255
255 255 255
255 255 255
255 255 255
255 255 255
255 255 255
255 255 255
255 255 255
255 255 255
255 255 255
255 255 255
255 255 255
255 255 255
255 255 255
255 255 255
255 255 255
255 255 255
255 255 255
255 255 255
255 255 255
255 255 255
255 255 255
255 255 255
255 255 255
255 255 255
255 255 255
255 255 255
255 255 255
255 255 255
255 255 255
255 255 255
255 255 255
255 255 255
255 255 255
255 255 255
255 255 255
255 255 255
255 255 255
255 255 255
255 255 255
255 255 255
255 255 255
255 255 255
255 255 255
255 255 255
255 255 255
255 255 255
255 255 255
255 255 255
255 255 255
255 255 255
255 255 255
255 255 255
255 255 255
255 255 255
255 255 255
255 255 255
255 255 255
255 255 255
255 255 255
255 255 255
255 255 255
255 255 255
255 255 255
255 255 255
255 255 255
255 255 255
255 255 255
255 255 255
255 255 255
255 255 255
255 255 255
255 255 255
255 255 255
255 255 255
255 255 255
255 255 255
255 255 255
255 255 255
255 255 255
255 255 255
255 255 255
255 255 255
255 255 255
255 255 255
255 255 255
255 255 255
255 255 255
255 255 255
255 255 255
255 255 255
255 255 255
255 255 255
255 255 255
255 255 255
255 255 255
255 255 255
255 255 255
255 255 255
255 255 255
255 255 255
255 255 255
255 255 255
255 255 255
255 255 255
255 255 255
255 255 255
255 255 255
255 255 255
255 255 255
255 255 255
255 255 255
255 255 255
255 255 255
255 255 255
255 255 255
255 255 255
255 255 255
255 255 255
255 255 255
255 255 255
255 255 255
255 255 255
255 255 255
255 255 255
255 150   0
255 255 255
255 255 255
255 255 255
255 255 255
255 255 255
255 255 255
255 255 255
255 255 255
255 255 255
255 255 255
255 255 255
255 255 255
255 255 255
255 255 255
255 255 255
255 255 255
255 255 255
255 255 255
  0   0   0
  0   0   0
  0   0   0
  0   0   0
255 255 255
255 255 255
255 255 255
255 255 255
255 255 255
255 255 255
255 255 255
255 255 255
255 255 255
255 255 255
255 255 255
255 255 255
255 255 255
255 255 255
255 255 255
255 255 255
255 255 255
255 150   0
255 255 255
255 255 255
255 255 255
255 255 255
255 255 255
255 255 255
255 255 255
255 255 255
255 255 255
255 255 255
255 255 255
255 255 255
255 255 255
255 255 255
255 255 255
255 255 255
255 255 255
255 255 255
255 255 255
255 255 255
255 255 255
255 255 255
255 255 255
255 255 255
255 255 255
255 255 255
255 255 255
255 255 255
255 255 255
255 255 255
255 255 255
255 255 255
255 255 255
255 255 255
255 255 255
255 255 255
255 255 255
255 255 255
255 255 255
255 255 255
255 255 255
255 255 255
255 255 255
255 255 255
255 255 255
255 255 255
255 255 255
255 255 255
255 255 255
255 255 255
255 255 255
255 255 255
255 255 255
255 255 255
255 255 255
255 255 255
255 255 255
255 255 255
255 255 255
255 255 255
255 255 255
255 255 255
255 255 255
255 255 255
255 255 255
255 255 255
255 255 255
255 255 255
255 255 255
255 255 255
255 255 255
255 255 255
255 255 255
255 255 255
255 255 255
255 255 255
255 255 255
255 255 255
255 255 255
255 255 255
255 255 255
255 255 255
255 255 255
255 255 255
255 255 255
255 255 255
255 255 255
255 255 255
255 255 255
255 255 255
255 255 255
255 255 255
255 255 255
255 255 255
255 255 255
255 255 255
255 255 255
255 255 255
255 255 255
255 255 255
255 255 255
255 255 255
255 255 255
255 255 255
255 255 255
255 255 255
255 255 255
255 255 255
255 255 255
255 255 255
255 255 255
255 255 255
255 255 255
255 255 255
255 255 255
255 255 255
255 255 255
255 255 255
255 255 255
255 255 255
255 255 255
255 255 255
255 255 255
255 255 255
255 255 255
255 255 255
255 255 255
255 255 255
255 255 255
255 255 255
255 255 255
255 255 255
255 255 255
255 255 255
255 255 255
255 255 255
255 255 255
255 255 255
255 255 255
255 255 255
255 255 255
255 255 255
255 255 255
255 255 255
255 255 255
255 255 255
255 255 255
255 255 255
255 255 255
255 255 255
255 255 255
255 255 255
255 255 255
255 255 255
255 255 255
255 255 255
255 255 255
255 255 255
255 255 255
255 255 255
255 150   0
255 255 255
255 255 255
255 255 255
255 255 255
255 255 255
255 255 255
255 255 255
255 255 255
255 255 255
255 255 255
255 255 255
255 255 255
255 255 255
255 255 255
255 255 255
255 255 255
255 255 255
255 255 255
  0   0   0
  0   0   0
  0   0   0
  0   0   0
255 255 255
255 255 255
255 255 255
255 255 255
255 255 255
255 255 255
255 255 255
255 255 255
255 255 255
255 255 255
255 255 255
255 255 255
255 255 255
255 255 255
255 255 255
255 255 255
255 255 255
255 150   0
255 255 255
255 255 255
255 255 255
255 255 255
255 255 255
255 255 255
255 255 255
255 255 255
255 255 255
255 255 255
 64   0   0
 67   0   0
 68   0   0
 70   0   0
 72   0   0
 73   0   0
 74   0   0
 75   0   0
 75   0   0
 76   0   0
 76   0   0
 76   0   0
 75   0   0
 75   0   0
 74   0   0
 73   0   0
 72   0   0
 70   0   0
 68   0   0
 67   0   0
 64   0   0
255 255 255
255 255 255
255 255 255
255 255 255
255 255 255
255 255 255
255 255 255
255 255 255
255 255 255
255 255 255
255 255 255
255 255 255
255 255 255
255 255 255
255 255 255
255 255 255
255 255 255
255 255 255
255 255 255
255 255 255
255 255 255
255 255 255
255 255 255
255 255 255
255 255 255
255 255 255
255 255 255
255 255 255
255 255 255
255 255 255
255 255 255
255 255 255
255 255 255
255 255 255
255 255 255
255 255 255
255 255 255
255 255 255
255 255 255
255 255 255
255 255 255
255 255 255
255 255 255
255 255 255
255 255 255
255 255 255
255 255 255
255 255 255
255 255 255
255 255 255
255 255 255
255 255 255
255 255 255
255 255 255
255 255 255
255 255 255
255 255 255
255 255 255
255 255 255
255 255 255
255 255 255
255 255 255
255 255 255
255 255 255
255 255 255
255 255 255
255 255 255
255 255 255
255 255 255
255 255 255
255 255 255
255 255 255
255 255 255
255 255 255
255 255 255
255 255 255
255 255 255
255 255 255
255 255 255
255 255 255
255 255 255
255 255 255
255 255 255
255 255 255
255 255 255
255 255 255
255 255 255
255 255 255
255 255 255
255 255 255
255 255 255
255 255 255
255 255 255
255 255 255
255 255 255
255 255 255
255 255 255
255 255 255
255 255 255
255 255 255
255 255 255
255 255 255
255 255 255
255 255 255
255 255 255
255 255 255
255 255 255
255 255 255
255 255 255
255 255 255
255 255 255
255 255 255
255 255 255
255 255 255
255 255 255
255 255 255
255 255 255
255 255 255
255 255 255
255 255 255
255 255 255
255 255 255
255 255 255
255 255 255
255 255 255
255 255 255
255 255 255
255 255 255
255 255 255
255 150   0
255 255 255
255 255 255
255 255 255
255 255 255
255 255 255
255 255 255
255 255 255
255 255 255
255 255 255
255 255 255
255 255 255
255 255 255
255 255 255
255 255 255
255 255 255
255 255 255
255 255 255
255 255 255
  0   0   0
  0   0   0
  0   0   0
  0   0   0
255 255 255
255 255 255
255 255 255
255 255 255
255 255 255
255 255 255
255 255 255
255 255 255
255 255 255
255 255 255
255 255 255
255 255 255
255 255 255
255 255 255
255 255 255
255 255 255
255 255 255
255 150   0
255 255 255
255 255 255
255 255 255
255 255 255
255 255 255
 67   0   0
 71   0   0
 74   0   0
 77   0   0
 79   0   0
 82   0   0
 84   0   0
 87   0   0
 88   0   0
 90   0   0
 92   0   0
 93   0   0
 94   0   0
 94   0   0
 95   0   0
 95   0   0
 95   0   0
 94   0   0
 94   0   0
 93   0   0
 92   0   0
 90   0   0
 88   0   0
 87   0   0
 84   0   0
 82   0   0
 79   0   0
 77   0   0
 74   0   0
 71   0   0
 67   0   0
255 255 255
255 255 255
255 255 255
255 255 255
255 255 255
255 255 255
255 255 255
255 255 255
255 255 255
255 255 255
255 255 255
255 255 255
255 255 255
255 255 255
255 255 255
255 255 255
255 255 255
255 255 255
255 255 255
255 255 255
255 255 255
255 255 255
255 255 255
255 255 255
255 255 255
255 255 255
255 255 255
255 255 255
255 255 255
255 255 255
255 255 255
255 255 255
255 255 255
255 255 255
255 255 255
255 255 255
255 255 255
255 255 255
255 255 255
255 255 255
255 255 255
255 255 255
255 255 255
255 255 255
255 255 255
255 255 255
255 255 255
255 255 255
255 255 255
255 255 255
255 255 255
255 255 255
255 255 255
255 255 255
255 255 255
255 255 255
255 255 255
255 255 255
255 255 255
255 255 255
255 255 255
255 255 255
255 255 255
255 255 255
255 255 255
255 255 255
255 255 255
255 255 255
255 255 255
255 255 255
255 255 255
255 255 255
255 255 255
255 255 255
255 255 255
255 255 255
255 255 255
255 255 255
255 255 255
255 255 255
255 255 255
255 255 255
255 255 255
255 255 255
255 255 255
255 255 255
255 255 255
255 255 255
255 255 255
255 255 255
255 255 255
255 255 255
255 255 255
255 255 255
255 255 255
255 255 255
255 255 255
255 255 255
255 255 255
255 255 255
255 255 255
255 255 255
255 255 255
255 255 255
255 255 255
255 255 255
255 255 255
255 255 255
255 255 255
255 255 255
255 255 255
255 255 255
255 255 255
255 255 255
255 255 255
255 255 255
255 255 255
255 255 255
255 255 255
255 255 255
255 255 255
255 255 255
255 255 255
255 255 255
255 150   0
255 255 255
255 255 255
255 255 255
255 255 255
255 255 255
255 255 255
255 255 255
255 255 255
255 255 255
255 255 255
255 255 255
255 255 255
255 255 255
255 255 255
255 255 255
255 255 255
255 255 255
255 255 255
  0   0   0
  0   0   0
  0   0   0
  0   0   0
255 255 255
255 255 255
255 255 255
255 255 255
255 255 255
255 255 255
255 255 255
255 255 255
255 255 255
255 255 255
255 255 255
255 255 255
255 255 255
255 255 255
255 255 255
255 255 255
255 255 255
255 150   0
 64   0   0
 69   0   0
 73   0   0
 77   0   0
 81   0   0
 85   0   0
 89   0   0
 92   0   0
 96   0   0
 99   0   0
102   0   0
104   0   0
107   0   0
109   0   0
111   0   0
112   0   0
114   0   0
115   0   0
115   0   0
116   0   0
116   0   0
116   0   0
115   0   0
115   0   0
114   0   0
112   0   0
111   0   0
109   0   0
107   0   0
104   0   0
102   0   0
 99   0   0
 96   0   0
 92   0   0
 89   0   0
 85   0   0
 81   0   0
 77   0   0
 73   0   0
 69   0   0
 64   0   0
255 255 255
255 255 255
255 255 255
255 255 255
255 255 255
255 255 255
255 255 255
255 255 255
255 255 255
255 255 255
255 255 255
255 255 255
255 255 255
255 255 255
255 255 255
255 255 255
255 255 255
255 255 255
255 255 255
255 255 255
255 255 255
255 255 255
255 255 255
255 255 255
255 255 255
255 255 255
255 255 255
255 255 255
255 255 255
255 255 255
255 255 255
255 255 255
255 255 255
255 255 255
255 255 255
255 255 255
255 255 255
255 255 255
255 255 255
255 255 255
255 255 255
255 255 255
255 255 255
255 255 255
255 255 255
255 255 255
255 255 255
255 255 255
255 255 255
255 255 255
255 255 255
255 255 255
255 255 255
255 255 255
255 255 255
255 255 255
255 255 255
255 255 255
255 255 255
255 255 255
255 255 255
255 255 255
255 255 255
255 255 255
255 255 255
255 255 255
255 255 255
255 255 255
255 255 255
255 255 255
255 255 255
255 255 255
255 255 255
255 255 255
255 255 255
255 255 255
255 255 255
255 255 255
255 255 255
255 255 255
255 255 255
255 255 255
255 255 255
255 255 255
255 255 255
255 255 255
255 255 255
255 255 255
255 255 255
255 255 255
255 255 255
255 255 255
255 255 255
255 255 255
255 255 255
255 255 255
255 255 255
255 255 255
255 255 255
255 255 255
255 255 255
255 255 255
255 255 255
255 255 255
255 255 255
255 255 255
255 255 255
255 255 255
255 255 255
255 255 255
255 255 255
255 255 255
255 255 255
255 255 255
255 255 255
255 255 255
255 255 255
255 255 255
255 255 255
255 150   0
255 255 255
255 255 255
255 255 255
255 255 255
255 255 255
255 255 255
255 255 255
255 255 255
255 255 255
255 255 255
255 255 255
255 255 255
255 255 255
255 255 255
255 255 255
255 255 255
255 255 255
255 255 255
  0   0   0
  0   0   0
  0   0   0
  0   0   0
255 255 255
255 255 255
255 255 255
255 255 255
255 255 255
255 255 255
255 255 255
255 255 255
255 255 255
255 255 255
255 255 255
255 255 255
255 255 255
255 255 255
255 255 255
 66   0   0
 71   0   0
255 150   0
 81   0   0
 86   0   0
 91   0   0
 96   0   0
100   0   0
105   0   0
109   0   0
113   0   0
116   0   0
120   0   0
123   0   0
126   0   0
128   0   0
131   0   0
132   0   0
134   0   0
136   0   0
137   0   0
137   0   0
138   0   0
138   0   0
138   0   0
137   0   0
137   0   0
136   0   0
134   0   0
132   0   0
131   0   0
128   0   0
126   0   0
123   0   0
120   0   0
116   0   0
113   0   0
109   0   0
105   0   0
100   0   0
 96   0   0
 91   0   0
 86   0   0
 81   0   0
 76   0   0
 71   0   0
 66   0   0
255 255 255
255 255 255
255 255 255
255 255 255
255 255 255
255 255 255
255 255 255
255 255 255
255 255 255
255 255 255
255 255 255
255 255 255
255 255 255
255 255 255
255 255 255
255 255 255
255 255 255
255 255 255
255 255 255
255 255 255
255 255 255
255 255 255
255 255 255
255 255 255
255 255 255
255 255 255
255 255 255
255 255 255
255 255 255
255 255 255
255 255 255
255 255 255
255 255 255
255 255 255
255 255 255
255 255 255
255 255 255
255 255 255
255 255 255
255 255 255
255 255 255
255 255 255
255 255 255
255 255 255
255 255 255
255 255 255
255 255 255
255 255 255
255 255 255
255 255 255
255 255 255
255 255 255
255 255 255
255 255 255
255 255 255
255 255 255
255 255 255
255 255 255
255 255 255
255 255 255
255 255 255
255 255 255
255 255 255
255 255 255
255 255 255
255 255 255
255 255 255
255 255 255
255 255 255
255 255 255
255 255 255
255 255 255
255 255 255
255 255 255
255 255 255
255 255 255
255 255 255
255 255 255
255 255 255
255 255 255
255 255 255
255 255 255
255 255 255
255 255 255
255 255 255
255 255 255
255 255 255
255 255 255
255 255 255
255 255 255
255 255 255
255 255 255
255 255 255
255 255 255
255 255 255
255 255 255
255 255 255
255 255 255
255 255 255
255 255 255
255 255 255
255 255 255
255 255 255
255 255 255
255 255 255
255 255 255
255 255 255
255 255 255
255 255 255
255 255 255
255 255 255
255 255 255
255 255 255
255 255 255
255 255 255
255 255 255
255 150   0
255 255 255
255 255 255
255 255 255
255 255 255
255 255 255
255 255 255
255 255 255
255 255 255
255 255 255
255 255 255
255 255 255
255 255 255
255 255 255
255 255 255
255 255 255
255 255 255
255 255 255
255 255 255
  0   0   0
  0   0   0
  0   0   0
  0   0   0
255 255 255
255 255 255
255 255 255
255 255 255
255 255 255
255 255 255
255 255 255
255 255 255
255 255 255
255 255 255
255 255 255
255 255 255
 66   0   0
 72   0   0
 78   0   0
 83   0   0
 89   0   0
255 150   0
100   0   0
106   0   0
111   0   0
116   0   0
121   0   0
126   0   0
130   0   0
134   0   0
138   0   0
142   0   0
145   0   0
148   0   0
150   0   0
153   0   0
155   0   0
156   0   0
158   0   0
159   0   0
159   0   0
160   0   0
160   0   0
160   0   0
159   0   0
159   0   0
158   0   0
156   0   0
155   0   0
153   0   0
150   0   0
148   0   0
145   0   0
142   0   0
138   0   0
134   0   0
130   0   0
126   0   0
121   0   0
116   0   0
111   0   0
106   0   0
100   0   0
 95   0   0
 89   0   0
 83   0   0
 78   0   0
 72   0   0
 66   0   0
255 255 255
255 255 255
255 255 255
255 255 255
255 255 255
255 255 255
255 255 255
255 255 255
255 255 255
255 255 255
255 255 255
255 255 255
255 255 255
255 255 255
255 255 255
255 255 255
255 255 255
255 255 255
255 255 255
255 255 255
255 255 255
255 255 255
255 255 255
255 255 255
255 255 255
255 255 255
255 255 255
255 255 255
255 255 255
255 255 255
255 255 255
255 255 255
255 255 255
255 255 255
255 255 255
255 255 255
255 255 255
255 255 255
255 255 255
255 255 255
255 255 255
255 255 255
255 255 255
255 255 255
255 255 255
255 255 255
255 255 255
255 255 255
255 255 255
255 255 255
255 255 255
255 255 255
255 255 255
255 255 255
255 255 255
255 255 255
255 255 255
255 255 255
255 255 255
255 255 255
255 255 255
255 255 255
255 255 255
255 255 255
255 255 255
255 255 255
255 255 255
255 255 255
255 255 255
255 255 255
255 255 255
255 255 255
255 255 255
255 255 255
255 255 255
255 255 255
255 255 255
255 255 255
255 255 255
255 255 255
255 255 255
255 255 255
255 255 255
255 255 255
255 255 255
255 255 255
255 255 255
255 255 255
255 255 255
255 255 255
255 255 255
255 255 255
255 255 255
255 255 255
255 255 255
255 255 255
255 255 255
255 255 255
255 255 255
255 255 255
255 255 255
255 255 255
255 255 255
255 255 255
255 255 255
255 255 255
255 255 255
255 255 255
255 255 255
255 255 255
255 255 255
255 255 255
255 255 255
255 150   0
255 255 255
255 255 255
255 255 255
255 255 255
255 255 255
255 255 255
255 255 255
255 255 255
255 255 255
255 255 255
255 255 255
255 255 255
255 255 255
255 255 255
255 255 255
255 255 255
255 255 255
255 255 255
  0   0   0
  0   0   0
  0   0   0
  0   0   0
255 255 255
255 255 255
255 255 255
255 255 255
255 255 255
255 255 255
255 255 255
255 255 255
255 255 255
255 255 255
 69   0   0
 75   0   0
 82   0   0
 89   0   0
 96   0   0
102   0   0
109   0   0
255 150   0
121   0   0
127   0   0
132   0   0
138   0   0
143   0   0
148   0   0
152   0   0
156   0   0
160   0   0
163   0   0
166   0   0
169   0   0
172   0   0
174   0   0
176   0   0
177   0   0
179   0   0
180   0   0
180   0   0
181   0   0
181   0   0
181   0   0
180   0   0
180   0   0
179   0   0
177   0   0
176   0   0
174   0   0
172   0   0
169   0   0
166   0   0
163   0   0
160   0   0
156   0   0
152   0   0
148   0   0
143   0   0
138   0   0
132   0   0
127   0   0
121   0   0
115   0   0
109   0   0
102   0   0
 96   0   0
 89   0   0
 83   0   0
 76   0   0
 70   0   0
255 255 255
255 255 255
255 255 255
255 255 255
255 255 255
255 255 255
255 255 255
255 255 255
255 255 255
255 255 255
255 255 255
255 255 255
255 255 255
255 255 255
255 255 255
255 255 255
255 255 255
255 255 255
255 255 255
255 255 255
255 255 255
255 255 255
255 255 255
255 255 255
255 255 255
255 255 255
255 255 255
255 255 255
255 255 255
255 255 255
255 255 255
255 255 255
255 255 255
255 255 255
255 255 255
255 255 255
255 255 255
255 255 255
255 255 255
255 255 255
255 255 255
255 255 255
255 255 255
255 255 255
255 255 255
255 255 255
255 255 255
255 255 255
255 255 255
255 255 255
255 255 255
255 255 255
255 255 255
255 255 255
255 255 255
255 255 255
255 255 255
255 255 255
255 255 255
255 255 255
255 255 255
255 255 255
255 255 255
255 255 255
255 255 255
255 255 255
255 255 255
255 255 255
255 255 255
255 255 255
255 255 255
255 255 255
255 255 255
255 255 255
255 255 255
255 255 255
255 255 255
255 255 255
255 255 255
255 255 255
255 255 255
255 255 255
255 255 255
255 255 255
255 255 255
255 255 255
255 255 255
255 255 255
255 255 255
255 255 255
255 255 255
255 255 255
255 255 255
255 255 255
255 255 255
255 255 255
255 255 255
255 255 255
255 255 255
255 255 255
255 255 255
255 255 255
255 255 255
255 255 255
255 255 255
255 255 255
255 255 255
255 255 255
255 255 255
255 255 255
255 255 255
255 150   0
255 255 255
255 255 255
255 255 255
255 255 255
255 255 255
255 255 255
255 255 255
255 255 255
255 255 255
255 255 255
255 255 255
255 255 255
255 255 255
255 255 255
255 255 255
255 255 255
255 255 255
255 255 255
  0   0   0
  0   0   0
  0   0   0
  0   0   0
255 255 255
255 255 255
255 255 255
255 255 255
255 255 255
255 255 255
255 255 255
255 255 255
 70   0   0
 77   0   0
 85   0   0
 93   0   0
101   0   0
108   0   0
116   0   0
123   0   0
129   0   0
255 150   0
142   0   0
148   0   0
154   0   0
159   0   0
164   0   0
169   0   0
173   0   0
177   0   0
180   0   0
184   0   0
186   0   0
189   0   0
191   0   0
193   0   0
194   0   0
196   0   0
197   0   0
198   0   0
198   0   0
199   0   0
199   0   0
199   0   0
198   0   0
198   0   0
197   0   0
196   0   0
194   0   0
193   0   0
191   0   0
189   0   0
186   0   0
184   0   0
180   0   0
177   0   0
173   0   0
169   0   0
164   0   0
159   0   0
154   0   0
148   0   0
142   0   0
136   0   0
129   0   0
123   0   0
116   0   0
109   0   0
101   0   0
 94   0   0
 87   0   0
 80   0   0
 73   0   0
 66   0   0
255 255 255
255 255 255
255 255 255
255 255 255
255 255 255
255 255 255
255 255 255
255 255 255
255 255 255
255 255 255
255 255 255
255 255 255
255 255 255
255 255 255
255 255 255
255 255 255
255 255 255
255 255 255
255 255 255
255 255 255
255 255 255
255 255 255
255 255 255
255 255 255
255 255 255
255 255 255
255 255 255
255 255 255
255 255 255
255 255 255
255 255 255
255 255 255
255 255 255
255 255 255
255 255 255
255 255 255
255 255 255
255 255 255
255 255 255
255 255 255
255 255 255
255 255 255
255 255 255
255 255 255
255 255 255
255 255 255
255 255 255
255 255 255
255 255 255
255 255 255
255 255 255
255 255 255
255 255 255
255 255 255
255 255 255
255 255 255
255 255 255
255 255 255
255 255 255
255 255 255
255 255 255
255 255 255
255 255 255
255 255 255
255 255 255
255 255 255
255 255 255
255 255 255
255 255 255
255 255 255
255 255 255
255 255 255
255 255 255
255 255 255
255 255 255
255 255 255
255 255 255
255 255 255
255 255 255
255 255 255
255 255 255
255 255 255
255 255 255
255 255 255
255 255 255
255 255 255
255 255 255
255 255 255
255 255 255
255 255 255
255 255 255
255 255 255
255 255 255
255 255 255
255 255 255
255 255 255
255 255 255
255 255 255
255 255 255
255 255 255
255 255 255
255 255 255
255 255 255
255 255 255
255 255 255
255 255 255
255 255 255
255 255 255
255 150   0
255 255 255
255 255 255
255 255 255
255 255 255
255 255 255
255 255 255
255 255 255
255 255 255
255 255 255
255 255 255
255 255 255
255 255 255
255 255 255
255 255 255
255 255 255
255 255 255
255 255 255
255 255 255
  0   0   0
  0   0   0
  0   0   0
  0   0   0
255 255 255
255 255 255
255 255 255
255 255 255
255 255 255
255 255 255
 68   0   0
 77   0   0
 86   0   0
 95   0   0
104   0   0
112   0   0
121   0   0
129   0   0
136   0   0
144   0   0
151   0   0
255 150   0
163   0   0
169   0   0
175   0   0
180   0   0
184   0   0
188   0   0
192   0   0
195   0   0
198   0   0
201   0   0
203   0   0
205   0   0
206   0   0
208   0   0
209   0   0
210   0   0
210   0   0
211   0   0
211   0   0
211   0   0
211   0   0
211   0   0
211   0   0
211   0   0
210   0   0
210   0   0
209   0   0
208   0   0
206   0   0
205   0   0
203   0   0
201   0   0
198   0   0
195   0   0
192   0   0
188   0   0
184   0   0
180   0   0
175   0   0
169   0   0
163   0   0
157   0   0
151   0   0
144   0   0
137   0   0
129   0   0
121   0   0
114   0   0
106   0   0
 98   0   0
 90   0   0
 82   0   0
 75   0   0
 67   0   0
255 255 255
255 255 255
255 255 255
255 255 255
255 255 255
255 255 255
255 255 255
255 255 255
255 255 255
255 255 255
255 255 255
255 255 255
255 255 255
255 255 255
255 255 255
255 255 255
255 255 255
255 255 255
255 255 255
255 255 255
255 255 255
255 255 255
255 255 255
255 255 255
255 255 255
255 255 255
255 255 255
255 255 255
255 255 255
255 255 255
255 255 255
255 255 255
255 255 255
255 255 255
255 255 255
255 255 255
255 255 255
255 255 255
255 255 255
255 255 255
255 255 255
255 255 255
255 255 255
255 255 255
255 255 255
255 255 255
255 255 255
255 255 255
255 255 255
255 255 255
255 255 255
255 255 255
255 255 255
255 255 255
255 255 255
255 255 255
255 255 255
255 255 255
255 255 255
255 255 255
255 255 255
255 255 255
255 255 255
255 255 255
255 255 255
255 255 255
255 255 255
255 255 255
255 255 255
255 255 255
255 255 255
255 255 255
255 255 255
255 255 255
255 255 255
255 255 255
255 255 255
255 255 255
255 255 255
255 255 255
255 255 255
255 255 255
255 255 255
255 255 255
255 255 255
255 255 255
255 255 255
255 255 255
255 255 255
255 255 255
255 255 255
255 255 255
255 255 255
255 255 255
255 255 255
255 255 255
255 255 255
255 255 255
255 255 255
255 255 255
255 255 255
255 255 255
255 255 255
255 255 255
255 255 255
255 255 255
255 150   0
255 255 255
255 255 255
255 255 255
255 255 255
255 255 255
255 255 255
255 255 255
255 255 255
255 255 255
255 255 255
255 255 255
255 255 255
255 255 255
255 255 255
255 255 255
255 255 255
255 255 255
255 255 255
  0   0   0
  0   0   0
  0   0   0
  0   0   0
255 255 255
255 255 255
255 255 255
255 255 255
 65   0   0
 74   0   0
 84   0   0
 94   0   0
104   0   0
114   0   0
123   0   0
132   0   0
141   0   0
149   0   0
157   0   0
165   0   0
171   0   0
255 150   0
183   0   0
188   0   0
193   0   0
197   0   0
201   0   0
204   0   0
207   0   0
209   0   0
211   0   0
213   0   0
214   0   0
215   0   0
216   0   0
216   0   0
216   0   0
217   0   0
217   0   0
217   0   0
217   0   0
217   0   0
217   0   0
217   0   0
217   0   0
217   0   0
217   0   0
217   0   0
216   0   0
216   0   0
216   0   0
215   0   0
214   0   0
213   0   0
211   0   0
209   0   0
207   0   0
204   0   0
201   0   0
197   0   0
193   0   0
188   0   0
183   0   0
177   0   0
171   0   0
165   0   0
158   0   0
150   0   0
142   0   0
134   0   0
126   0   0
117   0   0
109   0   0
100   0   0
 92   0   0
 83   0   0
 75   0   0
 67   0   0
255 255 255
255 255 255
255 255 255
255 255 255
255 255 255
255 255 255
255 255 255
255 255 255
255 255 255
255 255 255
255 255 255
255 255 255
255 255 255
255 255 255
255 255 255
255 255 255
255 255 255
255 255 255
255 255 255
255 255 255
255 255 255
255 255 255
255 255 255
255 255 255
255 255 255
255 255 255
255 255 255
255 255 255
255 255 255
255 255 255
255 255 255
255 255 255
255 255 255
255 255 255
255 255 255
255 255 255
255 255 255
255 255 255
255 255 255
255 255 255
255 255 255
255 255 255
255 255 255
255 255 255
255 255 255
255 255 255
255 255 255
255 255 255
255 255 255
255 255 255
255 255 255
255 255 255
255 255 255
255 255 255
255 255 255
255 255 255
255 255 255
255 255 255
255 255 255
255 255 255
255 255 255
255 255 255
255 255 255
255 255 255
255 255 255
255 255 255
255 255 255
255 255 255
255 255 255
255 255 255
255 255 255
255 255 255
255 255 255
255 255 255
255 255 255
255 255 255
255 255 255
255 255 255
255 255 255
255 255 255
255 255 255
255 255 255
255 255 255
255 255 255
255 255 255
255 255 255
255 255 255
255 255 255
255 255 255
255 255 255
255 255 255
255 255 255
255 255 255
255 255 255
255 255 255
255 255 255
255 255 255
255 255 255
255 255 255
255 255 255
255 255 255
255 255 255
255 255 255
255 255 255
255 150   0
255 255 255
255 255 255
255 255 255
255 255 255
255 255 255
255 255 255
255 255 255
255 255 255
255 255 255
255 255 255
255 255 255
255 255 255
255 255 255
255 255 255
255 255 255
255 255 255
255 255 255
255 255 255
  0   0   0
  0   0   0
  0   0   0
  0   0   0
255 255 255
255 255 255
255 255 255
 69   0   0
 79   0   0
 90   0   0
101   0   0
112   0   0
123   0   0
133   0   0
143   0   0
153   0   0
162   0   0
170   0   0
177   0   0
184   0   0
190   0   0
255 150   0
200   0   0
204   0   0
207   0   0
210   0   0
213   0   0
214   0   0
216   0   0
217   0   0
217   0   0
217   0   0
217   0   0
216   0   0
216   0   0
215   0   0
215   0   0
214   0   0
213   0   0
213   0   0
212   0   0
212   0   0
212   0   0
212   0   0
212   0   0
213   0   0
213   0   0
214   0   0
215   0   0
215   0   0
216   0   0
216   0   0
217   0   0
217   0   0
217   0   0
217   0   0
216   0   0
214   0   0
213   0   0
210   0   0
207   0   0
204   0   0
200   0   0
195   0   0
190   0   0
184   0   0
177   0   0
170   0   0
163   0   0
155   0   0
146   0   0
138   0   0
129   0   0
119   0   0
110   0   0
101   0   0
 92   0   0
 83   0   0
 75   0   0
 66   0   0
255 255 255
255 255 255
255 255 255
255 255 255
255 255 255
255 255 255
255 255 255
255 255 255
255 255 255
255 255 255
255 255 255
255 255 255
255 255 255
255 255 255
255 255 255
255 255 255
255 255 255
255 255 255
255 255 255
255 255 255
255 255 255
255 255 255
255 255 255
255 255 255
255 255 255
255 255 255
255 255 255
255 255 255
255 255 255
255 255 255
255 255 255
255 255 255
255 255 255
255 255 255
255 255 255
255 255 255
255 255 255
255 255 255
255 255 255
255 255 255
255 255 255
255 255 255
255 255 255
255 255 255
255 255 255
255 255 255
255 255 255
255 255 255
255 255 255
255 255 255
255 255 255
255 255 255
255 255 255
255 255 255
255 255 255
255 255 255
255 255 255
255 255 255
255 255 255
255 255 255
255 255 255
255 255 255
255 255 255
255 255 255
255 255 255
255 255 255
255 255 255
255 255 255
255 255 255
255 255 255
255 255 255
255 255 255
255 255 255
255 255 255
255 255 255
255 255 255
255 255 255
255 255 255
255 255 255
255 255 255
255 255 255
255 255 255
255 255 255
255 255 255
255 255 255
255 255 255
255 255 255
255 255 255
255 255 255
255 255 255
255 255 255
255 255 255
255 255 255
255 255 255
255 255 255
255 255 255
255 255 255
255 255 255
255 255 255
255 255 255
255 255 255
255 255 255
255 150   0
255 255 255
255 255 255
255 255 255
255 255 255
255 255 255
255 255 255
255 255 255
255 255 255
255 255 255
255 255 255
255 255 255
255 255 255
255 255 255
255 255 255
255 255 255
255 255 255
255 255 255
255 255 255
  0   0   0
  0   0   0
  0   0   0
  0   0   0
255 255 255
255 255 255
 71   0   0
 83   0   0
 95   0   0
107   0   0
119   0   0
131   0   0
142   0   0
153   0   0
163   0   0
172   0   0
181   0   0
188   0   0
195   0   0
200   0   0
205   0   0
255 150   0
212   0   0
214   0   0
216   0   0
217   0   0
217   0   0
217   0   0
216   0   0
215   0   0
213   0   0
211   0   0
209   0   0
206   0   0
204   0   0
201   0   0
199   0   0
196   0   0
194   0   0
193   0   0
192   0   0
191   0   0
191   0   0
191   0   0
192   0   0
193   0   0
194   0   0
196   0   0
199   0   0
201   0   0
204   0   0
206   0   0
209   0   0
211   0   0
213   0   0
215   0   0
216   0   0
217   0   0
217   0   0
217   0   0
216   0   0
214   0   0
212   0   0
209   0   0
205   0   0
200   0   0
195   0   0
189   0   0
182   0   0
175   0   0
167   0   0
158   0   0
149   0   0
140   0   0
130   0   0
120   0   0
110   0   0
101   0   0
 91   0   0
 82   0   0
 73   0   0
 64   0   0
255 255 255
255 255 255
255 255 255
255 255 255
255 255 255
255 255 255
255 255 255
255 255 255
255 255 255
255 255 255
255 255 255
255 255 255
255 255 255
255 255 255
255 255 255
255 255 255
255 255 255
255 255 255
255 255 255
255 255 255
255 255 255
255 255 255
255 255 255
255 255 255
255 255 255
255 255 255
255 255 255
255 255 255
255 255 255
255 255 255
255 255 255
255 255 255
255 255 255
255 255 255
255 255 255
255 255 255
255 255 255
255 255 255
255 255 255
255 255 255
255 255 255
255 255 255
255 255 255
255 255 255
255 255 255
255 255 255
255 255 255
255 255 255
255 255 255
255 255 255
255 255 255
255 255 255
255 255 255
255 255 255
255 255 255
255 255 255
255 255 255
255 255 255
255 255 255
255 255 255
255 255 255
255 255 255
255 255 255
255 255 255
255 255 255
255 255 255
255 255 255
255 255 255
255 255 255
255 255 255
255 255 255
255 255 255
255 255 255
255 255 255
255 255 255
255 255 255
255 255 255
255 255 255
255 255 255
255 255 255
255 255 255
255 255 255
255 255 255
255 255 255
255 255 255
255 255 255
255 255 255
255 255 255
255 255 255
255 255 255
255 255 255
255 255 255
255 255 255
255 255 255
255 255 255
255 255 255
255 255 255
255 255 255
255 255 255
255 255 255
255 150   0
255 255 255
255 255 255
255 255 255
255 255 255
255 255 255
255 255 255
255 255 255
255 255 255
255 255 255
255 255 255
255 255 255
255 255 255
255 255 255
255 255 255
255 255 255
255 255 255
255 255 255
255 255 255
  0   0   0
  0   0   0
  0   0   0
  0   0   0
255 255 255
 72   0   0
 85   0   0
 98   0   0
112   0   0
125   0   0
138   0   0
150   0   0
161   0   0
172   0   0
182   0   0
190   0   0
197   0   0
203   0   0
208   0   0
212   0   0
215   0   0
255 150   0
217   0   0
217   0   0
216   0   0
214   0   0
211   0   0
208   0   0
204   0   0
199   0   0
194   0   0
188   0   0
182   0   0
175   0   0
169   0   0
162   0   0
155   0   0
148   0   0
142   0   0
137   0   0
133   0   0
131   0   0
130   0   0
131   0   0
133   0   0
137   0   0
142   0   0
148   0   0
155   0   0
162   0   0
169   0   0
175   0   0
182   0   0
188   0   0
194   0   0
199   0   0
204   0   0
208   0   0
211   0   0
214   0   0
216   0   0
217   0   0
217   0   0
216   0   0
215   0   0
212   0   0
209   0   0
204   0   0
199   0   0
192   0   0
185   0   0
177   0   0
169   0   0
160   0   0
150   0   0
140   0   0
130   0   0
119   0   0
109   0   0
 99   0   0
 89   0   0
 79   0   0
 70   0   0
255 255 255
255 255 255
255 255 255
255 255 255
255 255 255
255 255 255
255 255 255
255 255 255
255 255 255
255 255 255
255 255 255
255 255 255
255 255 255
255 255 255
255 255 255
255 255 255
255 255 255
255 255 255
255 255 255
255 255 255
255 255 255
255 255 255
255 255 255
255 255 255
255 255 255
255 255 255
255 255 255
255 255 255
255 255 255
255 255 255
255 255 255
255 255 255
255 255 255
255 255 255
255 255 255
255 255 255
255 255 255
255 255 255
255 255 255
255 255 255
255 255 255
255 255 255
255 255 255
255 255 255
255 255 255
255 255 255
255 255 255
255 255 255
255 255 255
255 255 255
255 255 255
255 255 255
255 255 255
255 255 255
255 255 255
255 255 255
255 255 255
255 255 255
255 255 255
255 255 255
255 255 255
255 255 255
255 255 255
255 255 255
255 255 255
255 255 255
255 255 255
255 255 255
255 255 255
255 255 255
255 255 255
255 255 255
255 255 255
255 255 255
255 255 255
255 255 255
255 255 255
255 255 255
255 255 255
255 255 255
255 255 255
255 255 255
255 255 255
255 255 255
255 255 255
255 255 255
255 255 255
255 255 255
255 255 255
255 255 255
255 255 255
255 255 255
255 255 255
255 255 255
255 255 255
255 255 255
255 255 255
255 255 255
255 255 255
255 150   0
255 255 255
255 255 255
255 255 255
255 255 255
255 255 255
255 255 255
255 255 255
255 255 255
255 255 255
255 255 255
255 255 255
255 255 255
255 255 255
255 255 255
255 255 255
255 255 255
255 255 255
255 255 255
  0   0   0
  0   0   0
  0   0   0
  0   0   0
 71   0   0
 86   0   0
100   0   0
114   0   0
128   0   0
142   0   0
155   0   0
168   0   0
179   0   0
189   0   0
197   0   0
204   0   0
209   0   0
213   0   0
216   0   0
217   0   0
217   0   0
255 150   0
213   0   0
209   0   0
204   0   0
197   0   0
190   0   0
180   0   0
170   0   0
157   0   0
142   0   0
122   0   0
 90   0   0
  0   0  77
  0   0 112
  0   0 130
  0   0 142
  0   0 150
  0   0 157
  0   0 161
  0   0 164
  0   0 166
  0   0 167
  0   0 166
  0   0 164
  0   0 161
  0   0 157
  0   0 150
  0   0 142
  0   0 130
  0   0 112
  0   0  77
 90   0   0
122   0   0
142   0   0
157   0   0
170   0   0
180   0   0
190   0   0
197   0   0
204   0   0
209   0   0
213   0   0
215   0   0
217   0   0
217   0   0
216   0   0
214   0   0
211   0   0
206   0   0
201   0   0
194   0   0
187   0   0
179   0   0
169   0   0
160   0   0
150   0   0
139   0   0
128   0   0
117   0   0
106   0   0
 96   0   0
 85   0   0
 76   0   0
 66   0   0
255 255 255
255 255 255
255 255 255
255 255 255
255 255 255
255 255 255
255 255 255
255 255 255
255 255 255
255 255 255
255 255 255
255 255 255
255 255 255
255 255 255
255 255 255
255 255 255
255 255 255
255 255 255
255 255 255
255 255 255
255 255 255
255 255 255
255 255 255
255 255 255
255 255 255
255 255 255
255 255 255
255 255 255
255 255 255
255 255 255
255 255 255
255 255 255
255 255 255
255 255 255
255 255 255
255 255 255
255 255 255
255 255 255
255 255 255
255 255 255
255 255 255
255 255 255
255 255 255
255 255 255
255 255 255
255 255 255
255 255 255
255 255 255
255 255 255
255 255 255
255 255 255
255 255 255
255 255 255
255 255 255
255 255 255
255 255 255
255 255 255
255 255 255
255 255 255
255 255 255
255 255 255
255 255 255
255 255 255
255 255 255
255 255 255
255 255 255
255 255 255
255 255 255
255 255 255
255 255 255
255 255 255
255 255 255
255 255 255
255 255 255
255 255 255
255 255 255
255 255 255
255 255 255
255 255 255
255 255 255
255 255 255
255 255 255
255 255 255
255 255 255
255 255 255
255 255 255
255 255 255
255 255 255
255 255 255
255 255 255
255 255 255
255 255 255
255 255 255
255 255 255
255 255 255
255 255 255
255 255 255
255 150   0
255 255 255
255 255 255
255 255 255
255 255 255
255 255 255
255 255 255
255 255 255
255 255 255
255 255 255
255 255 255
255 255 255
255 255 255
255 255 255
255 255 255
255 255 255
255 255 255
255 255 255
255 255 255
  0   0   0
  0   0   0
  0   0   0
  0   0   0
 83   0   0
 99   0   0
115   0   0
130   0   0
145   0   0
159   0   0
172   0   0
183   0   0
193   0   0
202   0   0
208   0   0
213   0   0
216   0   0
216   0   0
215   0   0
213   0   0
208   0   0
255 150   0
194   0   0
183   0   0
170   0   0
153   0   0
129   0   0
 85   0   0
  0   0 105
  0   0 137
  0   0 156
  0   0 170
  0   0 181
  0   0 190
  0   0 196
  0   0 202
  0   0 207
  0   0 210
  0   0 213
  0   0 215
  0   0 217
  0   0 217
  0   0 218
  0   0 217
  0   0 217
  0   0 215
  0   0 213
  0   0 210
  0   0 207
  0   0 202
  0   0 196
  0   0 190
  0   0 181
  0   0 170
  0   0 156
  0   0 137
  0   0 105
 85   0   0
129   0   0
153   0   0
170   0   0
183   0   0
194   0   0
202   0   0
208   0   0
213   0   0
216   0   0
217   0   0
217   0   0
215   0   0
212   0   0
208   0   0
202   0   0
195   0   0
187   0   0
178   0   0
169   0   0
158   0   0
147   0   0
136   0   0
125   0   0
114   0   0
102   0   0
 91   0   0
 81   0   0
 71   0   0
255 255 255
255 255 255
255 255 255
255 255 255
255 255 255
255 255 255
255 255 255
255 255 255
255 255 255
255 255 255
255 255 255
255 255 255
255 255 255
255 255 255
255 255 255
255 255 255
255 255 255
255 255 255
255 255 255
255 255 255
255 255 255
255 255 255
255 255 255
255 255 255
255 255 255
255 255 255
255 255 255
255 255 255
255 255 255
255 255 255
255 255 255
255 255 255
255 255 255
255 255 255
255 255 255
255 255 255
255 255 255
255 255 255
255 255 255
255 255 255
255 255 255
255 255 255
255 255 255
255 255 255
255 255 255
255 255 255
255 255 255
255 255 255
255 255 255
255 255 255
255 255 255
255 255 255
255 255 255
255 255 255
255 255 255
255 255 255
255 255 255
255 255 255
255 255 255
255 255 255
255 255 255
255 255 255
255 255 255
255 255 255
255 255 255
255 255 255
255 255 255
255 255 255
255 255 255
255 255 255
255 255 255
255 255 255
255 255 255
255 255 255
255 255 255
255 255 255
255 255 255
255 255 255
255 255 255
255 255 255
255 255 255
255 255 255
255 255 255
255 255 255
255 255 255
255 255 255
255 255 255
255 255 255
255 255 255
255 255 255
255 255 255
255 255 255
255 255 255
255 255 255
255 255 255
255 255 255
255 150   0
255 255 255
255 255 255
255 255 255
255 255 255
255 255 255
255 255 255
255 255 255
255 255 255
255 255 255
255 255 255
255 255 255
255 255 255
255 255 255
255 255 255
255 255 255
255 255 255
255 255 255
255 255 255
  0   0   0
  0   0   0
  0   0   0
  0   0   0
 95   0   0
113   0   0
129   0   0
145   0   0
160   0   0
174   0   0
186   0   0
196   0   0
204   0   0
210   0   0
213   0   0
214   0   0
213   0   0
210   0   0
203   0   0
195   0   0
183   0   0
255 150   0
144   0   0
106   0   0
  0   0 100
  0   0 141
  0   0 164
  0   0 181
  0   0 194
  0   0 204
  0   0 212
  0   0 219
  0   0 224
  0   0 229
  0   0 233
  0   0 236
  0   0 238
  0   0 240
  0   0 241
  0   0 243
  0   0 243
  0   0 244
  0   0 244
  0   0 244
  0   0 243
  0   0 243
  0   0 241
  0   0 240
  0   0 238
  0   0 236
  0   0 233
  0   0 229
  0   0 224
  0   0 219
  0   0 212
  0   0 204
  0   0 194
  0   0 181
  0   0 164
  0   0 141
  0   0 100
106   0   0
144   0   0
167   0   0
183   0   0
195   0   0
204   0   0
210   0   0
214   0   0
217   0   0
217   0   0
216   0   0
213   0   0
208   0   0
202   0   0
195   0   0
186   0   0
177   0   0
166   0   0
155   0   0
144   0   0
132   0   0
120   0   0
108   0   0
 97   0   0
 86   0   0
 75   0   0
 65   0   0
255 255 255
255 255 255
255 255 255
255 255 255
255 255 255
255 255 255
255 255 255
255 255 255
255 255 255
255 255 255
255 255 255
255 255 255
255 255 255
255 255 255
255 255 255
255 255 255
255 255 255
255 255 255
255 255 255
255 255 255
255 255 255
255 255 255
255 255 255
255 255 255
255 255 255
255 255 255
255 255 255
255 255 255
255 255 255
255 255 255
255 255 255
255 255 255
255 255 255
255 255 255
255 255 255
255 255 255
255 255 255
255 255 255
255 255 255
255 255 255
255 255 255
255 255 255
255 255 255
255 255 255
255 255 255
255 255 255
255 255 255
255 255 255
255 255 255
255 255 255
255 255 255
255 255 255
255 255 255
255 255 255
255 255 255
255 255 255
255 255 255
255 255 255
255 255 255
255 255 255
255 255 255
255 255 255
255 255 255
255 255 255
255 255 255
255 255 255
255 255 255
255 255 255
255 255 255
255 255 255
255 255 255
255 255 255
255 255 255
255 255 255
255 255 255
255 255 255
255 255 255
255 255 255
255 255 255
255 255 255
255 255 255
255 255 255
255 255 255
255 255 255
255 255 255
255 255 255
255 255 255
255 255 255
255 255 255
255 255 255
255 255 255
255 255 255
255 255 255
255 255 255
255 150   0
255 255 255
255 255 255
255 255 255
255 255 255
255 255 255
255 255 255
255 255 255
255 255 255
255 255 255
255 255 255
255 255 255
255 255 255
255 255 255
255 255 255
255 255 255
255 255 255
255 255 255
255 255 255
  0   0   0
  0   0   0
  0   0   0
  0   0   0
107   0   0
126   0   0
143   0   0
159   0   0
173   0   0
185   0   0
196   0   0
203   0   0
208   0   0
211   0   0
210   0   0
206   0   0
199   0   0
188   0   0
172   0   0
148   0   0
106   0   0
255 150   0
  0   0 151
  0   0 175
  0   0 192
  0   0 205
  0   0 216
  0   0 224
  0   0 231
  0   0 236
  0   0 241
  0   0 244
  0   0 247
  0   0 249
  0   0 251
  0   0 252
  0   0 253
  0   0 253
  0   0 254
  0   0 254
  0   0 254
  0   0 254
  0   0 254
  0   0 254
  0   0 254
  0   0 254
  0   0 254
  0   0 253
  0   0 253
  0   0 252
  0   0 251
  0   0 249
  0   0 247
  0   0 244
  0   0 241
  0   0 236
  0   0 231
  0   0 224
  0   0 216
  0   0 205
  0   0 192
  0   0 175
  0   0 151
  0   0 110
106   0   0
148   0   0
172   0   0
188   0   0
200   0   0
208   0   0
213   0   0
216   0   0
217   0   0
216   0   0
213   0   0
208   0   0
201   0   0
193   0   0
184   0   0
174   0   0
163   0   0
151   0   0
139   0   0
127   0   0
114   0   0
102   0   0
 90   0   0
 79   0   0
 69   0   0
255 255 255
255 255 255
255 255 255
255 255 255
255 255 255
255 255 255
255 255 255
255 255 255
255 255 255
255 255 255
255 255 255
255 255 255
255 255 255
255 255 255
255 255 255
255 255 255
255 255 255
255 255 255
255 255 255
255 255 255
255 255 255
255 255 255
255 255 255
255 255 255
255 255 255
255 255 255
255 255 255
255 255 255
255 255 255
255 255 255
255 255 255
255 255 255
255 255 255
255 255 255
255 255 255
255 255 255
255 255 255
255 255 255
255 255 255
255 255 255
255 255 255
255 255 255
255 255 255
255 255 255
255 255 255
255 255 255
255 255 255
255 255 255
255 255 255
255 255 255
255 255 255
255 255 255
255 255 255
255 255 255
255 255 255
255 255 255
255 255 255
255 255 255
255 255 255
255 255 255
255 255 255
255 255 255
255 255 255
255 255 255
255 255 255
255 255 255
255 255 255
255 255 255
255 255 255
255 255 255
255 255 255
255 255 255
255 255 255
255 255 255
255 255 255
255 255 255
255 255 255
255 255 255
255 255 255
255 255 255
255 255 255
255 255 255
255 255 255
255 255 255
255 255 255
255 255 255
255 255 255
255 255 255
255 255 255
255 255 255
255 255 255
255 255 255
255 255 255
255 150   0
255 255 255
255 255 255
255 255 255
255 255 255
255 255 255
255 255 255
255 255 255
255 255 255
255 255 255
255 255 255
255 255 255
255 255 255
255 255 255
255 255 255
255 255 255
255 255 255
255 255 255
255 255 255
  0   0   0
  0   0   0
  0   0   0
  0   0   0
118   0   0
138   0   0
155   0   0
170   0   0
182   0   0
193   0   0
200   0   0
204   0   0
205   0   0
202   0   0
194   0   0
182   0   0
162   0   0
130   0   0
  0   0  81
  0   0 145
  0   0 174
255 150   0
  0   0 209
  0   0 220
  0   0 229
  0   0 237
  0   0 242
  0   0 246
  0   0 250
  0   0 252
  0   0 253
  0   0 254
  0   0 255
  0   0 255
  0   0 255
  0   0 254
  0   0 254
  0   0 254
  0   0 253
  0   0 253
  0   0 252
  0   0 252
  0   0 252
  0   0 252
  0   0 252
  0   0 253
  0   0 253
  0   0 254
  0   0 254
  0   0 254
  0   0 255
  0   0 255
  0   0 255
  0   0 254
  0   0 253
  0   0 252
  0   0 250
  0   0 246
  0   0 242
  0   0 237
  0   0 229
  0   0 220
  0   0 209
  0   0 194
  0   0 174
  0   0 145
  0   0  82
129   0   0
163   0   0
183   0   0
197   0   0
207   0   0
213   0   0
216   0   0
217   0   0
216   0   0
212   0   0
207   0   0
199   0   0
190   0   0
180   0   0
169   0   0
157   0   0
145   0   0
132   0   0
120   0   0
107   0   0
 95   0   0
 83   0   0
 72   0   0
255 255 255
255 255 255
255 255 255
255 255 255
255 255 255
255 255 255
255 255 255
255 255 255
255 255 255
255 255 255
255 255 255
255 255 255
255 255 255
255 255 255
255 255 255
255 255 255
255 255 255
255 255 255
255 255 255
255 255 255
255 255 255
255 255 255
255 255 255
255 255 255
255 255 255
255 255 255
255 255 255
255 255 255
255 255 255
255 255 255
255 255 255
255 255 255
255 255 255
255 255 255
255 255 255
255 255 255
255 255 255
255 255 255
255 255 255
255 255 255
255 255 255
255 255 255
255 255 255
255 255 255
255 255 255
255 255 255
255 255 255
255 255 255
255 255 255
255 255 255
255 255 255
255 255 255
255 255 255
255 255 255
255 255 255
255 255 255
255 255 255
255 255 255
255 255 255
255 255 255
255 255 255
255 255 255
255 255 255
255 255 255
255 255 255
255 255 255
255 255 255
255 255 255
255 255 255
255 255 255
255 255 255
255 255 255
255 255 255
255 255 255
255 255 255
255 255 255
255 255 255
255 255 255
255 255 255
255 255 255
255 255 255
255 255 255
255 255 255
255 255 255
255 255 255
255 255 255
255 255 255
255 255 255
255 255 255
255 255 255
255 255 255
255 255 255
255 150   0
255 255 255
255 255 255
255 255 255
255 255 255
255 255 255
255 255 255
255 255 255
255 255 255
255 255 255
255 255 255
255 255 255
255 255 255
255 255 255
255 255 255
255 255 255
255 255 255
255 255 255
255 255 255
  0   0   0
  0   0   0
  0   0   0
  0   0   0
127   0   0
147   0   0
163   0   0
177   0   0
187   0   0
194   0   0
197   0   0
196   0   0
190   0   0
178   0   0
156   0   0
115   0   0
  0   0 113
  0   0 160
  0   0 186
  0   0 205
  0   0 219
255 150   0
  0   0 238
  0   0 244
  0   0 249
  0   0 252
  0   0 254
  0   0 255
  0   0 255
  0   0 254
  0   0 254
  0   0 252
  0   0 251
  0   0 249
  0   0 247
  0   0 245
  0   0 243
  0   0 242
  0   0 240
  0   0 239
  0   0 239
  0   0 238
  0   0 238
  0   0 238
  0   0 239
  0   0 239
  0   0 240
  0   0 242
  0   0 243
  0   0 245
  0   0 247
  0   0 249
  0   0 251
  0   0 252
  0   0 254
  0   0 254
  0   0 255
  0   0 255
  0   0 254
  0   0 252
  0   0 249
  0   0 244
  0   0 238
  0   0 230
  0   0 219
  0   0 205
  0   0 187
  0   0 161
  0   0 117
112   0   0
157   0   0
181   0   0
196   0   0
207   0   0
214   0   0
217   0   0
217   0   0
215   0   0
211   0   0
204   0   0
196   0   0
186   0   0
175   0   0
163   0   0
151   0   0
137   0   0
124   0   0
111   0   0
 98   0   0
 86   0   0
 75   0   0
255 255 255
255 255 255
255 255 255
255 255 255
255 255 255
255 255 255
255 255 255
255 255 255
255 255 255
255 255 255
255 255 255
255 255 255
255 255 255
255 255 255
255 255 255
255 255 255
255 255 255
255 255 255
255 255 255
255 255 255
255 255 255
255 255 255
255 255 255
255 255 255
255 255 255
255 255 255
255 255 255
255 255 255
255 255 255
255 255 255
255 255 255
255 255 255
255 255 255
255 255 255
255 255 255
255 255 255
255 255 255
255 255 255
255 255 255
255 255 255
255 255 255
255 255 255
255 255 255
255 255 255
255 255 255
255 255 255
255 255 255
255 255 255
255 255 255
255 255 255
255 255 255
255 255 255
255 255 255
255 255 255
255 255 255
255 255 255
255 255 255
255 255 255
255 255 255
255 255 255
255 255 255
255 255 255
255 255 255
255 255 255
255 255 255
255 255 255
255 255 255
255 255 255
255 255 255
255 255 255
255 255 255
255 255 255
255 255 255
255 255 255
255 255 255
255 255 255
255 255 255
255 255 255
255 255 255
255 255 255
255 255 255
255 255 255
255 255 255
255 255 255
255 255 255
255 255 255
255 255 255
255 255 255
255 255 255
255 255 255
255 255 255
255 150   0
255 255 255
255 255 255
255 255 255
255 255 255
255 255 255
255 255 255
255 255 255
255 255 255
255 255 255
255 255 255
255 255 255
255 255 255
255 255 255
255 255 255
255 255 255
255 255 255
255 255 255
255 255 255
  0   0   0
  0   0   0
  0   0   0
  0   0   0
134   0   0
153   0   0
168   0   0
179   0   0
186   0   0
188   0   0
184   0   0
174   0   0
154   0   0
112   0   0
  0   0 119
  0   0 165
  0   0 192
  0   0 211
  0   0 225
  0   0 236
  0   0 243
255 150   0
  0   0 252
  0   0 254
  0   0 255
  0   0 255
  0   0 253
  0   0 251
  0   0 249
  0   0 245
  0   0 242
  0   0 238
  0   0 235
  0   0 231
  0   0 228
  0   0 224
  0   0 221
  0   0 219
  0   0 216
  0   0 215
  0   0 213
  0   0 213
  0   0 212
  0   0 213
  0   0 213
  0   0 215
  0   0 216
  0   0 219
  0   0 221
  0   0 224
  0   0 228
  0   0 231
  0   0 235
  0   0 238
  0   0 242
  0   0 245
  0   0 249
  0   0 251
  0   0 253
  0   0 255
  0   0 255
  0   0 254
  0   0 252
  0   0 249
  0   0 243
  0   0 236
  0   0 226
  0   0 212
  0   0 194
  0   0 169
  0   0 128
105   0   0
156   0   0
182   0   0
198   0   0
208   0   0
215   0   0
217   0   0
217   0   0
214   0   0
208   0   0
200   0   0
191   0   0
180   0   0
168   0   0
155   0   0
142   0   0
128   0   0
115   0   0
102   0   0
 89   0   0
 77   0   0
 66   0   0
255 255 255
255 255 255
255 255 255
255 255 255
255 255 255
255 255 255
255 255 255
255 255 255
255 255 255
255 255 255
255 255 255
255 255 255
255 255 255
255 255 255
255 255 255
255 255 255
255 255 255
255 255 255
255 255 255
255 255 255
255 255 255
255 255 255
255 255 255
255 255 255
255 255 255
255 255 255
255 255 255
255 255 255
255 255 255
255 255 255
255 255 255
255 255 255
255 255 255
255 255 255
255 255 255
255 255 255
255 255 255
255 255 255
255 255 255
255 255 255
255 255 255
255 255 255
255 255 255
255 255 255
255 255 255
255 255 255
255 255 255
255 255 255
255 255 255
255 255 255
255 255 255
255 255 255
255 255 255
255 255 255
255 255 255
255 255 255
255 255 255
255 255 255
255 255 255
255 255 255
255 255 255
255 255 255
255 255 255
255 255 255
255 255 255
255 255 255
255 255 255
255 255 255
255 255 255
255 255 255
255 255 255
255 255 255
255 255 255
255 255 255
255 255 255
255 255 255
255 255 255
255 255 255
255 255 255
255 255 255
255 255 255
255 255 255
255 255 255
255 255 255
255 255 255
255 255 255
255 255 255
255 255 255
255 255 255
255 150   0
255 255 255
255 255 255
255 255 255
255 255 255
255 255 255
255 255 255
255 255 255
255 255 255
255 255 255
255 255 255
255 255 255
255 255 255
255 255 255
255 255 255
255 255 255
255 255 255
255 255 255
255 255 255
  0   0   0
  0   0   0
  0   0   0
  0   0   0
138   0   0
155   0   0
167   0   0
174   0   0
175   0   0
170   0   0
154   0   0
119   0   0
  0   0 109
  0   0 161
  0   0 191
  0   0 211
  0   0 227
  0   0 238
  0   0 246
  0   0 251
  0   0 254
255 150   0
  0   0 254
  0   0 253
  0   0 250
  0   0 246
  0   0 242
  0   0 237
  0   0 231
  0   0 225
  0   0 220
  0   0 214
  0   0 208
  0   0 202
  0   0 197
  0   0 192
  0   0 187
  0   0 183
  0   0 180
  0   0 177
  0   0 175
  0   0 174
  0   0 174
  0   0 174
  0   0 175
  0   0 177
  0   0 180
  0   0 183
  0   0 187
  0   0 192
  0   0 197
  0   0 202
  0   0 208
  0   0 214
  0   0 220
  0   0 225
  0   0 231
  0   0 237
  0   0 242
  0   0 246
  0   0 250
  0   0 253
  0   0 254
  0   0 255
  0   0 254
  0   0 251
  0   0 246
  0   0 239
  0   0 229
  0   0 216
  0   0 197
  0   0 171
  0   0 127
112   0   0
161   0   0
186   0   0
201   0   0
211   0   0
216   0   0
217   0   0
216   0   0
211   0   0
204   0   0
195   0   0
185   0   0
173   0   0
160   0   0
146   0   0
132   0   0
118   0   0
104   0   0
 91   0   0
 79   0   0
 67   0   0
255 255 255
255 255 255
255 255 255
255 255 255
255 255 255
255 255 255
255 255 255
255 255 255
255 255 255
255 255 255
255 255 255
255 255 255
255 255 255
255 255 255
255 255 255
255 255 255
255 255 255
255 255 255
255 255 255
255 255 255
255 255 255
255 255 255
255 255 255
255 255 255
255 255 255
255 255 255
255 255 255
255 255 255
255 255 255
255 255 255
255 255 255
255 255 255
255 255 255
255 255 255
255 255 255
255 255 255
255 255 255
255 255 255
255 255 255
255 255 255
255 255 255
255 255 255
255 255 255
255 255 255
255 255 255
255 255 255
255 255 255
255 255 255
255 255 255
255 255 255
255 255 255
255 255 255
255 255 255
255 255 255
255 255 255
255 255 255
255 255 255
255 255 255
255 255 255
255 255 255
255 255 255
255 255 255
255 255 255
255 255 255
255 255 255
255 255 255
255 255 255
255 255 255
255 255 255
255 255 255
255 255 255
255 255 255
255 255 255
255 255 255
255 255 255
255 255 255
255 255 255
255 255 255
255 255 255
255 255 255
255 255 255
255 255 255
255 255 255
255 255 255
255 255 255
255 255 255
255 255 255
255 255 255
255 150   0
255 255 255
255 255 255
255 255 255
255 255 255
255 255 255
255 255 255
255 255 255
255 255 255
255 255 255
255 255 255
255 255 255
255 255 255
255 255 255
255 255 255
255 255 255
255 255 255
255 255 255
255 255 255
  0   0   0
  0   0   0
  0   0   0
  0   0   0
137   0   0
152   0   0
160   0   0
160   0   0
151   0   0
127   0   0
  0   0  76
  0   0 148
  0   0 182
  0   0 206
  0   0 224
  0   0 237
  0   0 246
  0   0 251
  0   0 254
  0   0 255
  0   0 253
255 150   0
  0   0 246
  0   0 240
  0   0 234
  0   0 227
  0   0 219
  0   0 211
  0   0 203
  0   0 194
  0   0 186
  0   0 177
  0   0 168
  0   0 159
  0   0 151
  0   0 142
  0   0 134
  0   0 126
  0   0 120
  0   0 114
  0   0 109
  0   0 106
  0   0 105
  0   0 106
  0   0 109
  0   0 114
  0   0 120
  0   0 126
  0   0 134
  0   0 142
  0   0 151
  0   0 159
  0   0 168
  0   0 177
  0   0 186
  0   0 194
  0   0 203
  0   0 211
  0   0 219
  0   0 227
  0   0 234
  0   0 240
  0   0 246
  0   0 250
  0   0 253
  0   0 255
  0   0 255
  0   0 252
  0   0 248
  0   0 241
  0   0 230
  0   0 216
  0   0 196
  0   0 167
  0   0 114
129   0   0
170   0   0
192   0   0
206   0   0
214   0   0
217   0   0
217   0   0
213   0   0
207   0   0
199   0   0
188   0   0
176   0   0
163   0   0
149   0   0
135   0   0
121   0   0
107   0   0
 93   0   0
 80   0   0
 68   0   0
255 255 255
255 255 255
255 255 255
255 255 255
255 255 255
255 255 255
255 255 255
255 255 255
255 255 255
255 255 255
255 255 255
255 255 255
255 255 255
255 255 255
255 255 255
255 255 255
255 255 255
255 255 255
255 255 255
255 255 255
255 255 255
255 255 255
255 255 255
255 255 255
255 255 255
255 255 255
255 255 255
255 255 255
255 255 255
255 255 255
255 255 255
255 255 255
255 255 255
255 255 255
255 255 255
255 255 255
255 255 255
255 255 255
255 255 255
255 255 255
255 255 255
255 255 255
255 255 255
255 255 255
255 255 255
255 255 255
255 255 255
255 255 255
255 255 255
255 255 255
255 255 255
255 255 255
255 255 255
255 255 255
255 255 255
255 255 255
255 255 255
255 255 255
255 255 255
255 255 255
255 255 255
255 255 255
255 255 255
255 255 255
255 255 255
255 255 255
255 255 255
255 255 255
255 255 255
255 255 255
255 255 255
255 255 255
255 255 255
255 255 255
255 255 255
255 255 255
255 255 255
255 255 255
255 255 255
255 255 255
255 255 255
255 255 255
255 255 255
255 255 255
255 255 255
255 255 255
255 255 255
255 150   0
255 255 255
255 255 255
255 255 255
255 255 255
255 255 255
255 255 255
255 255 255
255 255 255
255 255 255
255 255 255
255 255 255
255 255 255
255 255 255
255 255 255
255 255 255
255 255 255
255 255 255
255 255 255
  0   0   0
  0   0   0
  0   0   0
  0   0   0
131   0   0
141   0   0
141   0   0
129   0   0
 83   0   0
  0   0 126
  0   0 167
  0   0 195
  0   0 216
  0   0 231
  0   0 242
  0   0 249
  0   0 253
  0   0 253
  0   0 251
  0   0 248
  0   0 242
255 150   0
  0   0 227
  0   0 218
  0   0 208
  0   0 197
  0   0 186
  0   0 174
  0   0 161
  0   0 147
  0   0 132
  0   0 114
  0   0  92
255 255 255
 83   0   0
100   0   0
111   0   0
118   0   0
123   0   0
126   0   0
128   0   0
129   0   0
130   0   0
129   0   0
128   0   0
126   0   0
123   0   0
118   0   0
111   0   0
100   0   0
 83   0   0
255 255 255
  0   0  92
  0   0 114
  0   0 132
  0   0 147
  0   0 161
  0   0 174
  0   0 186
  0   0 197
  0   0 208
  0   0 218
  0   0 227
  0   0 235
  0   0 242
  0   0 248
  0   0 252
  0   0 254
  0   0 255
  0   0 253
  0   0 248
  0   0 241
  0   0 229
  0   0 213
  0   0 191
  0   0 156
  0   0  66
148   0   0
180   0   0
199   0   0
210   0   0
216   0   0
217   0   0
215   0   0
210   0   0
202   0   0
191   0   0
180   0   0
166   0   0
152   0   0
138   0   0
123   0   0
108   0   0
 94   0   0
 81   0   0
 69   0   0
255 255 255
255 255 255
255 255 255
255 255 255
255 255 255
255 255 255
255 255 255
255 255 255
255 255 255
255 255 255
255 255 255
255 255 255
255 255 255
255 255 255
255 255 255
255 255 255
255 255 255
255 255 255
255 255 255
255 255 255
255 255 255
255 255 255
255 255 255
255 255 255
255 255 255
255 255 255
255 255 255
255 255 255
255 255 255
255 255 255
255 255 255
255 255 255
255 255 255
255 255 255
255 255 255
255 255 255
255 255 255
255 255 255
255 255 255
255 255 255
255 255 255
255 255 255
255 255 255
255 255 255
255 255 255
255 255 255
255 255 255
255 255 255
255 255 255
255 255 255
255 255 255
255 255 255
255 255 255
255 255 255
255 255 255
255 255 255
255 255 255
255 255 255
255 255 255
255 255 255
255 255 255
255 255 255
255 255 255
255 255 255
255 255 255
255 255 255
255 255 255
255 255 255
255 255 255
255 255 255
255 255 255
255 255 255
255 255 255
255 255 255
255 255 255
255 255 255
255 255 255
255 255 255
255 255 255
255 255 255
255 255 255
255 255 255
255 255 255
255 255 255
255 255 255
255 255 255
255 150   0
255 255 255
255 255 255
255 255 255
255 255 255
255 255 255
255 255 255
255 255 255
255 255 255
255 255 255
255 255 255
255 255 255
255 255 255
255 255 255
255 255 255
255 255 255
255 255 255
255 255 255
255 255 255
  0   0   0
  0   0   0
  0   0   0
  0   0   0
115   0   0
116   0   0
 96   0   0
  0   0  94
  0   0 144
  0   0 177
  0   0 201
  0   0 220
  0   0 234
  0   0 243
  0   0 249
  0   0 250
  0   0 249
  0   0 245
  0   0 239
  0   0 231
  0   0 221
255 150   0
  0   0 198
  0   0 184
  0   0 170
  0   0 153
  0   0 134
  0   0 110
  0   0  68
 88   0   0
111   0   0
124   0   0
133   0   0
139   0   0
144   0   0
147   0   0
150   0   0
151   0   0
153   0   0
154   0   0
154   0   0
155   0   0
155   0   0
155   0   0
154   0   0
154   0   0
153   0   0
151   0   0
150   0   0
147   0   0
144   0   0
139   0   0
133   0   0
124   0   0
111   0   0
 88   0   0
  0   0  68
  0   0 110
  0   0 134
  0   0 153
  0   0 170
  0   0 184
  0   0 198
  0   0 210
  0   0 221
  0   0 231
  0   0 239
  0   0 246
  0   0 251
  0   0 254
  0   0 255
  0   0 253
  0   0 248
  0   0 239
  0   0 226
  0   0 207
  0   0 180
  0   0 135
114   0   0
167   0   0
192   0   0
206   0   0
214   0   0
217   0   0
216   0   0
212   0   0
204   0   0
194   0   0
182   0   0
169   0   0
154   0   0
139   0   0
124   0   0
110   0   0
 95   0   0
 82   0   0
 69   0   0
255 255 255
255 255 255
255 255 255
255 255 255
255 255 255
255 255 255
255 255 255
255 255 255
255 255 255
255 255 255
255 255 255
255 255 255
255 255 255
255 255 255
255 255 255
255 255 255
255 255 255
255 255 255
255 255 255
255 255 255
255 255 255
255 255 255
255 255 255
255 255 255
255 255 255
255 255 255
255 255 255
255 255 255
255 255 255
255 255 255
255 255 255
255 255 255
255 255 255
255 255 255
255 255 255
255 255 255
255 255 255
255 255 255
255 255 255
255 255 255
255 255 255
255 255 255
255 255 255
255 255 255
255 255 255
255 255 255
255 255 255
255 255 255
255 255 255
255 255 255
255 255 255
255 255 255
255 255 255
255 255 255
255 255 255
255 255 255
255 255 255
255 255 255
255 255 255
255 255 255
255 255 255
255 255 255
255 255 255
255 255 255
255 255 255
255 255 255
255 255 255
255 255 255
255 255 255
255 255 255
255 255 255
255 255 255
255 255 255
255 255 255
255 255 255
255 255 255
255 255 255
255 255 255
255 255 255
255 255 255
255 255 255
255 255 255
255 255 255
255 255 255
255 255 255
255 150   0
255 255 255
255 255 255
255 255 255
255 255 255
255 255 255
255 255 255
255 255 255
255 255 255
255 255 255
255 255 255
255 255 255
255 255 255
255 255 255
255 255 255
255 255 255
255 255 255
255 255 255
255 255 255
  0   0   0
  0   0   0
  0   0   0
  0   0   0
 77   0   0
  0   0  66
  0   0 119
  0   0 153
  0   0 181
  0   0 203
  0   0 220
  0   0 233
  0   0 241
  0   0 245
  0   0 245
  0   0 242
  0   0 236
  0   0 228
  0   0 217
  0   0 205
  0   0 190
255 150   0
  0   0 155
  0   0 133
  0   0 102
255 255 255
108   0   0
126   0   0
137   0   0
144   0   0
149   0   0
153   0   0
156   0   0
157   0   0
159   0   0
160   0   0
160   0   0
161   0   0
161   0   0
161   0   0
161   0   0
161   0   0
161   0   0
161   0   0
161   0   0
161   0   0
161   0   0
161   0   0
160   0   0
160   0   0
159   0   0
157   0   0
156   0   0
153   0   0
149   0   0
144   0   0
137   0   0
126   0   0
108   0   0
255 255 255
  0   0 102
  0   0 133
  0   0 155
  0   0 174
  0   0 190
  0   0 205
  0   0 217
  0   0 229
  0   0 238
  0   0 246
  0   0 251
  0   0 254
  0   0 255
  0   0 252
  0   0 246
  0   0 235
  0   0 219
  0   0 197
  0   0 162
  0   0  79
150   0   0
183   0   0
202   0   0
212   0   0
217   0   0
217   0   0
213   0   0
206   0   0
196   0   0
184   0   0
170   0   0
156   0   0
141   0   0
125   0   0
110   0   0
 96   0   0
 82   0   0
 69   0   0
255 255 255
255 255 255
255 255 255
255 255 255
255 255 255
255 255 255
255 255 255
255 255 255
255 255 255
255 255 255
255 255 255
255 255 255
255 255 255
255 255 255
255 255 255
255 255 255
255 255 255
255 255 255
255 255 255
255 255 255
255 255 255
255 255 255
255 255 255
255 255 255
255 255 255
255 255 255
255 255 255
255 255 255
255 255 255
255 255 255
255 255 255
255 255 255
255 255 255
255 255 255
255 255 255
255 255 255
255 255 255
255 255 255
255 255 255
255 255 255
255 255 255
255 255 255
255 255 255
255 255 255
255 255 255
255 255 255
255 255 255
255 255 255
255 255 255
255 255 255
255 255 255
255 255 255
255 255 255
255 255 255
255 255 255
255 255 255
255 255 255
255 255 255
255 255 255
255 255 255
255 255 255
255 255 255
255 255 255
255 255 255
255 255 255
255 255 255
255 255 255
255 255 255
255 255 255
255 255 255
255 255 255
255 255 255
255 255 255
255 255 255
255 255 255
255 255 255
255 255 255
255 255 255
255 255 255
255 255 255
255 255 255
255 255 255
255 255 255
255 255 255
255 150   0
255 255 255
255 255 255
255 255 255
255 255 255
255 255 255
255 255 255
255 255 255
255 255 255
255 255 255
255 255 255
255 255 255
255 255 255
255 255 255
255 255 255
255 255 255
255 255 255
255 255 255
255 255 255
  0   0   0
  0   0   0
  0   0   0
  0   0   0
  0   0  98
  0   0 129
  0   0 156
  0   0 181
  0   0 201
  0   0 217
  0   0 229
  0   0 236
  0   0 239
  0   0 238
  0   0 233
  0   0 226
  0   0 215
  0   0 201
  0   0 185
  0   0 167
  0   0 144
255 150   0
255 255 255
107   0   0
128   0   0
140   0   0
148   0   0
153   0   0
156   0   0
159   0   0
160   0   0
161   0   0
161   0   0
161   0   0
161   0   0
161   0   0
160   0   0
160   0   0
159   0   0
159   0   0
159   0   0
159   0   0
159   0   0
159   0   0
159   0   0
159   0   0
159   0   0
160   0   0
160   0   0
161   0   0
161   0   0
161   0   0
161   0   0
161   0   0
160   0   0
159   0   0
156   0   0
153   0   0
148   0   0
140   0   0
128   0   0
107   0   0
255 255 255
  0   0 114
  0   0 144
  0   0 167
  0   0 185
  0   0 202
  0   0 216
  0   0 228
  0   0 239
  0   0 247
  0   0 252
  0   0 255
  0   0 254
  0   0 250
  0   0 242
  0   0 228
  0   0 209
  0   0 180
  0   0 128
128   0   0
174   0   0
197   0   0
210   0   0
216   0   0
217   0   0
214   0   0
207   0   0
197   0   0
185   0   0
172   0   0
157   0   0
141   0   0
126   0   0
110   0   0
 95   0   0
 81   0   0
 68   0   0
255 255 255
255 255 255
255 255 255
255 255 255
255 255 255
255 255 255
255 255 255
255 255 255
255 255 255
255 255 255
255 255 255
255 255 255
255 255 255
255 255 255
255 255 255
255 255 255
255 255 255
255 255 255
255 255 255
255 255 255
255 255 255
255 255 255
255 255 255
255 255 255
255 255 255
255 255 255
255 255 255
255 255 255
255 255 255
255 255 255
255 255 255
255 255 255
255 255 255
255 255 255
255 255 255
255 255 255
255 255 255
255 255 255
255 255 255
255 255 255
255 255 255
255 255 255
255 255 255
255 255 255
255 255 255
255 255 255
255 255 255
255 255 255
255 255 255
255 255 255
255 255 255
255 255 255
255 255 255
255 255 255
255 255 255
255 255 255
255 255 255
255 255 255
255 255 255
255 255 255
255 255 255
255 255 255
255 255 255
255 255 255
255 255 255
255 255 255
255 255 255
255 255 255
255 255 255
255 255 255
255 255 255
255 255 255
255 255 255
255 255 255
255 255 255
255 255 255
255 255 255
255 255 255
255 255 255
255 255 255
255 255 255
255 255 255
255 255 255
255 150   0
255 255 255
255 255 255
255 255 255
255 255 255
255 255 255
255 255 255
255 255 255
255 255 255
255 255 255
255 255 255
255 255 255
255 255 255
255 255 255
255 255 255
255 255 255
255 255 255
255 255 255
255 255 255
  0   0   0
  0   0   0
  0   0   0
  0   0   0
  0   0 128
  0   0 154
  0   0 177
  0   0 196
  0   0 211
  0   0 222
  0   0 229
  0   0 231
  0   0 229
  0   0 223
  0   0 213
  0   0 200
  0   0 184
  0   0 163
  0   0 138
  0   0  99
 87   0   0
255 150   0
138   0   0
147   0   0
154   0   0
157   0   0
160   0   0
161   0   0
161   0   0
161   0   0
160   0   0
160   0   0
159   0   0
158   0   0
157   0   0
156   0   0
155   0   0
154   0   0
153   0   0
153   0   0
152   0   0
152   0   0
152   0   0
152   0   0
152   0   0
153   0   0
153   0   0
154   0   0
155   0   0
156   0   0
157   0   0
158   0   0
159   0   0
160   0   0
160   0   0
161   0   0
161   0   0
161   0   0
160   0   0
157   0   0
154   0   0
147   0   0
138   0   0
122   0   0
 88   0   0
  0   0  99
  0   0 137
  0   0 163
  0   0 184
  0   0 202
  0   0 217
  0   0 230
  0   0 241
  0   0 248
  0   0 253
  0   0 255
  0   0 253
  0   0 246
  0   0 235
  0   0 218
  0   0 192
  0   0 151
 98   0   0
165   0   0
193   0   0
208   0   0
216   0   0
217   0   0
215   0   0
208   0   0
198   0   0
186   0   0
172   0   0
157   0   0
141   0   0
125   0   0
110   0   0
 94   0   0
 80   0   0
 67   0   0
255 255 255
255 255 255
255 255 255
255 255 255
255 255 255
255 255 255
255 255 255
255 255 255
255 255 255
255 255 255
255 255 255
255 255 255
255 255 255
255 255 255
255 255 255
255 255 255
255 255 255
255 255 255
255 255 255
255 255 255
255 255 255
255 255 255
255 255 255
255 255 255
255 255 255
255 255 255
255 255 255
255 255 255
255 255 255
255 255 255
255 255 255
255 255 255
255 255 255
255 255 255
255 255 255
255 255 255
255 255 255
255 255 255
255 255 255
255 255 255
255 255 255
255 255 255
255 255 255
255 255 255
255 255 255
255 255 255
255 255 255
255 255 255
255 255 255
255 255 255
255 255 255
255 255 255
255 255 255
255 255 255
255 255 255
255 255 255
255 255 255
255 255 255
255 255 255
255 255 255
255 255 255
255 255 255
255 255 255
255 255 255
255 255 255
255 255 255
255 255 255
255 255 255
255 255 255
255 255 255
255 255 255
255 255 255
255 255 255
255 255 255
255 255 255
255 255 255
255 255 255
255 255 255
255 255 255
255 255 255
255 255 255
255 255 255
255 150   0
255 255 255
255 255 255
255 255 255
255 255 255
255 255 255
255 255 255
255 255 255
255 255 255
255 255 255
255 255 255
255 255 255
255 255 255
255 255 255
255 255 255
255 255 255
255 255 255
255 255 255
255 255 255
  0   0   0
  0   0   0
  0   0   0
  0   0   0
  0   0 145
  0   0 168
  0   0 188
  0   0 203
  0   0 214
  0   0 220
  0   0 221
  0   0 219
  0   0 211
  0   0 200
  0   0 184
  0   0 164
  0   0 137
  0   0  95
 96   0   0
127   0   0
142   0   0
255 150   0
156   0   0
159   0   0
161   0   0
161   0   0
161   0   0
160   0   0
158   0   0
157   0   0
155   0   0
154   0   0
152   0   0
150   0   0
149   0   0
148   0   0
146   0   0
145   0   0
145   0   0
144   0   0
143   0   0
143   0   0
143   0   0
143   0   0
143   0   0
144   0   0
145   0   0
145   0   0
146   0   0
148   0   0
149   0   0
150   0   0
152   0   0
154   0   0
155   0   0
157   0   0
158   0   0
160   0   0
161   0   0
161   0   0
161   0   0
159   0   0
156   0   0
151   0   0
142   0   0
128   0   0
 98   0   0
  0   0  92
  0   0 137
  0   0 165
  0   0 187
  0   0 205
  0   0 221
  0   0 234
  0   0 244
  0   0 251
  0   0 254
  0   0 254
  0   0 250
  0   0 240
  0   0 225
  0   0 202
  0   0 165
  0   0  68
156   0   0
189   0   0
206   0   0
215   0   0
217   0   0
215   0   0
208   0   0
199   0   0
186   0   0
172   0   0
157   0   0
141   0   0
124   0   0
108   0   0
 93   0   0
 79   0   0
 66   0   0
255 255 255
255 255 255
255 255 255
255 255 255
255 255 255
255 255 255
255 255 255
255 255 255
255 255 255
255 255 255
255 255 255
255 255 255
255 255 255
255 255 255
255 255 255
255 255 255
255 255 255
255 255 255
255 255 255
255 255 255
255 255 255
255 255 255
255 255 255
255 255 255
255 255 255
255 255 255
255 255 255
255 255 255
255 255 255
255 255 255
255 255 255
255 255 255
255 255 255
255 255 255
255 255 255
255 255 255
255 255 255
255 255 255
255 255 255
255 255 255
255 255 255
255 255 255
255 255 255
255 255 255
255 255 255
255 255 255
255 255 255
255 255 255
255 255 255
255 255 255
255 255 255
255 255 255
255 255 255
255 255 255
255 255 255
255 255 255
255 255 255
255 255 255
255 255 255
255 255 255
255 255 255
255 255 255
255 255 255
255 255 255
255 255 255
255 255 255
255 255 255
255 255 255
255 255 255
255 255 255
255 255 255
255 255 255
255 255 255
255 255 255
255 255 255
255 255 255
255 255 255
255 255 255
255 255 255
255 255 255
255 255 255
255 150   0
255 255 255
255 255 255
255 255 255
255 255 255
255 255 255
255 255 255
255 255 255
255 255 255
255 255 255
255 255 255
255 255 255
255 255 255
255 255 255
255 255 255
255 255 255
255 255 255
255 255 255
255 255 255
  0   0   0
  0   0   0
  0   0   0
  0   0   0
  0   0 153
  0   0 175
  0   0 191
  0   0 202
  0   0 209
  0   0 210
  0   0 207
  0   0 199
  0   0 186
  0   0 168
  0   0 143
  0   0 104
 91   0   0
127   0   0
143   0   0
152   0   0
158   0   0
255 150   0
161   0   0
161   0   0
160   0   0
158   0   0
156   0   0
154   0   0
152   0   0
149   0   0
147   0   0
145   0   0
143   0   0
141   0   0
140   0   0
138   0   0
137   0   0
136   0   0
135   0   0
135   0   0
134   0   0
134   0   0
134   0   0
134   0   0
134   0   0
135   0   0
135   0   0
136   0   0
137   0   0
138   0   0
140   0   0
141   0   0
143   0   0
145   0   0
147   0   0
149   0   0
152   0   0
154   0   0
156   0   0
158   0   0
160   0   0
161   0   0
161   0   0
160   0   0
158   0   0
153   0   0
144   0   0
129   0   0
 97   0   0
  0   0  99
  0   0 142
  0   0 170
  0   0 193
  0   0 211
  0   0 227
  0   0 239
  0   0 248
  0   0 253
  0   0 255
  0   0 252
  0   0 244
  0   0 230
  0   0 209
  0   0 175
  0   0 107
148   0   0
185   0   0
205   0   0
214   0   0
217   0   0
215   0   0
209   0   0
199   0   0
186   0   0
172   0   0
156   0   0
139   0   0
123   0   0
107   0   0
 91   0   0
 77   0   0
255 255 255
255 255 255
255 255 255
255 255 255
255 255 255
255 255 255
255 255 255
255 255 255
255 255 255
255 255 255
255 255 255
255 255 255
255 255 255
255 255 255
255 255 255
255 255 255
255 255 255
255 255 255
255 255 255
255 255 255
255 255 255
255 255 255
255 255 255
255 255 255
255 255 255
255 255 255
255 255 255
255 255 255
255 255 255
255 255 255
255 255 255
255 255 255
255 255 255
255 255 255
255 255 255
255 255 255
255 255 255
255 255 255
255 255 255
255 255 255
255 255 255
255 255 255
255 255 255
255 255 255
255 255 255
255 255 255
255 255 255
255 255 255
255 255 255
255 255 255
255 255 255
255 255 255
255 255 255
255 255 255
255 255 255
255 255 255
255 255 255
255 255 255
255 255 255
255 255 255
255 255 255
255 255 255
255 255 255
255 255 255
255 255 255
255 255 255
255 255 255
255 255 255
255 255 255
255 255 255
255 255 255
255 255 255
255 255 255
255 255 255
255 255 255
255 255 255
255 255 255
255 255 255
255 255 255
255 255 255
255 255 255
255 150   0
255 255 255
255 255 255
255 255 255
255 255 255
255 255 255
255 255 255
255 255 255
255 255 255
255 255 255
255 255 255
255 255 255
255 255 255
255 255 255
255 255 255
255 255 255
255 255 255
255 255 255
255 255 255
  0   0   0
  0   0   0
  0   0   0
  0   0   0
  0   0 156
  0   0 175
  0   0 188
  0   0 196
  0   0 198
  0   0 194
  0   0 186
  0   0 172
  0   0 151
  0   0 120
255 255 255
119   0   0
140   0   0
151   0   0
157   0   0
160   0   0
161   0   0
255 150   0
159   0   0
157   0   0
154   0   0
151   0   0
149   0   0
146   0   0
143   0   0
141   0   0
138   0   0
136   0   0
134   0   0
132   0   0
131   0   0
129   0   0
128   0   0
127   0   0
126   0   0
125   0   0
125   0   0
125   0   0
125   0   0
125   0   0
125   0   0
125   0   0
126   0   0
127   0   0
128   0   0
129   0   0
131   0   0
132   0   0
134   0   0
136   0   0
138   0   0
141   0   0
143   0   0
146   0   0
149   0   0
151   0   0
154   0   0
157   0   0
159   0   0
160   0   0
161   0   0
160   0   0
158   0   0
153   0   0
143   0   0
126   0   0
 83   0   0
  0   0 114
  0   0 153
  0   0 180
  0   0 201
  0   0 219
  0   0 234
  0   0 245
  0   0 252
  0   0 255
  0   0 253
  0   0 247
  0   0 234
  0   0 214
  0   0 182
  0   0 123
141   0   0
183   0   0
204   0   0
214   0   0
217   0   0
215   0   0
208   0   0
198   0   0
185   0   0
170   0   0
154   0   0
138   0   0
121   0   0
104   0   0
 89   0   0
 75   0   0
255 255 255
255 255 255
255 255 255
255 255 255
255 255 255
255 255 255
255 255 255
255 255 255
255 255 255
255 255 255
255 255 255
255 255 255
255 255 255
255 255 255
255 255 255
255 255 255
255 255 255
255 255 255
255 255 255
255 255 255
255 255 255
255 255 255
255 255 255
255 255 255
255 255 255
255 255 255
255 255 255
255 255 255
255 255 255
255 255 255
255 255 255
255 255 255
255 255 255
255 255 255
255 255 255
255 255 255
255 255 255
255 255 255
255 255 255
255 255 255
255 255 255
255 255 255
255 255 255
255 255 255
255 255 255
255 255 255
255 255 255
255 255 255
255 255 255
255 255 255
255 255 255
255 255 255
255 255 255
255 255 255
255 255 255
255 255 255
255 255 255
255 255 255
255 255 255
255 255 255
255 255 255
255 255 255
255 255 255
255 255 255
255 255 255
255 255 255
255 255 255
255 255 255
255 255 255
255 255 255
255 255 255
255 255 255
255 255 255
255 255 255
255 255 255
255 255 255
255 255 255
255 255 255
255 255 255
255 255 255
255 150   0
255 255 255
255 255 255
255 255 255
255 255 255
255 255 255
255 255 255
255 255 255
255 255 255
255 255 255
255 255 255
255 255 255
255 255 255
255 255 255
255 255 255
255 255 255
255 255 255
255 255 255
255 255 255
  0   0   0
  0   0   0
  0   0   0
  0   0   0
  0   0 153
  0   0 170
  0   0 180
  0   0 183
  0   0 181
  0   0 172
  0   0 157
  0   0 134
  0   0  91
100   0   0
131   0   0
146   0   0
155   0   0
159   0   0
160   0   0
160   0   0
158   0   0
255 150   0
153   0   0
149   0   0
146   0   0
143   0   0
140   0   0
137   0   0
134   0   0
131   0   0
129   0   0
127   0   0
125   0   0
123   0   0
122   0   0
121   0   0
120   0   0
119   0   0
118   0   0
117   0   0
117   0   0
117   0   0
117   0   0
117   0   0
117   0   0
117   0   0
118   0   0
119   0   0
120   0   0
121   0   0
122   0   0
123   0   0
125   0   0
127   0   0
129   0   0
131   0   0
134   0   0
137   0   0
140   0   0
143   0   0
146   0   0
149   0   0
153   0   0
156   0   0
158   0   0
160   0   0
161   0   0
160   0   0
158   0   0
151   0   0
140   0   0
117   0   0
255 255 255
  0   0 133
  0   0 166
  0   0 192
  0   0 212
  0   0 229
  0   0 241
  0   0 250
  0   0 254
  0   0 254
  0   0 248
  0   0 237
  0   0 217
  0   0 187
  0   0 132
136   0   0
182   0   0
203   0   0
214   0   0
217   0   0
215   0   0
208   0   0
197   0   0
184   0   0
169   0   0
152   0   0
135   0   0
118   0   0
102   0   0
 86   0   0
 72   0   0
255 255 255
255 255 255
255 255 255
255 255 255
255 255 255
255 255 255
255 255 255
255 255 255
255 255 255
255 255 255
255 255 255
255 255 255
255 255 255
255 255 255
255 255 255
255 255 255
255 255 255
255 255 255
255 255 255
255 255 255
255 255 255
255 255 255
255 255 255
255 255 255
255 255 255
255 255 255
255 255 255
255 255 255
255 255 255
255 255 255
255 255 255
255 255 255
255 255 255
255 255 255
255 255 255
255 255 255
255 255 255
255 255 255
255 255 255
255 255 255
255 255 255
255 255 255
255 255 255
255 255 255
255 255 255
255 255 255
255 255 255
255 255 255
255 255 255
255 255 255
255 255 255
255 255 255
255 255 255
255 255 255
255 255 255
255 255 255
255 255 255
255 255 255
255 255 255
255 255 255
255 255 255
255 255 255
255 255 255
255 255 255
255 255 255
255 255 255
255 255 255
255 255 255
255 255 255
255 255 255
255 255 255
255 255 255
255 255 255
255 255 255
255 255 255
255 255 255
255 255 255
255 255 255
255 255 255
255 150   0
255 255 255
255 255 255
255 255 255
255 255 255
255 255 255
255 255 255
255 255 255
255 255 255
255 255 255
255 255 255
255 255 255
255 255 255
255 255 255
255 255 255
255 255 255
255 255 255
255 255 255
255 255 255
  0   0   0
  0   0   0
  0   0   0
  0   0   0
  0   0 146
  0   0 160
  0   0 166
  0   0 165
  0   0 157
  0   0 142
  0   0 116
255 255 255
114   0   0
136   0   0
148   0   0
155   0   0
158   0   0
159   0   0
157   0   0
155   0   0
152   0   0
255 150   0
145   0   0
141   0   0
137   0   0
134   0   0
131   0   0
128   0   0
125   0   0
123   0   0
121   0   0
119   0   0
117   0   0
116   0   0
114   0   0
113   0   0
112   0   0
111   0   0
111   0   0
110   0   0
110   0   0
110   0   0
110   0   0
110   0   0
110   0   0
110   0   0
111   0   0
111   0   0
112   0   0
113   0   0
114   0   0
116   0   0
117   0   0
119   0   0
121   0   0
123   0   0
125   0   0
128   0   0
131   0   0
134   0   0
137   0   0
141   0   0
145   0   0
148   0   0
152   0   0
155   0   0
158   0   0
160   0   0
161   0   0
160   0   0
156   0   0
148   0   0
132   0   0
 96   0   0
  0   0 109
  0   0 153
  0   0 182
  0   0 205
  0   0 224
  0   0 238
  0   0 248
  0   0 254
  0   0 254
  0   0 250
  0   0 238
  0   0 220
  0   0 190
  0   0 135
135   0   0
182   0   0
204   0   0
214   0   0
217   0   0
215   0   0
207   0   0
196   0   0
182   0   0
166   0   0
149   0   0
132   0   0
115   0   0
 98   0   0
 83   0   0
 69   0   0
255 255 255
255 255 255
255 255 255
255 255 255
255 255 255
255 255 255
255 255 255
255 255 255
255 255 255
255 255 255
255 255 255
255 255 255
255 255 255
255 255 255
255 255 255
255 255 255
255 255 255
255 255 255
255 255 255
255 255 255
255 255 255
255 255 255
255 255 255
255 255 255
255 255 255
255 255 255
255 255 255
255 255 255
255 255 255
255 255 255
255 255 255
255 255 255
255 255 255
255 255 255
255 255 255
255 255 255
255 255 255
255 255 255
255 255 255
255 255 255
255 255 255
255 255 255
255 255 255
255 255 255
255 255 255
255 255 255
255 255 255
255 255 255
255 255 255
255 255 255
255 255 255
255 255 255
255 255 255
255 255 255
255 255 255
255 255 255
255 255 255
255 255 255
255 255 255
255 255 255
255 255 255
255 255 255
255 255 255
255 255 255
255 255 255
255 255 255
255 255 255
255 255 255
255 255 255
255 255 255
255 255 255
255 255 255
255 255 255
255 255 255
255 255 255
255 255 255
255 255 255
255 255 255
255 150   0
255 255 255
255 255 255
255 255 255
255 255 255
255 255 255
255 255 255
255 255 255
255 255 255
255 255 255
255 255 255
255 255 255
255 255 255
255 255 255
255 255 255
255 255 255
255 255 255
255 255 255
255 255 255
  0   0   0
  0   0   0
  0   0   0
  0   0   0
  0   0 134
  0   0 144
  0   0 146
  0   0 140
  0   0 125
  0   0  95
 82   0   0
119   0   0
137   0   0
148   0   0
153   0   0
156   0   0
156   0   0
154   0   0
151   0   0
148   0   0
144   0   0
255 150   0
136   0   0
132   0   0
129   0   0
126   0   0
123   0   0
120   0   0
118   0   0
115   0   0
113   0   0
112   0   0
110   0   0
109   0   0
108   0   0
107   0   0
106   0   0
105   0   0
105   0   0
104   0   0
104   0   0
104   0   0
104   0   0
104   0   0
104   0   0
104   0   0
105   0   0
105   0   0
106   0   0
107   0   0
108   0   0
109   0   0
110   0   0
112   0   0
113   0   0
115   0   0
118   0   0
120   0   0
123   0   0
126   0   0
129   0   0
132   0   0
136   0   0
140   0   0
144   0   0
148   0   0
152   0   0
156   0   0
159   0   0
161   0   0
161   0   0
159   0   0
153   0   0
142   0   0
117   0   0
  0   0  74
  0   0 140
  0   0 174
  0   0 199
  0   0 220
  0   0 235
  0   0 247
  0   0 253
  0   0 255
  0   0 250
  0   0 239
  0   0 221
  0   0 190
  0   0 135
136   0   0
183   0   0
205   0   0
215   0   0
217   0   0
214   0   0
206   0   0
194   0   0
180   0   0
163   0   0
146   0   0
128   0   0
111   0   0
 95   0   0
 79   0   0
 65   0   0
255 255 255
255 255 255
255 255 255
255 255 255
255 255 255
255 255 255
255 255 255
255 255 255
255 255 255
255 255 255
255 255 255
255 255 255
255 255 255
255 255 255
255 255 255
255 255 255
255 255 255
255 255 255
255 255 255
255 255 255
255 255 255
255 255 255
255 255 255
255 255 255
255 255 255
255 255 255
255 255 255
255 255 255
255 255 255
255 255 255
255 255 255
255 255 255
255 255 255
255 255 255
255 255 255
255 255 255
255 255 255
255 255 255
255 255 255
255 255 255
255 255 255
255 255 255
255 255 255
255 255 255
255 255 255
255 255 255
255 255 255
255 255 255
255 255 255
255 255 255
255 255 255
255 255 255
255 255 255
255 255 255
255 255 255
255 255 255
255 255 255
255 255 255
255 255 255
255 255 255
255 255 255
255 255 255
255 255 255
255 255 255
255 255 255
255 255 255
255 255 255
255 255 255
255 255 255
255 255 255
255 255 255
255 255 255
255 255 255
255 255 255
255 255 255
255 255 255
255 255 255
255 150   0
255 255 255
255 255 255
255 255 255
255 255 255
255 255 255
255 255 255
255 255 255
255 255 255
255 255 255
255 255 255
255 255 255
255 255 255
255 255 255
255 255 255
255 255 255
255 255 255
255 255 255
255 255 255
  0   0   0
  0   0   0
  0   0   0
  0   0   0
  0   0 117
  0   0 123
  0   0 119
  0   0 104
255 255 255
 97   0   0
122   0   0
137   0   0
145   0   0
150   0   0
152   0   0
152   0   0
150   0   0
147   0   0
143   0   0
139   0   0
135   0   0
255 150   0
127   0   0
124   0   0
121   0   0
118   0   0
115   0   0
113   0   0
111   0   0
109   0   0
107   0   0
106   0   0
104   0   0
103   0   0
102   0   0
101   0   0
100   0   0
100   0   0
 99   0   0
 99   0   0
 99   0   0
 99   0   0
 98   0   0
 99   0   0
 99   0   0
 99   0   0
 99   0   0
100   0   0
100   0   0
101   0   0
102   0   0
103   0   0
104   0   0
106   0   0
107   0   0
109   0   0
111   0   0
113   0   0
115   0   0
118   0   0
121   0   0
124   0   0
128   0   0
131   0   0
136   0   0
140   0   0
144   0   0
149   0   0
153   0   0
157   0   0
159   0   0
161   0   0
160   0   0
156   0   0
148   0   0
129   0   0
 76   0   0
  0   0 127
  0   0 166
  0   0 194
  0   0 216
  0   0 233
  0   0 245
  0   0 253
  0   0 255
  0   0 251
  0   0 240
  0   0 221
  0   0 190
  0   0 132
141   0   0
185   0   0
206   0   0
216   0   0
217   0   0
213   0   0
204   0   0
191   0   0
176   0   0
160   0   0
142   0   0
124   0   0
107   0   0
 90   0   0
 75   0   0
255 255 255
255 255 255
255 255 255
255 255 255
255 255 255
255 255 255
255 255 255
255 255 255
255 255 255
255 255 255
255 255 255
255 255 255
255 255 255
255 255 255
255 255 255
255 255 255
255 255 255
255 255 255
255 255 255
255 255 255
255 255 255
255 255 255
255 255 255
255 255 255
255 255 255
255 255 255
255 255 255
255 255 255
255 255 255
255 255 255
255 255 255
255 255 255
255 255 255
255 255 255
255 255 255
255 255 255
255 255 255
255 255 255
255 255 255
255 255 255
255 255 255
255 255 255
255 255 255
255 255 255
255 255 255
255 255 255
255 255 255
255 255 255
255 255 255
255 255 255
255 255 255
255 255 255
255 255 255
255 255 255
255 255 255
255 255 255
255 255 255
255 255 255
255 255 255
255 255 255
255 255 255
255 255 255
255 255 255
255 255 255
255 255 255
255 255 255
255 255 255
255 255 255
255 255 255
255 255 255
255 255 255
255 255 255
255 255 255
255 255 255
255 255 255
255 255 255
255 255 255
255 150   0
255 255 255
255 255 255
255 255 255
255 255 255
255 255 255
255 255 255
255 255 255
255 255 255
255 255 255
255 255 255
255 255 255
255 255 255
255 255 255
255 255 255
255 255 255
255 255 255
255 255 255
255 255 255
  0   0   0
  0   0   0
  0   0   0
  0   0   0
  0   0  93
  0   0  91
  0   0  71
 74   0   0
105   0   0
123   0   0
135   0   0
142   0   0
146   0   0
148   0   0
147   0   0
145   0   0
142   0   0
139   0   0
135   0   0
131   0   0
127   0   0
255 150   0
120   0   0
117   0   0
114   0   0
111   0   0
109   0   0
107   0   0
105   0   0
103   0   0
102   0   0
100   0   0
 99   0   0
 98   0   0
 97   0   0
 97   0   0
 96   0   0
 95   0   0
 95   0   0
 95   0   0
 94   0   0
 94   0   0
 94   0   0
 94   0   0
 94   0   0
 95   0   0
 95   0   0
 95   0   0
 96   0   0
 97   0   0
 97   0   0
 98   0   0
 99   0   0
100   0   0
102   0   0
103   0   0
105   0   0
107   0   0
109   0   0
111   0   0
114   0   0
117   0   0
120   0   0
123   0   0
127   0   0
132   0   0
136   0   0
141   0   0
145   0   0
150   0   0
154   0   0
158   0   0
160   0   0
161   0   0
158   0   0
151   0   0
136   0   0
 99   0   0
  0   0 114
  0   0 160
  0   0 190
  0   0 213
  0   0 232
  0   0 245
  0   0 253
  0   0 255
  0   0 251
  0   0 239
  0   0 220
  0   0 187
  0   0 123
148   0   0
189   0   0
208   0   0
216   0   0
217   0   0
212   0   0
202   0   0
188   0   0
173   0   0
155   0   0
137   0   0
120   0   0
102   0   0
 86   0   0
 71   0   0
255 255 255
255 255 255
255 255 255
255 255 255
255 255 255
255 255 255
255 255 255
255 255 255
255 255 255
255 255 255
255 255 255
255 255 255
255 255 255
255 255 255
255 255 255
255 255 255
255 255 255
255 255 255
255 255 255
255 255 255
255 255 255
255 255 255
255 255 255
255 255 255
255 255 255
255 255 255
255 255 255
255 255 255
255 255 255
255 255 255
255 255 255
255 255 255
255 255 255
255 255 255
255 255 255
255 255 255
255 255 255
255 255 255
255 255 255
255 255 255
255 255 255
255 255 255
255 255 255
255 255 255
255 255 255
255 255 255
255 255 255
255 255 255
255 255 255
255 255 255
255 255 255
255 255 255
255 255 255
255 255 255
255 255 255
255 255 255
255 255 255
255 255 255
255 255 255
255 255 255
255 255 255
255 255 255
255 255 255
255 255 255
255 255 255
255 255 255
255 255 255
255 255 255
255 255 255
255 255 255
255 255 255
255 255 255
255 255 255
255 255 255
255 255 255
255 255 255
255 150   0
255 255 255
255 255 255
255 255 255
255 255 255
255 255 255
255 255 255
255 255 255
255 255 255
255 255 255
255 255 255
255 255 255
255 255 255
255 255 255
255 255 255
255 255 255
255 255 255
255 255 255
255 255 255
  0   0   0
  0   0   0
  0   0   0
  0   0   0
255 255 255
 65   0   0
 91   0   0
110   0   0
123   0   0
133   0   0
139   0   0
142   0   0
143   0   0
142   0   0
140   0   0
138   0   0
134   0   0
130   0   0
127   0   0
123   0   0
119   0   0
255 150   0
113   0   0
110   0   0
108   0   0
105   0   0
103   0   0
101   0   0
100   0   0
 98   0   0
 97   0   0
 96   0   0
 95   0   0
 94   0   0
 93   0   0
 92   0   0
 92   0   0
 91   0   0
 91   0   0
 91   0   0
 90   0   0
 90   0   0
 90   0   0
 90   0   0
 90   0   0
 91   0   0
 91   0   0
 91   0   0
 92   0   0
 92   0   0
 93   0   0
 94   0   0
 95   0   0
 96   0   0
 97   0   0
 98   0   0
100   0   0
101   0   0
103   0   0
105   0   0
108   0   0
110   0   0
113   0   0
116   0   0
120   0   0
124   0   0
128   0   0
133   0   0
137   0   0
143   0   0
148   0   0
152   0   0
156   0   0
160   0   0
161   0   0
160   0   0
154   0   0
141   0   0
110   0   0
  0   0 102
  0   0 155
  0   0 187
  0   0 212
  0   0 231
  0   0 244
  0   0 253
  0   0 255
  0   0 250
  0   0 238
  0   0 217
  0   0 182
  0   0 107
156   0   0
193   0   0
210   0   0
217   0   0
216   0   0
210   0   0
199   0   0
185   0   0
168   0   0
151   0   0
132   0   0
114   0   0
 97   0   0
 81   0   0
 66   0   0
255 255 255
255 255 255
255 255 255
255 255 255
255 255 255
255 255 255
255 255 255
255 255 255
255 255 255
255 255 255
255 255 255
255 255 255
255 255 255
255 255 255
255 255 255
255 255 255
255 255 255
255 255 255
255 255 255
255 255 255
255 255 255
255 255 255
255 255 255
255 255 255
255 255 255
255 255 255
255 255 255
255 255 255
255 255 255
255 255 255
255 255 255
255 255 255
255 255 255
255 255 255
255 255 255
255 255 255
255 255 255
255 255 255
255 255 255
255 255 255
255 255 255
255 255 255
255 255 255
255 255 255
255 255 255
255 255 255
255 255 255
255 255 255
255 255 255
255 255 255
255 255 255
255 255 255
255 255 255
255 255 255
255 255 255
255 255 255
255 255 255
255 255 255
255 255 255
255 255 255
255 255 255
255 255 255
255 255 255
255 255 255
255 255 255
255 255 255
255 255 255
255 255 255
255 255 255
255 255 255
255 255 255
255 255 255
255 255 255
255 255 255
255 255 255
255 150   0
255 255 255
255 255 255
255 255 255
255 255 255
255 255 255
255 255 255
255 255 255
255 255 255
255 255 255
255 255 255
255 255 255
255 255 255
255 255 255
255 255 255
255 255 255
255 255 255
255 255 255
255 255 255
  0   0   0
  0   0   0
  0   0   0
  0   0   0
 79   0   0
 96   0   0
111   0   0
122   0   0
130   0   0
135   0   0
138   0   0
139   0   0
138   0   0
136   0   0
133   0   0
130   0   0
126   0   0
123   0   0
119   0   0
116   0   0
112   0   0
255 150   0
107   0   0
104   0   0
102   0   0
100   0   0
 99   0   0
 97   0   0
 95   0   0
 94   0   0
 93   0   0
 92   0   0
 91   0   0
 90   0   0
 90   0   0
 89   0   0
 88   0   0
 88   0   0
 88   0   0
 87   0   0
 87   0   0
 87   0   0
 87   0   0
 87   0   0
 87   0   0
 87   0   0
 88   0   0
 88   0   0
 88   0   0
 89   0   0
 90   0   0
 90   0   0
 91   0   0
 92   0   0
 93   0   0
 94   0   0
 95   0   0
 97   0   0
 99   0   0
100   0   0
102   0   0
105   0   0
107   0   0
110   0   0
113   0   0
117   0   0
121   0   0
125   0   0
130   0   0
135   0   0
140   0   0
145   0   0
150   0   0
155   0   0
159   0   0
161   0   0
160   0   0
156   0   0
144   0   0
117   0   0
  0   0  93
  0   0 152
  0   0 186
  0   0 211
  0   0 231
  0   0 245
  0   0 253
  0   0 255
  0   0 250
  0   0 237
  0   0 214
  0   0 175
  0   0  68
165   0   0
197   0   0
212   0   0
217   0   0
215   0   0
207   0   0
195   0   0
180   0   0
163   0   0
145   0   0
127   0   0
108   0   0
 91   0   0
 76   0   0
255 255 255
255 255 255
255 255 255
255 255 255
255 255 255
255 255 255
255 255 255
255 255 255
255 255 255
255 255 255
255 255 255
255 255 255
255 255 255
255 255 255
255 255 255
255 255 255
255 255 255
255 255 255
255 255 255
255 255 255
255 255 255
255 255 255
255 255 255
255 255 255
255 255 255
255 255 255
255 255 255
255 255 255
255 255 255
255 255 255
255 255 255
255 255 255
255 255 255
255 255 255
255 255 255
255 255 255
255 255 255
255 255 255
255 255 255
255 255 255
255 255 255
255 255 255
255 255 255
255 255 255
255 255 255
255 255 255
255 255 255
255 255 255
255 255 255
255 255 255
255 255 255
255 255 255
255 255 255
255 255 255
255 255 255
255 255 255
255 255 255
255 255 255
255 255 255
255 255 255
255 255 255
255 255 255
255 255 255
255 255 255
255 255 255
255 255 255
255 255 255
255 255 255
255 255 255
255 255 255
255 255 255
255 255 255
255 255 255
255 255 255
255 255 255
255 150   0
255 255 255
255 255 255
255 255 255
255 255 255
255 255 255
255 255 255
255 255 255
255 255 255
255 255 255
255 255 255
255 255 255
255 255 255
255 255 255
255 255 255
255 255 255
255 255 255
255 255 255
255 255 255
  0   0   0
  0   0   0
  0   0   0
  0   0   0
 92   0   0
107   0   0
117   0   0
125   0   0
130   0   0
133   0   0
134   0   0
133   0   0
132   0   0
129   0   0
126   0   0
122   0   0
119   0   0
115   0   0
112   0   0
109   0   0
106   0   0
255 150   0
102   0   0
100   0   0
 98   0   0
 96   0   0
 94   0   0
 93   0   0
 92   0   0
 91   0   0
 89   0   0
 89   0   0
 88   0   0
 87   0   0
 86   0   0
 86   0   0
 85   0   0
 85   0   0
 85   0   0
 84   0   0
 84   0   0
 84   0   0
 84   0   0
 84   0   0
 84   0   0
 84   0   0
 85   0   0
 85   0   0
 85   0   0
 86   0   0
 86   0   0
 87   0   0
 88   0   0
 89   0   0
 89   0   0
 91   0   0
 92   0   0
 93   0   0
 94   0   0
 96   0   0
 98   0   0
100   0   0
102   0   0
105   0   0
107   0   0
110   0   0
114   0   0
118   0   0
122   0   0
127   0   0
132   0   0
138   0   0
143   0   0
149   0   0
154   0   0
158   0   0
161   0   0
161   0   0
157   0   0
146   0   0
120   0   0
  0   0  87
  0   0 151
  0   0 186
  0   0 212
  0   0 232
  0   0 245
  0   0 253
  0   0 254
  0   0 248
  0   0 234
  0   0 209
  0   0 165
 98   0   0
174   0   0
202   0   0
214   0   0
217   0   0
213   0   0
204   0   0
191   0   0
175   0   0
157   0   0
139   0   0
120   0   0
102   0   0
 85   0   0
 70   0   0
255 255 255
255 255 255
255 255 255
255 255 255
255 255 255
255 255 255
255 255 255
255 255 255
255 255 255
255 255 255
255 255 255
255 255 255
255 255 255
255 255 255
255 255 255
255 255 255
255 255 255
255 255 255
255 255 255
255 255 255
255 255 255
255 255 255
255 255 255
255 255 255
255 255 255
255 255 255
255 255 255
255 255 255
255 255 255
255 255 255
255 255 255
255 255 255
255 255 255
255 255 255
255 255 255
255 255 255
255 255 255
255 255 255
255 255 255
255 255 255
255 255 255
255 255 255
255 255 255
255 255 255
255 255 255
255 255 255
255 255 255
255 255 255
255 255 255
255 255 255
255 255 255
255 255 255
255 255 255
255 255 255
255 255 255
255 255 255
255 255 255
255 255 255
255 255 255
255 255 255
255 255 255
255 255 255
255 255 255
255 255 255
255 255 255
255 255 255
255 255 255
255 255 255
255 255 255
255 255 255
255 255 255
255 255 255
255 255 255
255 255 255
255 150   0
255 255 255
255 255 255
255 255 255
255 255 255
255 255 255
255 255 255
255 255 255
255 255 255
255 255 255
255 255 255
255 255 255
255 255 255
255 255 255
255 255 255
255 255 255
255 255 255
255 255 255
255 255 255
  0   0   0
  0   0   0
  0   0   0
  0   0   0
 97   0   0
110   0   0
118   0   0
124   0   0
128   0   0
129   0   0
129   0   0
127   0   0
125   0   0
122   0   0
119   0   0
115   0   0
112   0   0
109   0   0
106   0   0
103   0   0
101   0   0
255 150   0
 97   0   0
 95   0   0
 94   0   0
 92   0   0
 91   0   0
 90   0   0
 88   0   0
 87   0   0
 86   0   0
 86   0   0
 85   0   0
 84   0   0
 83   0   0
 83   0   0
 83   0   0
 82   0   0
 82   0   0
 82   0   0
 81   0   0
 81   0   0
 81   0   0
 81   0   0
 81   0   0
 82   0   0
 82   0   0
 82   0   0
 83   0   0
 83   0   0
 83   0   0
 84   0   0
 85   0   0
 86   0   0
 86   0   0
 87   0   0
 88   0   0
 90   0   0
 91   0   0
 92   0   0
 94   0   0
 96   0   0
 98   0   0
100   0   0
102   0   0
105   0   0
108   0   0
112   0   0
116   0   0
120   0   0
125   0   0
130   0   0
136   0   0
141   0   0
147   0   0
153   0   0
157   0   0
160   0   0
161   0   0
157   0   0
146   0   0
121   0   0
  0   0  87
  0   0 152
  0   0 187
  0   0 213
  0   0 233
  0   0 247
  0   0 254
  0   0 254
  0   0 247
  0   0 230
  0   0 202
  0   0 151
128   0   0
183   0   0
206   0   0
216   0   0
217   0   0
211   0   0
200   0   0
186   0   0
169   0   0
151   0   0
132   0   0
114   0   0
 96   0   0
 79   0   0
 64   0   0
255 255 255
255 255 255
255 255 255
255 255 255
255 255 255
255 255 255
255 255 255
255 255 255
255 255 255
255 255 255
255 255 255
255 255 255
255 255 255
255 255 255
255 255 255
255 255 255
255 255 255
255 255 255
255 255 255
255 255 255
255 255 255
255 255 255
255 255 255
255 255 255
255 255 255
255 255 255
255 255 255
255 255 255
255 255 255
255 255 255
255 255 255
255 255 255
255 255 255
255 255 255
255 255 255
255 255 255
255 255 255
255 255 255
255 255 255
255 255 255
255 255 255
255 255 255
255 255 255
255 255 255
255 255 255
255 255 255
255 255 255
255 255 255
255 255 255
255 255 255
255 255 255
255 255 255
255 255 255
255 255 255
255 255 255
255 255 255
255 255 255
255 255 255
255 255 255
255 255 255
255 255 255
255 255 255
255 255 255
255 255 255
255 255 255
255 255 255
255 255 255
255 255 255
255 255 255
255 255 255
255 255 255
255 255 255
255 255 255
255 150   0
255 255 255
255 255 255
255 255 255
255 255 255
255 255 255
255 255 255
255 255 255
255 255 255
255 255 255
255 255 255
255 255 255
255 255 255
255 255 255
255 255 255
255 255 255
255 255 255
255 255 255
255 255 255
  0   0   0
  0   0   0
  0   0   0
  0   0   0
 97   0   0
108   0   0
116   0   0
121   0   0
123   0   0
124   0   0
123   0   0
121   0   0
119   0   0
116   0   0
113   0   0
110   0   0
107   0   0
104   0   0
101   0   0
 99   0   0
 96   0   0
255 150   0
 93   0   0
 91   0   0
 90   0   0
 89   0   0
 88   0   0
 86   0   0
 85   0   0
 84   0   0
 84   0   0
 83   0   0
 82   0   0
 81   0   0
 81   0   0
 80   0   0
 80   0   0
 80   0   0
 79   0   0
 79   0   0
 79   0   0
 79   0   0
 79   0   0
 79   0   0
 79   0   0
 79   0   0
 79   0   0
 80   0   0
 80   0   0
 80   0   0
 81   0   0
 81   0   0
 82   0   0
 83   0   0
 84   0   0
 84   0   0
 85   0   0
 87   0   0
 88   0   0
 89   0   0
 90   0   0
 92   0   0
 94   0   0
 96   0   0
 98   0   0
101   0   0
103   0   0
106   0   0
110   0   0
114   0   0
118   0   0
123   0   0
128   0   0
134   0   0
140   0   0
146   0   0
152   0   0
157   0   0
160   0   0
161   0   0
157   0   0
146   0   0
120   0   0
  0   0  93
  0   0 155
  0   0 190
  0   0 216
  0   0 235
  0   0 248
  0   0 254
  0   0 253
  0   0 244
  0   0 225
  0   0 192
  0   0 128
150   0   0
192   0   0
210   0   0
217   0   0
216   0   0
208   0   0
196   0   0
180   0   0
163   0   0
144   0   0
125   0   0
106   0   0
 89   0   0
 73   0   0
255 255 255
255 255 255
255 255 255
255 255 255
255 255 255
255 255 255
255 255 255
255 255 255
255 255 255
255 255 255
255 255 255
255 255 255
255 255 255
255 255 255
255 255 255
255 255 255
255 255 255
255 255 255
255 255 255
255 255 255
255 255 255
255 255 255
255 255 255
255 255 255
255 255 255
255 255 255
255 255 255
255 255 255
255 255 255
255 255 255
255 255 255
255 255 255
255 255 255
255 255 255
255 255 255
255 255 255
255 255 255
255 255 255
255 255 255
255 255 255
255 255 255
255 255 255
255 255 255
255 255 255
255 255 255
255 255 255
255 255 255
255 255 255
255 255 255
255 255 255
255 255 255
255 255 255
255 255 255
255 255 255
255 255 255
255 255 255
255 255 255
255 255 255
255 255 255
255 255 255
255 255 255
255 255 255
255 255 255
255 255 255
255 255 255
255 255 255
255 255 255
255 255 255
255 255 255
255 255 255
255 255 255
255 255 255
255 255 255
255 150   0
255 255 255
255 255 255
255 255 255
255 255 255
255 255 255
255 255 255
255 255 255
255 255 255
255 255 255
255 255 255
255 255 255
255 255 255
255 255 255
255 255 255
255 255 255
255 255 255
255 255 255
255 255 255
  0   0   0
  0   0   0
  0   0   0
  0   0   0
 94   0   0
104   0   0
111   0   0
115   0   0
117   0   0
118   0   0
117   0   0
115   0   0
113   0   0
110   0   0
108   0   0
105   0   0
102   0   0
 99   0   0
 97   0   0
 94   0   0
 92   0   0
255 150   0
 89   0   0
 88   0   0
 87   0   0
 86   0   0
 85   0   0
 84   0   0
 83   0   0
 82   0   0
 81   0   0
 80   0   0
 80   0   0
 79   0   0
 79   0   0
 78   0   0
 78   0   0
 77   0   0
 77   0   0
 77   0   0
 77   0   0
 77   0   0
 77   0   0
 77   0   0
 77   0   0
 77   0   0
 77   0   0
 77   0   0
 78   0   0
 78   0   0
 79   0   0
 79   0   0
 80   0   0
 80   0   0
 81   0   0
 82   0   0
 83   0   0
 84   0   0
 85   0   0
 86   0   0
 87   0   0
 89   0   0
 91   0   0
 92   0   0
 94   0   0
 97   0   0
 99   0   0
102   0   0
105   0   0
108   0   0
112   0   0
117   0   0
122   0   0
127   0   0
133   0   0
139   0   0
145   0   0
151   0   0
157   0   0
160   0   0
161   0   0
157   0   0
146   0   0
117   0   0
  0   0 102
  0   0 160
  0   0 194
  0   0 220
  0   0 238
  0   0 250
  0   0 255
  0   0 252
  0   0 240
  0   0 218
  0   0 180
  0   0  79
167   0   0
199   0   0
214   0   0
217   0   0
214   0   0
204   0   0
190   0   0
174   0   0
155   0   0
136   0   0
117   0   0
 99   0   0
 82   0   0
 66   0   0
255 255 255
255 255 255
255 255 255
255 255 255
255 255 255
255 255 255
255 255 255
255 255 255
255 255 255
255 255 255
255 255 255
255 255 255
255 255 255
255 255 255
255 255 255
255 255 255
255 255 255
255 255 255
255 255 255
255 255 255
255 255 255
255 255 255
255 255 255
255 255 255
255 255 255
255 255 255
255 255 255
255 255 255
255 255 255
255 255 255
255 255 255
255 255 255
255 255 255
255 255 255
255 255 255
255 255 255
255 255 255
255 255 255
255 255 255
255 255 255
255 255 255
255 255 255
255 255 255
255 255 255
255 255 255
255 255 255
255 255 255
255 255 255
255 255 255
255 255 255
255 255 255
255 255 255
255 255 255
255 255 255
255 255 255
255 255 255
255 255 255
255 255 255
255 255 255
255 255 255
255 255 255
255 255 255
255 255 255
255 255 255
255 255 255
255 255 255
255 255 255
255 255 255
255 255 255
255 255 255
255 255 255
255 255 255
255 150   0
255 255 255
255 255 255
255 255 255
255 255 255
255 255 255
255 255 255
255 255 255
255 255 255
255 255 255
255 255 255
255 255 255
255 255 255
255 255 255
255 255 255
255 255 255
255 255 255
255 255 255
255 255 255
  0   0   0
  0   0   0
  0   0   0
  0   0   0
 89   0   0
 99   0   0
105   0   0
109   0   0
110   0   0
111   0   0
111   0   0
110   0   0
108   0   0
106   0   0
103   0   0
101   0   0
 98   0   0
 95   0   0
 93   0   0
 91   0   0
 89   0   0
255 150   0
 86   0   0
 85   0   0
 84   0   0
 83   0   0
 82   0   0
 81   0   0
 80   0   0
 80   0   0
 79   0   0
 78   0   0
 78   0   0
 77   0   0
 76   0   0
 76   0   0
 76   0   0
 75   0   0
 75   0   0
 75   0   0
 75   0   0
 75   0   0
 75   0   0
 75   0   0
 75   0   0
 75   0   0
 75   0   0
 75   0   0
 76   0   0
 76   0   0
 76   0   0
 77   0   0
 78   0   0
 78   0   0
 79   0   0
 80   0   0
 80   0   0
 81   0   0
 82   0   0
 83   0   0
 85   0   0
 86   0   0
 88   0   0
 89   0   0
 91   0   0
 93   0   0
 95   0   0
 98   0   0
100   0   0
104   0   0
107   0   0
111   0   0
116   0   0
121   0   0
126   0   0
132   0   0
139   0   0
145   0   0
151   0   0
157   0   0
160   0   0
161   0   0
157   0   0
144   0   0
110   0   0
  0   0 114
  0   0 166
  0   0 199
  0   0 224
  0   0 241
  0   0 252
  0   0 255
  0   0 250
  0   0 235
  0   0 209
  0   0 162
114   0   0
180   0   0
206   0   0
216   0   0
217   0   0
211   0   0
199   0   0
184   0   0
166   0   0
147   0   0
128   0   0
109   0   0
 91   0   0
 75   0   0
255 255 255
255 255 255
255 255 255
255 255 255
255 255 255
255 255 255
255 255 255
255 255 255
255 255 255
255 255 255
255 255 255
255 255 255
255 255 255
255 255 255
255 255 255
255 255 255
255 255 255
255 255 255
255 255 255
255 255 255
255 255 255
255 255 255
255 255 255
255 255 255
255 255 255
255 255 255
255 255 255
255 255 255
255 255 255
255 255 255
255 255 255
255 255 255
255 255 255
255 255 255
255 255 255
255 255 255
255 255 255
255 255 255
255 255 255
255 255 255
255 255 255
255 255 255
255 255 255
255 255 255
255 255 255
255 255 255
255 255 255
255 255 255
255 255 255
255 255 255
255 255 255
255 255 255
255 255 255
255 255 255
255 255 255
255 255 255
255 255 255
255 255 255
255 255 255
255 255 255
255 255 255
255 255 255
255 255 255
255 255 255
255 255 255
255 255 255
255 255 255
255 255 255
255 255 255
255 255 255
255 255 255
255 255 255
255 150   0
255 255 255
255 255 255
255 255 255
255 255 255
255 255 255
255 255 255
255 255 255
255 255 255
255 255 255
255 255 255
255 255 255
255 255 255
255 255 255
255 255 255
255 255 255
255 255 255
255 255 255
255 255 255
  0   0   0
  0   0   0
  0   0   0
  0   0   0
 84   0   0
 93   0   0
 98   0   0
102   0   0
104   0   0
105   0   0
105   0   0
104   0   0
103   0   0
102   0   0
100   0   0
 97   0   0
 95   0   0
 92   0   0
 90   0   0
 87   0   0
 86   0   0
255 150   0
 83   0   0
 82   0   0
 81   0   0
 80   0   0
 80   0   0
 79   0   0
 78   0   0
 77   0   0
 77   0   0
 76   0   0
 76   0   0
 75   0   0
 75   0   0
 74   0   0
 74   0   0
 74   0   0
 73   0   0
 73   0   0
 73   0   0
 73   0   0
 73   0   0
 73   0   0
 73   0   0
 73   0   0
 73   0   0
 74   0   0
 74   0   0
 74   0   0
 75   0   0
 75   0   0
 76   0   0
 76   0   0
 77   0   0
 77   0   0
 78   0   0
 79   0   0
 80   0   0
 81   0   0
 82   0   0
 84   0   0
 85   0   0
 86   0   0
 88   0   0
 90   0   0
 92   0   0
 94   0   0
 97   0   0
 99   0   0
103   0   0
106   0   0
110   0   0
115   0   0
120   0   0
126   0   0
132   0   0
138   0   0
145   0   0
151   0   0
157   0   0
160   0   0
161   0   0
156   0   0
141   0   0
 99   0   0
  0   0 127
  0   0 174
  0   0 205
  0   0 229
  0   0 245
  0   0 253
  0   0 254
  0   0 246
  0   0 228
  0   0 197
  0   0 135
148   0   0
192   0   0
211   0   0
217   0   0
215   0   0
207   0   0
193   0   0
177   0   0
158   0   0
139   0   0
119   0   0
101   0   0
 83   0   0
 67   0   0
255 255 255
255 255 255
255 255 255
255 255 255
255 255 255
255 255 255
255 255 255
255 255 255
255 255 255
255 255 255
255 255 255
255 255 255
255 255 255
255 255 255
255 255 255
255 255 255
255 255 255
255 255 255
255 255 255
255 255 255
255 255 255
255 255 255
255 255 255
255 255 255
255 255 255
255 255 255
255 255 255
255 255 255
255 255 255
255 255 255
255 255 255
255 255 255
255 255 255
255 255 255
255 255 255
255 255 255
255 255 255
255 255 255
255 255 255
255 255 255
255 255 255
255 255 255
255 255 255
255 255 255
255 255 255
255 255 255
255 255 255
255 255 255
255 255 255
255 255 255
255 255 255
255 255 255
255 255 255
255 255 255
255 255 255
255 255 255
255 255 255
255 255 255
255 255 255
255 255 255
255 255 255
255 255 255
255 255 255
255 255 255
255 255 255
255 255 255
255 255 255
255 255 255
255 255 255
255 255 255
255 255 255
255 150   0
255 255 255
255 255 255
255 255 255
255 255 255
255 255 255
255 255 255
255 255 255
255 255 255
255 255 255
255 255 255
255 255 255
255 255 255
255 255 255
255 255 255
255 255 255
255 255 255
255 255 255
255 255 255
  0   0   0
  0   0   0
  0   0   0
  0   0   0
 78   0   0
 86   0   0
 91   0   0
 94   0   0
 97   0   0
 98   0   0
 99   0   0
 99   0   0
 99   0   0
 98   0   0
 96   0   0
 94   0   0
 92   0   0
 89   0   0
 87   0   0
 85   0   0
 83   0   0
255 150   0
 80   0   0
 79   0   0
 79   0   0
 78   0   0
 77   0   0
 77   0   0
 76   0   0
 75   0   0
 75   0   0
 74   0   0
 74   0   0
 73   0   0
 73   0   0
 72   0   0
 72   0   0
 72   0   0
 72   0   0
 71   0   0
 71   0   0
 71   0   0
 71   0   0
 71   0   0
 71   0   0
 71   0   0
 72   0   0
 72   0   0
 72   0   0
 72   0   0
 73   0   0
 73   0   0
 74   0   0
 74   0   0
 75   0   0
 76   0   0
 76   0   0
 77   0   0
 78   0   0
 79   0   0
 80   0   0
 81   0   0
 83   0   0
 84   0   0
 85   0   0
 87   0   0
 89   0   0
 91   0   0
 93   0   0
 96   0   0
 99   0   0
102   0   0
106   0   0
110   0   0
114   0   0
120   0   0
125   0   0
132   0   0
139   0   0
145   0   0
152   0   0
157   0   0
161   0   0
160   0   0
154   0   0
136   0   0
 76   0   0
  0   0 140
  0   0 182
  0   0 212
  0   0 234
  0   0 248
  0   0 254
  0   0 253
  0   0 242
  0   0 219
  0   0 180
  0   0  66
170   0   0
201   0   0
215   0   0
217   0   0
212   0   0
201   0   0
186   0   0
169   0   0
150   0   0
130   0   0
110   0   0
 92   0   0
 75   0   0
255 255 255
255 255 255
255 255 255
255 255 255
255 255 255
255 255 255
255 255 255
255 255 255
255 255 255
255 255 255
255 255 255
255 255 255
255 255 255
255 255 255
255 255 255
255 255 255
255 255 255
255 255 255
255 255 255
255 255 255
255 255 255
255 255 255
255 255 255
255 255 255
255 255 255
255 255 255
255 255 255
255 255 255
255 255 255
255 255 255
255 255 255
255 255 255
255 255 255
255 255 255
255 255 255
255 255 255
255 255 255
255 255 255
255 255 255
255 255 255
255 255 255
255 255 255
255 255 255
255 255 255
255 255 255
255 255 255
255 255 255
255 255 255
255 255 255
255 255 255
255 255 255
255 255 255
255 255 255
255 255 255
255 255 255
255 255 255
255 255 255
255 255 255
255 255 255
255 255 255
255 255 255
255 255 255
255 255 255
255 255 255
255 255 255
255 255 255
255 255 255
255 255 255
255 255 255
255 255 255
255 255 255
255 150   0
255 255 255
255 255 255
255 255 255
255 255 255
255 255 255
255 255 255
255 255 255
255 255 255
255 255 255
255 255 255
255 255 255
255 255 255
255 255 255
255 255 255
255 255 255
255 255 255
255 255 255
255 255 255
  0   0   0
  0   0   0
  0   0   0
  0   0   0
 72   0   0
 79   0   0
 84   0   0
 88   0   0
 90   0   0
 92   0   0
 94   0   0
 95   0   0
 95   0   0
 95   0   0
 94   0   0
 92   0   0
 90   0   0
 87   0   0
 85   0   0
 83   0   0
 81   0   0
255 150   0
 78   0   0
 77   0   0
 76   0   0
 76   0   0
 75   0   0
 75   0   0
 74   0   0
 74   0   0
 73   0   0
 72   0   0
 72   0   0
 72   0   0
 71   0   0
 71   0   0
 70   0   0
 70   0   0
 70   0   0
 70   0   0
 70   0   0
 70   0   0
 70   0   0
 70   0   0
 70   0   0
 70   0   0
 70   0   0
 70   0   0
 70   0   0
 71   0   0
 71   0   0
 72   0   0
 72   0   0
 73   0   0
 73   0   0
 74   0   0
 74   0   0
 75   0   0
 76   0   0
 77   0   0
 78   0   0
 79   0   0
 80   0   0
 82   0   0
 83   0   0
 85   0   0
 86   0   0
 88   0   0
 90   0   0
 93   0   0
 95   0   0
 98   0   0
101   0   0
105   0   0
109   0   0
114   0   0
120   0   0
126   0   0
132   0   0
139   0   0
146   0   0
153   0   0
158   0   0
161   0   0
160   0   0
151   0   0
129   0   0
  0   0  74
  0   0 153
  0   0 192
  0   0 219
  0   0 239
  0   0 251
  0   0 255
  0   0 250
  0   0 235
  0   0 207
  0   0 156
129   0   0
186   0   0
208   0   0
217   0   0
216   0   0
208   0   0
195   0   0
178   0   0
160   0   0
140   0   0
120   0   0
101   0   0
 83   0   0
 67   0   0
255 255 255
255 255 255
255 255 255
255 255 255
255 255 255
255 255 255
255 255 255
255 255 255
255 255 255
255 255 255
255 255 255
255 255 255
255 255 255
255 255 255
255 255 255
255 255 255
255 255 255
255 255 255
255 255 255
255 255 255
255 255 255
255 255 255
255 255 255
255 255 255
255 255 255
255 255 255
255 255 255
255 255 255
255 255 255
255 255 255
255 255 255
255 255 255
255 255 255
255 255 255
255 255 255
255 255 255
255 255 255
255 255 255
255 255 255
255 255 255
255 255 255
255 255 255
255 255 255
255 255 255
255 255 255
255 255 255
255 255 255
255 255 255
255 255 255
255 255 255
255 255 255
255 255 255
255 255 255
255 255 255
255 255 255
255 255 255
255 255 255
255 255 255
255 255 255
255 255 255
255 255 255
255 255 255
255 255 255
255 255 255
255 255 255
255 255 255
255 255 255
255 255 255
255 255 255
255 255 255
255 150   0
255 255 255
255 255 255
255 255 255
255 255 255
255 255 255
255 255 255
255 255 255
255 255 255
255 255 255
255 255 255
255 255 255
255 255 255
255 255 255
255 255 255
255 255 255
255 255 255
255 255 255
255 255 255
  0   0   0
  0   0   0
  0   0   0
  0   0   0
 66   0   0
 73   0   0
 77   0   0
 81   0   0
 84   0   0
 87   0   0
 89   0   0
 91   0   0
 92   0   0
 92   0   0
 91   0   0
 90   0   0
 88   0   0
 85   0   0
 83   0   0
 81   0   0
 78   0   0
255 150   0
 76   0   0
 75   0   0
 74   0   0
 74   0   0
 73   0   0
 73   0   0
 72   0   0
 72   0   0
 71   0   0
 71   0   0
 70   0   0
 70   0   0
 70   0   0
 69   0   0
 69   0   0
 69   0   0
 69   0   0
 68   0   0
 68   0   0
 68   0   0
 68   0   0
 68   0   0
 68   0   0
 68   0   0
 69   0   0
 69   0   0
 69   0   0
 69   0   0
 70   0   0
 70   0   0
 70   0   0
 71   0   0
 71   0   0
 72   0   0
 73   0   0
 74   0   0
 74   0   0
 75   0   0
 76   0   0
 77   0   0
 78   0   0
 80   0   0
 81   0   0
 82   0   0
 84   0   0
 86   0   0
 88   0   0
 90   0   0
 92   0   0
 95   0   0
 98   0   0
101   0   0
105   0   0
109   0   0
114   0   0
120   0   0
126   0   0
133   0   0
140   0   0
147   0   0
154   0   0
159   0   0
161   0   0
158   0   0
148   0   0
117   0   0
  0   0 109
  0   0 166
  0   0 201
  0   0 227
  0   0 244
  0   0 253
  0   0 254
  0   0 246
  0   0 226
  0   0 191
  0   0 114
161   0   0
198   0   0
214   0   0
217   0   0
213   0   0
202   0   0
187   0   0
169   0   0
150   0   0
130   0   0
110   0   0
 92   0   0
 75   0   0
255 255 255
255 255 255
255 255 255
255 255 255
255 255 255
255 255 255
255 255 255
255 255 255
255 255 255
255 255 255
255 255 255
255 255 255
255 255 255
255 255 255
255 255 255
255 255 255
255 255 255
255 255 255
255 255 255
255 255 255
255 255 255
255 255 255
255 255 255
255 255 255
255 255 255
255 255 255
255 255 255
255 255 255
255 255 255
255 255 255
255 255 255
255 255 255
255 255 255
255 255 255
255 255 255
255 255 255
255 255 255
255 255 255
255 255 255
255 255 255
255 255 255
255 255 255
255 255 255
255 255 255
255 255 255
255 255 255
255 255 255
255 255 255
255 255 255
255 255 255
255 255 255
255 255 255
255 255 255
255 255 255
255 255 255
255 255 255
255 255 255
255 255 255
255 255 255
255 255 255
255 255 255
255 255 255
255 255 255
255 255 255
255 255 255
255 255 255
255 255 255
255 255 255
255 255 255
255 255 255
255 150   0
255 255 255
255 255 255
255 255 255
255 255 255
255 255 255
255 255 255
255 255 255
255 255 255
255 255 255
255 255 255
255 255 255
255 255 255
255 255 255
255 255 255
255 255 255
255 255 255
255 255 255
255 255 255
  0   0   0
  0   0   0
  0   0   0
  0   0   0
255 255 255
 67   0   0
 71   0   0
 75   0   0
 78   0   0
 82   0   0
 84   0   0
 87   0   0
 88   0   0
 89   0   0
 89   0   0
 88   0   0
 86   0   0
 84   0   0
 81   0   0
 79   0   0
 77   0   0
255 150   0
 74   0   0
 73   0   0
 72   0   0
 72   0   0
 71   0   0
 71   0   0
 71   0   0
 70   0   0
 70   0   0
 69   0   0
 69   0   0
 69   0   0
 68   0   0
 68   0   0
 68   0   0
 67   0   0
 67   0   0
 67   0   0
 67   0   0
 67   0   0
 67   0   0
 67   0   0
 67   0   0
 67   0   0
 67   0   0
 67   0   0
 68   0   0
 68   0   0
 68   0   0
 69   0   0
 69   0   0
 69   0   0
 70   0   0
 71   0   0
 71   0   0
 72   0   0
 73   0   0
 74   0   0
 74   0   0
 75   0   0
 77   0   0
 78   0   0
 79   0   0
 80   0   0
 82   0   0
 84   0   0
 85   0   0
 87   0   0
 90   0   0
 92   0   0
 95   0   0
 98   0   0
101   0   0
105   0   0
110   0   0
115   0   0
121   0   0
127   0   0
134   0   0
141   0   0
149   0   0
155   0   0
160   0   0
161   0   0
156   0   0
142   0   0
 96   0   0
  0   0 133
  0   0 180
  0   0 211
  0   0 234
  0   0 248
  0   0 255
  0   0 252
  0   0 239
  0   0 213
  0   0 167
112   0   0
182   0   0
207   0   0
216   0   0
216   0   0
208   0   0
195   0   0
179   0   0
160   0   0
140   0   0
119   0   0
100   0   0
 82   0   0
 66   0   0
255 255 255
255 255 255
255 255 255
255 255 255
255 255 255
255 255 255
255 255 255
255 255 255
255 255 255
255 255 255
255 255 255
255 255 255
255 255 255
255 255 255
255 255 255
255 255 255
255 255 255
255 255 255
255 255 255
255 255 255
255 255 255
255 255 255
255 255 255
255 255 255
255 255 255
255 255 255
255 255 255
255 255 255
255 255 255
255 255 255
255 255 255
255 255 255
255 255 255
255 255 255
255 255 255
255 255 255
255 255 255
255 255 255
255 255 255
255 255 255
255 255 255
255 255 255
255 255 255
255 255 255
255 255 255
255 255 255
255 255 255
255 255 255
255 255 255
255 255 255
255 255 255
255 255 255
255 255 255
255 255 255
255 255 255
255 255 255
255 255 255
255 255 255
255 255 255
255 255 255
255 255 255
255 255 255
255 255 255
255 255 255
255 255 255
255 255 255
255 255 255
255 255 255
255 255 255
255 150   0
255 255 255
255 255 255
255 255 255
255 255 255
255 255 255
255 255 255
255 255 255
255 255 255
255 255 255
255 255 255
255 255 255
255 255 255
255 255 255
255 255 255
255 255 255
255 255 255
255 255 255
255 255 255
  0   0   0
  0   0   0
  0   0   0
  0   0   0
255 255 255
255 255 255
 66   0   0
 70   0   0
 73   0   0
 77   0   0
 80   0   0
 83   0   0
 85   0   0
 86   0   0
 86   0   0
 86   0   0
 84   0   0
 82   0   0
 80   0   0
 78   0   0
 75   0   0
255 150   0
 72   0   0
 71   0   0
 70   0   0
 70   0   0
 70   0   0
 69   0   0
 69   0   0
 69   0   0
 68   0   0
 68   0   0
 68   0   0
 67   0   0
 67   0   0
 67   0   0
 66   0   0
 66   0   0
 66   0   0
 66   0   0
 66   0   0
 66   0   0
 66   0   0
 66   0   0
 66   0   0
 66   0   0
 66   0   0
 66   0   0
 66   0   0
 67   0   0
 67   0   0
 67   0   0
 68   0   0
 68   0   0
 69   0   0
 69   0   0
 70   0   0
 70   0   0
 71   0   0
 72   0   0
 73   0   0
 74   0   0
 75   0   0
 76   0   0
 77   0   0
 78   0   0
 80   0   0
 81   0   0
 83   0   0
 85   0   0
 87   0   0
 89   0   0
 92   0   0
 95   0   0
 98   0   0
101   0   0
106   0   0
110   0   0
116   0   0
122   0   0
128   0   0
136   0   0
143   0   0
150   0   0
156   0   0
160   0   0
160   0   0
153   0   0
132   0   0
255 255 255
  0   0 153
  0   0 193
  0   0 221
  0   0 241
  0   0 252
  0   0 255
  0   0 248
  0   0 229
  0   0 196
  0   0 127
156   0   0
196   0   0
213   0   0
217   0   0
213   0   0
202   0   0
187   0   0
169   0   0
149   0   0
129   0   0
109   0   0
 90   0   0
 73   0   0
255 255 255
255 255 255
255 255 255
255 255 255
255 255 255
255 255 255
255 255 255
255 255 255
255 255 255
255 255 255
255 255 255
255 255 255
255 255 255
255 255 255
255 255 255
255 255 255
255 255 255
255 255 255
255 255 255
255 255 255
255 255 255
255 255 255
255 255 255
255 255 255
255 255 255
255 255 255
255 255 255
255 255 255
255 255 255
255 255 255
255 255 255
255 255 255
255 255 255
255 255 255
255 255 255
255 255 255
255 255 255
255 255 255
255 255 255
255 255 255
255 255 255
255 255 255
255 255 255
255 255 255
255 255 255
255 255 255
255 255 255
255 255 255
255 255 255
255 255 255
255 255 255
255 255 255
255 255 255
255 255 255
255 255 255
255 255 255
255 255 255
255 255 255
255 255 255
255 255 255
255 255 255
255 255 255
255 255 255
255 255 255
255 255 255
255 255 255
255 255 255
255 255 255
255 255 255
255 150   0
255 255 255
255 255 255
255 255 255
255 255 255
255 255 255
255 255 255
255 255 255
255 255 255
255 255 255
255 255 255
255 255 255
255 255 255
255 255 255
255 255 255
255 255 255
255 255 255
255 255 255
255 255 255
  0   0   0
  0   0   0
  0   0   0
  0   0   0
255 255 255
255 255 255
255 255 255
 65   0   0
 69   0   0
 73   0   0
 77   0   0
 80   0   0
 82   0   0
 84   0   0
 84   0   0
 84   0   0
 83   0   0
 81   0   0
 79   0   0
 76   0   0
 74   0   0
255 150   0
 70   0   0
 69   0   0
 69   0   0
 68   0   0
 68   0   0
 68   0   0
 68   0   0
 67   0   0
 67   0   0
 67   0   0
 66   0   0
 66   0   0
 66   0   0
 65   0   0
 65   0   0
 65   0   0
 65   0   0
 65   0   0
 65   0   0
 64   0   0
 64   0   0
 64   0   0
 65   0   0
 65   0   0
 65   0   0
 65   0   0
 65   0   0
 65   0   0
 66   0   0
 66   0   0
 66   0   0
 67   0   0
 67   0   0
 68   0   0
 68   0   0
 69   0   0
 70   0   0
 71   0   0
 71   0   0
 72   0   0
 73   0   0
 74   0   0
 76   0   0
 77   0   0
 78   0   0
 80   0   0
 81   0   0
 83   0   0
 85   0   0
 87   0   0
 89   0   0
 92   0   0
 95   0   0
 98   0   0
102   0   0
106   0   0
111   0   0
117   0   0
123   0   0
130   0   0
138   0   0
145   0   0
152   0   0
158   0   0
161   0   0
159   0   0
148   0   0
117   0   0
  0   0 114
  0   0 170
  0   0 205
  0   0 230
  0   0 247
  0   0 254
  0   0 253
  0   0 241
  0   0 216
  0   0 171
105   0   0
181   0   0
207   0   0
216   0   0
216   0   0
208   0   0
194   0   0
177   0   0
158   0   0
138   0   0
117   0   0
 98   0   0
 80   0   0
255 255 255
255 255 255
255 255 255
255 255 255
255 255 255
255 255 255
255 255 255
255 255 255
255 255 255
255 255 255
255 255 255
255 255 255
255 255 255
255 255 255
255 255 255
255 255 255
255 255 255
255 255 255
255 255 255
255 255 255
255 255 255
255 255 255
255 255 255
255 255 255
255 255 255
255 255 255
255 255 255
255 255 255
255 255 255
255 255 255
255 255 255
255 255 255
255 255 255
255 255 255
255 255 255
255 255 255
255 255 255
255 255 255
255 255 255
255 255 255
255 255 255
255 255 255
255 255 255
255 255 255
255 255 255
255 255 255
255 255 255
255 255 255
255 255 255
255 255 255
255 255 255
255 255 255
255 255 255
255 255 255
255 255 255
255 255 255
255 255 255
255 255 255
255 255 255
255 255 255
255 255 255
255 255 255
255 255 255
255 255 255
255 255 255
255 255 255
255 255 255
255 255 255
255 255 255
255 150   0
255 255 255
255 255 255
255 255 255
255 255 255
255 255 255
255 255 255
255 255 255
255 255 255
255 255 255
255 255 255
255 255 255
255 255 255
255 255 255
255 255 255
255 255 255
255 255 255
255 255 255
255 255 255
  0   0   0
  0   0   0
  0   0   0
  0   0   0
255 255 255
255 255 255
255 255 255
255 255 255
 65   0   0
 69   0   0
 73   0   0
 77   0   0
 79   0   0
 81   0   0
 82   0   0
 82   0   0
 81   0   0
 80   0   0
 78   0   0
 75   0   0
 73   0   0
255 150   0
 69   0   0
 68   0   0
 67   0   0
 67   0   0
 66   0   0
 66   0   0
 66   0   0
 66   0   0
 66   0   0
 66   0   0
 65   0   0
 65   0   0
 65   0   0
 64   0   0
255 255 255
255 255 255
255 255 255
255 255 255
255 255 255
255 255 255
255 255 255
255 255 255
255 255 255
255 255 255
255 255 255
255 255 255
255 255 255
 64   0   0
 65   0   0
 65   0   0
 65   0   0
 66   0   0
 66   0   0
 67   0   0
 67   0   0
 68   0   0
 69   0   0
 69   0   0
 70   0   0
 71   0   0
 72   0   0
 73   0   0
 74   0   0
 75   0   0
 76   0   0
 78   0   0
 79   0   0
 81   0   0
 83   0   0
 85   0   0
 87   0   0
 90   0   0
 92   0   0
 95   0   0
 99   0   0
103   0   0
107   0   0
112   0   0
118   0   0
125   0   0
132   0   0
140   0   0
148   0   0
154   0   0
159   0   0
161   0   0
156   0   0
140   0   0
 83   0   0
  0   0 142
  0   0 187
  0   0 217
  0   0 239
  0   0 251
  0   0 255
  0   0 248
  0   0 230
  0   0 197
  0   0 128
157   0   0
197   0   0
213   0   0
217   0   0
212   0   0
201   0   0
185   0   0
167   0   0
146   0   0
126   0   0
106   0   0
 87   0   0
 70   0   0
255 255 255
255 255 255
255 255 255
255 255 255
255 255 255
255 255 255
255 255 255
255 255 255
255 255 255
255 255 255
255 255 255
255 255 255
255 255 255
255 255 255
255 255 255
255 255 255
255 255 255
255 255 255
255 255 255
255 255 255
255 255 255
255 255 255
255 255 255
255 255 255
255 255 255
255 255 255
255 255 255
255 255 255
255 255 255
255 255 255
255 255 255
255 255 255
255 255 255
255 255 255
255 255 255
255 255 255
255 255 255
255 255 255
255 255 255
255 255 255
255 255 255
255 255 255
255 255 255
255 255 255
255 255 255
255 255 255
255 255 255
255 255 255
255 255 255
255 255 255
255 255 255
255 255 255
255 255 255
255 255 255
255 255 255
255 255 255
255 255 255
255 255 255
255 255 255
255 255 255
255 255 255
255 255 255
255 255 255
255 255 255
255 255 255
255 255 255
255 255 255
255 255 255
255 150   0
255 255 255
255 255 255
255 255 255
255 255 255
255 255 255
255 255 255
255 255 255
255 255 255
255 255 255
255 255 255
255 255 255
255 255 255
255 255 255
255 255 255
255 255 255
255 255 255
255 255 255
255 255 255
  0   0   0
  0   0   0
  0   0   0
  0   0   0
255 255 255
255 255 255
255 255 255
255 255 255
255 255 255
 66   0   0
 70   0   0
 74   0   0
 77   0   0
 79   0   0
 80   0   0
 80   0   0
 80   0   0
 79   0   0
 77   0   0
 75   0   0
 72   0   0
255 150   0
 68   0   0
 66   0   0
 66   0   0
 65   0   0
 65   0   0
 65   0   0
 65   0   0
 65   0   0
 65   0   0
 64   0   0
 64   0   0
255 255 255
255 255 255
255 255 255
255 255 255
255 255 255
255 255 255
255 255 255
255 255 255
255 255 255
255 255 255
255 255 255
255 255 255
255 255 255
255 255 255
255 255 255
255 255 255
255 255 255
255 255 255
255 255 255
 64   0   0
 65   0   0
 65   0   0
 66   0   0
 66   0   0
 67   0   0
 67   0   0
 68   0   0
 69   0   0
 70   0   0
 71   0   0
 72   0   0
 73   0   0
 74   0   0
 75   0   0
 76   0   0
 78   0   0
 79   0   0
 81   0   0
 83   0   0
 85   0   0
 87   0   0
 90   0   0
 93   0   0
 96   0   0
 99   0   0
104   0   0
108   0   0
114   0   0
120   0   0
127   0   0
135   0   0
143   0   0
150   0   0
157   0   0
161   0   0
160   0   0
151   0   0
126   0   0
  0   0  99
  0   0 165
  0   0 202
  0   0 228
  0   0 246
  0   0 254
  0   0 253
  0   0 241
  0   0 216
  0   0 169
112   0   0
183   0   0
208   0   0
217   0   0
215   0   0
206   0   0
192   0   0
175   0   0
155   0   0
134   0   0
114   0   0
 94   0   0
 76   0   0
255 255 255
255 255 255
255 255 255
255 255 255
255 255 255
255 255 255
255 255 255
255 255 255
255 255 255
255 255 255
255 255 255
255 255 255
255 255 255
255 255 255
255 255 255
255 255 255
255 255 255
255 255 255
255 255 255
255 255 255
255 255 255
255 255 255
255 255 255
255 255 255
255 255 255
255 255 255
255 255 255
255 255 255
255 255 255
255 255 255
255 255 255
255 255 255
255 255 255
255 255 255
255 255 255
255 255 255
255 255 255
255 255 255
255 255 255
255 255 255
255 255 255
255 255 255
255 255 255
255 255 255
255 255 255
255 255 255
255 255 255
255 255 255
255 255 255
255 255 255
255 255 255
255 255 255
255 255 255
255 255 255
255 255 255
255 255 255
255 255 255
255 255 255
255 255 255
255 255 255
255 255 255
255 255 255
255 255 255
255 255 255
255 255 255
255 255 255
255 255 255
255 255 255
255 150   0
255 255 255
255 255 255
255 255 255
255 255 255
255 255 255
255 255 255
255 255 255
255 255 255
255 255 255
255 255 255
255 255 255
255 255 255
255 255 255
255 255 255
255 255 255
255 255 255
255 255 255
255 255 255
  0   0   0
  0   0   0
  0   0   0
  0   0   0
255 255 255
255 255 255
255 255 255
255 255 255
255 255 255
255 255 255
 68   0   0
 72   0   0
 75   0   0
 77   0   0
 78   0   0
 79   0   0
 78   0   0
 77   0   0
 76   0   0
 74   0   0
 71   0   0
255 150   0
 67   0   0
 65   0   0
 64   0   0
255 255 255
255 255 255
255 255 255
255 255 255
255 255 255
255 255 255
255 255 255
255 255 255
255 255 255
255 255 255
255 255 255
255 255 255
255 255 255
255 255 255
255 255 255
255 255 255
255 255 255
255 255 255
255 255 255
255 255 255
255 255 255
255 255 255
255 255 255
255 255 255
255 255 255
255 255 255
255 255 255
255 255 255
255 255 255
255 255 255
 65   0   0
 65   0   0
 66   0   0
 66   0   0
 67   0   0
 68   0   0
 68   0   0
 69   0   0
 70   0   0
 71   0   0
 72   0   0
 74   0   0
 75   0   0
 76   0   0
 78   0   0
 79   0   0
 81   0   0
 83   0   0
 85   0   0
 88   0   0
 90   0   0
 93   0   0
 97   0   0
100   0   0
105   0   0
110   0   0
116   0   0
122   0   0
130   0   0
137   0   0
145   0   0
153   0   0
159   0   0
161   0   0
158   0   0
143   0   0
 97   0   0
  0   0 137
  0   0 184
  0   0 216
  0   0 238
  0   0 251
  0   0 255
  0   0 248
  0   0 229
  0   0 194
  0   0 117
163   0   0
200   0   0
214   0   0
217   0   0
211   0   0
199   0   0
182   0   0
163   0   0
142   0   0
121   0   0
101   0   0
 83   0   0
 66   0   0
255 255 255
255 255 255
255 255 255
255 255 255
255 255 255
255 255 255
255 255 255
255 255 255
255 255 255
255 255 255
255 255 255
255 255 255
255 255 255
255 255 255
255 255 255
255 255 255
255 255 255
255 255 255
255 255 255
255 255 255
255 255 255
255 255 255
255 255 255
255 255 255
255 255 255
255 255 255
255 255 255
255 255 255
255 255 255
255 255 255
255 255 255
255 255 255
255 255 255
255 255 255
255 255 255
255 255 255
255 255 255
255 255 255
255 255 255
255 255 255
255 255 255
255 255 255
255 255 255
255 255 255
255 255 255
255 255 255
255 255 255
255 255 255
255 255 255
255 255 255
255 255 255
255 255 255
255 255 255
255 255 255
255 255 255
255 255 255
255 255 255
255 255 255
255 255 255
255 255 255
255 255 255
255 255 255
255 255 255
255 255 255
255 255 255
255 255 255
255 255 255
255 150   0
255 255 255
255 255 255
255 255 255
255 255 255
255 255 255
255 255 255
255 255 255
255 255 255
255 255 255
255 255 255
255 255 255
255 255 255
255 255 255
255 255 255
255 255 255
255 255 255
255 255 255
255 255 255
  0   0   0
  0   0   0
  0   0   0
  0   0   0
255 255 255
255 255 255
255 255 255
255 255 255
255 255 255
255 255 255
 66   0   0
 69   0   0
 72   0   0
 75   0   0
 76   0   0
 77   0   0
 77   0   0
 76   0   0
 75   0   0
 73   0   0
 71   0   0
255 150   0
 66   0   0
 64   0   0
255 255 255
255 255 255
255 255 255
255 255 255
255 255 255
255 255 255
255 255 255
255 255 255
255 255 255
255 255 255
255 255 255
255 255 255
255 255 255
255 255 255
255 255 255
255 255 255
255 255 255
255 255 255
255 255 255
255 255 255
255 255 255
255 255 255
255 255 255
255 255 255
255 255 255
255 255 255
255 255 255
255 255 255
255 255 255
255 255 255
255 255 255
255 255 255
 64   0   0
 65   0   0
 65   0   0
 66   0   0
 67   0   0
 67   0   0
 68   0   0
 69   0   0
 70   0   0
 71   0   0
 72   0   0
 74   0   0
 75   0   0
 76   0   0
 78   0   0
 80   0   0
 81   0   0
 84   0   0
 86   0   0
 88   0   0
 91   0   0
 94   0   0
 98   0   0
102   0   0
106   0   0
112   0   0
118   0   0
125   0   0
133   0   0
141   0   0
149   0   0
156   0   0
160   0   0
160   0   0
153   0   0
129   0   0
  0   0  92
  0   0 163
  0   0 202
  0   0 229
  0   0 246
  0   0 254
  0   0 252
  0   0 239
  0   0 212
  0   0 161
129   0   0
188   0   0
210   0   0
217   0   0
214   0   0
204   0   0
189   0   0
170   0   0
150   0   0
129   0   0
109   0   0
 89   0   0
 72   0   0
255 255 255
255 255 255
255 255 255
255 255 255
255 255 255
255 255 255
255 255 255
255 255 255
255 255 255
255 255 255
255 255 255
255 255 255
255 255 255
255 255 255
255 255 255
255 255 255
255 255 255
255 255 255
255 255 255
255 255 255
255 255 255
255 255 255
255 255 255
255 255 255
255 255 255
255 255 255
255 255 255
255 255 255
255 255 255
255 255 255
255 255 255
255 255 255
255 255 255
255 255 255
255 255 255
255 255 255
255 255 255
255 255 255
255 255 255
255 255 255
255 255 255
255 255 255
255 255 255
255 255 255
255 255 255
255 255 255
255 255 255
255 255 255
255 255 255
255 255 255
255 255 255
255 255 255
255 255 255
255 255 255
255 255 255
255 255 255
255 255 255
255 255 255
255 255 255
255 255 255
255 255 255
255 255 255
255 255 255
255 255 255
255 255 255
255 255 255
255 255 255
255 150   0
255 255 255
255 255 255
255 255 255
255 255 255
255 255 255
255 255 255
255 255 255
255 255 255
255 255 255
255 255 255
255 255 255
255 255 255
255 255 255
255 255 255
255 255 255
255 255 255
255 255 255
255 255 255
  0   0   0
  0   0   0
  0   0   0
  0   0   0
255 255 255
255 255 255
255 255 255
255 255 255
255 255 255
255 255 255
255 255 255
 67   0   0
 71   0   0
 73   0   0
 74   0   0
 75   0   0
 75   0   0
 75   0   0
 74   0   0
 72   0   0
 70   0   0
255 150   0
 66   0   0
255 255 255
255 255 255
255 255 255
255 255 255
255 255 255
255 255 255
255 255 255
255 255 255
255 255 255
255 255 255
255 255 255
255 255 255
255 255 255
255 255 255
255 255 255
255 255 255
255 255 255
255 255 255
255 255 255
255 255 255
255 255 255
255 255 255
255 255 255
255 255 255
255 255 255
255 255 255
255 255 255
255 255 255
255 255 255
255 255 255
255 255 255
255 255 255
255 255 255
255 255 255
255 255 255
 64   0   0
 65   0   0
 66   0   0
 66   0   0
 67   0   0
 68   0   0
 69   0   0
 70   0   0
 71   0   0
 72   0   0
 74   0   0
 75   0   0
 76   0   0
 78   0   0
 80   0   0
 82   0   0
 84   0   0
 86   0   0
 89   0   0
 92   0   0
 95   0   0
 99   0   0
103   0   0
108   0   0
114   0   0
121   0   0
128   0   0
136   0   0
144   0   0
152   0   0
158   0   0
161   0   0
158   0   0
144   0   0
 98   0   0
  0   0 137
  0   0 185
  0   0 217
  0   0 239
  0   0 252
  0   0 255
  0   0 246
  0   0 226
  0   0 187
  0   0  82
172   0   0
204   0   0
216   0   0
216   0   0
209   0   0
195   0   0
177   0   0
158   0   0
137   0   0
116   0   0
 96   0   0
 78   0   0
255 255 255
255 255 255
255 255 255
255 255 255
255 255 255
255 255 255
255 255 255
255 255 255
255 255 255
255 255 255
255 255 255
255 255 255
255 255 255
255 255 255
255 255 255
255 255 255
255 255 255
255 255 255
255 255 255
255 255 255
255 255 255
255 255 255
255 255 255
255 255 255
255 255 255
255 255 255
255 255 255
255 255 255
255 255 255
255 255 255
255 255 255
255 255 255
255 255 255
255 255 255
255 255 255
255 255 255
255 255 255
255 255 255
255 255 255
255 255 255
255 255 255
255 255 255
255 255 255
255 255 255
255 255 255
255 255 255
255 255 255
255 255 255
255 255 255
255 255 255
255 255 255
255 255 255
255 255 255
255 255 255
255 255 255
255 255 255
255 255 255
255 255 255
255 255 255
255 255 255
255 255 255
255 255 255
255 255 255
255 255 255
255 255 255
255 255 255
255 255 255
255 150   0
255 255 255
255 255 255
255 255 255
255 255 255
255 255 255
255 255 255
255 255 255
255 255 255
255 255 255
255 255 255
255 255 255
255 255 255
255 255 255
255 255 255
255 255 255
255 255 255
255 255 255
255 255 255
  0   0   0
  0   0   0
  0   0   0
  0   0   0
255 255 255
255 255 255
255 255 255
255 255 255
255 255 255
255 255 255
255 255 255
 66   0   0
 69   0   0
 71   0   0
 73   0   0
 74   0   0
 74   0   0
 74   0   0
 73   0   0
 71   0   0
 70   0   0
255 150   0
 65   0   0
255 255 255
255 255 255
255 255 255
255 255 255
255 255 255
255 255 255
255 255 255
255 255 255
255 255 255
255 255 255
255 255 255
255 255 255
255 255 255
255 255 255
255 255 255
255 255 255
255 255 255
255 255 255
255 255 255
255 255 255
255 255 255
255 255 255
255 255 255
255 255 255
255 255 255
255 255 255
255 255 255
255 255 255
255 255 255
255 255 255
255 255 255
255 255 255
255 255 255
255 255 255
255 255 255
255 255 255
255 255 255
 65   0   0
 65   0   0
 66   0   0
 67   0   0
 68   0   0
 69   0   0
 70   0   0
 71   0   0
 72   0   0
 74   0   0
 75   0   0
 77   0   0
 78   0   0
 80   0   0
 82   0   0
 85   0   0
 87   0   0
 90   0   0
 93   0   0
 97   0   0
101   0   0
105   0   0
110   0   0
117   0   0
124   0   0
132   0   0
140   0   0
148   0   0
155   0   0
160   0   0
160   0   0
153   0   0
128   0   0
  0   0  99
  0   0 167
  0   0 205
  0   0 231
  0   0 248
  0   0 255
  0   0 251
  0   0 236
  0   0 205
  0   0 145
148   0   0
195   0   0
213   0   0
217   0   0
212   0   0
200   0   0
184   0   0
165   0   0
144   0   0
123   0   0
102   0   0
 83   0   0
 66   0   0
255 255 255
255 255 255
255 255 255
255 255 255
255 255 255
255 255 255
255 255 255
255 255 255
255 255 255
255 255 255
255 255 255
255 255 255
255 255 255
255 255 255
255 255 255
255 255 255
255 255 255
255 255 255
255 255 255
255 255 255
255 255 255
255 255 255
255 255 255
255 255 255
255 255 255
255 255 255
255 255 255
255 255 255
255 255 255
255 255 255
255 255 255
255 255 255
255 255 255
255 255 255
255 255 255
255 255 255
255 255 255
255 255 255
255 255 255
255 255 255
255 255 255
255 255 255
255 255 255
255 255 255
255 255 255
255 255 255
255 255 255
255 255 255
255 255 255
255 255 255
255 255 255
255 255 255
255 255 255
255 255 255
255 255 255
255 255 255
255 255 255
255 255 255
255 255 255
255 255 255
255 255 255
255 255 255
255 255 255
255 255 255
255 255 255
255 255 255
255 150   0
255 255 255
255 255 255
255 255 255
255 255 255
255 255 255
255 255 255
255 255 255
255 255 255
255 255 255
255 255 255
255 255 255
255 255 255
255 255 255
255 255 255
255 255 255
255 255 255
255 255 255
255 255 255
  0   0   0
  0   0   0
  0   0   0
  0   0   0
255 255 255
255 255 255
255 255 255
255 255 255
255 255 255
255 255 255
255 255 255
 64   0   0
 67   0   0
 70   0   0
 71   0   0
 72   0   0
 73   0   0
 73   0   0
 72   0   0
 71   0   0
 69   0   0
255 150   0
 65   0   0
255 255 255
255 255 255
255 255 255
255 255 255
255 255 255
255 255 255
255 255 255
255 255 255
255 255 255
255 255 255
255 255 255
255 255 255
255 255 255
255 255 255
255 255 255
255 255 255
255 255 255
255 255 255
255 255 255
255 255 255
255 255 255
255 255 255
255 255 255
255 255 255
255 255 255
255 255 255
255 255 255
255 255 255
255 255 255
255 255 255
255 255 255
255 255 255
255 255 255
255 255 255
255 255 255
255 255 255
255 255 255
255 255 255
 65   0   0
 65   0   0
 66   0   0
 67   0   0
 68   0   0
 69   0   0
 70   0   0
 71   0   0
 73   0   0
 74   0   0
 76   0   0
 77   0   0
 79   0   0
 81   0   0
 83   0   0
 85   0   0
 88   0   0
 91   0   0
 94   0   0
 98   0   0
102   0   0
107   0   0
113   0   0
120   0   0
127   0   0
136   0   0
144   0   0
152   0   0
158   0   0
161   0   0
158   0   0
142   0   0
 88   0   0
  0   0 144
  0   0 190
  0   0 221
  0   0 242
  0   0 253
  0   0 254
  0   0 243
  0   0 219
  0   0 174
106   0   0
183   0   0
208   0   0
217   0   0
215   0   0
205   0   0
190   0   0
171   0   0
151   0   0
129   0   0
109   0   0
 89   0   0
 71   0   0
255 255 255
255 255 255
255 255 255
255 255 255
255 255 255
255 255 255
255 255 255
255 255 255
255 255 255
255 255 255
255 255 255
255 255 255
255 255 255
255 255 255
255 255 255
255 255 255
255 255 255
255 255 255
255 255 255
255 255 255
255 255 255
255 255 255
255 255 255
255 255 255
255 255 255
255 255 255
255 255 255
255 255 255
255 255 255
255 255 255
255 255 255
255 255 255
255 255 255
255 255 255
255 255 255
255 255 255
255 255 255
255 255 255
255 255 255
255 255 255
255 255 255
255 255 255
255 255 255
255 255 255
255 255 255
255 255 255
255 255 255
255 255 255
255 255 255
255 255 255
255 255 255
255 255 255
255 255 255
255 255 255
255 255 255
255 255 255
255 255 255
255 255 255
255 255 255
255 255 255
255 255 255
255 255 255
255 255 255
255 255 255
255 255 255
255 255 255
255 150   0
255 255 255
255 255 255
255 255 255
255 255 255
255 255 255
255 255 255
255 255 255
255 255 255
255 255 255
255 255 255
255 255 255
255 255 255
255 255 255
255 255 255
255 255 255
255 255 255
255 255 255
255 255 255
  0   0   0
  0   0   0
  0   0   0
  0   0   0
255 255 255
255 255 255
255 255 255
255 255 255
255 255 255
255 255 255
255 255 255
255 255 255
 66   0   0
 68   0   0
 70   0   0
 71   0   0
 71   0   0
 71   0   0
 71   0   0
 70   0   0
 68   0   0
255 150   0
 64   0   0
255 255 255
255 255 255
255 255 255
255 255 255
255 255 255
255 255 255
255 255 255
255 255 255
255 255 255
255 255 255
255 255 255
255 255 255
255 255 255
255 255 255
255 255 255
255 255 255
255 255 255
255 255 255
255 255 255
255 255 255
255 255 255
255 255 255
255 255 255
255 255 255
255 255 255
255 255 255
255 255 255
255 255 255
255 255 255
255 255 255
255 255 255
255 255 255
255 255 255
255 255 255
255 255 255
255 255 255
255 255 255
255 255 255
255 255 255
 64   0   0
 65   0   0
 66   0   0
 67   0   0
 68   0   0
 69   0   0
 70   0   0
 72   0   0
 73   0   0
 74   0   0
 76   0   0
 78   0   0
 80   0   0
 82   0   0
 84   0   0
 86   0   0
 89   0   0
 92   0   0
 96   0   0
100   0   0
105   0   0
110   0   0
116   0   0
123   0   0
131   0   0
140   0   0
148   0   0
156   0   0
160   0   0
160   0   0
151   0   0
122   0   0
  0   0 114
  0   0 174
  0   0 210
  0   0 235
  0   0 250
  0   0 255
  0   0 249
  0   0 230
  0   0 194
  0   0 110
167   0   0
202   0   0
215   0   0
216   0   0
209   0   0
195   0   0
177   0   0
157   0   0
136   0   0
115   0   0
 95   0   0
 76   0   0
255 255 255
255 255 255
255 255 255
255 255 255
255 255 255
255 255 255
255 255 255
255 255 255
255 255 255
255 255 255
255 255 255
255 255 255
255 255 255
255 255 255
255 255 255
255 255 255
255 255 255
255 255 255
255 255 255
255 255 255
255 255 255
255 255 255
255 255 255
255 255 255
255 255 255
255 255 255
255 255 255
255 255 255
255 255 255
255 255 255
255 255 255
255 255 255
255 255 255
255 255 255
255 255 255
255 255 255
255 255 255
255 255 255
255 255 255
255 255 255
255 255 255
255 255 255
255 255 255
255 255 255
255 255 255
255 255 255
255 255 255
255 255 255
255 255 255
255 255 255
255 255 255
255 255 255
255 255 255
255 255 255
255 255 255
255 255 255
255 255 255
255 255 255
255 255 255
255 255 255
255 255 255
255 255 255
255 255 255
255 255 255
255 255 255
255 255 255
255 150   0
255 255 255
255 255 255
255 255 255
255 255 255
255 255 255
255 255 255
255 255 255
255 255 255
255 255 255
255 255 255
255 255 255
255 255 255
255 255 255
255 255 255
255 255 255
255 255 255
255 255 255
255 255 255
  0   0   0
  0   0   0
  0   0   0
  0   0   0
255 255 255
255 255 255
255 255 255
255 255 255
255 255 255
255 255 255
255 255 255
255 255 255
 65   0   0
 67   0   0
 69   0   0
 70   0   0
 70   0   0
 70   0   0
 70   0   0
 69   0   0
 68   0   0
255 150   0
255 255 255
255 255 255
255 255 255
255 255 255
255 255 255
255 255 255
255 255 255
255 255 255
255 255 255
255 255 255
255 255 255
255 255 255
255 255 255
255 255 255
255 255 255
255 255 255
255 255 255
255 255 255
255 255 255
255 255 255
255 255 255
255 255 255
255 255 255
255 255 255
255 255 255
255 255 255
255 255 255
255 255 255
255 255 255
255 255 255
255 255 255
255 255 255
255 255 255
255 255 255
255 255 255
255 255 255
255 255 255
255 255 255
255 255 255
255 255 255
255 255 255
 64   0   0
 65   0   0
 66   0   0
 67   0   0
 68   0   0
 69   0   0
 71   0   0
 72   0   0
 73   0   0
 75   0   0
 77   0   0
 78   0   0
 80   0   0
 83   0   0
 85   0   0
 88   0   0
 91   0   0
 94   0   0
 98   0   0
102   0   0
107   0   0
113   0   0
120   0   0
128   0   0
136   0   0
145   0   0
153   0   0
159   0   0
161   0   0
156   0   0
138   0   0
255 255 255
  0   0 155
  0   0 198
  0   0 227
  0   0 246
  0   0 254
  0   0 252
  0   0 238
  0   0 209
  0   0 151
144   0   0
194   0   0
213   0   0
217   0   0
212   0   0
200   0   0
183   0   0
163   0   0
142   0   0
121   0   0
100   0   0
 81   0   0
 64   0   0
255 255 255
255 255 255
255 255 255
255 255 255
255 255 255
255 255 255
255 255 255
255 255 255
255 255 255
255 255 255
255 255 255
255 255 255
255 255 255
255 255 255
255 255 255
255 255 255
255 255 255
255 255 255
255 255 255
255 255 255
255 255 255
255 255 255
255 255 255
255 255 255
255 255 255
255 255 255
255 255 255
255 255 255
255 255 255
255 255 255
255 255 255
255 255 255
255 255 255
255 255 255
255 255 255
255 255 255
255 255 255
255 255 255
255 255 255
255 255 255
255 255 255
255 255 255
255 255 255
255 255 255
255 255 255
255 255 255
255 255 255
255 255 255
255 255 255
255 255 255
255 255 255
255 255 255
255 255 255
255 255 255
255 255 255
255 255 255
255 255 255
255 255 255
255 255 255
255 255 255
255 255 255
255 255 255
255 255 255
255 255 255
255 255 255
255 150   0
255 255 255
255 255 255
255 255 255
255 255 255
255 255 255
255 255 255
255 255 255
255 255 255
255 255 255
255 255 255
255 255 255
255 255 255
255 255 255
255 255 255
255 255 255
255 255 255
255 255 255
255 255 255
  0   0   0
  0   0   0
  0   0   0
  0   0   0
255 255 255
255 255 255
255 255 255
255 255 255
255 255 255
255 255 255
255 255 255
255 255 255
255 255 255
 66   0   0
 68   0   0
 69   0   0
 69   0   0
 69   0   0
 69   0   0
 68   0   0
 67   0   0
255 150   0
255 255 255
255 255 255
255 255 255
255 255 255
255 255 255
255 255 255
255 255 255
255 255 255
255 255 255
255 255 255
255 255 255
255 255 255
255 255 255
255 255 255
255 255 255
255 255 255
255 255 255
255 255 255
255 255 255
255 255 255
255 255 255
255 255 255
255 255 255
255 255 255
255 255 255
255 255 255
255 255 255
255 255 255
255 255 255
255 255 255
255 255 255
255 255 255
255 255 255
255 255 255
255 255 255
255 255 255
255 255 255
255 255 255
255 255 255
255 255 255
255 255 255
255 255 255
 65   0   0
 65   0   0
 66   0   0
 67   0   0
 68   0   0
 70   0   0
 71   0   0
 72   0   0
 74   0   0
 75   0   0
 77   0   0
 79   0   0
 81   0   0
 84   0   0
 86   0   0
 89   0   0
 92   0   0
 96   0   0
100   0   0
105   0   0
110   0   0
117   0   0
124   0   0
132   0   0
141   0   0
149   0   0
157   0   0
161   0   0
159   0   0
147   0   0
107   0   0
  0   0 133
  0   0 184
  0   0 218
  0   0 240
  0   0 253
  0   0 254
  0   0 244
  0   0 220
  0   0 175
106   0   0
183   0   0
209   0   0
217   0   0
214   0   0
204   0   0
188   0   0
169   0   0
148   0   0
127   0   0
106   0   0
 86   0   0
 69   0   0
255 255 255
255 255 255
255 255 255
255 255 255
255 255 255
255 255 255
255 255 255
255 255 255
255 255 255
255 255 255
255 255 255
255 255 255
255 255 255
255 255 255
255 255 255
255 255 255
255 255 255
255 255 255
255 255 255
255 255 255
255 255 255
255 255 255
255 255 255
255 255 255
255 255 255
255 255 255
255 255 255
255 255 255
255 255 255
255 255 255
255 255 255
255 255 255
255 255 255
255 255 255
255 255 255
255 255 255
255 255 255
255 255 255
255 255 255
255 255 255
255 255 255
255 255 255
255 255 255
255 255 255
255 255 255
255 255 255
255 255 255
255 255 255
255 255 255
255 255 255
255 255 255
255 255 255
255 255 255
255 255 255
255 255 255
255 255 255
255 255 255
255 255 255
255 255 255
255 255 255
255 255 255
255 255 255
255 255 255
255 255 255
255 255 255
255 150   0
255 255 255
255 255 255
255 255 255
255 255 255
255 255 255
255 255 255
255 255 255
255 255 255
255 255 255
255 255 255
255 255 255
255 255 255
255 255 255
255 255 255
255 255 255
255 255 255
255 255 255
255 255 255
  0   0   0
  0   0   0
  0   0   0
  0   0   0
255 255 255
255 255 255
255 255 255
255 255 255
255 255 255
255 255 255
255 255 255
255 255 255
255 255 255
 65   0   0
 67   0   0
 68   0   0
 68   0   0
 68   0   0
 68   0   0
 68   0   0
 67   0   0
255 150   0
255 255 255
255 255 255
255 255 255
255 255 255
255 255 255
255 255 255
255 255 255
255 255 255
255 255 255
255 255 255
255 255 255
255 255 255
255 255 255
255 255 255
255 255 255
255 255 255
255 255 255
255 255 255
255 255 255
255 255 255
255 255 255
255 255 255
255 255 255
255 255 255
255 255 255
255 255 255
255 255 255
255 255 255
255 255 255
255 255 255
255 255 255
255 255 255
255 255 255
255 255 255
255 255 255
255 255 255
255 255 255
255 255 255
255 255 255
255 255 255
255 255 255
255 255 255
255 255 255
 65   0   0
 66   0   0
 67   0   0
 68   0   0
 69   0   0
 70   0   0
 71   0   0
 73   0   0
 74   0   0
 76   0   0
 78   0   0
 80   0   0
 82   0   0
 85   0   0
 87   0   0
 90   0   0
 94   0   0
 98   0   0
102   0   0
108   0   0
114   0   0
121   0   0
129   0   0
137   0   0
146   0   0
154   0   0
160   0   0
161   0   0
154   0   0
128   0   0
  0   0 102
  0   0 170
  0   0 208
  0   0 234
  0   0 250
  0   0 255
  0   0 249
  0   0 229
  0   0 192
  0   0 100
170   0   0
204   0   0
216   0   0
216   0   0
207   0   0
193   0   0
175   0   0
154   0   0
132   0   0
111   0   0
 91   0   0
 73   0   0
255 255 255
255 255 255
255 255 255
255 255 255
255 255 255
255 255 255
255 255 255
255 255 255
255 255 255
255 255 255
255 255 255
255 255 255
255 255 255
255 255 255
255 255 255
255 255 255
255 255 255
255 255 255
255 255 255
255 255 255
255 255 255
255 255 255
255 255 255
255 255 255
255 255 255
255 255 255
255 255 255
255 255 255
255 255 255
255 255 255
255 255 255
255 255 255
255 255 255
255 255 255
255 255 255
255 255 255
255 255 255
255 255 255
255 255 255
255 255 255
255 255 255
255 255 255
255 255 255
255 255 255
255 255 255
255 255 255
255 255 255
255 255 255
255 255 255
255 255 255
255 255 255
255 255 255
255 255 255
255 255 255
255 255 255
255 255 255
255 255 255
255 255 255
255 255 255
255 255 255
255 255 255
255 255 255
255 255 255
255 255 255
255 255 255
255 150   0
255 255 255
255 255 255
255 255 255
255 255 255
255 255 255
255 255 255
255 255 255
255 255 255
255 255 255
255 255 255
255 255 255
255 255 255
255 255 255
255 255 255
255 255 255
255 255 255
255 255 255
255 255 255
  0   0   0
  0   0   0
  0   0   0
  0   0   0
255 255 255
255 255 255
255 255 255
255 255 255
255 255 255
255 255 255
255 255 255
255 255 255
255 255 255
 64   0   0
 66   0   0
 67   0   0
 67   0   0
 67   0   0
 67   0   0
 67   0   0
 66   0   0
255 150   0
255 255 255
255 255 255
255 255 255
255 255 255
255 255 255
255 255 255
255 255 255
255 255 255
255 255 255
255 255 255
255 255 255
255 255 255
255 255 255
255 255 255
255 255 255
255 255 255
255 255 255
255 255 255
255 255 255
255 255 255
255 255 255
255 255 255
255 255 255
255 255 255
255 255 255
255 255 255
255 255 255
255 255 255
255 255 255
255 255 255
255 255 255
255 255 255
255 255 255
255 255 255
255 255 255
255 255 255
255 255 255
255 255 255
255 255 255
255 255 255
255 255 255
255 255 255
255 255 255
255 255 255
 65   0   0
 66   0   0
 67   0   0
 68   0   0
 69   0   0
 71   0   0
 72   0   0
 74   0   0
 75   0   0
 77   0   0
 79   0   0
 81   0   0
 83   0   0
 86   0   0
 89   0   0
 92   0   0
 96   0   0
100   0   0
105   0   0
111   0   0
118   0   0
126   0   0
134   0   0
143   0   0
151   0   0
158   0   0
161   0   0
157   0   0
140   0   0
255 255 255
  0   0 153
  0   0 197
  0   0 227
  0   0 246
  0   0 255
  0   0 252
  0   0 237
  0   0 205
  0   0 141
153   0   0
197   0   0
214   0   0
217   0   0
210   0   0
197   0   0
180   0   0
159   0   0
138   0   0
116   0   0
 96   0   0
 77   0   0
255 255 255
255 255 255
255 255 255
255 255 255
255 255 255
255 255 255
255 255 255
255 255 255
255 255 255
255 255 255
255 255 255
255 255 255
255 255 255
255 255 255
255 255 255
255 255 255
255 255 255
255 255 255
255 255 255
255 255 255
255 255 255
255 255 255
255 255 255
255 255 255
255 255 255
255 255 255
255 255 255
255 255 255
255 255 255
255 255 255
255 255 255
255 255 255
255 255 255
255 255 255
255 255 255
255 255 255
255 255 255
255 255 255
255 255 255
255 255 255
255 255 255
255 255 255
255 255 255
255 255 255
255 255 255
255 255 255
255 255 255
255 255 255
255 255 255
255 255 255
255 255 255
255 255 255
255 255 255
255 255 255
255 255 255
255 255 255
255 255 255
255 255 255
255 255 255
255 255 255
255 255 255
255 255 255
255 255 255
255 255 255
255 255 255
255 150   0
255 255 255
255 255 255
255 255 255
255 255 255
255 255 255
255 255 255
255 255 255
255 255 255
255 255 255
255 255 255
255 255 255
255 255 255
255 255 255
255 255 255
255 255 255
255 255 255
255 255 255
255 255 255
  0   0   0
  0   0   0
  0   0   0
  0   0   0
255 255 255
255 255 255
255 255 255
255 255 255
255 255 255
255 255 255
255 255 255
255 255 255
255 255 255
255 255 255
 65   0   0
 66   0   0
 66   0   0
 67   0   0
 67   0   0
 66   0   0
 66   0   0
255 150   0
255 255 255
255 255 255
255 255 255
255 255 255
255 255 255
255 255 255
255 255 255
255 255 255
255 255 255
255 255 255
255 255 255
255 255 255
255 255 255
255 255 255
255 255 255
255 255 255
255 255 255
255 255 255
255 255 255
255 255 255
255 255 255
255 255 255
255 255 255
255 255 255
255 255 255
255 255 255
255 255 255
255 255 255
255 255 255
255 255 255
255 255 255
255 255 255
255 255 255
255 255 255
255 255 255
255 255 255
255 255 255
255 255 255
255 255 255
255 255 255
255 255 255
255 255 255
255 255 255
255 255 255
 64   0   0
 65   0   0
 66   0   0
 67   0   0
 69   0   0
 70   0   0
 71   0   0
 73   0   0
 74   0   0
 76   0   0
 78   0   0
 80   0   0
 82   0   0
 85   0   0
 88   0   0
 91   0   0
 94   0   0
 99   0   0
103   0   0
109   0   0
115   0   0
123   0   0
131   0   0
140   0   0
149   0   0
156   0   0
161   0   0
160   0   0
148   0   0
108   0   0
  0   0 134
  0   0 186
  0   0 219
  0   0 242
  0   0 253
  0   0 254
  0   0 242
  0   0 216
  0   0 164
129   0   0
190   0   0
211   0   0
217   0   0
213   0   0
201   0   0
184   0   0
164   0   0
143   0   0
121   0   0
100   0   0
 81   0   0
255 255 255
255 255 255
255 255 255
255 255 255
255 255 255
255 255 255
255 255 255
255 255 255
255 255 255
255 255 255
255 255 255
255 255 255
255 255 255
255 255 255
255 255 255
255 255 255
255 255 255
255 255 255
255 255 255
255 255 255
255 255 255
255 255 255
255 255 255
255 255 255
255 255 255
255 255 255
255 255 255
255 255 255
255 255 255
255 255 255
255 255 255
255 255 255
255 255 255
255 255 255
255 255 255
255 255 255
255 255 255
255 255 255
255 255 255
255 255 255
255 255 255
255 255 255
255 255 255
255 255 255
255 255 255
255 255 255
255 255 255
255 255 255
255 255 255
255 255 255
255 255 255
255 255 255
255 255 255
255 255 255
255 255 255
255 255 255
255 255 255
255 255 255
255 255 255
255 255 255
255 255 255
255 255 255
255 255 255
255 255 255
255 255 255
255 150   0
255 255 255
255 255 255
255 255 255
255 255 255
255 255 255
255 255 255
255 255 255
255 255 255
255 255 255
255 255 255
255 255 255
255 255 255
255 255 255
255 255 255
255 255 255
255 255 255
255 255 255
255 255 255
  0   0   0
  0   0   0
  0   0   0
  0   0   0
255 255 255
255 255 255
255 255 255
255 255 255
255 255 255
255 255 255
255 255 255
255 255 255
255 255 255
255 255 255
 64   0   0
 65   0   0
 65   0   0
 66   0   0
 66   0   0
 66   0   0
 65   0   0
255 150   0
255 255 255
255 255 255
255 255 255
255 255 255
255 255 255
255 255 255
255 255 255
255 255 255
255 255 255
255 255 255
255 255 255
255 255 255
255 255 255
255 255 255
255 255 255
255 255 255
255 255 255
255 255 255
255 255 255
255 255 255
255 255 255
255 255 255
255 255 255
255 255 255
255 255 255
255 255 255
255 255 255
255 255 255
255 255 255
255 255 255
255 255 255
255 255 255
255 255 255
255 255 255
255 255 255
255 255 255
255 255 255
255 255 255
255 255 255
255 255 255
255 255 255
255 255 255
255 255 255
255 255 255
255 255 255
 65   0   0
 66   0   0
 67   0   0
 68   0   0
 69   0   0
 70   0   0
 72   0   0
 74   0   0
 75   0   0
 77   0   0
 79   0   0
 81   0   0
 84   0   0
 87   0   0
 90   0   0
 93   0   0
 97   0   0
101   0   0
107   0   0
113   0   0
120   0   0
128   0   0
137   0   0
146   0   0
154   0   0
160   0   0
161   0   0
153   0   0
126   0   0
  0   0 110
  0   0 174
  0   0 211
  0   0 237
  0   0 251
  0   0 255
  0   0 246
  0   0 224
  0   0 181
 85   0   0
180   0   0
208   0   0
217   0   0
214   0   0
204   0   0
188   0   0
169   0   0
148   0   0
126   0   0
105   0   0
 85   0   0
 67   0   0
255 255 255
255 255 255
255 255 255
255 255 255
255 255 255
255 255 255
255 255 255
255 255 255
255 255 255
255 255 255
255 255 255
255 255 255
255 255 255
255 255 255
255 255 255
255 255 255
255 255 255
255 255 255
255 255 255
255 255 255
255 255 255
255 255 255
255 255 255
255 255 255
255 255 255
255 255 255
255 255 255
255 255 255
255 255 255
255 255 255
255 255 255
255 255 255
255 255 255
255 255 255
255 255 255
255 255 255
255 255 255
255 255 255
255 255 255
255 255 255
255 255 255
255 255 255
255 255 255
255 255 255
255 255 255
255 255 255
255 255 255
255 255 255
255 255 255
255 255 255
255 255 255
255 255 255
255 255 255
255 255 255
255 255 255
255 255 255
255 255 255
255 255 255
255 255 255
255 255 255
255 255 255
255 255 255
255 255 255
255 255 255
255 150   0
255 255 255
255 255 255
255 255 255
255 255 255
255 255 255
255 255 255
255 255 255
255 255 255
255 255 255
255 255 255
255 255 255
255 255 255
255 255 255
255 255 255
255 255 255
255 255 255
255 255 255
255 255 255
  0   0   0
  0   0   0
  0   0   0
  0   0   0
255 255 255
255 255 255
255 255 255
255 255 255
255 255 255
255 255 255
255 255 255
255 255 255
255 255 255
255 255 255
255 255 255
 64   0   0
 65   0   0
 65   0   0
 65   0   0
 65   0   0
 65   0   0
255 150   0
255 255 255
255 255 255
255 255 255
255 255 255
255 255 255
255 255 255
255 255 255
255 255 255
255 255 255
255 255 255
255 255 255
255 255 255
255 255 255
255 255 255
255 255 255
255 255 255
255 255 255
255 255 255
255 255 255
255 255 255
255 255 255
255 255 255
255 255 255
255 255 255
255 255 255
255 255 255
255 255 255
255 255 255
255 255 255
255 255 255
255 255 255
255 255 255
255 255 255
255 255 255
255 255 255
255 255 255
255 255 255
255 255 255
255 255 255
255 255 255
255 255 255
255 255 255
255 255 255
255 255 255
255 255 255
 64   0   0
 65   0   0
 66   0   0
 67   0   0
 68   0   0
 70   0   0
 71   0   0
 73   0   0
 74   0   0
 76   0   0
 78   0   0
 80   0   0
 83   0   0
 85   0   0
 88   0   0
 92   0   0
 95   0   0
100   0   0
105   0   0
111   0   0
118   0   0
125   0   0
134   0   0
143   0   0
152   0   0
158   0   0
161   0   0
156   0   0
137   0   0
  0   0  68
  0   0 161
  0   0 203
  0   0 231
  0   0 249
  0   0 255
  0   0 250
  0   0 231
  0   0 194
  0   0 105
170   0   0
204   0   0
216   0   0
216   0   0
207   0   0
192   0   0
173   0   0
152   0   0
130   0   0
109   0   0
 89   0   0
 71   0   0
255 255 255
255 255 255
255 255 255
255 255 255
255 255 255
255 255 255
255 255 255
255 255 255
255 255 255
255 255 255
255 255 255
255 255 255
255 255 255
255 255 255
255 255 255
255 255 255
255 255 255
255 255 255
255 255 255
255 255 255
255 255 255
255 255 255
255 255 255
255 255 255
255 255 255
255 255 255
255 255 255
255 255 255
255 255 255
255 255 255
255 255 255
255 255 255
255 255 255
255 255 255
255 255 255
255 255 255
255 255 255
255 255 255
255 255 255
255 255 255
255 255 255
255 255 255
255 255 255
255 255 255
255 255 255
255 255 255
255 255 255
255 255 255
255 255 255
255 255 255
255 255 255
255 255 255
255 255 255
255 255 255
255 255 255
255 255 255
255 255 255
255 255 255
255 255 255
255 255 255
255 255 255
255 255 255
255 255 255
255 255 255
255 150   0
255 255 255
255 255 255
255 255 255
255 255 255
255 255 255
255 255 255
255 255 255
255 255 255
255 255 255
255 255 255
255 255 255
255 255 255
255 255 255
255 255 255
255 255 255
255 255 255
255 255 255
255 255 255
  0   0   0
  0   0   0
  0   0   0
  0   0   0
255 255 255
255 255 255
255 255 255
255 255 255
255 255 255
255 255 255
255 255 255
255 255 255
255 255 255
255 255 255
255 255 255
255 255 255
 64   0   0
 64   0   0
 64   0   0
 64   0   0
255 255 255
255 150   0
255 255 255
255 255 255
255 255 255
255 255 255
255 255 255
255 255 255
255 255 255
255 255 255
255 255 255
255 255 255
255 255 255
255 255 255
255 255 255
255 255 255
255 255 255
255 255 255
255 255 255
255 255 255
255 255 255
255 255 255
255 255 255
255 255 255
255 255 255
255 255 255
255 255 255
255 255 255
255 255 255
255 255 255
255 255 255
255 255 255
255 255 255
255 255 255
255 255 255
255 255 255
255 255 255
255 255 255
255 255 255
255 255 255
255 255 255
255 255 255
255 255 255
255 255 255
255 255 255
255 255 255
255 255 255
255 255 255
 65   0   0
 66   0   0
 67   0   0
 68   0   0
 69   0   0
 71   0   0
 72   0   0
 74   0   0
 76   0   0
 77   0   0
 80   0   0
 82   0   0
 84   0   0
 87   0   0
 91   0   0
 94   0   0
 98   0   0
103   0   0
109   0   0
115   0   0
123   0   0
131   0   0
141   0   0
149   0   0
157   0   0
161   0   0
159   0   0
144   0   0
 88   0   0
  0   0 147
  0   0 194
  0   0 225
  0   0 245
  0   0 254
  0   0 252
  0   0 236
  0   0 204
  0   0 137
157   0   0
199   0   0
215   0   0
217   0   0
209   0   0
195   0   0
177   0   0
156   0   0
134   0   0
113   0   0
 92   0   0
 74   0   0
255 255 255
255 255 255
255 255 255
255 255 255
255 255 255
255 255 255
255 255 255
255 255 255
255 255 255
255 255 255
255 255 255
255 255 255
255 255 255
255 255 255
255 255 255
255 255 255
255 255 255
255 255 255
255 255 255
255 255 255
255 255 255
255 255 255
255 255 255
255 255 255
255 255 255
255 255 255
255 255 255
255 255 255
255 255 255
255 255 255
255 255 255
255 255 255
255 255 255
255 255 255
255 255 255
255 255 255
255 255 255
255 255 255
255 255 255
255 255 255
255 255 255
255 255 255
255 255 255
255 255 255
255 255 255
255 255 255
255 255 255
255 255 255
255 255 255
255 255 255
255 255 255
255 255 255
255 255 255
255 255 255
255 255 255
255 255 255
255 255 255
255 255 255
255 255 255
255 255 255
255 255 255
255 255 255
255 255 255
255 255 255
255 150   0
255 255 255
255 255 255
255 255 255
255 255 255
255 255 255
255 255 255
255 255 255
255 255 255
255 255 255
255 255 255
255 255 255
255 255 255
255 255 255
255 255 255
255 255 255
255 255 255
255 255 255
255 255 255
  0   0   0
  0   0   0
  0   0   0
  0   0   0
255 255 255
255 255 255
255 255 255
255 255 255
255 255 255
255 255 255
255 255 255
255 255 255
255 255 255
255 255 255
255 255 255
255 255 255
255 255 255
255 255 255
255 255 255
255 255 255
255 255 255
255 150   0
255 255 255
255 255 255
255 255 255
255 255 255
255 255 255
255 255 255
255 255 255
255 255 255
255 255 255
255 255 255
255 255 255
255 255 255
255 255 255
255 255 255
255 255 255
255 255 255
255 255 255
255 255 255
255 255 255
255 255 255
255 255 255
255 255 255
255 255 255
255 255 255
255 255 255
255 255 255
255 255 255
255 255 255
255 255 255
255 255 255
255 255 255
255 255 255
255 255 255
255 255 255
255 255 255
255 255 255
255 255 255
255 255 255
255 255 255
255 255 255
255 255 255
255 255 255
255 255 255
255 255 255
255 255 255
255 255 255
255 255 255
 65   0   0
 66   0   0
 67   0   0
 69   0   0
 70   0   0
 71   0   0
 73   0   0
 75   0   0
 77   0   0
 79   0   0
 81   0   0
 84   0   0
 86   0   0
 89   0   0
 93   0   0
 97   0   0
102   0   0
107   0   0
113   0   0
121   0   0
129   0   0
138   0   0
147   0   0
155   0   0
160   0   0
160   0   0
149   0   0
111   0   0
  0   0 132
  0   0 186
  0   0 220
  0   0 242
  0   0 254
  0   0 253
  0   0 241
  0   0 212
  0   0 156
142   0   0
194   0   0
213   0   0
217   0   0
211   0   0
198   0   0
180   0   0
160   0   0
138   0   0
116   0   0
 96   0   0
 77   0   0
255 255 255
255 255 255
255 255 255
255 255 255
255 255 255
255 255 255
255 255 255
255 255 255
255 255 255
255 255 255
255 255 255
255 255 255
255 255 255
255 255 255
255 255 255
255 255 255
255 255 255
255 255 255
255 255 255
255 255 255
255 255 255
255 255 255
255 255 255
255 255 255
255 255 255
255 255 255
255 255 255
255 255 255
255 255 255
255 255 255
255 255 255
255 255 255
255 255 255
255 255 255
255 255 255
255 255 255
255 255 255
255 255 255
255 255 255
255 255 255
255 255 255
255 255 255
255 255 255
255 255 255
255 255 255
255 255 255
255 255 255
255 255 255
255 255 255
255 255 255
255 255 255
255 255 255
255 255 255
255 255 255
255 255 255
255 255 255
255 255 255
255 255 255
255 255 255
255 255 255
255 255 255
255 255 255
255 255 255
255 255 255
255 150   0
255 255 255
255 255 255
255 255 255
255 255 255
255 255 255
255 255 255
255 255 255
255 255 255
255 255 255
255 255 255
255 255 255
255 255 255
255 255 255
255 255 255
255 255 255
255 255 255
255 255 255
255 255 255
  0   0   0
  0   0   0
  0   0   0
  0   0   0
255 255 255
255 255 255
255 255 255
255 255 255
255 255 255
255 255 255
255 255 255
255 255 255
255 255 255
255 255 255
255 255 255
255 255 255
255 255 255
255 255 255
255 255 255
255 255 255
255 255 255
255 150   0
255 255 255
255 255 255
255 255 255
255 255 255
255 255 255
255 255 255
255 255 255
255 255 255
255 255 255
255 255 255
255 255 255
255 255 255
255 255 255
255 255 255
255 255 255
255 255 255
255 255 255
255 255 255
255 255 255
255 255 255
255 255 255
255 255 255
255 255 255
255 255 255
255 255 255
255 255 255
255 255 255
255 255 255
255 255 255
255 255 255
255 255 255
255 255 255
255 255 255
255 255 255
255 255 255
255 255 255
255 255 255
255 255 255
255 255 255
255 255 255
255 255 255
255 255 255
255 255 255
255 255 255
255 255 255
255 255 255
255 255 255
 65   0   0
 66   0   0
 67   0   0
 68   0   0
 69   0   0
 71   0   0
 73   0   0
 74   0   0
 76   0   0
 78   0   0
 80   0   0
 83   0   0
 86   0   0
 89   0   0
 92   0   0
 96   0   0
100   0   0
106   0   0
112   0   0
119   0   0
127   0   0
136   0   0
145   0   0
154   0   0
160   0   0
161   0   0
153   0   0
124   0   0
  0   0 114
  0   0 177
  0   0 214
  0   0 238
  0   0 252
  0   0 254
  0   0 244
  0   0 219
  0   0 170
122   0   0
188   0   0
211   0   0
217   0   0
213   0   0
201   0   0
184   0   0
163   0   0
142   0   0
120   0   0
 99   0   0
 79   0   0
255 255 255
255 255 255
255 255 255
255 255 255
255 255 255
255 255 255
255 255 255
255 255 255
255 255 255
255 255 255
255 255 255
255 255 255
255 255 255
255 255 255
255 255 255
255 255 255
255 255 255
255 255 255
255 255 255
255 255 255
255 255 255
255 255 255
255 255 255
255 255 255
255 255 255
255 255 255
255 255 255
255 255 255
255 255 255
255 255 255
255 255 255
255 255 255
255 255 255
255 255 255
255 255 255
255 255 255
255 255 255
255 255 255
255 255 255
255 255 255
255 255 255
255 255 255
255 255 255
255 255 255
255 255 255
255 255 255
255 255 255
255 255 255
255 255 255
255 255 255
255 255 255
255 255 255
255 255 255
255 255 255
255 255 255
255 255 255
255 255 255
255 255 255
255 255 255
255 255 255
255 255 255
255 255 255
255 255 255
255 255 255
255 150   0
255 255 255
255 255 255
255 255 255
255 255 255
255 255 255
255 255 255
255 255 255
255 255 255
255 255 255
255 255 255
255 255 255
255 255 255
255 255 255
255 255 255
255 255 255
255 255 255
255 255 255
255 255 255
  0   0   0
  0   0   0
  0   0   0
  0   0   0
255 255 255
255 255 255
255 255 255
255 255 255
255 255 255
255 255 255
255 255 255
255 255 255
255 255 255
255 255 255
255 255 255
255 255 255
255 255 255
255 255 255
255 255 255
255 255 255
255 255 255
255 150   0
255 255 255
255 255 255
255 255 255
255 255 255
255 255 255
255 255 255
255 255 255
255 255 255
255 255 255
255 255 255
255 255 255
255 255 255
255 255 255
255 255 255
255 255 255
255 255 255
255 255 255
255 255 255
255 255 255
255 255 255
255 255 255
255 255 255
255 255 255
255 255 255
255 255 255
255 255 255
255 255 255
255 255 255
255 255 255
255 255 255
255 255 255
255 255 255
255 255 255
255 255 255
255 255 255
255 255 255
255 255 255
255 255 255
255 255 255
255 255 255
255 255 255
255 255 255
255 255 255
255 255 255
255 255 255
255 255 255
255 255 255
 64   0   0
 65   0   0
 66   0   0
 68   0   0
 69   0   0
 70   0   0
 72   0   0
 74   0   0
 76   0   0
 78   0   0
 80   0   0
 82   0   0
 85   0   0
 88   0   0
 91   0   0
 95   0   0
 99   0   0
104   0   0
110   0   0
117   0   0
125   0   0
134   0   0
143   0   0
152   0   0
159   0   0
161   0   0
156   0   0
133   0   0
  0   0  92
  0   0 168
  0   0 208
  0   0 235
  0   0 251
  0   0 255
  0   0 247
  0   0 224
  0   0 181
 90   0   0
182   0   0
209   0   0
217   0   0
214   0   0
203   0   0
186   0   0
166   0   0
145   0   0
123   0   0
102   0   0
 82   0   0
 64   0   0
255 255 255
255 255 255
255 255 255
255 255 255
255 255 255
255 255 255
255 255 255
255 255 255
255 255 255
255 255 255
255 255 255
255 255 255
255 255 255
255 255 255
255 255 255
255 255 255
255 255 255
255 255 255
255 255 255
255 255 255
255 255 255
255 255 255
255 255 255
255 255 255
255 255 255
255 255 255
255 255 255
255 255 255
255 255 255
255 255 255
255 255 255
255 255 255
255 255 255
255 255 255
255 255 255
255 255 255
255 255 255
255 255 255
255 255 255
255 255 255
255 255 255
255 255 255
255 255 255
255 255 255
255 255 255
255 255 255
255 255 255
255 255 255
255 255 255
255 255 255
255 255 255
255 255 255
255 255 255
255 255 255
255 255 255
255 255 255
255 255 255
255 255 255
255 255 255
255 255 255
255 255 255
255 255 255
255 255 255
255 150   0
255 255 255
255 255 255
255 255 255
255 255 255
255 255 255
255 255 255
255 255 255
255 255 255
255 255 255
255 255 255
255 255 255
255 255 255
255 255 255
255 255 255
255 255 255
255 255 255
255 255 255
255 255 255
  0   0   0
  0   0   0
  0   0   0
  0   0   0
255 255 255
255 255 255
255 255 255
255 255 255
255 255 255
255 255 255
255 255 255
255 255 255
255 255 255
255 255 255
255 255 255
255 255 255
255 255 255
255 255 255
255 255 255
255 255 255
255 255 255
255 150   0
255 255 255
255 255 255
255 255 255
255 255 255
255 255 255
255 255 255
255 255 255
255 255 255
255 255 255
255 255 255
255 255 255
255 255 255
255 255 255
255 255 255
255 255 255
255 255 255
255 255 255
255 255 255
255 255 255
255 255 255
255 255 255
255 255 255
255 255 255
255 255 255
255 255 255
255 255 255
255 255 255
255 255 255
255 255 255
255 255 255
255 255 255
255 255 255
255 255 255
255 255 255
255 255 255
255 255 255
255 255 255
255 255 255
255 255 255
255 255 255
255 255 255
255 255 255
255 255 255
255 255 255
255 255 255
255 255 255
255 255 255
255 255 255
 65   0   0
 66   0   0
 67   0   0
 69   0   0
 70   0   0
 72   0   0
 73   0   0
 75   0   0
 77   0   0
 79   0   0
 81   0   0
 84   0   0
 87   0   0
 90   0   0
 94   0   0
 98   0   0
103   0   0
109   0   0
116   0   0
123   0   0
132   0   0
141   0   0
150   0   0
158   0   0
161   0   0
157   0   0
139   0   0
255 255 255
  0   0 159
  0   0 202
  0   0 231
  0   0 249
  0   0 255
  0   0 249
  0   0 229
  0   0 190
  0   0  77
175   0   0
206   0   0
216   0   0
215   0   0
205   0   0
189   0   0
169   0   0
148   0   0
126   0   0
104   0   0
 84   0   0
 67   0   0
255 255 255
255 255 255
255 255 255
255 255 255
255 255 255
255 255 255
255 255 255
255 255 255
255 255 255
255 255 255
255 255 255
255 255 255
255 255 255
255 255 255
255 255 255
255 255 255
255 255 255
255 255 255
255 255 255
255 255 255
255 255 255
255 255 255
255 255 255
255 255 255
255 255 255
255 255 255
255 255 255
255 255 255
255 255 255
255 255 255
255 255 255
255 255 255
255 255 255
255 255 255
255 255 255
255 255 255
255 255 255
255 255 255
255 255 255
255 255 255
255 255 255
255 255 255
255 255 255
255 255 255
255 255 255
255 255 255
255 255 255
255 255 255
255 255 255
255 255 255
255 255 255
255 255 255
255 255 255
255 255 255
255 255 255
255 255 255
255 255 255
255 255 255
255 255 255
255 255 255
255 255 255
255 255 255
255 255 255
255 150   0
255 255 255
255 255 255
255 255 255
255 255 255
255 255 255
255 255 255
255 255 255
255 255 255
255 255 255
255 255 255
255 255 255
255 255 255
255 255 255
255 255 255
255 255 255
255 255 255
255 255 255
255 255 255
  0   0   0
  0   0   0
  0   0   0
  0   0   0
255 255 255
255 255 255
255 255 255
255 255 255
255 255 255
255 255 255
255 255 255
255 255 255
255 255 255
255 255 255
255 255 255
255 255 255
255 255 255
255 255 255
255 255 255
255 255 255
255 255 255
255 150   0
255 255 255
255 255 255
255 255 255
255 255 255
255 255 255
255 255 255
255 255 255
255 255 255
255 255 255
255 255 255
255 255 255
255 255 255
255 255 255
255 255 255
255 255 255
255 255 255
255 255 255
255 255 255
255 255 255
255 255 255
255 255 255
255 255 255
255 255 255
255 255 255
255 255 255
255 255 255
255 255 255
255 255 255
255 255 255
255 255 255
255 255 255
255 255 255
255 255 255
255 255 255
255 255 255
255 255 255
255 255 255
255 255 255
255 255 255
255 255 255
255 255 255
255 255 255
255 255 255
255 255 255
255 255 255
255 255 255
255 255 255
255 255 255
 65   0   0
 66   0   0
 67   0   0
 68   0   0
 70   0   0
 71   0   0
 73   0   0
 75   0   0
 76   0   0
 79   0   0
 81   0   0
 83   0   0
 86   0   0
 90   0   0
 93   0   0
 97   0   0
102   0   0
108   0   0
114   0   0
122   0   0
131   0   0
140   0   0
149   0   0
157   0   0
161   0   0
159   0   0
144   0   0
 83   0   0
  0   0 151
  0   0 197
  0   0 228
  0   0 247
  0   0 255
  0   0 251
  0   0 233
  0   0 196
  0   0 112
169   0   0
204   0   0
216   0   0
216   0   0
206   0   0
191   0   0
172   0   0
150   0   0
128   0   0
107   0   0
 87   0   0
 68   0   0
255 255 255
255 255 255
255 255 255
255 255 255
255 255 255
255 255 255
255 255 255
255 255 255
255 255 255
255 255 255
255 255 255
255 255 255
255 255 255
255 255 255
255 255 255
255 255 255
255 255 255
255 255 255
255 255 255
255 255 255
255 255 255
255 255 255
255 255 255
255 255 255
255 255 255
255 255 255
255 255 255
255 255 255
255 255 255
255 255 255
255 255 255
255 255 255
255 255 255
255 255 255
255 255 255
255 255 255
255 255 255
255 255 255
255 255 255
255 255 255
255 255 255
255 255 255
255 255 255
255 255 255
255 255 255
255 255 255
255 255 255
255 255 255
255 255 255
255 255 255
255 255 255
255 255 255
255 255 255
255 255 255
255 255 255
255 255 255
255 255 255
255 255 255
255 255 255
255 255 255
255 255 255
255 255 255
255 255 255
255 150   0
255 255 255
255 255 255
255 255 255
255 255 255
255 255 255
255 255 255
255 255 255
255 255 255
255 255 255
255 255 255
255 255 255
255 255 255
255 255 255
255 255 255
255 255 255
255 255 255
255 255 255
255 255 255
  0   0   0
  0   0   0
  0   0   0
  0   0   0
255 255 255
255 255 255
255 255 255
255 255 255
255 255 255
255 255 255
255 255 255
255 255 255
255 255 255
255 255 255
255 255 255
255 255 255
255 255 255
255 255 255
255 255 255
255 255 255
255 255 255
255 150   0
255 255 255
255 255 255
255 255 255
255 255 255
255 255 255
255 255 255
255 255 255
255 255 255
255 255 255
255 255 255
255 255 255
255 255 255
255 255 255
255 255 255
255 255 255
255 255 255
255 255 255
255 255 255
255 255 255
255 255 255
255 255 255
255 255 255
255 255 255
255 255 255
255 255 255
255 255 255
255 255 255
255 255 255
255 255 255
255 255 255
255 255 255
255 255 255
255 255 255
255 255 255
255 255 255
255 255 255
255 255 255
255 255 255
255 255 255
255 255 255
255 255 255
255 255 255
255 255 255
255 255 255
255 255 255
255 255 255
255 255 255
255 255 255
 64   0   0
 65   0   0
 67   0   0
 68   0   0
 69   0   0
 71   0   0
 72   0   0
 74   0   0
 76   0   0
 78   0   0
 80   0   0
 83   0   0
 86   0   0
 89   0   0
 92   0   0
 97   0   0
101   0   0
107   0   0
113   0   0
121   0   0
129   0   0
138   0   0
148   0   0
156   0   0
161   0   0
160   0   0
147   0   0
100   0   0
  0   0 142
  0   0 192
  0   0 224
  0   0 245
  0   0 254
  0   0 252
  0   0 236
  0   0 202
  0   0 130
162   0   0
201   0   0
215   0   0
216   0   0
208   0   0
193   0   0
174   0   0
153   0   0
131   0   0
109   0   0
 88   0   0
 70   0   0
255 255 255
255 255 255
255 255 255
255 255 255
255 255 255
255 255 255
255 255 255
255 255 255
255 255 255
255 255 255
255 255 255
255 255 255
255 255 255
255 255 255
255 255 255
255 255 255
255 255 255
255 255 255
255 255 255
255 255 255
255 255 255
255 255 255
255 255 255
255 255 255
255 255 255
255 255 255
255 255 255
255 255 255
255 255 255
255 255 255
255 255 255
255 255 255
255 255 255
255 255 255
255 255 255
255 255 255
255 255 255
255 255 255
255 255 255
255 255 255
255 255 255
255 255 255
255 255 255
255 255 255
255 255 255
255 255 255
255 255 255
255 255 255
255 255 255
255 255 255
255 255 255
255 255 255
255 255 255
255 255 255
255 255 255
255 255 255
255 255 255
255 255 255
255 255 255
255 255 255
255 255 255
255 255 255
255 255 255
255 150   0
255 255 255
255 255 255
255 255 255
255 255 255
255 255 255
255 255 255
255 255 255
255 255 255
255 255 255
255 255 255
255 255 255
255 255 255
255 255 255
255 255 255
255 255 255
255 255 255
255 255 255
255 255 255
  0   0   0
  0   0   0
  0   0   0
  0   0   0
255 255 255
255 255 255
255 255 255
255 255 255
255 255 255
255 255 255
255 255 255
255 255 255
255 255 255
255 255 255
255 255 255
255 255 255
255 255 255
255 255 255
255 255 255
255 255 255
255 255 255
255 150   0
255 255 255
255 255 255
255 255 255
255 255 255
255 255 255
255 255 255
255 255 255
255 255 255
255 255 255
255 255 255
255 255 255
255 255 255
255 255 255
255 255 255
255 255 255
255 255 255
255 255 255
255 255 255
255 255 255
255 255 255
255 255 255
255 255 255
255 255 255
255 255 255
255 255 255
255 255 255
255 255 255
255 255 255
255 255 255
255 255 255
255 255 255
255 255 255
255 255 255
255 255 255
255 255 255
255 255 255
255 255 255
255 255 255
255 255 255
255 255 255
255 255 255
255 255 255
255 255 255
255 255 255
255 255 255
255 255 255
255 255 255
255 255 255
255 255 255
 65   0   0
 66   0   0
 68   0   0
 69   0   0
 70   0   0
 72   0   0
 74   0   0
 76   0   0
 78   0   0
 80   0   0
 83   0   0
 85   0   0
 88   0   0
 92   0   0
 96   0   0
100   0   0
106   0   0
112   0   0
120   0   0
128   0   0
137   0   0
146   0   0
155   0   0
160   0   0
160   0   0
150   0   0
111   0   0
  0   0 134
  0   0 187
  0   0 221
  0   0 243
  0   0 254
  0   0 253
  0   0 238
  0   0 207
  0   0 142
155   0   0
199   0   0
215   0   0
216   0   0
209   0   0
194   0   0
176   0   0
155   0   0
132   0   0
111   0   0
 90   0   0
 72   0   0
255 255 255
255 255 255
255 255 255
255 255 255
255 255 255
255 255 255
255 255 255
255 255 255
255 255 255
255 255 255
255 255 255
255 255 255
255 255 255
255 255 255
255 255 255
255 255 255
255 255 255
255 255 255
255 255 255
255 255 255
255 255 255
255 255 255
255 255 255
255 255 255
255 255 255
255 255 255
255 255 255
255 255 255
255 255 255
255 255 255
255 255 255
255 255 255
255 255 255
255 255 255
255 255 255
255 255 255
255 255 255
255 255 255
255 255 255
255 255 255
255 255 255
255 255 255
255 255 255
255 255 255
255 255 255
255 255 255
255 255 255
255 255 255
255 255 255
255 255 255
255 255 255
255 255 255
255 255 255
255 255 255
255 255 255
255 255 255
255 255 255
255 255 255
255 255 255
255 255 255
255 255 255
255 255 255
255 255 255
255 150   0
255 255 255
255 255 255
255 255 255
255 255 255
255 255 255
255 255 255
255 255 255
255 255 255
255 255 255
255 255 255
255 255 255
255 255 255
255 255 255
255 255 255
255 255 255
255 255 255
255 255 255
255 255 255
  0   0   0
  0   0   0
  0   0   0
  0   0   0
255 255 255
255 255 255
255 255 255
255 255 255
255 255 255
255 255 255
255 255 255
255 255 255
255 255 255
255 255 255
255 255 255
255 255 255
255 255 255
255 255 255
255 255 255
255 255 255
255 255 255
255 150   0
255 255 255
255 255 255
255 255 255
255 255 255
255 255 255
255 255 255
255 255 255
255 255 255
255 255 255
255 255 255
255 255 255
255 255 255
255 255 255
255 255 255
255 255 255
255 255 255
255 255 255
255 255 255
255 255 255
255 157   0
255 157   0
255 157   0
255 255 255
255 255 255
255 255 255
255 255 255
255 255 255
255 255 255
255 255 255
255 255 255
255 255 255
255 255 255
255 255 255
255 255 255
255 255 255
255 255 255
255 255 255
255 255 255
255 255 255
255 255 255
255 255 255
255 255 255
255 255 255
255 255 255
255 255 255
255 255 255
255 255 255
255 255 255
255 255 255
 65   0   0
 66   0   0
 67   0   0
 69   0   0
 70   0   0
 72   0   0
 74   0   0
 75   0   0
 77   0   0
 80   0   0
 82   0   0
 85   0   0
 88   0   0
 91   0   0
 95   0   0
100   0   0
105   0   0
111   0   0
119   0   0
127   0   0
136   0   0
145   0   0
154   0   0
160   0   0
161   0   0
151   0   0
118   0   0
  0   0 126
  0   0 183
  0   0 219
  0   0 242
  0   0 254
  0   0 253
  0   0 240
  0   0 210
  0   0 150
148   0   0
196   0   0
214   0   0
217   0   0
210   0   0
196   0   0
177   0   0
156   0   0
134   0   0
112   0   0
 92   0   0
 73   0   0
255 255 255
255 255 255
255 255 255
255 255 255
255 255 255
255 255 255
255 255 255
255 255 255
255 255 255
255 255 255
255 255 255
255 255 255
255 255 255
255 255 255
255 255 255
255 255 255
255 255 255
255 255 255
255 255 255
255 255 255
255 255 255
255 255 255
255 255 255
255 255 255
255 255 255
255 255 255
255 255 255
255 255 255
255 255 255
255 255 255
255 255 255
255 255 255
255 255 255
255 255 255
255 255 255
255 255 255
255 255 255
255 255 255
255 255 255
255 255 255
255 255 255
255 255 255
255 255 255
255 255 255
255 255 255
255 255 255
255 255 255
255 255 255
255 255 255
255 255 255
255 255 255
255 255 255
255 255 255
255 255 255
255 255 255
255 255 255
255 255 255
255 255 255
255 255 255
255 255 255
255 255 255
255 255 255
255 255 255
255 150   0
255 255 255
255 255 255
255 255 255
255 255 255
255 255 255
255 255 255
255 255 255
255 255 255
255 255 255
255 255 255
255 255 255
255 255 255
255 255 255
255 255 255
255 255 255
255 255 255
255 255 255
255 255 255
  0   0   0
  0   0   0
  0   0   0
  0   0   0
255 255 255
255 255 255
255 255 255
255 255 255
255 255 255
255 255 255
255 255 255
255 255 255
255 255 255
255 255 255
255 255 255
255 255 255
255 255 255
255 255 255
255 255 255
255 255 255
255 255 255
255 150   0
255 255 255
255 255 255
255 255 255
255 255 255
255 255 255
255 255 255
255 255 255
255 255 255
255 255 255
255 255 255
255 255 255
255 255 255
255 255 255
255 255 255
255 255 255
255 255 255
255 255 255
255 255 255
255 255 255
255 157   0
255 157   0
255 157   0
255 255 255
255 255 255
255 255 255
255 255 255
255 255 255
255 255 255
255 255 255
255 255 255
255 255 255
255 255 255
255 255 255
255 255 255
255 255 255
255 255 255
255 255 255
255 255 255
255 255 255
255 255 255
255 255 255
255 255 255
255 255 255
255 255 255
255 255 255
255 255 255
255 255 255
255 255 255
255 255 255
 65   0   0
 66   0   0
 67   0   0
 69   0   0
 70   0   0
 72   0   0
 73   0   0
 75   0   0
 77   0   0
 79   0   0
 82   0   0
 85   0   0
 88   0   0
 91   0   0
 95   0   0
 99   0   0
105   0   0
111   0   0
118   0   0
126   0   0
135   0   0
145   0   0
153   0   0
159   0   0
161   0   0
153   0   0
123   0   0
  0   0 120
  0   0 180
  0   0 216
  0   0 240
  0   0 253
  0   0 254
  0   0 241
  0   0 213
  0   0 157
142   0   0
194   0   0
213   0   0
217   0   0
210   0   0
197   0   0
179   0   0
158   0   0
136   0   0
114   0   0
 93   0   0
 74   0   0
255 255 255
255 255 255
255 255 255
255 255 255
255 255 255
255 255 255
255 255 255
255 255 255
255 255 255
255 255 255
255 255 255
255 255 255
255 255 255
255 255 255
255 255 255
255 255 255
255 255 255
255 255 255
255 255 255
255 255 255
255 255 255
255 255 255
255 255 255
255 255 255
255 255 255
255 255 255
255 255 255
255 255 255
255 255 255
255 255 255
255 255 255
255 255 255
255 255 255
255 255 255
255 255 255
255 255 255
255 255 255
255 255 255
255 255 255
255 255 255
255 255 255
255 255 255
255 255 255
255 255 255
255 255 255
255 255 255
255 255 255
255 255 255
255 255 255
255 255 255
255 255 255
255 255 255
255 255 255
255 255 255
255 255 255
255 255 255
255 255 255
255 255 255
255 255 255
255 255 255
255 255 255
255 255 255
255 255 255
255 150   0
255 255 255
255 255 255
255 255 255
255 255 255
255 255 255
255 255 255
255 255 255
255 255 255
255 255 255
255 255 255
255 255 255
255 255 255
255 255 255
255 255 255
255 255 255
255 255 255
255 255 255
255 255 255
  0   0   0
  0   0   0
  0   0   0
  0   0   0
255 255 255
255 255 255
255 255 255
255 255 255
255 255 255
255 255 255
255 255 255
255 255 255
255 255 255
255 255 255
255 255 255
255 255 255
255 255 255
255 255 255
255 255 255
255 255 255
255 255 255
255 150   0
255 255 255
255 255 255
255 255 255
255 255 255
255 255 255
255 255 255
255 255 255
255 255 255
255 255 255
255 255 255
255 255 255
255 255 255
255 255 255
255 255 255
255 255 255
255 255 255
255 255 255
255 255 255
255 255 255
255 157   0
255 157   0
255 157   0
255 255 255
255 255 255
255 255 255
255 255 255
255 255 255
255 255 255
255 255 255
255 255 255
255 255 255
255 255 255
255 255 255
255 255 255
255 255 255
255 255 255
255 255 255
255 255 255
255 255 255
255 255 255
255 255 255
255 255 255
255 255 255
255 255 255
255 255 255
255 255 255
255 255 255
255 255 255
255 255 255
 65   0   0
 66   0   0
 67   0   0
 68   0   0
 70   0   0
 71   0   0
 73   0   0
 75   0   0
 77   0   0
 79   0   0
 82   0   0
 84   0   0
 87   0   0
 91   0   0
 95   0   0
 99   0   0
104   0   0
110   0   0
117   0   0
125   0   0
135   0   0
144   0   0
153   0   0
159   0   0
161   0   0
154   0   0
126   0   0
  0   0 114
  0   0 177
  0   0 215
  0   0 239
  0   0 253
  0   0 254
  0   0 243
  0   0 215
  0   0 161
137   0   0
193   0   0
213   0   0
217   0   0
211   0   0
198   0   0
180   0   0
159   0   0
137   0   0
115   0   0
 94   0   0
 75   0   0
255 255 255
255 255 255
255 255 255
255 255 255
255 255 255
 30 180  60
 30 180  60
 30 180  60
 30 180  60
 30 180  60
 30 180  60
 30 180  60
255 255 255
255 255 255
255 255 255
255 255 255
255 255 255
255 255 255
255 255 255
255 255 255
255 255 255
255 255 255
255 255 255
255 255 255
255 255 255
255 255 255
255 255 255
255 255 255
255 255 255
255 255 255
255 255 255
255 255 255
255 255 255
255 255 255
255 255 255
255 255 255
255 255 255
255 255 255
255 255 255
255 255 255
255 255 255
255 255 255
255 255 255
255 255 255
255 255 255
255 255 255
255 255 255
255 255 255
255 255 255
255 255 255
255 255 255
255 255 255
255 255 255
255 255 255
255 255 255
255 255 255
255 255 255
255 255 255
255 255 255
255 255 255
255 255 255
255 255 255
255 255 255
255 150   0
255 255 255
255 255 255
255 255 255
255 255 255
255 255 255
255 255 255
255 255 255
255 255 255
255 255 255
255 255 255
255 255 255
255 255 255
255 255 255
255 255 255
255 255 255
255 255 255
255 255 255
255 255 255
  0   0   0
  0   0   0
  0   0   0
  0   0   0
255 255 255
255 255 255
255 255 255
255 255 255
255 255 255
255 255 255
255 255 255
255 255 255
255 255 255
255 255 255
255 255 255
255 255 255
255 255 255
255 255 255
255 255 255
255 255 255
255 255 255
255 150   0
255 255 255
255 255 255
255 255 255
255 255 255
255 255 255
255 255 255
255 255 255
255 255 255
255 255 255
255 255 255
255 255 255
255 255 255
255 255 255
255 255 255
255 255 255
255 255 255
255 255 255
255 255 255
255 255 255
255 157   0
255 157   0
255 157   0
255 255 255
255 255 255
255 255 255
255 255 255
255 255 255
255 255 255
255 255 255
255 255 255
255 255 255
255 255 255
255 255 255
255 255 255
255 255 255
255 255 255
255 255 255
255 255 255
255 255 255
255 255 255
255 255 255
255 255 255
255 255 255
255 255 255
255 255 255
255 255 255
255 255 255
255 255 255
255 255 255
 65   0   0
 66   0   0
 67   0   0
 68   0   0
 70   0   0
 71   0   0
 73   0   0
 75   0   0
 77   0   0
 79   0   0
 81   0   0
 84   0   0
 87   0   0
 91   0   0
 94   0   0
 99   0   0
104   0   0
110   0   0
117   0   0
125   0   0
134   0   0
143   0   0
152   0   0
159   0   0
161   0   0
154   0   0
128   0   0
  0   0 109
  0   0 175
  0   0 213
  0   0 239
  0   0 252
  0   0 254
  0   0 243
  0   0 217
  0   0 164
133   0   0
192   0   0
212   0   0
217   0   0
211   0   0
198   0   0
180   0   0
159   0   0
137   0   0
115   0   0
 94   0   0
 75   0   0
255 255 255
255 255 255
255 255 255
255 255 255
255 255 255
 30 180  60
 30 180  60
 30 180  60
 30 180  60
 30 180  60
 30 180  60
 30 180  60
255 255 255
255 255 255
255 255 255
255 255 255
255 255 255
255 255 255
255 255 255
255 255 255
255 255 255
255 255 255
255 255 255
255 255 255
255 255 255
255 255 255
255 255 255
255 255 255
255 255 255
255 255 255
255 255 255
255 255 255
255 255 255
255 255 255
255 255 255
255 255 255
255 255 255
255 255 255
255 255 255
255 255 255
255 255 255
255 255 255
255 255 255
255 255 255
255 255 255
255 255 255
255 255 255
255 255 255
255 255 255
255 255 255
255 255 255
255 255 255
255 255 255
255 255 255
255 255 255
255 255 255
255 255 255
255 255 255
255 255 255
255 255 255
255 255 255
255 255 255
255 255 255
255 150   0
255 255 255
255 255 255
255 255 255
255 255 255
255 255 255
255 255 255
255 255 255
255 255 255
255 255 255
255 255 255
255 255 255
255 255 255
255 255 255
255 255 255
255 255 255
255 255 255
255 255 255
255 255 255
  0   0   0
  0   0   0
  0   0   0
  0   0   0
255 255 255
255 255 255
255 255 255
255 255 255
255 255 255
255 255 255
255 255 255
255 255 255
255 255 255
255 255 255
255 255 255
255 255 255
255 255 255
255 255 255
255 255 255
255 255 255
255 255 255
255 150   0
255 255 255
255 255 255
255 255 255
255 255 255
255 255 255
255 255 255
255 255 255
255 255 255
255 255 255
255 255 255
255 255 255
255 255 255
255 255 255
255 255 255
255 255 255
255 157   0
255 157   0
255 157   0
255 157   0
255 157   0
255 157   0
255 157   0
255 157   0
255 157   0
255 157   0
255 157   0
255 255 255
255 255 255
255 255 255
255 255 255
255 255 255
255 255 255
255 255 255
255 255 255
255 255 255
255 255 255
255 255 255
255 255 255
255 255 255
255 255 255
255 255 255
255 255 255
255 255 255
255 255 255
255 255 255
255 255 255
255 255 255
255 255 255
255 255 255
 64   0   0
 66   0   0
 67   0   0
 68   0   0
 70   0   0
 71   0   0
 73   0   0
 75   0   0
 77   0   0
 79   0   0
 81   0   0
 84   0   0
 87   0   0
 90   0   0
 94   0   0
 99   0   0
104   0   0
110   0   0
117   0   0
125   0   0
134   0   0
143   0   0
152   0   0
159   0   0
161   0   0
155   0   0
129   0   0
  0   0 106
  0   0 174
  0   0 213
  0   0 238
  0   0 252
  0   0 254
  0   0 244
  0   0 217
  0   0 166
131   0   0
191   0   0
212   0   0
217   0   0
211   0   0
199   0   0
181   0   0
160   0   0
138   0   0
116   0   0
 95   0   0
 76   0   0
255 255 255
255 255 255
255 255 255
255 255 255
255 255 255
 30 180  60
 30 180  60
 30 180  60
 30 180  60
 30 180  60
 30 180  60
 30 180  60
255 255 255
255 255 255
255 255 255
255 255 255
255 255 255
255 255 255
255 255 255
255 255 255
255 255 255
255 255 255
255 255 255
255 255 255
255 255 255
255 255 255
255 255 255
255 255 255
255 255 255
255 255 255
255 255 255
255 255 255
255 255 255
255 255 255
255 255 255
255 255 255
255 255 255
255 255 255
255 255 255
255 255 255
255 255 255
255 255 255
255 255 255
255 255 255
255 255 255
255 255 255
255 255 255
255 255 255
255 255 255
255 255 255
255 255 255
255 255 255
255 255 255
255 255 255
255 255 255
255 255 255
255 255 255
255 255 255
255 255 255
255 255 255
255 255 255
255 255 255
255 255 255
255 150   0
255 255 255
255 255 255
255 255 255
255 255 255
255 255 255
255 255 255
255 255 255
255 255 255
255 255 255
255 255 255
255 255 255
255 255 255
255 255 255
255 255 255
255 255 255
255 255 255
255 255 255
255 255 255
  0   0   0
  0   0   0
  0   0   0
  0   0   0
255 255 255
255 255 255
255 255 255
255 255 255
255 255 255
255 255 255
255 255 255
255 255 255
255 255 255
255 255 255
255 255 255
255 255 255
255 255 255
255 255 255
255 255 255
255 255 255
255 255 255
255 150   0
255 255 255
255 255 255
255 255 255
255 255 255
255 255 255
255 255 255
255 255 255
255 255 255
255 255 255
255 255 255
255 255 255
255 255 255
255 255 255
255 255 255
255 255 255
255 157   0
255 157   0
255 157   0
255 157   0
255 157   0
255 157   0
255 157   0
255 157   0
255 157   0
255 157   0
255 157   0
255 255 255
255 255 255
255 255 255
255 255 255
255 255 255
255 255 255
255 255 255
255 255 255
255 255 255
255 255 255
255 255 255
255 255 255
255 255 255
255 255 255
255 255 255
255 255 255
255 255 255
255 255 255
255 255 255
255 255 255
255 255 255
255 255 255
255 255 255
 64   0   0
 66   0   0
 67   0   0
 68   0   0
 70   0   0
 71   0   0
 73   0   0
 75   0   0
 77   0   0
 79   0   0
 81   0   0
 84   0   0
 87   0   0
 90   0   0
 94   0   0
 98   0   0
104   0   0
110   0   0
117   0   0
125   0   0
134   0   0
143   0   0
152   0   0
159   0   0
161   0   0
155   0   0
130   0   0
  0   0 105
  0   0 174
  0   0 212
  0   0 238
  0   0 252
  0   0 254
  0   0 244
  0   0 218
  0   0 167
130   0   0
191   0   0
212   0   0
217   0   0
211   0   0
199   0   0
181   0   0
160   0   0
138   0   0
116   0   0
 95   0   0
 76   0   0
255 255 255
255 255 255
255 255 255
255 255 255
255 255 255
 30 180  60
 30 180  60
 30 180  60
 30 180  60
 30 180  60
 30 180  60
 30 180  60
255 255 255
255 255 255
255 255 255
255 255 255
255 255 255
255 255 255
255 255 255
255 255 255
255 255 255
255 255 255
255 255 255
255 255 255
255 255 255
255 255 255
255 255 255
255 255 255
255 255 255
255 255 255
255 255 255
255 255 255
255 255 255
255 255 255
255 255 255
255 255 255
255 255 255
255 255 255
255 255 255
255 255 255
255 255 255
255 255 255
255 255 255
255 255 255
255 255 255
255 255 255
255 255 255
255 255 255
255 255 255
255 255 255
255 255 255
255 255 255
255 255 255
255 255 255
255 255 255
255 255 255
255 255 255
255 255 255
255 255 255
255 255 255
255 255 255
255 255 255
255 255 255
255 150   0
255 255 255
255 255 255
255 255 255
255 255 255
255 255 255
255 255 255
255 255 255
255 255 255
255 255 255
255 255 255
255 255 255
255 255 255
255 255 255
255 255 255
255 255 255
255 255 255
255 255 255
255 255 255
  0   0   0
  0   0   0
  0   0   0
  0   0   0
255 255 255
255 255 255
255 255 255
255 255 255
255 255 255
255 255 255
255 255 255
255 255 255
255 255 255
255 255 255
255 255 255
255 255 255
255 255 255
255 255 255
255 255 255
255 255 255
255 255 255
255 150   0
255 255 255
255 255 255
255 255 255
255 255 255
255 255 255
255 255 255
255 255 255
255 255 255
255 255 255
255 255 255
255 255 255
255 255 255
255 255 255
255 255 255
255 255 255
255 157   0
255 157   0
255 157   0
255 157   0
255 157   0
255 157   0
255 157   0
255 157   0
255 157   0
255 157   0
255 157   0
255 255 255
255 255 255
255 255 255
255 255 255
255 255 255
255 255 255
255 255 255
255 255 255
255 255 255
255 255 255
255 255 255
255 255 255
255 255 255
255 255 255
255 255 255
255 255 255
255 255 255
255 255 255
255 255 255
255 255 255
255 255 255
255 255 255
255 255 255
 64   0   0
 66   0   0
 67   0   0
 68   0   0
 70   0   0
 71   0   0
 73   0   0
 75   0   0
 77   0   0
 79   0   0
 81   0   0
 84   0   0
 87   0   0
 90   0   0
 94   0   0
 99   0   0
104   0   0
110   0   0
117   0   0
125   0   0
134   0   0
143   0   0
152   0   0
159   0   0
161   0   0
155   0   0
129   0   0
  0   0 106
  0   0 174
  0   0 213
  0   0 238
  0   0 252
  0   0 254
  0   0 244
  0   0 217
  0   0 166
131   0   0
191   0   0
212   0   0
217   0   0
211   0   0
199   0   0
181   0   0
160   0   0
138   0   0
116   0   0
 95   0   0
 76   0   0
255 255 255
255 255 255
255 255 255
255 255 255
255 255 255
 30 180  60
 30 180  60
 30 180  60
 30 180  60
 30 180  60
 30 180  60
 30 180  60
255 255 255
255 255 255
255 255 255
255 255 255
255 255 255
255 255 255
255 255 255
255 255 255
255 255 255
255 255 255
255 255 255
255 255 255
255 255 255
255 255 255
255 255 255
255 255 255
255 255 255
255 255 255
255 255 255
255 255 255
255 255 255
255 255 255
255 255 255
255 255 255
255 255 255
255 255 255
255 255 255
255 255 255
255 255 255
255 255 255
255 255 255
255 255 255
255 255 255
255 255 255
255 255 255
255 255 255
255 255 255
255 255 255
255 255 255
255 255 255
255 255 255
255 255 255
255 255 255
255 255 255
255 255 255
255 255 255
255 255 255
255 255 255
255 255 255
255 255 255
255 255 255
255 150   0
255 255 255
255 255 255
255 255 255
255 255 255
255 255 255
255 255 255
255 255 255
255 255 255
255 255 255
255 255 255
255 255 255
255 255 255
255 255 255
255 255 255
255 255 255
255 255 255
255 255 255
255 255 255
  0   0   0
  0   0   0
  0   0   0
  0   0   0
255 255 255
255 255 255
255 255 255
255 255 255
255 255 255
255 255 255
255 255 255
255 255 255
255 255 255
255 255 255
255 255 255
255 255 255
255 255 255
255 255 255
255 255 255
255 255 255
255 255 255
255 150   0
255 255 255
255 255 255
255 255 255
255 255 255
255 255 255
255 255 255
255 255 255
255 255 255
255 255 255
255 255 255
255 255 255
255 255 255
255 255 255
255 255 255
255 255 255
255 255 255
255 255 255
255 255 255
255 255 255
255 157   0
255 157   0
255 157   0
255 255 255
255 255 255
255 255 255
255 255 255
255 255 255
255 255 255
255 255 255
255 255 255
255 255 255
255 255 255
255 255 255
255 255 255
255 255 255
255 255 255
255 255 255
255 255 255
255 255 255
255 255 255
255 255 255
255 255 255
255 255 255
255 255 255
255 255 255
255 255 255
255 255 255
255 255 255
255 255 255
 65   0   0
 66   0   0
 67   0   0
 68   0   0
 70   0   0
 71   0   0
 73   0   0
 75   0   0
 77   0   0
 79   0   0
 81   0   0
 84   0   0
 87   0   0
 91   0   0
 94   0   0
 99   0   0
104   0   0
110   0   0
117   0   0
125   0   0
134   0   0
143   0   0
152   0   0
159   0   0
161   0   0
154   0   0
128   0   0
  0   0 109
  0   0 175
  0   0 213
  0   0 239
  0   0 252
  0   0 254
  0   0 243
  0   0 217
  0   0 164
133   0   0
192   0   0
212   0   0
217   0   0
211   0   0
198   0   0
180   0   0
159   0   0
137   0   0
115   0   0
 94   0   0
 75   0   0
255 255 255
255 255 255
255 255 255
255 255 255
255 255 255
 30 180  60
 30 180  60
 30 180  60
 30 180  60
 30 180  60
 30 180  60
 30 180  60
255 255 255
255 255 255
255 255 255
255 255 255
255 255 255
255 255 255
255 255 255
255 255 255
255 255 255
255 255 255
255 255 255
255 255 255
255 255 255
255 255 255
255 255 255
255 255 255
255 255 255
255 255 255
255 255 255
255 255 255
255 255 255
255 255 255
255 255 255
255 255 255
255 255 255
255 255 255
255 255 255
255 255 255
255 255 255
255 255 255
255 255 255
255 255 255
255 255 255
255 255 255
255 255 255
255 255 255
255 255 255
255 255 255
255 255 255
255 255 255
255 255 255
255 255 255
255 255 255
255 255 255
255 255 255
255 255 255
255 255 255
255 255 255
255 255 255
255 255 255
255 255 255
255 150   0
255 255 255
255 255 255
255 255 255
255 255 255
255 255 255
255 255 255
255 255 255
255 255 255
255 255 255
255 255 255
255 255 255
255 255 255
255 255 255
255 255 255
255 255 255
255 255 255
255 255 255
255 255 255
  0   0   0
  0   0   0
  0   0   0
  0   0   0
255 255 255
255 255 255
255 255 255
255 255 255
255 255 255
255 255 255
255 255 255
255 255 255
255 255 255
255 255 255
255 255 255
255 255 255
255 255 255
255 255 255
255 255 255
255 255 255
255 255 255
255 150   0
255 255 255
255 255 255
255 255 255
255 255 255
255 255 255
255 255 255
255 255 255
255 255 255
255 255 255
255 255 255
255 255 255
255 255 255
255 255 255
255 255 255
255 255 255
255 255 255
255 255 255
255 255 255
255 255 255
255 157   0
255 157   0
255 157   0
255 255 255
255 255 255
255 255 255
255 255 255
255 255 255
255 255 255
255 255 255
255 255 255
255 255 255
255 255 255
255 255 255
255 255 255
255 255 255
255 255 255
255 255 255
255 255 255
255 255 255
255 255 255
255 255 255
255 255 255
255 255 255
255 255 255
255 255 255
255 255 255
255 255 255
255 255 255
255 255 255
 65   0   0
 66   0   0
 67   0   0
 68   0   0
 70   0   0
 71   0   0
 73   0   0
 75   0   0
 77   0   0
 79   0   0
 82   0   0
 84   0   0
 87   0   0
 91   0   0
 95   0   0
 99   0   0
104   0   0
110   0   0
117   0   0
125   0   0
135   0   0
144   0   0
153   0   0
159   0   0
161   0   0
154   0   0
126   0   0
  0   0 114
  0   0 177
  0   0 215
  0   0 239
  0   0 253
  0   0 254
  0   0 243
  0   0 215
  0   0 161
137   0   0
193   0   0
213   0   0
217   0   0
211   0   0
198   0   0
180   0   0
159   0   0
137   0   0
115   0   0
 94   0   0
 75   0   0
255 255 255
255 255 255
255 255 255
255 255 255
255 255 255
 30 180  60
 30 180  60
 30 180  60
 30 180  60
 30 180  60
 30 180  60
 30 180  60
255 255 255
255 255 255
255 255 255
255 255 255
255 255 255
255 255 255
255 255 255
255 255 255
255 255 255
255 255 255
255 255 255
255 255 255
255 255 255
255 255 255
255 255 255
255 255 255
255 255 255
255 255 255
255 255 255
255 255 255
255 255 255
255 255 255
255 255 255
255 255 255
255 255 255
255 255 255
255 255 255
255 255 255
255 255 255
255 255 255
255 255 255
255 255 255
255 255 255
255 255 255
255 255 255
255 255 255
255 255 255
255 255 255
255 255 255
255 255 255
255 255 255
255 255 255
255 255 255
255 255 255
255 255 255
255 255 255
255 255 255
255 255 255
255 255 255
255 255 255
255 255 255
255 150   0
255 255 255
255 255 255
255 255 255
255 255 255
255 255 255
255 255 255
255 255 255
255 255 255
255 255 255
255 255 255
255 255 255
255 255 255
255 255 255
255 255 255
255 255 255
255 255 255
255 255 255
255 255 255
  0   0   0
  0   0   0
  0   0   0
  0   0   0
255 255 255
255 255 255
255 255 255
255 255 255
255 255 255
255 255 255
255 255 255
255 255 255
255 255 255
255 255 255
255 255 255
255 255 255
255 255 255
255 255 255
255 255 255
255 255 255
255 255 255
255 150   0
255 255 255
255 255 255
255 255 255
255 255 255
255 255 255
255 255 255
255 255 255
255 255 255
255 255 255
255 255 255
255 255 255
255 255 255
255 255 255
255 255 255
255 255 255
255 255 255
255 255 255
255 255 255
255 255 255
255 157   0
255 157   0
255 157   0
255 255 255
255 255 255
255 255 255
255 255 255
255 255 255
255 255 255
255 255 255
255 255 255
255 255 255
255 255 255
255 255 255
255 255 255
255 255 255
255 255 255
255 255 255
255 255 255
255 255 255
255 255 255
255 255 255
255 255 255
255 255 255
255 255 255
255 255 255
255 255 255
255 255 255
255 255 255
255 255 255
 65   0   0
 66   0   0
 67   0   0
 69   0   0
 70   0   0
 72   0   0
 73   0   0
 75   0   0
 77   0   0
 79   0   0
 82   0   0
 85   0   0
 88   0   0
 91   0   0
 95   0   0
 99   0   0
105   0   0
111   0   0
118   0   0
126   0   0
135   0   0
145   0   0
153   0   0
159   0   0
161   0   0
153   0   0
123   0   0
  0   0 120
  0   0 180
  0   0 216
  0   0 240
  0   0 253
  0   0 254
  0   0 241
  0   0 213
  0   0 157
142   0   0
194   0   0
213   0   0
217   0   0
210   0   0
197   0   0
179   0   0
158   0   0
136   0   0
114   0   0
 93   0   0
 74   0   0
255 255 255
255 255 255
255 255 255
255 255 255
255 255 255
255 255 255
255 255 255
255 255 255
255 255 255
255 255 255
255 255 255
255 255 255
255 255 255
255 255 255
255 255 255
255 255 255
255 255 255
255 255 255
255 255 255
255 255 255
255 255 255
255 255 255
255 255 255
255 255 255
255 255 255
255 255 255
255 255 255
255 255 255
255 255 255
255 255 255
255 255 255
255 255 255
255 255 255
255 255 255
255 255 255
255 255 255
255 255 255
255 255 255
255 255 255
255 255 255
255 255 255
255 255 255
255 255 255
255 255 255
255 255 255
255 255 255
255 255 255
255 255 255
255 255 255
255 255 255
255 255 255
255 255 255
255 255 255
255 255 255
255 255 255
255 255 255
255 255 255
255 255 255
255 255 255
255 255 255
255 255 255
255 255 255
255 255 255
255 150   0
255 255 255
255 255 255
255 255 255
255 255 255
255 255 255
255 255 255
255 255 255
255 255 255
255 255 255
255 255 255
255 255 255
255 255 255
255 255 255
255 255 255
255 255 255
255 255 255
255 255 255
255 255 255
  0   0   0
  0   0   0
  0   0   0
  0   0   0
255 255 255
255 255 255
255 255 255
255 255 255
255 255 255
255 255 255
255 255 255
255 255 255
255 255 255
255 255 255
255 255 255
255 255 255
255 255 255
255 255 255
255 255 255
255 255 255
255 255 255
255 150   0
255 255 255
255 255 255
255 255 255
255 255 255
255 255 255
255 255 255
255 255 255
255 255 255
255 255 255
255 255 255
255 255 255
255 255 255
255 255 255
255 255 255
255 255 255
255 255 255
255 255 255
255 255 255
255 255 255
255 157   0
255 157   0
255 157   0
255 255 255
255 255 255
255 255 255
255 255 255
255 255 255
255 255 255
255 255 255
255 255 255
255 255 255
255 255 255
255 255 255
255 255 255
255 255 255
255 255 255
255 255 255
255 255 255
255 255 255
255 255 255
255 255 255
255 255 255
255 255 255
255 255 255
255 255 255
255 255 255
255 255 255
255 255 255
255 255 255
 65   0   0
 66   0   0
 67   0   0
 69   0   0
 70   0   0
 72   0   0
 74   0   0
 75   0   0
 77   0   0
 80   0   0
 82   0   0
 85   0   0
 88   0   0
 91   0   0
 95   0   0
100   0   0
105   0   0
111   0   0
119   0   0
127   0   0
136   0   0
145   0   0
154   0   0
160   0   0
161   0   0
151   0   0
118   0   0
  0   0 126
  0   0 183
  0   0 219
  0   0 242
  0   0 254
  0   0 253
  0   0 240
  0   0 210
  0   0 150
148   0   0
196   0   0
214   0   0
217   0   0
210   0   0
196   0   0
177   0   0
156   0   0
134   0   0
112   0   0
 92   0   0
 73   0   0
255 255 255
255 255 255
255 255 255
255 255 255
255 255 255
255 255 255
255 255 255
255 255 255
255 255 255
255 255 255
255 255 255
255 255 255
255 255 255
255 255 255
255 255 255
255 255 255
255 255 255
255 255 255
255 255 255
255 255 255
255 255 255
255 255 255
255 255 255
255 255 255
255 255 255
255 255 255
255 255 255
255 255 255
255 255 255
255 255 255
255 255 255
255 255 255
255 255 255
255 255 255
255 255 255
255 255 255
255 255 255
255 255 255
255 255 255
255 255 255
255 255 255
255 255 255
255 255 255
255 255 255
255 255 255
255 255 255
255 255 255
255 255 255
255 255 255
255 255 255
255 255 255
255 255 255
255 255 255
255 255 255
255 255 255
255 255 255
255 255 255
255 255 255
255 255 255
255 255 255
255 255 255
255 255 255
255 255 255
255 150   0
255 255 255
255 255 255
255 255 255
255 255 255
255 255 255
255 255 255
255 255 255
255 255 255
255 255 255
255 255 255
255 255 255
255 255 255
255 255 255
255 255 255
255 255 255
255 255 255
255 255 255
255 255 255
  0   0   0
  0   0   0
  0   0   0
  0   0   0
255 255 255
255 255 255
255 255 255
255 255 255
255 255 255
255 255 255
255 255 255
255 255 255
255 255 255
255 255 255
255 255 255
255 255 255
255 255 255
255 255 255
255 255 255
255 255 255
255 255 255
255 150   0
255 255 255
255 255 255
255 255 255
255 255 255
255 255 255
255 255 255
255 255 255
255 255 255
255 255 255
255 255 255
255 255 255
255 255 255
255 255 255
255 255 255
255 255 255
255 255 255
255 255 255
255 255 255
255 255 255
255 255 255
255 255 255
255 255 255
255 255 255
255 255 255
255 255 255
255 255 255
255 255 255
255 255 255
255 255 255
255 255 255
255 255 255
255 255 255
255 255 255
255 255 255
255 255 255
255 255 255
255 255 255
255 255 255
255 255 255
255 255 255
255 255 255
255 255 255
255 255 255
255 255 255
255 255 255
255 255 255
255 255 255
255 255 255
255 255 255
 65   0   0
 66   0   0
 68   0   0
 69   0   0
 70   0   0
 72   0   0
 74   0   0
 76   0   0
 78   0   0
 80   0   0
 83   0   0
 85   0   0
 88   0   0
 92   0   0
 96   0   0
100   0   0
106   0   0
112   0   0
120   0   0
128   0   0
137   0   0
146   0   0
155   0   0
160   0   0
160   0   0
150   0   0
111   0   0
  0   0 134
  0   0 187
  0   0 221
  0   0 243
  0   0 254
  0   0 253
  0   0 238
  0   0 207
  0   0 142
155   0   0
199   0   0
215   0   0
216   0   0
209   0   0
194   0   0
176   0   0
155   0   0
132   0   0
111   0   0
 90   0   0
 72   0   0
255 255 255
255 255 255
255 255 255
255 255 255
255 255 255
255 255 255
255 255 255
255 255 255
255 255 255
255 255 255
255 255 255
255 255 255
255 255 255
255 255 255
255 255 255
255 255 255
255 255 255
255 255 255
255 255 255
255 255 255
255 255 255
255 255 255
255 255 255
255 255 255
255 255 255
255 255 255
255 255 255
255 255 255
255 255 255
255 255 255
255 255 255
255 255 255
255 255 255
255 255 255
255 255 255
255 255 255
255 255 255
255 255 255
255 255 255
255 255 255
255 255 255
255 255 255
255 255 255
255 255 255
255 255 255
255 255 255
255 255 255
255 255 255
255 255 255
255 255 255
255 255 255
255 255 255
255 255 255
255 255 255
255 255 255
255 255 255
255 255 255
255 255 255
255 255 255
255 255 255
255 255 255
255 255 255
255 255 255
255 150   0
255 255 255
255 255 255
255 255 255
255 255 255
255 255 255
255 255 255
255 255 255
255 255 255
255 255 255
255 255 255
255 255 255
255 255 255
255 255 255
255 255 255
255 255 255
255 255 255
255 255 255
255 255 255
  0   0   0
  0   0   0
  0   0   0
  0   0   0
255 255 255
255 255 255
255 255 255
255 255 255
255 255 255
255 255 255
255 255 255
255 255 255
255 255 255
255 255 255
255 255 255
255 255 255
255 255 255
255 255 255
255 255 255
255 255 255
255 255 255
255 150   0
255 255 255
255 255 255
255 255 255
255 255 255
255 255 255
255 255 255
255 255 255
255 255 255
255 255 255
255 255 255
255 255 255
255 255 255
255 255 255
255 255 255
255 255 255
255 255 255
255 255 255
255 255 255
255 255 255
255 255 255
255 255 255
255 255 255
255 255 255
255 255 255
255 255 255
255 255 255
255 255 255
255 255 255
255 255 255
255 255 255
255 255 255
255 255 255
255 255 255
255 255 255
255 255 255
255 255 255
255 255 255
255 255 255
255 255 255
255 255 255
255 255 255
255 255 255
255 255 255
255 255 255
255 255 255
255 255 255
255 255 255
255 255 255
 64   0   0
 65   0   0
 67   0   0
 68   0   0
 69   0   0
 71   0   0
 72   0   0
 74   0   0
 76   0   0
 78   0   0
 80   0   0
 83   0   0
 86   0   0
 89   0   0
 92   0   0
 97   0   0
101   0   0
107   0   0
113   0   0
121   0   0
129   0   0
138   0   0
148   0   0
156   0   0
161   0   0
160   0   0
147   0   0
100   0   0
  0   0 142
  0   0 192
  0   0 224
  0   0 245
  0   0 254
  0   0 252
  0   0 236
  0   0 202
  0   0 130
162   0   0
201   0   0
215   0   0
216   0   0
208   0   0
193   0   0
174   0   0
153   0   0
131   0   0
109   0   0
 88   0   0
 70   0   0
255 255 255
255 255 255
255 255 255
255 255 255
255 255 255
255 255 255
255 255 255
255 255 255
255 255 255
255 255 255
255 255 255
255 255 255
255 255 255
255 255 255
255 255 255
255 255 255
255 255 255
255 255 255
255 255 255
255 255 255
255 255 255
255 255 255
255 255 255
255 255 255
255 255 255
255 255 255
255 255 255
255 255 255
255 255 255
255 255 255
255 255 255
255 255 255
255 255 255
255 255 255
255 255 255
255 255 255
255 255 255
255 255 255
255 255 255
255 255 255
255 255 255
255 255 255
255 255 255
255 255 255
255 255 255
255 255 255
255 255 255
255 255 255
255 255 255
255 255 255
255 255 255
255 255 255
255 255 255
255 255 255
255 255 255
255 255 255
255 255 255
255 255 255
255 255 255
255 255 255
255 255 255
255 255 255
255 255 255
255 150   0
255 255 255
255 255 255
255 255 255
255 255 255
255 255 255
255 255 255
255 255 255
255 255 255
255 255 255
255 255 255
255 255 255
255 255 255
255 255 255
255 255 255
255 255 255
255 255 255
255 255 255
255 255 255
  0   0   0
  0   0   0
  0   0   0
  0   0   0
255 255 255
255 255 255
255 255 255
255 255 255
255 255 255
255 255 255
255 255 255
255 255 255
255 255 255
255 255 255
255 255 255
255 255 255
255 255 255
255 255 255
255 255 255
255 255 255
255 255 255
255 150   0
255 255 255
255 255 255
255 255 255
255 255 255
255 255 255
255 255 255
255 255 255
255 255 255
255 255 255
255 255 255
255 255 255
255 255 255
255 255 255
255 255 255
255 255 255
255 255 255
255 255 255
255 255 255
255 255 255
255 255 255
255 255 255
255 255 255
255 255 255
255 255 255
255 255 255
255 255 255
255 255 255
255 255 255
255 255 255
255 255 255
255 255 255
255 255 255
255 255 255
255 255 255
255 255 255
255 255 255
255 255 255
255 255 255
255 255 255
255 255 255
255 255 255
255 255 255
255 255 255
255 255 255
255 255 255
255 255 255
255 255 255
255 255 255
 65   0   0
 66   0   0
 67   0   0
 68   0   0
 70   0   0
 71   0   0
 73   0   0
 75   0   0
 76   0   0
 79   0   0
 81   0   0
 83   0   0
 86   0   0
 90   0   0
 93   0   0
 97   0   0
102   0   0
108   0   0
114   0   0
122   0   0
131   0   0
140   0   0
149   0   0
157   0   0
161   0   0
159   0   0
144   0   0
 83   0   0
  0   0 151
  0   0 197
  0   0 228
  0   0 247
  0   0 255
  0   0 251
  0   0 233
  0   0 196
  0   0 112
169   0   0
204   0   0
216   0   0
216   0   0
206   0   0
191   0   0
172   0   0
150   0   0
128   0   0
107   0   0
 87   0   0
 68   0   0
255 255 255
255 255 255
255 255 255
255 255 255
255 255 255
255 255 255
255 255 255
255 255 255
255 255 255
255 255 255
255 255 255
255 255 255
255 255 255
255 255 255
255 255 255
255 255 255
255 255 255
255 255 255
255 255 255
255 255 255
255 255 255
255 255 255
255 255 255
255 255 255
255 255 255
255 255 255
255 255 255
255 255 255
255 255 255
255 255 255
255 255 255
255 255 255
255 255 255
255 255 255
255 255 255
255 255 255
255 255 255
255 255 255
255 255 255
255 255 255
255 255 255
255 255 255
255 255 255
255 255 255
255 255 255
255 255 255
255 255 255
255 255 255
255 255 255
255 255 255
255 255 255
255 255 255
255 255 255
255 255 255
255 255 255
255 255 255
255 255 255
255 255 255
255 255 255
255 255 255
255 255 255
255 255 255
255 255 255
255 150   0
255 255 255
255 255 255
255 255 255
255 255 255
255 255 255
255 255 255
255 255 255
255 255 255
255 255 255
255 255 255
255 255 255
255 255 255
255 255 255
255 255 255
255 255 255
255 255 255
255 255 255
255 255 255
  0   0   0
  0   0   0
  0   0   0
  0   0   0
255 255 255
255 255 255
255 255 255
255 255 255
255 255 255
255 255 255
255 255 255
255 255 255
255 255 255
255 255 255
255 255 255
255 255 255
255 255 255
255 255 255
255 255 255
255 255 255
255 255 255
255 150   0
255 255 255
255 255 255
255 255 255
255 255 255
255 255 255
255 255 255
255 255 255
255 255 255
255 255 255
255 255 255
255 255 255
255 255 255
255 255 255
255 255 255
255 255 255
255 255 255
255 255 255
255 255 255
255 255 255
255 255 255
255 255 255
255 255 255
255 255 255
255 255 255
255 255 255
255 255 255
255 255 255
255 255 255
255 255 255
255 255 255
255 255 255
255 255 255
255 255 255
255 255 255
255 255 255
255 255 255
255 255 255
255 255 255
255 255 255
255 255 255
255 255 255
255 255 255
255 255 255
255 255 255
255 255 255
255 255 255
255 255 255
255 255 255
 65   0   0
 66   0   0
 67   0   0
 69   0   0
 70   0   0
 72   0   0
 73   0   0
 75   0   0
 77   0   0
 79   0   0
 81   0   0
 84   0   0
 87   0   0
 90   0   0
 94   0   0
 98   0   0
103   0   0
109   0   0
116   0   0
123   0   0
132   0   0
141   0   0
150   0   0
158   0   0
161   0   0
157   0   0
139   0   0
255 255 255
  0   0 159
  0   0 202
  0   0 231
  0   0 249
  0   0 255
  0   0 249
  0   0 229
  0   0 190
  0   0  77
175   0   0
206   0   0
216   0   0
215   0   0
205   0   0
189   0   0
169   0   0
148   0   0
126   0   0
104   0   0
 84   0   0
 67   0   0
255 255 255
255 255 255
255 255 255
255 255 255
255 255 255
255 255 255
255 255 255
255 255 255
255 255 255
255 255 255
255 255 255
255 255 255
255 255 255
255 255 255
255 255 255
255 255 255
255 255 255
255 255 255
255 255 255
255 255 255
255 255 255
255 255 255
255 255 255
255 255 255
255 255 255
255 255 255
255 255 255
255 255 255
255 255 255
255 255 255
255 255 255
255 255 255
255 255 255
255 255 255
255 255 255
255 255 255
255 255 255
255 255 255
255 255 255
255 255 255
255 255 255
255 255 255
255 255 255
255 255 255
255 255 255
255 255 255
255 255 255
255 255 255
255 255 255
255 255 255
255 255 255
255 255 255
255 255 255
255 255 255
255 255 255
255 255 255
255 255 255
255 255 255
255 255 255
255 255 255
255 255 255
255 255 255
255 255 255
255 150   0
255 255 255
255 255 255
255 255 255
255 255 255
255 255 255
255 255 255
255 255 255
255 255 255
255 255 255
255 255 255
255 255 255
255 255 255
255 255 255
255 255 255
255 255 255
255 255 255
255 255 255
255 255 255
  0   0   0
  0   0   0
  0   0   0
  0   0   0
255 255 255
255 255 255
255 255 255
255 255 255
255 255 255
255 255 255
255 255 255
255 255 255
255 255 255
255 255 255
255 255 255
255 255 255
255 255 255
255 255 255
255 255 255
255 255 255
255 255 255
255 150   0
255 255 255
255 255 255
255 255 255
255 255 255
255 255 255
255 255 255
255 255 255
255 255 255
255 255 255
255 255 255
255 255 255
255 255 255
255 255 255
255 255 255
255 255 255
255 255 255
255 255 255
255 255 255
255 255 255
255 255 255
255 255 255
255 255 255
255 255 255
255 255 255
255 255 255
255 255 255
255 255 255
255 255 255
255 255 255
255 255 255
255 255 255
255 255 255
255 255 255
255 255 255
255 255 255
255 255 255
255 255 255
255 255 255
255 255 255
255 255 255
255 255 255
255 255 255
255 255 255
255 255 255
255 255 255
255 255 255
255 255 255
 64   0   0
 65   0   0
 66   0   0
 68   0   0
 69   0   0
 70   0   0
 72   0   0
 74   0   0
 76   0   0
 78   0   0
 80   0   0
 82   0   0
 85   0   0
 88   0   0
 91   0   0
 95   0   0
 99   0   0
104   0   0
110   0   0
117   0   0
125   0   0
134   0   0
143   0   0
152   0   0
159   0   0
161   0   0
156   0   0
133   0   0
  0   0  92
  0   0 168
  0   0 208
  0   0 235
  0   0 251
  0   0 255
  0   0 247
  0   0 224
  0   0 181
 90   0   0
182   0   0
209   0   0
217   0   0
214   0   0
203   0   0
186   0   0
166   0   0
145   0   0
123   0   0
102   0   0
 82   0   0
 64   0   0
255 255 255
255 255 255
255 255 255
255 255 255
255 255 255
255 255 255
255 255 255
255 255 255
255 255 255
255 255 255
255 255 255
255 255 255
255 255 255
255 255 255
255 255 255
255 255 255
255 255 255
255 255 255
255 255 255
255 255 255
255 255 255
255 255 255
255 255 255
255 255 255
255 255 255
255 255 255
255 255 255
255 255 255
255 255 255
255 255 255
255 255 255
255 255 255
255 255 255
255 255 255
255 255 255
255 255 255
255 255 255
255 255 255
255 255 255
255 255 255
255 255 255
255 255 255
255 255 255
255 255 255
255 255 255
255 255 255
255 255 255
255 255 255
255 255 255
255 255 255
255 255 255
255 255 255
255 255 255
255 255 255
255 255 255
255 255 255
255 255 255
255 255 255
255 255 255
255 255 255
255 255 255
255 255 255
255 255 255
255 150   0
255 255 255
255 255 255
255 255 255
255 255 255
255 255 255
255 255 255
255 255 255
255 255 255
255 255 255
255 255 255
255 255 255
255 255 255
255 255 255
255 255 255
255 255 255
255 255 255
255 255 255
255 255 255
  0   0   0
  0   0   0
  0   0   0
  0   0   0
255 255 255
255 255 255
255 255 255
255 255 255
255 255 255
255 255 255
255 255 255
255 255 255
255 255 255
255 255 255
255 255 255
255 255 255
255 255 255
255 255 255
255 255 255
255 255 255
255 255 255
255 150   0
255 255 255
255 255 255
255 255 255
255 255 255
255 255 255
255 255 255
255 255 255
255 255 255
255 255 255
255 255 255
255 255 255
255 255 255
255 255 255
255 255 255
255 255 255
255 255 255
255 255 255
255 255 255
255 255 255
255 255 255
255 255 255
255 255 255
255 255 255
255 255 255
255 255 255
255 255 255
255 255 255
255 255 255
255 255 255
255 255 255
255 255 255
255 255 255
255 255 255
255 255 255
255 255 255
255 255 255
255 255 255
255 255 255
255 255 255
255 255 255
255 255 255
255 255 255
255 255 255
255 255 255
255 255 255
255 255 255
255 255 255
 65   0   0
 66   0   0
 67   0   0
 68   0   0
 69   0   0
 71   0   0
 73   0   0
 74   0   0
 76   0   0
 78   0   0
 80   0   0
 83   0   0
 86   0   0
 89   0   0
 92   0   0
 96   0   0
100   0   0
106   0   0
112   0   0
119   0   0
127   0   0
136   0   0
145   0   0
154   0   0
160   0   0
161   0   0
153   0   0
124   0   0
  0   0 114
  0   0 177
  0   0 214
  0   0 238
  0   0 252
  0   0 254
  0   0 244
  0   0 219
  0   0 170
122   0   0
188   0   0
211   0   0
217   0   0
213   0   0
201   0   0
184   0   0
163   0   0
142   0   0
120   0   0
 99   0   0
 79   0   0
255 255 255
255 255 255
255 255 255
255 255 255
255 255 255
255 255 255
255 255 255
255 255 255
255 255 255
255 255 255
255 255 255
255 255 255
255 255 255
255 255 255
255 255 255
255 255 255
255 255 255
255 255 255
255 255 255
255 255 255
255 255 255
255 255 255
255 255 255
255 255 255
255 255 255
255 255 255
255 255 255
255 255 255
255 255 255
255 255 255
255 255 255
255 255 255
255 255 255
255 255 255
255 255 255
255 255 255
255 255 255
255 255 255
255 255 255
255 255 255
255 255 255
255 255 255
255 255 255
255 255 255
255 255 255
255 255 255
255 255 255
255 255 255
255 255 255
255 255 255
255 255 255
255 255 255
255 255 255
255 255 255
255 255 255
255 255 255
255 255 255
255 255 255
255 255 255
255 255 255
255 255 255
255 255 255
255 255 255
255 255 255
255 150   0
255 255 255
255 255 255
255 255 255
255 255 255
255 255 255
255 255 255
255 255 255
255 255 255
255 255 255
255 255 255
255 255 255
255 255 255
255 255 255
255 255 255
255 255 255
255 255 255
255 255 255
255 255 255
  0   0   0
  0   0   0
  0   0   0
  0   0   0
255 255 255
255 255 255
255 255 255
255 255 255
255 255 255
255 255 255
255 255 255
255 255 255
255 255 255
255 255 255
255 255 255
255 255 255
255 255 255
255 255 255
255 255 255
255 255 255
255 255 255
255 150   0
255 255 255
255 255 255
255 255 255
255 255 255
255 255 255
255 255 255
255 255 255
255 255 255
255 255 255
255 255 255
255 255 255
255 255 255
255 255 255
255 255 255
255 255 255
255 255 255
255 255 255
255 255 255
255 255 255
255 255 255
255 255 255
255 255 255
255 255 255
255 255 255
255 255 255
255 255 255
255 255 255
255 255 255
255 255 255
255 255 255
255 255 255
255 255 255
255 255 255
255 255 255
255 255 255
255 255 255
255 255 255
255 255 255
255 255 255
255 255 255
255 255 255
255 255 255
255 255 255
255 255 255
255 255 255
255 255 255
255 255 255
 65   0   0
 66   0   0
 67   0   0
 69   0   0
 70   0   0
 71   0   0
 73   0   0
 75   0   0
 77   0   0
 79   0   0
 81   0   0
 84   0   0
 86   0   0
 89   0   0
 93   0   0
 97   0   0
102   0   0
107   0   0
113   0   0
121   0   0
129   0   0
138   0   0
147   0   0
155   0   0
160   0   0
160   0   0
149   0   0
111   0   0
  0   0 132
  0   0 186
  0   0 220
  0   0 242
  0   0 254
  0   0 253
  0   0 241
  0   0 212
  0   0 156
142   0   0
194   0   0
213   0   0
217   0   0
211   0   0
198   0   0
180   0   0
160   0   0
138   0   0
116   0   0
 96   0   0
 77   0   0
255 255 255
255 255 255
255 255 255
255 255 255
255 255 255
255 255 255
255 255 255
255 255 255
255 255 255
255 255 255
255 255 255
255 255 255
255 255 255
255 255 255
255 255 255
255 255 255
255 255 255
255 255 255
255 255 255
255 255 255
255 255 255
255 255 255
255 255 255
255 255 255
255 255 255
255 255 255
255 255 255
255 255 255
255 255 255
255 255 255
255 255 255
255 255 255
255 255 255
255 255 255
255 255 255
255 255 255
255 255 255
255 255 255
255 255 255
255 255 255
255 255 255
255 255 255
255 255 255
255 255 255
255 255 255
255 255 255
255 255 255
255 255 255
255 255 255
255 255 255
255 255 255
255 255 255
255 255 255
255 255 255
255 255 255
255 255 255
255 255 255
255 255 255
255 255 255
255 255 255
255 255 255
255 255 255
255 255 255
255 255 255
255 150   0
255 255 255
255 255 255
255 255 255
255 255 255
255 255 255
255 255 255
255 255 255
255 255 255
255 255 255
255 255 255
255 255 255
255 255 255
255 255 255
255 255 255
255 255 255
255 255 255
255 255 255
255 255 255
  0   0   0
  0   0   0
  0   0   0
  0   0   0
255 255 255
255 255 255
255 255 255
255 255 255
255 255 255
255 255 255
255 255 255
255 255 255
255 255 255
255 255 255
255 255 255
255 255 255
 64   0   0
 64   0   0
 64   0   0
 64   0   0
255 255 255
255 150   0
255 255 255
255 255 255
255 255 255
255 255 255
255 255 255
255 255 255
255 255 255
255 255 255
255 255 255
255 255 255
255 255 255
255 255 255
255 255 255
255 255 255
255 255 255
255 255 255
255 255 255
255 255 255
255 255 255
255 255 255
255 255 255
255 255 255
255 255 255
255 255 255
255 255 255
255 255 255
255 255 255
255 255 255
255 255 255
255 255 255
255 255 255
255 255 255
255 255 255
255 255 255
255 255 255
255 255 255
255 255 255
255 255 255
255 255 255
255 255 255
255 255 255
255 255 255
255 255 255
255 255 255
255 255 255
255 255 255
 65   0   0
 66   0   0
 67   0   0
 68   0   0
 69   0   0
 71   0   0
 72   0   0
 74   0   0
 76   0   0
 77   0   0
 80   0   0
 82   0   0
 84   0   0
 87   0   0
 91   0   0
 94   0   0
 98   0   0
103   0   0
109   0   0
115   0   0
123   0   0
131   0   0
141   0   0
149   0   0
157   0   0
161   0   0
159   0   0
144   0   0
 88   0   0
  0   0 147
  0   0 194
  0   0 225
  0   0 245
  0   0 254
  0   0 252
  0   0 236
  0   0 204
  0   0 137
157   0   0
199   0   0
215   0   0
217   0   0
209   0   0
195   0   0
177   0   0
156   0   0
134   0   0
113   0   0
 92   0   0
 74   0   0
255 255 255
255 255 255
255 255 255
255 255 255
255 255 255
255 255 255
255 255 255
255 255 255
255 255 255
255 255 255
255 255 255
255 255 255
255 255 255
255 255 255
255 255 255
255 255 255
255 255 255
255 255 255
255 255 255
255 255 255
255 255 255
255 255 255
255 255 255
255 255 255
255 255 255
255 255 255
255 255 255
255 255 255
255 255 255
255 255 255
255 255 255
255 255 255
255 255 255
255 255 255
255 255 255
255 255 255
255 255 255
255 255 255
255 255 255
255 255 255
255 255 255
255 255 255
255 255 255
255 255 255
255 255 255
255 255 255
255 255 255
255 255 255
255 255 255
255 255 255
255 255 255
255 255 255
255 255 255
255 255 255
255 255 255
255 255 255
255 255 255
255 255 255
255 255 255
255 255 255
255 255 255
255 255 255
255 255 255
255 255 255
255 150   0
255 255 255
255 255 255
255 255 255
255 255 255
255 255 255
255 255 255
255 255 255
255 255 255
255 255 255
255 255 255
255 255 255
255 255 255
255 255 255
255 255 255
255 255 255
255 255 255
255 255 255
255 255 255
  0   0   0
  0   0   0
  0   0   0
  0   0   0
255 255 255
255 255 255
255 255 255
255 255 255
255 255 255
255 255 255
255 255 255
255 255 255
255 255 255
255 255 255
255 255 255
 64   0   0
 65   0   0
 65   0   0
 65   0   0
 65   0   0
 65   0   0
255 150   0
255 255 255
255 255 255
255 255 255
255 255 255
255 255 255
255 255 255
255 255 255
255 255 255
255 255 255
255 255 255
255 255 255
255 255 255
255 255 255
255 255 255
255 255 255
255 255 255
255 255 255
255 255 255
255 255 255
255 255 255
255 255 255
255 255 255
255 255 255
255 255 255
255 255 255
255 255 255
255 255 255
255 255 255
255 255 255
255 255 255
255 255 255
255 255 255
255 255 255
255 255 255
255 255 255
255 255 255
255 255 255
255 255 255
255 255 255
255 255 255
255 255 255
255 255 255
255 255 255
255 255 255
255 255 255
 64   0   0
 65   0   0
 66   0   0
 67   0   0
 68   0   0
 70   0   0
 71   0   0
 73   0   0
 74   0   0
 76   0   0
 78   0   0
 80   0   0
 83   0   0
 85   0   0
 88   0   0
 92   0   0
 95   0   0
100   0   0
105   0   0
111   0   0
118   0   0
125   0   0
134   0   0
143   0   0
152   0   0
158   0   0
161   0   0
156   0   0
137   0   0
  0   0  68
  0   0 161
  0   0 203
  0   0 231
  0   0 249
  0   0 255
  0   0 250
  0   0 231
  0   0 194
  0   0 105
170   0   0
204   0   0
216   0   0
216   0   0
207   0   0
192   0   0
173   0   0
152   0   0
130   0   0
109   0   0
 89   0   0
 71   0   0
255 255 255
255 255 255
255 255 255
255 255 255
255 255 255
255 255 255
255 255 255
255 255 255
255 255 255
255 255 255
255 255 255
255 255 255
255 255 255
255 255 255
255 255 255
255 255 255
255 255 255
255 255 255
255 255 255
255 255 255
255 255 255
255 255 255
255 255 255
255 255 255
255 255 255
255 255 255
255 255 255
255 255 255
255 255 255
255 255 255
255 255 255
255 255 255
255 255 255
255 255 255
255 255 255
255 255 255
255 255 255
255 255 255
255 255 255
255 255 255
255 255 255
255 255 255
255 255 255
255 255 255
255 255 255
255 255 255
255 255 255
255 255 255
255 255 255
255 255 255
255 255 255
255 255 255
255 255 255
255 255 255
255 255 255
255 255 255
255 255 255
255 255 255
255 255 255
255 255 255
255 255 255
255 255 255
255 255 255
255 255 255
255 150   0
255 255 255
255 255 255
255 255 255
255 255 255
255 255 255
255 255 255
255 255 255
255 255 255
255 255 255
255 255 255
255 255 255
255 255 255
255 255 255
255 255 255
255 255 255
255 255 255
255 255 255
255 255 255
  0   0   0
  0   0   0
  0   0   0
  0   0   0
255 255 255
255 255 255
255 255 255
255 255 255
255 255 255
255 255 255
255 255 255
255 255 255
255 255 255
255 255 255
 64   0   0
 65   0   0
 65   0   0
 66   0   0
 66   0   0
 66   0   0
 65   0   0
255 150   0
255 255 255
255 255 255
255 255 255
255 255 255
255 255 255
255 255 255
255 255 255
255 255 255
255 255 255
255 255 255
255 255 255
255 255 255
255 255 255
255 255 255
255 255 255
255 255 255
255 255 255
255 255 255
255 255 255
255 255 255
255 255 255
255 255 255
255 255 255
255 255 255
255 255 255
255 255 255
255 255 255
255 255 255
255 255 255
255 255 255
255 255 255
255 255 255
255 255 255
255 255 255
255 255 255
255 255 255
255 255 255
255 255 255
255 255 255
255 255 255
255 255 255
255 255 255
255 255 255
255 255 255
255 255 255
 65   0   0
 66   0   0
 67   0   0
 68   0   0
 69   0   0
 70   0   0
 72   0   0
 74   0   0
 75   0   0
 77   0   0
 79   0   0
 81   0   0
 84   0   0
 87   0   0
 90   0   0
 93   0   0
 97   0   0
101   0   0
107   0   0
113   0   0
120   0   0
128   0   0
137   0   0
146   0   0
154   0   0
160   0   0
161   0   0
153   0   0
126   0   0
  0   0 110
  0   0 174
  0   0 211
  0   0 237
  0   0 251
  0   0 255
  0   0 246
  0   0 224
  0   0 181
 85   0   0
180   0   0
208   0   0
217   0   0
214   0   0
204   0   0
188   0   0
169   0   0
148   0   0
126   0   0
105   0   0
 85   0   0
 67   0   0
255 255 255
255 255 255
255 255 255
255 255 255
255 255 255
255 255 255
255 255 255
255 255 255
255 255 255
255 255 255
255 255 255
255 255 255
255 255 255
255 255 255
255 255 255
255 255 255
255 255 255
255 255 255
255 255 255
255 255 255
255 255 255
255 255 255
255 255 255
255 255 255
255 255 255
255 255 255
255 255 255
255 255 255
255 255 255
255 255 255
255 255 255
255 255 255
255 255 255
255 255 255
255 255 255
255 255 255
255 255 255
255 255 255
255 255 255
255 255 255
255 255 255
255 255 255
255 255 255
255 255 255
255 255 255
255 255 255
255 255 255
255 255 255
255 255 255
255 255 255
255 255 255
255 255 255
255 255 255
255 255 255
255 255 255
255 255 255
255 255 255
255 255 255
255 255 255
255 255 255
255 255 255
255 255 255
255 255 255
255 255 255
255 150   0
255 255 255
255 255 255
255 255 255
255 255 255
255 255 255
255 255 255
255 255 255
255 255 255
255 255 255
255 255 255
255 255 255
255 255 255
255 255 255
255 255 255
255 255 255
255 255 255
255 255 255
255 255 255
  0   0   0
  0   0   0
  0   0   0
  0   0   0
255 255 255
255 255 255
255 255 255
255 255 255
255 255 255
255 255 255
255 255 255
255 255 255
255 255 255
255 255 255
 65   0   0
 66   0   0
 66   0   0
 67   0   0
 67   0   0
 66   0   0
 66   0   0
255 150   0
255 255 255
255 255 255
255 255 255
255 255 255
255 255 255
255 255 255
255 255 255
255 255 255
255 255 255
255 255 255
255 255 255
255 255 255
255 255 255
255 255 255
255 255 255
255 255 255
255 255 255
255 255 255
255 255 255
255 255 255
255 255 255
255 255 255
255 255 255
255 255 255
255 255 255
255 255 255
255 255 255
255 255 255
255 255 255
255 255 255
255 255 255
255 255 255
255 255 255
255 255 255
255 255 255
255 255 255
255 255 255
255 255 255
255 255 255
255 255 255
255 255 255
255 255 255
255 255 255
255 255 255
 64   0   0
 65   0   0
 66   0   0
 67   0   0
 69   0   0
 70   0   0
 71   0   0
 73   0   0
 74   0   0
 76   0   0
 78   0   0
 80   0   0
 82   0   0
 85   0   0
 88   0   0
 91   0   0
 94   0   0
 99   0   0
103   0   0
109   0   0
115   0   0
123   0   0
131   0   0
140   0   0
149   0   0
156   0   0
161   0   0
160   0   0
148   0   0
108   0   0
  0   0 134
  0   0 186
  0   0 219
  0   0 242
  0   0 253
  0   0 254
  0   0 242
  0   0 216
  0   0 164
129   0   0
190   0   0
211   0   0
217   0   0
213   0   0
201   0   0
184   0   0
164   0   0
143   0   0
121   0   0
100   0   0
 81   0   0
255 255 255
255 255 255
255 255 255
255 255 255
255 255 255
255 255 255
255 255 255
255 255 255
255 255 255
255 255 255
255 255 255
255 255 255
255 255 255
255 255 255
255 255 255
255 255 255
255 255 255
255 255 255
255 255 255
255 255 255
255 255 255
255 255 255
255 255 255
255 255 255
255 255 255
255 255 255
255 255 255
255 255 255
255 255 255
255 255 255
255 255 255
255 255 255
255 255 255
255 255 255
255 255 255
255 255 255
255 255 255
255 255 255
255 255 255
255 255 255
255 255 255
255 255 255
255 255 255
255 255 255
255 255 255
255 255 255
255 255 255
255 255 255
255 255 255
255 255 255
255 255 255
255 255 255
255 255 255
255 255 255
255 255 255
255 255 255
255 255 255
255 255 255
255 255 255
255 255 255
255 255 255
255 255 255
255 255 255
255 255 255
255 255 255
255 150   0
255 255 255
255 255 255
255 255 255
255 255 255
255 255 255
255 255 255
255 255 255
255 255 255
255 255 255
255 255 255
255 255 255
255 255 255
255 255 255
255 255 255
255 255 255
255 255 255
255 255 255
255 255 255
  0   0   0
  0   0   0
  0   0   0
  0   0   0
255 255 255
255 255 255
255 255 255
255 255 255
255 255 255
255 255 255
255 255 255
255 255 255
255 255 255
 64   0   0
 66   0   0
 67   0   0
 67   0   0
 67   0   0
 67   0   0
 67   0   0
 66   0   0
255 150   0
255 255 255
255 255 255
255 255 255
255 255 255
255 255 255
255 255 255
255 255 255
255 255 255
255 255 255
255 255 255
255 255 255
255 255 255
255 255 255
255 255 255
255 255 255
255 255 255
255 255 255
255 255 255
255 255 255
255 255 255
255 255 255
255 255 255
255 255 255
255 255 255
255 255 255
255 255 255
255 255 255
255 255 255
255 255 255
255 255 255
255 255 255
255 255 255
255 255 255
255 255 255
255 255 255
255 255 255
255 255 255
255 255 255
255 255 255
255 255 255
255 255 255
255 255 255
255 255 255
255 255 255
 65   0   0
 66   0   0
 67   0   0
 68   0   0
 69   0   0
 71   0   0
 72   0   0
 74   0   0
 75   0   0
 77   0   0
 79   0   0
 81   0   0
 83   0   0
 86   0   0
 89   0   0
 92   0   0
 96   0   0
100   0   0
105   0   0
111   0   0
118   0   0
126   0   0
134   0   0
143   0   0
151   0   0
158   0   0
161   0   0
157   0   0
140   0   0
255 255 255
  0   0 153
  0   0 197
  0   0 227
  0   0 246
  0   0 255
  0   0 252
  0   0 237
  0   0 205
  0   0 141
153   0   0
197   0   0
214   0   0
217   0   0
210   0   0
197   0   0
180   0   0
159   0   0
138   0   0
116   0   0
 96   0   0
 77   0   0
255 255 255
255 255 255
255 255 255
255 255 255
255 255 255
255 255 255
255 255 255
255 255 255
255 255 255
255 255 255
255 255 255
255 255 255
255 255 255
255 255 255
255 255 255
255 255 255
255 255 255
255 255 255
255 255 255
255 255 255
255 255 255
255 255 255
255 255 255
255 255 255
255 255 255
255 255 255
255 255 255
255 255 255
255 255 255
255 255 255
255 255 255
255 255 255
255 255 255
255 255 255
255 255 255
255 255 255
255 255 255
255 255 255
255 255 255
255 255 255
255 255 255
255 255 255
255 255 255
255 255 255
255 255 255
255 255 255
255 255 255
255 255 255
255 255 255
255 255 255
255 255 255
255 255 255
255 255 255
255 255 255
255 255 255
255 255 255
255 255 255
255 255 255
255 255 255
255 255 255
255 255 255
255 255 255
255 255 255
255 255 255
255 255 255
255 150   0
255 255 255
255 255 255
255 255 255
255 255 255
255 255 255
255 255 255
255 255 255
255 255 255
255 255 255
255 255 255
255 255 255
255 255 255
255 255 255
255 255 255
255 255 255
255 255 255
255 255 255
255 255 255
  0   0   0
  0   0   0
  0   0   0
  0   0   0
255 255 255
255 255 255
255 255 255
255 255 255
255 255 255
255 255 255
255 255 255
255 255 255
255 255 255
 65   0   0
 67   0   0
 68   0   0
 68   0   0
 68   0   0
 68   0   0
 68   0   0
 67   0   0
255 150   0
255 255 255
255 255 255
255 255 255
255 255 255
255 255 255
255 255 255
255 255 255
255 255 255
255 255 255
255 255 255
255 255 255
255 255 255
255 255 255
255 255 255
255 255 255
255 255 255
255 255 255
255 255 255
255 255 255
255 255 255
255 255 255
255 255 255
255 255 255
255 255 255
255 255 255
255 255 255
255 255 255
255 255 255
255 255 255
255 255 255
255 255 255
255 255 255
255 255 255
255 255 255
255 255 255
255 255 255
255 255 255
255 255 255
255 255 255
255 255 255
255 255 255
255 255 255
255 255 255
 65   0   0
 66   0   0
 67   0   0
 68   0   0
 69   0   0
 70   0   0
 71   0   0
 73   0   0
 74   0   0
 76   0   0
 78   0   0
 80   0   0
 82   0   0
 85   0   0
 87   0   0
 90   0   0
 94   0   0
 98   0   0
102   0   0
108   0   0
114   0   0
121   0   0
129   0   0
137   0   0
146   0   0
154   0   0
160   0   0
161   0   0
154   0   0
128   0   0
  0   0 102
  0   0 170
  0   0 208
  0   0 234
  0   0 250
  0   0 255
  0   0 249
  0   0 229
  0   0 192
  0   0 100
170   0   0
204   0   0
216   0   0
216   0   0
207   0   0
193   0   0
175   0   0
154   0   0
132   0   0
111   0   0
 91   0   0
 73   0   0
255 255 255
255 255 255
255 255 255
255 255 255
255 255 255
255 255 255
255 255 255
255 255 255
255 255 255
255 255 255
255 255 255
255 255 255
255 255 255
255 255 255
255 255 255
255 255 255
255 255 255
255 255 255
255 255 255
255 255 255
255 255 255
255 255 255
255 255 255
255 255 255
255 255 255
255 255 255
255 255 255
255 255 255
255 255 255
255 255 255
255 255 255
255 255 255
255 255 255
255 255 255
255 255 255
255 255 255
255 255 255
255 255 255
255 255 255
255 255 255
255 255 255
255 255 255
255 255 255
255 255 255
255 255 255
255 255 255
255 255 255
255 255 255
255 255 255
255 255 255
255 255 255
255 255 255
255 255 255
255 255 255
255 255 255
255 255 255
255 255 255
255 255 255
255 255 255
255 255 255
255 255 255
255 255 255
255 255 255
255 255 255
255 255 255
255 150   0
255 255 255
255 255 255
255 255 255
255 255 255
255 255 255
255 255 255
255 255 255
255 255 255
255 255 255
255 255 255
255 255 255
255 255 255
255 255 255
255 255 255
255 255 255
255 255 255
255 255 255
255 255 255
  0   0   0
  0   0   0
  0   0   0
  0   0   0
255 255 255
255 255 255
255 255 255
255 255 255
255 255 255
255 255 255
255 255 255
255 255 255
255 255 255
 66   0   0
 68   0   0
 69   0   0
 69   0   0
 69   0   0
 69   0   0
 68   0   0
 67   0   0
255 150   0
255 255 255
255 255 255
255 255 255
255 255 255
255 255 255
255 255 255
255 255 255
255 255 255
255 255 255
255 255 255
255 255 255
255 255 255
255 255 255
255 255 255
255 255 255
255 255 255
255 255 255
255 255 255
255 255 255
255 255 255
255 255 255
255 255 255
255 255 255
255 255 255
255 255 255
255 255 255
255 255 255
255 255 255
255 255 255
255 255 255
255 255 255
255 255 255
255 255 255
255 255 255
255 255 255
255 255 255
255 255 255
255 255 255
255 255 255
255 255 255
255 255 255
255 255 255
 65   0   0
 65   0   0
 66   0   0
 67   0   0
 68   0   0
 70   0   0
 71   0   0
 72   0   0
 74   0   0
 75   0   0
 77   0   0
 79   0   0
 81   0   0
 84   0   0
 86   0   0
 89   0   0
 92   0   0
 96   0   0
100   0   0
105   0   0
110   0   0
117   0   0
124   0   0
132   0   0
141   0   0
149   0   0
157   0   0
161   0   0
159   0   0
147   0   0
107   0   0
  0   0 133
  0   0 184
  0   0 218
  0   0 240
  0   0 253
  0   0 254
  0   0 244
  0   0 220
  0   0 175
106   0   0
183   0   0
209   0   0
217   0   0
214   0   0
204   0   0
188   0   0
169   0   0
148   0   0
127   0   0
106   0   0
 86   0   0
 69   0   0
255 255 255
255 255 255
255 255 255
255 255 255
255 255 255
255 255 255
255 255 255
255 255 255
255 255 255
255 255 255
255 255 255
255 255 255
255 255 255
255 255 255
255 255 255
255 255 255
255 255 255
255 255 255
255 255 255
255 255 255
255 255 255
255 255 255
255 255 255
255 255 255
255 255 255
255 255 255
255 255 255
255 255 255
255 255 255
255 255 255
255 255 255
255 255 255
255 255 255
255 255 255
255 255 255
255 255 255
255 255 255
255 255 255
255 255 255
255 255 255
255 255 255
255 255 255
255 255 255
255 255 255
255 255 255
255 255 255
255 255 255
255 255 255
255 255 255
255 255 255
255 255 255
255 255 255
255 255 255
255 255 255
255 255 255
255 255 255
255 255 255
255 255 255
255 255 255
255 255 255
255 255 255
255 255 255
255 255 255
255 255 255
255 255 255
255 150   0
255 255 255
255 255 255
255 255 255
255 255 255
255 255 255
255 255 255
255 255 255
255 255 255
255 255 255
255 255 255
255 255 255
255 255 255
255 255 255
255 255 255
255 255 255
255 255 255
255 255 255
255 255 255
  0   0   0
  0   0   0
  0   0   0
  0   0   0
255 255 255
255 255 255
255 255 255
255 255 255
255 255 255
255 255 255
255 255 255
255 255 255
 65   0   0
 67   0   0
 69   0   0
 70   0   0
 70   0   0
 70   0   0
 70   0   0
 69   0   0
 68   0   0
255 150   0
255 255 255
255 255 255
255 255 255
255 255 255
255 255 255
255 255 255
255 255 255
255 255 255
255 255 255
255 255 255
255 255 255
255 255 255
255 255 255
255 255 255
255 255 255
255 255 255
255 255 255
255 255 255
255 255 255
255 255 255
255 255 255
255 255 255
255 255 255
255 255 255
255 255 255
255 255 255
255 255 255
255 255 255
255 255 255
255 255 255
255 255 255
255 255 255
255 255 255
255 255 255
255 255 255
255 255 255
255 255 255
255 255 255
255 255 255
255 255 255
255 255 255
 64   0   0
 65   0   0
 66   0   0
 67   0   0
 68   0   0
 69   0   0
 71   0   0
 72   0   0
 73   0   0
 75   0   0
 77   0   0
 78   0   0
 80   0   0
 83   0   0
 85   0   0
 88   0   0
 91   0   0
 94   0   0
 98   0   0
102   0   0
107   0   0
113   0   0
120   0   0
128   0   0
136   0   0
145   0   0
153   0   0
159   0   0
161   0   0
156   0   0
138   0   0
255 255 255
  0   0 155
  0   0 198
  0   0 227
  0   0 246
  0   0 254
  0   0 252
  0   0 238
  0   0 209
  0   0 151
144   0   0
194   0   0
213   0   0
217   0   0
212   0   0
200   0   0
183   0   0
163   0   0
142   0   0
121   0   0
100   0   0
 81   0   0
 64   0   0
255 255 255
255 255 255
255 255 255
255 255 255
255 255 255
255 255 255
255 255 255
255 255 255
255 255 255
255 255 255
255 255 255
255 255 255
255 255 255
255 255 255
255 255 255
255 255 255
255 255 255
255 255 255
255 255 255
255 255 255
255 255 255
255 255 255
255 255 255
255 255 255
255 255 255
255 255 255
255 255 255
255 255 255
255 255 255
255 255 255
255 255 255
255 255 255
255 255 255
255 255 255
255 255 255
255 255 255
255 255 255
255 255 255
255 255 255
255 255 255
255 255 255
255 255 255
255 255 255
255 255 255
255 255 255
255 255 255
255 255 255
255 255 255
255 255 255
255 255 255
255 255 255
255 255 255
255 255 255
255 255 255
255 255 255
255 255 255
255 255 255
255 255 255
255 255 255
255 255 255
255 255 255
255 255 255
255 255 255
255 255 255
255 255 255
255 150   0
255 255 255
255 255 255
255 255 255
255 255 255
255 255 255
255 255 255
255 255 255
255 255 255
255 255 255
255 255 255
255 255 255
255 255 255
255 255 255
255 255 255
255 255 255
255 255 255
255 255 255
255 255 255
  0   0   0
  0   0   0
  0   0   0
  0   0   0
255 255 255
255 255 255
255 255 255
255 255 255
255 255 255
255 255 255
255 255 255
255 255 255
 66   0   0
 68   0   0
 70   0   0
 71   0   0
 71   0   0
 71   0   0
 71   0   0
 70   0   0
 68   0   0
255 150   0
 64   0   0
255 255 255
255 255 255
255 255 255
255 255 255
255 255 255
255 255 255
255 255 255
255 255 255
255 255 255
255 255 255
255 255 255
255 255 255
255 255 255
255 255 255
255 255 255
255 255 255
255 255 255
255 255 255
255 255 255
255 255 255
255 255 255
255 255 255
255 255 255
255 255 255
255 255 255
255 255 255
255 255 255
255 255 255
255 255 255
255 255 255
255 255 255
255 255 255
255 255 255
255 255 255
255 255 255
255 255 255
255 255 255
255 255 255
255 255 255
 64   0   0
 65   0   0
 66   0   0
 67   0   0
 68   0   0
 69   0   0
 70   0   0
 72   0   0
 73   0   0
 74   0   0
 76   0   0
 78   0   0
 80   0   0
 82   0   0
 84   0   0
 86   0   0
 89   0   0
 92   0   0
 96   0   0
100   0   0
105   0   0
110   0   0
116   0   0
123   0   0
131   0   0
140   0   0
148   0   0
156   0   0
160   0   0
160   0   0
151   0   0
122   0   0
  0   0 114
  0   0 174
  0   0 210
  0   0 235
  0   0 250
  0   0 255
  0   0 249
  0   0 230
  0   0 194
  0   0 110
167   0   0
202   0   0
215   0   0
216   0   0
209   0   0
195   0   0
177   0   0
157   0   0
136   0   0
115   0   0
 95   0   0
 76   0   0
255 255 255
255 255 255
255 255 255
255 255 255
255 255 255
255 255 255
255 255 255
255 255 255
255 255 255
255 255 255
255 255 255
255 255 255
255 255 255
255 255 255
255 255 255
255 255 255
255 255 255
255 255 255
255 255 255
255 255 255
255 255 255
255 255 255
255 255 255
255 255 255
255 255 255
255 255 255
255 255 255
255 255 255
255 255 255
255 255 255
255 255 255
255 255 255
255 255 255
255 255 255
255 255 255
255 255 255
255 255 255
255 255 255
255 255 255
255 255 255
255 255 255
255 255 255
255 255 255
255 255 255
255 255 255
255 255 255
255 255 255
255 255 255
255 255 255
255 255 255
255 255 255
255 255 255
255 255 255
255 255 255
255 255 255
255 255 255
255 255 255
255 255 255
255 255 255
255 255 255
255 255 255
255 255 255
255 255 255
255 255 255
255 255 255
255 255 255
255 150   0
255 255 255
255 255 255
255 255 255
255 255 255
255 255 255
255 255 255
255 255 255
255 255 255
255 255 255
255 255 255
255 255 255
255 255 255
255 255 255
255 255 255
255 255 255
255 255 255
255 255 255
255 255 255
  0   0   0
  0   0   0
  0   0   0
  0   0   0
255 255 255
255 255 255
255 255 255
255 255 255
255 255 255
255 255 255
255 255 255
 64   0   0
 67   0   0
 70   0   0
 71   0   0
 72   0   0
 73   0   0
 73   0   0
 72   0   0
 71   0   0
 69   0   0
255 150   0
 65   0   0
255 255 255
255 255 255
255 255 255
255 255 255
255 255 255
255 255 255
255 255 255
255 255 255
255 255 255
255 255 255
255 255 255
255 255 255
255 255 255
255 255 255
255 255 255
255 255 255
255 255 255
255 255 255
255 255 255
255 255 255
255 255 255
255 255 255
255 255 255
255 255 255
255 255 255
255 255 255
255 255 255
255 255 255
255 255 255
255 255 255
255 255 255
255 255 255
255 255 255
255 255 255
255 255 255
255 255 255
255 255 255
255 255 255
 65   0   0
 65   0   0
 66   0   0
 67   0   0
 68   0   0
 69   0   0
 70   0   0
 71   0   0
 73   0   0
 74   0   0
 76   0   0
 77   0   0
 79   0   0
 81   0   0
 83   0   0
 85   0   0
 88   0   0
 91   0   0
 94   0   0
 98   0   0
102   0   0
107   0   0
113   0   0
120   0   0
127   0   0
136   0   0
144   0   0
152   0   0
158   0   0
161   0   0
158   0   0
142   0   0
 88   0   0
  0   0 144
  0   0 190
  0   0 221
  0   0 242
  0   0 253
  0   0 254
  0   0 243
  0   0 219
  0   0 174
106   0   0
183   0   0
208   0   0
217   0   0
215   0   0
205   0   0
190   0   0
171   0   0
151   0   0
129   0   0
109   0   0
 89   0   0
 71   0   0
255 255 255
255 255 255
255 255 255
255 255 255
255 255 255
255 255 255
255 255 255
255 255 255
255 255 255
255 255 255
255 255 255
255 255 255
255 255 255
255 255 255
255 255 255
255 255 255
255 255 255
255 255 255
255 255 255
255 255 255
255 255 255
255 255 255
255 255 255
255 255 255
255 255 255
255 255 255
255 255 255
255 255 255
255 255 255
255 255 255
255 255 255
255 255 255
255 255 255
255 255 255
255 255 255
255 255 255
255 255 255
255 255 255
255 255 255
255 255 255
255 255 255
255 255 255
255 255 255
255 255 255
255 255 255
255 255 255
255 255 255
255 255 255
255 255 255
255 255 255
255 255 255
255 255 255
255 255 255
255 255 255
255 255 255
255 255 255
255 255 255
255 255 255
255 255 255
255 255 255
255 255 255
255 255 255
255 255 255
255 255 255
255 255 255
255 255 255
255 150   0
255 255 255
255 255 255
255 255 255
255 255 255
255 255 255
255 255 255
255 255 255
255 255 255
255 255 255
255 255 255
255 255 255
255 255 255
255 255 255
255 255 255
255 255 255
255 255 255
255 255 255
255 255 255
  0   0   0
  0   0   0
  0   0   0
  0   0   0
255 255 255
255 255 255
255 255 255
255 255 255
255 255 255
255 255 255
255 255 255
 66   0   0
 69   0   0
 71   0   0
 73   0   0
 74   0   0
 74   0   0
 74   0   0
 73   0   0
 71   0   0
 70   0   0
255 150   0
 65   0   0
255 255 255
255 255 255
255 255 255
255 255 255
255 255 255
255 255 255
255 255 255
255 255 255
255 255 255
255 255 255
255 255 255
255 255 255
255 255 255
255 255 255
255 255 255
255 255 255
255 255 255
255 255 255
255 255 255
255 255 255
255 255 255
255 255 255
255 255 255
255 255 255
255 255 255
255 255 255
255 255 255
255 255 255
255 255 255
255 255 255
255 255 255
255 255 255
255 255 255
255 255 255
255 255 255
255 255 255
255 255 255
 65   0   0
 65   0   0
 66   0   0
 67   0   0
 68   0   0
 69   0   0
 70   0   0
 71   0   0
 72   0   0
 74   0   0
 75   0   0
 77   0   0
 78   0   0
 80   0   0
 82   0   0
 85   0   0
 87   0   0
 90   0   0
 93   0   0
 97   0   0
101   0   0
105   0   0
110   0   0
117   0   0
124   0   0
132   0   0
140   0   0
148   0   0
155   0   0
160   0   0
160   0   0
153   0   0
128   0   0
  0   0  99
  0   0 167
  0   0 205
  0   0 231
  0   0 248
  0   0 255
  0   0 251
  0   0 236
  0   0 205
  0   0 145
148   0   0
195   0   0
213   0   0
217   0   0
212   0   0
200   0   0
184   0   0
165   0   0
144   0   0
123   0   0
102   0   0
 83   0   0
 66   0   0
255 255 255
255 255 255
255 255 255
255 255 255
255 255 255
255 255 255
255 255 255
255 255 255
255 255 255
255 255 255
255 255 255
255 255 255
255 255 255
255 255 255
255 255 255
255 255 255
255 255 255
255 255 255
255 255 255
255 255 255
255 255 255
255 255 255
255 255 255
255 255 255
255 255 255
255 255 255
255 255 255
255 255 255
255 255 255
255 255 255
255 255 255
255 255 255
255 255 255
255 255 255
255 255 255
255 255 255
255 255 255
255 255 255
255 255 255
255 255 255
255 255 255
255 255 255
255 255 255
255 255 255
255 255 255
255 255 255
255 255 255
255 255 255
255 255 255
255 255 255
255 255 255
255 255 255
255 255 255
255 255 255
255 255 255
255 255 255
255 255 255
255 255 255
255 255 255
255 255 255
255 255 255
255 255 255
255 255 255
255 255 255
255 255 255
255 255 255
255 150   0
255 255 255
255 255 255
255 255 255
255 255 255
255 255 255
255 255 255
255 255 255
255 255 255
255 255 255
255 255 255
255 255 255
255 255 255
255 255 255
255 255 255
255 255 255
255 255 255
255 255 255
255 255 255
  0   0   0
  0   0   0
  0   0   0
  0   0   0
255 255 255
255 255 255
255 255 255
255 255 255
255 255 255
255 255 255
255 255 255
 67   0   0
 71   0   0
 73   0   0
 74   0   0
 75   0   0
 75   0   0
 75   0   0
 74   0   0
 72   0   0
 70   0   0
255 150   0
 66   0   0
255 255 255
255 255 255
255 255 255
255 255 255
255 255 255
255 255 255
255 255 255
255 255 255
255 255 255
255 255 255
255 255 255
255 255 255
255 255 255
255 255 255
255 255 255
255 255 255
255 255 255
255 255 255
255 255 255
255 255 255
255 255 255
255 255 255
255 255 255
255 255 255
255 255 255
255 255 255
255 255 255
255 255 255
255 255 255
255 255 255
255 255 255
255 255 255
255 255 255
255 255 255
255 255 255
 64   0   0
 65   0   0
 66   0   0
 66   0   0
 67   0   0
 68   0   0
 69   0   0
 70   0   0
 71   0   0
 72   0   0
 74   0   0
 75   0   0
 76   0   0
 78   0   0
 80   0   0
 82   0   0
 84   0   0
 86   0   0
 89   0   0
 92   0   0
 95   0   0
 99   0   0
103   0   0
108   0   0
114   0   0
121   0   0
128   0   0
136   0   0
144   0   0
152   0   0
158   0   0
161   0   0
158   0   0
144   0   0
 98   0   0
  0   0 137
  0   0 185
  0   0 217
  0   0 239
  0   0 252
  0   0 255
  0   0 246
  0   0 226
  0   0 187
  0   0  82
172   0   0
204   0   0
216   0   0
216   0   0
209   0   0
195   0   0
177   0   0
158   0   0
137   0   0
116   0   0
 96   0   0
 78   0   0
255 255 255
255 255 255
255 255 255
255 255 255
255 255 255
255 255 255
255 255 255
255 255 255
255 255 255
255 255 255
255 255 255
255 255 255
255 255 255
255 255 255
255 255 255
255 255 255
255 255 255
255 255 255
255 255 255
255 255 255
255 255 255
255 255 255
255 255 255
255 255 255
255 255 255
255 255 255
255 255 255
255 255 255
255 255 255
255 255 255
255 255 255
255 255 255
255 255 255
255 255 255
255 255 255
255 255 255
255 255 255
255 255 255
255 255 255
255 255 255
255 255 255
255 255 255
255 255 255
255 255 255
255 255 255
255 255 255
255 255 255
255 255 255
255 255 255
255 255 255
255 255 255
255 255 255
255 255 255
255 255 255
255 255 255
255 255 255
255 255 255
255 255 255
255 255 255
255 255 255
255 255 255
255 255 255
255 255 255
255 255 255
255 255 255
255 255 255
255 255 255
255 150   0
255 255 255
255 255 255
255 255 255
255 255 255
255 255 255
255 255 255
255 255 255
255 255 255
255 255 255
255 255 255
255 255 255
255 255 255
255 255 255
255 255 255
255 255 255
255 255 255
255 255 255
255 255 255
  0   0   0
  0   0   0
  0   0   0
  0   0   0
255 255 255
255 255 255
255 255 255
255 255 255
255 255 255
255 255 255
 66   0   0
 69   0   0
 72   0   0
 75   0   0
 76   0   0
 77   0   0
 77   0   0
 76   0   0
 75   0   0
 73   0   0
 71   0   0
255 150   0
 66   0   0
 64   0   0
255 255 255
255 255 255
255 255 255
255 255 255
255 255 255
255 255 255
255 255 255
255 255 255
255 255 255
255 255 255
255 255 255
255 255 255
255 255 255
255 255 255
255 255 255
255 255 255
255 255 255
255 255 255
255 255 255
255 255 255
255 255 255
255 255 255
255 255 255
255 255 255
255 255 255
255 255 255
255 255 255
255 255 255
255 255 255
255 255 255
255 255 255
255 255 255
 64   0   0
 65   0   0
 65   0   0
 66   0   0
 67   0   0
 67   0   0
 68   0   0
 69   0   0
 70   0   0
 71   0   0
 72   0   0
 74   0   0
 75   0   0
 76   0   0
 78   0   0
 80   0   0
 81   0   0
 84   0   0
 86   0   0
 88   0   0
 91   0   0
 94   0   0
 98   0   0
102   0   0
106   0   0
112   0   0
118   0   0
125   0   0
133   0   0
141   0   0
149   0   0
156   0   0
160   0   0
160   0   0
153   0   0
129   0   0
  0   0  92
  0   0 163
  0   0 202
  0   0 229
  0   0 246
  0   0 254
  0   0 252
  0   0 239
  0   0 212
  0   0 161
129   0   0
188   0   0
210   0   0
217   0   0
214   0   0
204   0   0
189   0   0
170   0   0
150   0   0
129   0   0
109   0   0
 89   0   0
 72   0   0
255 255 255
255 255 255
255 255 255
255 255 255
255 255 255
255 255 255
255 255 255
255 255 255
255 255 255
255 255 255
255 255 255
255 255 255
255 255 255
255 255 255
255 255 255
255 255 255
255 255 255
255 255 255
255 255 255
255 255 255
255 255 255
255 255 255
255 255 255
255 255 255
255 255 255
255 255 255
255 255 255
255 255 255
255 255 255
255 255 255
255 255 255
255 255 255
255 255 255
255 255 255
255 255 255
255 255 255
255 255 255
255 255 255
255 255 255
255 255 255
255 255 255
255 255 255
255 255 255
255 255 255
255 255 255
255 255 255
255 255 255
255 255 255
255 255 255
255 255 255
255 255 255
255 255 255
255 255 255
255 255 255
255 255 255
255 255 255
255 255 255
255 255 255
255 255 255
255 255 255
255 255 255
255 255 255
255 255 255
255 255 255
255 255 255
255 255 255
255 255 255
255 150   0
255 255 255
255 255 255
255 255 255
255 255 255
255 255 255
255 255 255
255 255 255
255 255 255
255 255 255
255 255 255
255 255 255
255 255 255
255 255 255
255 255 255
255 255 255
255 255 255
255 255 255
255 255 255
  0   0   0
  0   0   0
  0   0   0
  0   0   0
255 255 255
255 255 255
255 255 255
255 255 255
255 255 255
255 255 255
 68   0   0
 72   0   0
 75   0   0
 77   0   0
 78   0   0
 79   0   0
 78   0   0
 77   0   0
 76   0   0
 74   0   0
 71   0   0
255 150   0
 67   0   0
 65   0   0
 64   0   0
255 255 255
255 255 255
255 255 255
255 255 255
255 255 255
255 255 255
255 255 255
255 255 255
255 255 255
255 255 255
255 255 255
255 255 255
255 255 255
255 255 255
255 255 255
255 255 255
255 255 255
255 255 255
255 255 255
255 255 255
255 255 255
255 255 255
255 255 255
255 255 255
255 255 255
255 255 255
255 255 255
255 255 255
255 255 255
255 255 255
 65   0   0
 65   0   0
 66   0   0
 66   0   0
 67   0   0
 68   0   0
 68   0   0
 69   0   0
 70   0   0
 71   0   0
 72   0   0
 74   0   0
 75   0   0
 76   0   0
 78   0   0
 79   0   0
 81   0   0
 83   0   0
 85   0   0
 88   0   0
 90   0   0
 93   0   0
 97   0   0
100   0   0
105   0   0
110   0   0
116   0   0
122   0   0
130   0   0
137   0   0
145   0   0
153   0   0
159   0   0
161   0   0
158   0   0
143   0   0
 97   0   0
  0   0 137
  0   0 184
  0   0 216
  0   0 238
  0   0 251
  0   0 255
  0   0 248
  0   0 229
  0   0 194
  0   0 117
163   0   0
200   0   0
214   0   0
217   0   0
211   0   0
199   0   0
182   0   0
163   0   0
142   0   0
121   0   0
101   0   0
 83   0   0
 66   0   0
255 255 255
255 255 255
255 255 255
255 255 255
255 255 255
255 255 255
255 255 255
255 255 255
255 255 255
255 255 255
255 255 255
255 255 255
255 255 255
255 255 255
255 255 255
255 255 255
255 255 255
255 255 255
255 255 255
255 255 255
255 255 255
255 255 255
255 255 255
255 255 255
255 255 255
255 255 255
255 255 255
255 255 255
255 255 255
255 255 255
255 255 255
255 255 255
255 255 255
255 255 255
255 255 255
255 255 255
255 255 255
255 255 255
255 255 255
255 255 255
255 255 255
255 255 255
255 255 255
255 255 255
255 255 255
255 255 255
255 255 255
255 255 255
255 255 255
255 255 255
255 255 255
255 255 255
255 255 255
255 255 255
255 255 255
255 255 255
255 255 255
255 255 255
255 255 255
255 255 255
255 255 255
255 255 255
255 255 255
255 255 255
255 255 255
255 255 255
255 255 255
255 150   0
255 255 255
255 255 255
255 255 255
255 255 255
255 255 255
255 255 255
255 255 255
255 255 255
255 255 255
255 255 255
255 255 255
255 255 255
255 255 255
255 255 255
255 255 255
255 255 255
255 255 255
255 255 255
  0   0   0
  0   0   0
  0   0   0
  0   0   0
255 255 255
255 255 255
255 255 255
255 255 255
255 255 255
 66   0   0
 70   0   0
 74   0   0
 77   0   0
 79   0   0
 80   0   0
 80   0   0
 80   0   0
 79   0   0
 77   0   0
 75   0   0
 72   0   0
255 150   0
 68   0   0
 66   0   0
 66   0   0
 65   0   0
 65   0   0
 65   0   0
 65   0   0
 65   0   0
 65   0   0
 64   0   0
 64   0   0
255 255 255
255 255 255
255 255 255
255 255 255
255 255 255
255 255 255
255 255 255
255 255 255
255 255 255
255 255 255
255 255 255
255 255 255
255 255 255
255 255 255
255 255 255
255 255 255
255 255 255
255 255 255
255 255 255
 64   0   0
 65   0   0
 65   0   0
 66   0   0
 66   0   0
 67   0   0
 67   0   0
 68   0   0
 69   0   0
 70   0   0
 71   0   0
 72   0   0
 73   0   0
 74   0   0
 75   0   0
 76   0   0
 78   0   0
 79   0   0
 81   0   0
 83   0   0
 85   0   0
 87   0   0
 90   0   0
 93   0   0
 96   0   0
 99   0   0
104   0   0
108   0   0
114   0   0
120   0   0
127   0   0
135   0   0
143   0   0
150   0   0
157   0   0
161   0   0
160   0   0
151   0   0
126   0   0
  0   0  99
  0   0 165
  0   0 202
  0   0 228
  0   0 246
  0   0 254
  0   0 253
  0   0 241
  0   0 216
  0   0 169
112   0   0
183   0   0
208   0   0
217   0   0
215   0   0
206   0   0
192   0   0
175   0   0
155   0   0
134   0   0
114   0   0
 94   0   0
 76   0   0
255 255 255
255 255 255
255 255 255
255 255 255
255 255 255
255 255 255
255 255 255
255 255 255
255 255 255
255 255 255
255 255 255
255 255 255
255 255 255
255 255 255
255 255 255
255 255 255
255 255 255
255 255 255
255 255 255
255 255 255
255 255 255
255 255 255
255 255 255
255 255 255
255 255 255
255 255 255
255 255 255
255 255 255
255 255 255
255 255 255
255 255 255
255 255 255
255 255 255
255 255 255
255 255 255
255 255 255
255 255 255
255 255 255
255 255 255
255 255 255
255 255 255
255 255 255
255 255 255
255 255 255
255 255 255
255 255 255
255 255 255
255 255 255
255 255 255
255 255 255
255 255 255
255 255 255
255 255 255
255 255 255
255 255 255
255 255 255
255 255 255
255 255 255
255 255 255
255 255 255
255 255 255
255 255 255
255 255 255
255 255 255
255 255 255
255 255 255
255 255 255
255 255 255
255 150   0
255 255 255
255 255 255
255 255 255
255 255 255
255 255 255
255 255 255
255 255 255
255 255 255
255 255 255
255 255 255
255 255 255
255 255 255
255 255 255
255 255 255
255 255 255
255 255 255
255 255 255
255 255 255
  0   0   0
  0   0   0
  0   0   0
  0   0   0
255 255 255
255 255 255
255 255 255
255 255 255
 65   0   0
 69   0   0
 73   0   0
 77   0   0
 79   0   0
 81   0   0
 82   0   0
 82   0   0
 81   0   0
 80   0   0
 78   0   0
 75   0   0
 73   0   0
255 150   0
 69   0   0
 68   0   0
 67   0   0
 67   0   0
 66   0   0
 66   0   0
 66   0   0
 66   0   0
 66   0   0
 66   0   0
 65   0   0
 65   0   0
 65   0   0
 64   0   0
255 255 255
255 255 255
255 255 255
255 255 255
255 255 255
255 255 255
255 255 255
255 255 255
255 255 255
255 255 255
255 255 255
255 255 255
255 255 255
 64   0   0
 65   0   0
 65   0   0
 65   0   0
 66   0   0
 66   0   0
 67   0   0
 67   0   0
 68   0   0
 69   0   0
 69   0   0
 70   0   0
 71   0   0
 72   0   0
 73   0   0
 74   0   0
 75   0   0
 76   0   0
 78   0   0
 79   0   0
 81   0   0
 83   0   0
 85   0   0
 87   0   0
 90   0   0
 92   0   0
 95   0   0
 99   0   0
103   0   0
107   0   0
112   0   0
118   0   0
125   0   0
132   0   0
140   0   0
148   0   0
154   0   0
159   0   0
161   0   0
156   0   0
140   0   0
 83   0   0
  0   0 142
  0   0 187
  0   0 217
  0   0 239
  0   0 251
  0   0 255
  0   0 248
  0   0 230
  0   0 197
  0   0 128
157   0   0
197   0   0
213   0   0
217   0   0
212   0   0
201   0   0
185   0   0
167   0   0
146   0   0
126   0   0
106   0   0
 87   0   0
 70   0   0
255 255 255
255 255 255
255 255 255
255 255 255
255 255 255
255 255 255
255 255 255
255 255 255
255 255 255
255 255 255
255 255 255
255 255 255
255 255 255
255 255 255
255 255 255
255 255 255
255 255 255
255 255 255
255 255 255
255 255 255
255 255 255
255 255 255
255 255 255
255 255 255
255 255 255
255 255 255
255 255 255
255 255 255
255 255 255
255 255 255
255 255 255
255 255 255
255 255 255
255 255 255
255 255 255
255 255 255
255 255 255
255 255 255
255 255 255
255 255 255
255 255 255
255 255 255
255 255 255
255 255 255
255 255 255
255 255 255
255 255 255
255 255 255
255 255 255
255 255 255
255 255 255
255 255 255
255 255 255
255 255 255
255 255 255
255 255 255
255 255 255
255 255 255
255 255 255
255 255 255
255 255 255
255 255 255
255 255 255
255 255 255
255 255 255
255 255 255
255 255 255
255 255 255
255 150   0
255 255 255
255 255 255
255 255 255
255 255 255
255 255 255
255 255 255
255 255 255
255 255 255
255 255 255
255 255 255
255 255 255
255 255 255
255 255 255
255 255 255
255 255 255
255 255 255
255 255 255
255 255 255
  0   0   0
  0   0   0
  0   0   0
  0   0   0
255 255 255
255 255 255
255 255 255
 65   0   0
 69   0   0
 73   0   0
 77   0   0
 80   0   0
 82   0   0
 84   0   0
 84   0   0
 84   0   0
 83   0   0
 81   0   0
 79   0   0
 76   0   0
 74   0   0
255 150   0
 70   0   0
 69   0   0
 69   0   0
 68   0   0
 68   0   0
 68   0   0
 68   0   0
 67   0   0
 67   0   0
 67   0   0
 66   0   0
 66   0   0
 66   0   0
 65   0   0
 65   0   0
 65   0   0
 65   0   0
 65   0   0
 65   0   0
 64   0   0
 64   0   0
 64   0   0
 65   0   0
 65   0   0
 65   0   0
 65   0   0
 65   0   0
 65   0   0
 66   0   0
 66   0   0
 66   0   0
 67   0   0
 67   0   0
 68   0   0
 68   0   0
 69   0   0
 70   0   0
 71   0   0
 71   0   0
 72   0   0
 73   0   0
 74   0   0
 76   0   0
 77   0   0
 78   0   0
 80   0   0
 81   0   0
 83   0   0
 85   0   0
 87   0   0
 89   0   0
 92   0   0
 95   0   0
 98   0   0
102   0   0
106   0   0
111   0   0
117   0   0
123   0   0
130   0   0
138   0   0
145   0   0
152   0   0
158   0   0
161   0   0
159   0   0
148   0   0
117   0   0
  0   0 114
  0   0 170
  0   0 205
  0   0 230
  0   0 247
  0   0 254
  0   0 253
  0   0 241
  0   0 216
  0   0 171
105   0   0
181   0   0
207   0   0
216   0   0
216   0   0
208   0   0
194   0   0
177   0   0
158   0   0
138   0   0
117   0   0
 98   0   0
 80   0   0
255 255 255
255 255 255
255 255 255
255 255 255
255 255 255
255 255 255
255 255 255
255 255 255
255 255 255
255 255 255
255 255 255
255 255 255
255 255 255
255 255 255
255 255 255
255 255 255
255 255 255
255 255 255
255 255 255
255 255 255
255 255 255
255 255 255
255 255 255
255 255 255
255 255 255
255 255 255
255 255 255
255 255 255
255 255 255
255 255 255
255 255 255
255 255 255
255 255 255
255 255 255
255 255 255
255 255 255
255 255 255
255 255 255
255 255 255
255 255 255
255 255 255
255 255 255
255 255 255
255 255 255
255 255 255
255 255 255
255 255 255
255 255 255
255 255 255
255 255 255
255 255 255
255 255 255
255 255 255
255 255 255
255 255 255
255 255 255
255 255 255
255 255 255
255 255 255
255 255 255
255 255 255
255 255 255
255 255 255
255 255 255
255 255 255
255 255 255
255 255 255
255 255 255
255 255 255
255 150   0
255 255 255
255 255 255
255 255 255
255 255 255
255 255 255
255 255 255
255 255 255
255 255 255
255 255 255
255 255 255
255 255 255
255 255 255
255 255 255
255 255 255
255 255 255
255 255 255
255 255 255
255 255 255
  0   0   0
  0   0   0
  0   0   0
  0   0   0
255 255 255
255 255 255
 66   0   0
 70   0   0
 73   0   0
 77   0   0
 80   0   0
 83   0   0
 85   0   0
 86   0   0
 86   0   0
 86   0   0
 84   0   0
 82   0   0
 80   0   0
 78   0   0
 75   0   0
255 150   0
 72   0   0
 71   0   0
 70   0   0
 70   0   0
 70   0   0
 69   0   0
 69   0   0
 69   0   0
 68   0   0
 68   0   0
 68   0   0
 67   0   0
 67   0   0
 67   0   0
 66   0   0
 66   0   0
 66   0   0
 66   0   0
 66   0   0
 66   0   0
 66   0   0
 66   0   0
 66   0   0
 66   0   0
 66   0   0
 66   0   0
 66   0   0
 67   0   0
 67   0   0
 67   0   0
 68   0   0
 68   0   0
 69   0   0
 69   0   0
 70   0   0
 70   0   0
 71   0   0
 72   0   0
 73   0   0
 74   0   0
 75   0   0
 76   0   0
 77   0   0
 78   0   0
 80   0   0
 81   0   0
 83   0   0
 85   0   0
 87   0   0
 89   0   0
 92   0   0
 95   0   0
 98   0   0
101   0   0
106   0   0
110   0   0
116   0   0
122   0   0
128   0   0
136   0   0
143   0   0
150   0   0
156   0   0
160   0   0
160   0   0
153   0   0
132   0   0
255 255 255
  0   0 153
  0   0 193
  0   0 221
  0   0 241
  0   0 252
  0   0 255
  0   0 248
  0   0 229
  0   0 196
  0   0 127
156   0   0
196   0   0
213   0   0
217   0   0
213   0   0
202   0   0
187   0   0
169   0   0
149   0   0
129   0   0
109   0   0
 90   0   0
 73   0   0
255 255 255
255 255 255
255 255 255
255 255 255
255 255 255
255 255 255
255 255 255
255 255 255
255 255 255
255 255 255
255 255 255
255 255 255
255 255 255
255 255 255
255 255 255
255 255 255
255 255 255
255 255 255
255 255 255
255 255 255
255 255 255
255 255 255
255 255 255
255 255 255
255 255 255
255 255 255
255 255 255
255 255 255
255 255 255
255 255 255
255 255 255
255 255 255
255 255 255
255 255 255
255 255 255
255 255 255
255 255 255
255 255 255
255 255 255
255 255 255
255 255 255
255 255 255
255 255 255
255 255 255
255 255 255
255 255 255
255 255 255
255 255 255
255 255 255
255 255 255
255 255 255
255 255 255
255 255 255
255 255 255
255 255 255
255 255 255
255 255 255
255 255 255
255 255 255
255 255 255
255 255 255
255 255 255
255 255 255
255 255 255
255 255 255
255 255 255
255 255 255
255 255 255
255 255 255
255 150   0
255 255 255
255 255 255
255 255 255
255 255 255
255 255 255
255 255 255
255 255 255
255 255 255
255 255 255
255 255 255
255 255 255
255 255 255
255 255 255
255 255 255
255 255 255
255 255 255
255 255 255
255 255 255
  0   0   0
  0   0   0
  0   0   0
  0   0   0
255 255 255
 67   0   0
 71   0   0
 75   0   0
 78   0   0
 82   0   0
 84   0   0
 87   0   0
 88   0   0
 89   0   0
 89   0   0
 88   0   0
 86   0   0
 84   0   0
 81   0   0
 79   0   0
 77   0   0
255 150   0
 74   0   0
 73   0   0
 72   0   0
 72   0   0
 71   0   0
 71   0   0
 71   0   0
 70   0   0
 70   0   0
 69   0   0
 69   0   0
 69   0   0
 68   0   0
 68   0   0
 68   0   0
 67   0   0
 67   0   0
 67   0   0
 67   0   0
 67   0   0
 67   0   0
 67   0   0
 67   0   0
 67   0   0
 67   0   0
 67   0   0
 68   0   0
 68   0   0
 68   0   0
 69   0   0
 69   0   0
 69   0   0
 70   0   0
 71   0   0
 71   0   0
 72   0   0
 73   0   0
 74   0   0
 74   0   0
 75   0   0
 77   0   0
 78   0   0
 79   0   0
 80   0   0
 82   0   0
 84   0   0
 85   0   0
 87   0   0
 90   0   0
 92   0   0
 95   0   0
 98   0   0
101   0   0
105   0   0
110   0   0
115   0   0
121   0   0
127   0   0
134   0   0
141   0   0
149   0   0
155   0   0
160   0   0
161   0   0
156   0   0
142   0   0
 96   0   0
  0   0 133
  0   0 180
  0   0 211
  0   0 234
  0   0 248
  0   0 255
  0   0 252
  0   0 239
  0   0 213
  0   0 167
112   0   0
182   0   0
207   0   0
216   0   0
216   0   0
208   0   0
195   0   0
179   0   0
160   0   0
140   0   0
119   0   0
100   0   0
 82   0   0
 66   0   0
255 255 255
255 255 255
255 255 255
255 255 255
255 255 255
255 255 255
255 255 255
255 255 255
255 255 255
255 255 255
255 255 255
255 255 255
255 255 255
255 255 255
255 255 255
255 255 255
255 255 255
255 255 255
255 255 255
255 255 255
255 255 255
255 255 255
255 255 255
255 255 255
255 255 255
255 255 255
255 255 255
255 255 255
255 255 255
255 255 255
255 255 255
255 255 255
255 255 255
255 255 255
255 255 255
255 255 255
255 255 255
255 255 255
255 255 255
255 255 255
255 255 255
255 255 255
255 255 255
255 255 255
255 255 255
255 255 255
255 255 255
255 255 255
255 255 255
255 255 255
255 255 255
255 255 255
255 255 255
255 255 255
255 255 255
255 255 255
255 255 255
255 255 255
255 255 255
255 255 255
255 255 255
255 255 255
255 255 255
255 255 255
255 255 255
255 255 255
255 255 255
255 255 255
255 255 255
255 150   0
255 255 255
255 255 255
255 255 255
255 255 255
255 255 255
255 255 255
255 255 255
255 255 255
255 255 255
255 255 255
255 255 255
255 255 255
255 255 255
255 255 255
255 255 255
255 255 255
255 255 255
255 255 255
  0   0   0
  0   0   0
  0   0   0
  0   0   0
 66   0   0
 73   0   0
 77   0   0
 81   0   0
 84   0   0
 87   0   0
 89   0   0
 91   0   0
 92   0   0
 92   0   0
 91   0   0
 90   0   0
 88   0   0
 85   0   0
 83   0   0
 81   0   0
 78   0   0
255 150   0
 76   0   0
 75   0   0
 74   0   0
 74   0   0
 73   0   0
 73   0   0
 72   0   0
 72   0   0
 71   0   0
 71   0   0
 70   0   0
 70   0   0
 70   0   0
 69   0   0
 69   0   0
 69   0   0
 69   0   0
 68   0   0
 68   0   0
 68   0   0
 68   0   0
 68   0   0
 68   0   0
 68   0   0
 69   0   0
 69   0   0
 69   0   0
 69   0   0
 70   0   0
 70   0   0
 70   0   0
 71   0   0
 71   0   0
 72   0   0
 73   0   0
 74   0   0
 74   0   0
 75   0   0
 76   0   0
 77   0   0
 78   0   0
 80   0   0
 81   0   0
 82   0   0
 84   0   0
 86   0   0
 88   0   0
 90   0   0
 92   0   0
 95   0   0
 98   0   0
101   0   0
105   0   0
109   0   0
114   0   0
120   0   0
126   0   0
133   0   0
140   0   0
147   0   0
154   0   0
159   0   0
161   0   0
158   0   0
148   0   0
117   0   0
  0   0 109
  0   0 166
  0   0 201
  0   0 227
  0   0 244
  0   0 253
  0   0 254
  0   0 246
  0   0 226
  0   0 191
  0   0 114
161   0   0
198   0   0
214   0   0
217   0   0
213   0   0
202   0   0
187   0   0
169   0   0
150   0   0
130   0   0
110   0   0
 92   0   0
 75   0   0
255 255 255
255 255 255
255 255 255
255 255 255
255 255 255
255 255 255
255 255 255
255 255 255
255 255 255
255 255 255
255 255 255
255 255 255
255 255 255
255 255 255
255 255 255
255 255 255
255 255 255
255 255 255
255 255 255
255 255 255
255 255 255
255 255 255
255 255 255
255 255 255
255 255 255
255 255 255
255 255 255
255 255 255
255 255 255
255 255 255
255 255 255
255 255 255
255 255 255
255 255 255
255 255 255
255 255 255
255 255 255
255 255 255
255 255 255
255 255 255
255 255 255
255 255 255
255 255 255
255 255 255
255 255 255
255 255 255
255 255 255
255 255 255
255 255 255
255 255 255
255 255 255
255 255 255
255 255 255
255 255 255
255 255 255
255 255 255
255 255 255
255 255 255
255 255 255
255 255 255
255 255 255
255 255 255
255 255 255
255 255 255
255 255 255
255 255 255
255 255 255
255 255 255
255 255 255
255 255 255
255 150   0
255 255 255
255 255 255
255 255 255
255 255 255
255 255 255
255 255 255
255 255 255
255 255 255
255 255 255
255 255 255
255 255 255
255 255 255
255 255 255
255 255 255
255 255 255
255 255 255
255 255 255
255 255 255
  0   0   0
  0   0   0
  0   0   0
  0   0   0
 72   0   0
 79   0   0
 84   0   0
 88   0   0
 90   0   0
 92   0   0
 94   0   0
 95   0   0
 95   0   0
 95   0   0
 94   0   0
 92   0   0
 90   0   0
 87   0   0
 85   0   0
 83   0   0
 81   0   0
255 150   0
 78   0   0
 77   0   0
 76   0   0
 76   0   0
 75   0   0
 75   0   0
 74   0   0
 74   0   0
 73   0   0
 72   0   0
 72   0   0
 72   0   0
 71   0   0
 71   0   0
 70   0   0
 70   0   0
 70   0   0
 70   0   0
 70   0   0
 70   0   0
 70   0   0
 70   0   0
 70   0   0
 70   0   0
 70   0   0
 70   0   0
 70   0   0
 71   0   0
 71   0   0
 72   0   0
 72   0   0
 73   0   0
 73   0   0
 74   0   0
 74   0   0
 75   0   0
 76   0   0
 77   0   0
 78   0   0
 79   0   0
 80   0   0
 82   0   0
 83   0   0
 85   0   0
 86   0   0
 88   0   0
 90   0   0
 93   0   0
 95   0   0
 98   0   0
101   0   0
105   0   0
109   0   0
114   0   0
120   0   0
126   0   0
132   0   0
139   0   0
146   0   0
153   0   0
158   0   0
161   0   0
160   0   0
151   0   0
129   0   0
  0   0  74
  0   0 153
  0   0 192
  0   0 219
  0   0 239
  0   0 251
  0   0 255
  0   0 250
  0   0 235
  0   0 207
  0   0 156
129   0   0
186   0   0
208   0   0
217   0   0
216   0   0
208   0   0
195   0   0
178   0   0
160   0   0
140   0   0
120   0   0
101   0   0
 83   0   0
 67   0   0
255 255 255
255 255 255
255 255 255
255 255 255
255 255 255
255 255 255
255 255 255
255 255 255
255 255 255
255 255 255
255 255 255
255 255 255
255 255 255
255 255 255
255 255 255
255 255 255
255 255 255
255 255 255
255 255 255
255 255 255
255 255 255
255 255 255
255 255 255
255 255 255
255 255 255
255 255 255
255 255 255
255 255 255
255 255 255
255 255 255
255 255 255
255 255 255
255 255 255
255 255 255
255 255 255
255 255 255
255 255 255
255 255 255
255 255 255
255 255 255
255 255 255
255 255 255
255 255 255
255 255 255
255 255 255
255 255 255
255 255 255
255 255 255
255 255 255
255 255 255
255 255 255
255 255 255
255 255 255
255 255 255
255 255 255
255 255 255
255 255 255
255 255 255
255 255 255
255 255 255
255 255 255
255 255 255
255 255 255
255 255 255
255 255 255
255 255 255
255 255 255
255 255 255
255 255 255
255 255 255
255 150   0
255 255 255
255 255 255
255 255 255
255 255 255
255 255 255
255 255 255
255 255 255
255 255 255
255 255 255
255 255 255
255 255 255
255 255 255
255 255 255
255 255 255
255 255 255
255 255 255
255 255 255
255 255 255
  0   0   0
  0   0   0
  0   0   0
  0   0   0
 78   0   0
 86   0   0
 91   0   0
 94   0   0
 97   0   0
 98   0   0
 99   0   0
 99   0   0
 99   0   0
 98   0   0
 96   0   0
 94   0   0
 92   0   0
 89   0   0
 87   0   0
 85   0   0
 83   0   0
255 150   0
 80   0   0
 79   0   0
 79   0   0
 78   0   0
 77   0   0
 77   0   0
 76   0   0
 75   0   0
 75   0   0
 74   0   0
 74   0   0
 73   0   0
 73   0   0
 72   0   0
 72   0   0
 72   0   0
 72   0   0
 71   0   0
 71   0   0
 71   0   0
 71   0   0
 71   0   0
 71   0   0
 71   0   0
 72   0   0
 72   0   0
 72   0   0
 72   0   0
 73   0   0
 73   0   0
 74   0   0
 74   0   0
 75   0   0
 76   0   0
 76   0   0
 77   0   0
 78   0   0
 79   0   0
 80   0   0
 81   0   0
 83   0   0
 84   0   0
 85   0   0
 87   0   0
 89   0   0
 91   0   0
 93   0   0
 96   0   0
 99   0   0
102   0   0
106   0   0
110   0   0
114   0   0
120   0   0
125   0   0
132   0   0
139   0   0
145   0   0
152   0   0
157   0   0
161   0   0
160   0   0
154   0   0
136   0   0
 76   0   0
  0   0 140
  0   0 182
  0   0 212
  0   0 234
  0   0 248
  0   0 254
  0   0 253
  0   0 242
  0   0 219
  0   0 180
  0   0  66
170   0   0
201   0   0
215   0   0
217   0   0
212   0   0
201   0   0
186   0   0
169   0   0
150   0   0
130   0   0
110   0   0
 92   0   0
 75   0   0
255 255 255
255 255 255
255 255 255
255 255 255
255 255 255
255 255 255
255 255 255
255 255 255
255 255 255
255 255 255
255 255 255
255 255 255
255 255 255
255 255 255
255 255 255
255 255 255
255 255 255
255 255 255
255 255 255
255 255 255
255 255 255
255 255 255
255 255 255
255 255 255
255 255 255
255 255 255
255 255 255
255 255 255
255 255 255
255 255 255
255 255 255
255 255 255
255 255 255
255 255 255
255 255 255
255 255 255
255 255 255
255 255 255
255 255 255
255 255 255
255 255 255
255 255 255
255 255 255
255 255 255
255 255 255
255 255 255
255 255 255
255 255 255
255 255 255
255 255 255
255 255 255
255 255 255
255 255 255
255 255 255
255 255 255
255 255 255
255 255 255
255 255 255
255 255 255
255 255 255
255 255 255
255 255 255
255 255 255
255 255 255
255 255 255
255 255 255
255 255 255
255 255 255
255 255 255
255 255 255
255 255 255
255 150   0
255 255 255
255 255 255
255 255 255
255 255 255
255 255 255
255 255 255
255 255 255
255 255 255
255 255 255
255 255 255
255 255 255
255 255 255
255 255 255
255 255 255
255 255 255
255 255 255
255 255 255
255 255 255
  0   0   0
  0   0   0
  0   0   0
  0   0   0
 84   0   0
 93   0   0
 98   0   0
102   0   0
104   0   0
105   0   0
105   0   0
104   0   0
103   0   0
102   0   0
100   0   0
 97   0   0
 95   0   0
 92   0   0
 90   0   0
 87   0   0
 86   0   0
255 150   0
 83   0   0
 82   0   0
 81   0   0
 80   0   0
 80   0   0
 79   0   0
 78   0   0
 77   0   0
 77   0   0
 76   0   0
 76   0   0
 75   0   0
 75   0   0
 74   0   0
 74   0   0
 74   0   0
 73   0   0
 73   0   0
 73   0   0
 73   0   0
 73   0   0
 73   0   0
 73   0   0
 73   0   0
 73   0   0
 74   0   0
 74   0   0
 74   0   0
 75   0   0
 75   0   0
 76   0   0
 76   0   0
 77   0   0
 77   0   0
 78   0   0
 79   0   0
 80   0   0
 81   0   0
 82   0   0
 84   0   0
 85   0   0
 86   0   0
 88   0   0
 90   0   0
 92   0   0
 94   0   0
 97   0   0
 99   0   0
103   0   0
106   0   0
110   0   0
115   0   0
120   0   0
126   0   0
132   0   0
138   0   0
145   0   0
151   0   0
157   0   0
160   0   0
161   0   0
156   0   0
141   0   0
 99   0   0
  0   0 127
  0   0 174
  0   0 205
  0   0 229
  0   0 245
  0   0 253
  0   0 254
  0   0 246
  0   0 228
  0   0 197
  0   0 135
148   0   0
192   0   0
211   0   0
217   0   0
215   0   0
207   0   0
193   0   0
177   0   0
158   0   0
139   0   0
119   0   0
101   0   0
 83   0   0
 67   0   0
255 255 255
255 255 255
255 255 255
255 255 255
255 255 255
255 255 255
255 255 255
255 255 255
255 255 255
255 255 255
255 255 255
255 255 255
255 255 255
255 255 255
255 255 255
255 255 255
255 255 255
255 255 255
255 255 255
255 255 255
255 255 255
255 255 255
255 255 255
255 255 255
255 255 255
255 255 255
255 255 255
255 255 255
255 255 255
255 255 255
255 255 255
255 255 255
255 255 255
255 255 255
255 255 255
255 255 255
255 255 255
255 255 255
255 255 255
255 255 255
255 255 255
255 255 255
255 255 255
255 255 255
255 255 255
255 255 255
255 255 255
255 255 255
255 255 255
255 255 255
255 255 255
255 255 255
255 255 255
255 255 255
255 255 255
255 255 255
255 255 255
255 255 255
255 255 255
255 255 255
255 255 255
255 255 255
255 255 255
255 255 255
255 255 255
255 255 255
255 255 255
255 255 255
255 255 255
255 255 255
255 255 255
255 150   0
255 255 255
255 255 255
255 255 255
255 255 255
255 255 255
255 255 255
255 255 255
255 255 255
255 255 255
255 255 255
255 255 255
255 255 255
255 255 255
255 255 255
255 255 255
255 255 255
255 255 255
255 255 255
  0   0   0
  0   0   0
  0   0   0
  0   0   0
 89   0   0
 99   0   0
105   0   0
109   0   0
110   0   0
111   0   0
111   0   0
110   0   0
108   0   0
106   0   0
103   0   0
101   0   0
 98   0   0
 95   0   0
 93   0   0
 91   0   0
 89   0   0
255 150   0
 86   0   0
 85   0   0
 84   0   0
 83   0   0
 82   0   0
 81   0   0
 80   0   0
 80   0   0
 79   0   0
 78   0   0
 78   0   0
 77   0   0
 76   0   0
 76   0   0
 76   0   0
 75   0   0
 75   0   0
 75   0   0
 75   0   0
 75   0   0
 75   0   0
 75   0   0
 75   0   0
 75   0   0
 75   0   0
 75   0   0
 76   0   0
 76   0   0
 76   0   0
 77   0   0
 78   0   0
 78   0   0
 79   0   0
 80   0   0
 80   0   0
 81   0   0
 82   0   0
 83   0   0
 85   0   0
 86   0   0
 88   0   0
 89   0   0
 91   0   0
 93   0   0
 95   0   0
 98   0   0
100   0   0
104   0   0
107   0   0
111   0   0
116   0   0
121   0   0
126   0   0
132   0   0
139   0   0
145   0   0
151   0   0
157   0   0
160   0   0
161   0   0
157   0   0
144   0   0
110   0   0
  0   0 114
  0   0 166
  0   0 199
  0   0 224
  0   0 241
  0   0 252
  0   0 255
  0   0 250
  0   0 235
  0   0 209
  0   0 162
114   0   0
180   0   0
206   0   0
216   0   0
217   0   0
211   0   0
199   0   0
184   0   0
166   0   0
147   0   0
128   0   0
109   0   0
 91   0   0
 75   0   0
255 255 255
255 255 255
255 255 255
255 255 255
255 255 255
255 255 255
255 255 255
255 255 255
255 255 255
255 255 255
255 255 255
255 255 255
255 255 255
255 255 255
255 255 255
255 255 255
255 255 255
255 255 255
255 255 255
255 255 255
255 255 255
255 255 255
255 255 255
255 255 255
255 255 255
255 255 255
255 255 255
255 255 255
255 255 255
255 255 255
255 255 255
255 255 255
255 255 255
255 255 255
255 255 255
255 255 255
255 255 255
255 255 255
255 255 255
255 255 255
255 255 255
255 255 255
255 255 255
255 255 255
255 255 255
255 255 255
255 255 255
255 255 255
255 255 255
255 255 255
255 255 255
255 255 255
255 255 255
255 255 255
255 255 255
255 255 255
255 255 255
255 255 255
255 255 255
255 255 255
255 255 255
255 255 255
255 255 255
255 255 255
255 255 255
255 255 255
255 255 255
255 255 255
255 255 255
255 255 255
255 255 255
255 255 255
255 150   0
255 255 255
255 255 255
255 255 255
255 255 255
255 255 255
255 255 255
255 255 255
255 255 255
255 255 255
255 255 255
255 255 255
255 255 255
255 255 255
255 255 255
255 255 255
255 255 255
255 255 255
255 255 255
  0   0   0
  0   0   0
  0   0   0
  0   0   0
 94   0   0
104   0   0
111   0   0
115   0   0
117   0   0
118   0   0
117   0   0
115   0   0
113   0   0
110   0   0
108   0   0
105   0   0
102   0   0
 99   0   0
 97   0   0
 94   0   0
 92   0   0
255 150   0
 89   0   0
 88   0   0
 87   0   0
 86   0   0
 85   0   0
 84   0   0
 83   0   0
 82   0   0
 81   0   0
 80   0   0
 80   0   0
 79   0   0
 79   0   0
 78   0   0
 78   0   0
 77   0   0
 77   0   0
 77   0   0
 77   0   0
 77   0   0
 77   0   0
 77   0   0
 77   0   0
 77   0   0
 77   0   0
 77   0   0
 78   0   0
 78   0   0
 79   0   0
 79   0   0
 80   0   0
 80   0   0
 81   0   0
 82   0   0
 83   0   0
 84   0   0
 85   0   0
 86   0   0
 87   0   0
 89   0   0
 91   0   0
 92   0   0
 94   0   0
 97   0   0
 99   0   0
102   0   0
105   0   0
108   0   0
112   0   0
117   0   0
122   0   0
127   0   0
133   0   0
139   0   0
145   0   0
151   0   0
157   0   0
160   0   0
161   0   0
157   0   0
146   0   0
117   0   0
  0   0 102
  0   0 160
  0   0 194
  0   0 220
  0   0 238
  0   0 250
  0   0 255
  0   0 252
  0   0 240
  0   0 218
  0   0 180
  0   0  79
167   0   0
199   0   0
214   0   0
217   0   0
214   0   0
204   0   0
190   0   0
174   0   0
155   0   0
136   0   0
117   0   0
 99   0   0
 82   0   0
 66   0   0
255 255 255
255 255 255
255 255 255
255 255 255
255 255 255
255 255 255
255 255 255
255 255 255
255 255 255
255 255 255
255 255 255
255 255 255
255 255 255
255 255 255
255 255 255
255 255 255
255 255 255
255 255 255
255 255 255
255 255 255
255 255 255
255 255 255
255 255 255
255 255 255
255 255 255
255 255 255
255 255 255
255 255 255
255 255 255
255 255 255
255 255 255
255 255 255
255 255 255
255 255 255
255 255 255
255 255 255
255 255 255
255 255 255
255 255 255
255 255 255
255 255 255
255 255 255
255 255 255
255 255 255
255 255 255
255 255 255
255 255 255
255 255 255
255 255 255
255 255 255
255 255 255
255 255 255
255 255 255
255 255 255
255 255 255
255 255 255
255 255 255
255 255 255
255 255 255
255 255 255
255 255 255
255 255 255
255 255 255
255 255 255
255 255 255
255 255 255
255 255 255
255 255 255
255 255 255
255 255 255
255 255 255
255 255 255
255 150   0
255 255 255
255 255 255
255 255 255
255 255 255
255 255 255
255 255 255
255 255 255
255 255 255
255 255 255
255 255 255
255 255 255
255 255 255
255 255 255
255 255 255
255 255 255
255 255 255
255 255 255
255 255 255
  0   0   0
  0   0   0
  0   0   0
  0   0   0
 97   0   0
108   0   0
116   0   0
121   0   0
123   0   0
124   0   0
123   0   0
121   0   0
119   0   0
116   0   0
113   0   0
110   0   0
107   0   0
104   0   0
101   0   0
 99   0   0
 96   0   0
255 150   0
 93   0   0
 91   0   0
 90   0   0
 89   0   0
 88   0   0
 86   0   0
 85   0   0
 84   0   0
 84   0   0
 83   0   0
 82   0   0
 81   0   0
 81   0   0
 80   0   0
 80   0   0
 80   0   0
 79   0   0
 79   0   0
 79   0   0
 79   0   0
 79   0   0
 79   0   0
 79   0   0
 79   0   0
 79   0   0
 80   0   0
 80   0   0
 80   0   0
 81   0   0
 81   0   0
 82   0   0
 83   0   0
 84   0   0
 84   0   0
 85   0   0
 87   0   0
 88   0   0
 89   0   0
 90   0   0
 92   0   0
 94   0   0
 96   0   0
 98   0   0
101   0   0
103   0   0
106   0   0
110   0   0
114   0   0
118   0   0
123   0   0
128   0   0
134   0   0
140   0   0
146   0   0
152   0   0
157   0   0
160   0   0
161   0   0
157   0   0
146   0   0
120   0   0
  0   0  93
  0   0 155
  0   0 190
  0   0 216
  0   0 235
  0   0 248
  0   0 254
  0   0 253
  0   0 244
  0   0 225
  0   0 192
  0   0 128
150   0   0
192   0   0
210   0   0
217   0   0
216   0   0
208   0   0
196   0   0
180   0   0
163   0   0
144   0   0
125   0   0
106   0   0
 89   0   0
 73   0   0
255 255 255
255 255 255
255 255 255
255 255 255
255 255 255
255 255 255
255 255 255
255 255 255
255 255 255
255 255 255
255 255 255
255 255 255
255 255 255
255 255 255
255 255 255
255 255 255
255 255 255
255 255 255
255 255 255
255 255 255
255 255 255
255 255 255
255 255 255
255 255 255
255 255 255
255 255 255
255 255 255
255 255 255
255 255 255
255 255 255
255 255 255
255 255 255
255 255 255
255 255 255
255 255 255
255 255 255
255 255 255
255 255 255
255 255 255
255 255 255
255 255 255
255 255 255
255 255 255
255 255 255
255 255 255
255 255 255
255 255 255
255 255 255
255 255 255
255 255 255
255 255 255
255 255 255
255 255 255
255 255 255
255 255 255
255 255 255
255 255 255
255 255 255
255 255 255
255 255 255
255 255 255
255 255 255
255 255 255
255 255 255
255 255 255
255 255 255
255 255 255
255 255 255
255 255 255
255 255 255
255 255 255
255 255 255
255 255 255
255 150   0
255 255 255
255 255 255
255 255 255
255 255 255
255 255 255
255 255 255
255 255 255
255 255 255
255 255 255
255 255 255
255 255 255
255 255 255
255 255 255
255 255 255
255 255 255
255 255 255
255 255 255
255 255 255
  0   0   0
  0   0   0
  0   0   0
  0   0   0
 97   0   0
110   0   0
118   0   0
124   0   0
128   0   0
129   0   0
129   0   0
127   0   0
125   0   0
122   0   0
119   0   0
115   0   0
112   0   0
109   0   0
106   0   0
103   0   0
101   0   0
255 150   0
 97   0   0
 95   0   0
 94   0   0
 92   0   0
 91   0   0
 90   0   0
 88   0   0
 87   0   0
 86   0   0
 86   0   0
 85   0   0
 84   0   0
 83   0   0
 83   0   0
 83   0   0
 82   0   0
 82   0   0
 82   0   0
 81   0   0
 81   0   0
 81   0   0
 81   0   0
 81   0   0
 82   0   0
 82   0   0
 82   0   0
 83   0   0
 83   0   0
 83   0   0
 84   0   0
 85   0   0
 86   0   0
 86   0   0
 87   0   0
 88   0   0
 90   0   0
 91   0   0
 92   0   0
 94   0   0
 96   0   0
 98   0   0
100   0   0
102   0   0
105   0   0
108   0   0
112   0   0
116   0   0
120   0   0
125   0   0
130   0   0
136   0   0
141   0   0
147   0   0
153   0   0
157   0   0
160   0   0
161   0   0
157   0   0
146   0   0
121   0   0
  0   0  87
  0   0 152
  0   0 187
  0   0 213
  0   0 233
  0   0 247
  0   0 254
  0   0 254
  0   0 247
  0   0 230
  0   0 202
  0   0 151
128   0   0
183   0   0
206   0   0
216   0   0
217   0   0
211   0   0
200   0   0
186   0   0
169   0   0
151   0   0
132   0   0
114   0   0
 96   0   0
 79   0   0
 64   0   0
255 255 255
255 255 255
255 255 255
255 255 255
255 255 255
255 255 255
255 255 255
255 255 255
255 255 255
255 255 255
255 255 255
255 255 255
255 255 255
255 255 255
255 255 255
255 255 255
255 255 255
255 255 255
255 255 255
255 255 255
255 255 255
255 255 255
255 255 255
255 255 255
255 255 255
255 255 255
255 255 255
255 255 255
255 255 255
255 255 255
255 255 255
255 255 255
255 255 255
255 255 255
255 255 255
255 255 255
255 255 255
255 255 255
255 255 255
255 255 255
255 255 255
255 255 255
255 255 255
255 255 255
255 255 255
255 255 255
255 255 255
255 255 255
255 255 255
255 255 255
255 255 255
255 255 255
255 255 255
255 255 255
255 255 255
255 255 255
255 255 255
255 255 255
255 255 255
255 255 255
255 255 255
255 255 255
255 255 255
255 255 255
255 255 255
255 255 255
255 255 255
255 255 255
255 255 255
255 255 255
255 255 255
255 255 255
255 255 255
255 150   0
255 255 255
255 255 255
255 255 255
255 255 255
255 255 255
255 255 255
255 255 255
255 255 255
255 255 255
255 255 255
255 255 255
255 255 255
255 255 255
255 255 255
255 255 255
255 255 255
255 255 255
255 255 255
  0   0   0
  0   0   0
  0   0   0
  0   0   0
 92   0   0
107   0   0
117   0   0
125   0   0
130   0   0
133   0   0
134   0   0
133   0   0
132   0   0
129   0   0
126   0   0
122   0   0
119   0   0
115   0   0
112   0   0
109   0   0
106   0   0
255 150   0
102   0   0
100   0   0
 98   0   0
 96   0   0
 94   0   0
 93   0   0
 92   0   0
 91   0   0
 89   0   0
 89   0   0
 88   0   0
 87   0   0
 86   0   0
 86   0   0
 85   0   0
 85   0   0
 85   0   0
 84   0   0
 84   0   0
 84   0   0
 84   0   0
 84   0   0
 84   0   0
 84   0   0
 85   0   0
 85   0   0
 85   0   0
 86   0   0
 86   0   0
 87   0   0
 88   0   0
 89   0   0
 89   0   0
 91   0   0
 92   0   0
 93   0   0
 94   0   0
 96   0   0
 98   0   0
100   0   0
102   0   0
105   0   0
107   0   0
110   0   0
114   0   0
118   0   0
122   0   0
127   0   0
132   0   0
138   0   0
143   0   0
149   0   0
154   0   0
158   0   0
161   0   0
161   0   0
157   0   0
146   0   0
120   0   0
  0   0  87
  0   0 151
  0   0 186
  0   0 212
  0   0 232
  0   0 245
  0   0 253
  0   0 254
  0   0 248
  0   0 234
  0   0 209
  0   0 165
 98   0   0
174   0   0
202   0   0
214   0   0
217   0   0
213   0   0
204   0   0
191   0   0
175   0   0
157   0   0
139   0   0
120   0   0
102   0   0
 85   0   0
 70   0   0
255 255 255
255 255 255
255 255 255
255 255 255
255 255 255
255 255 255
255 255 255
255 255 255
255 255 255
255 255 255
255 255 255
255 255 255
255 255 255
255 255 255
255 255 255
255 255 255
255 255 255
255 255 255
255 255 255
255 255 255
255 255 255
255 255 255
255 255 255
255 255 255
255 255 255
255 255 255
255 255 255
255 255 255
255 255 255
255 255 255
255 255 255
255 255 255
255 255 255
255 255 255
255 255 255
255 255 255
255 255 255
255 255 255
255 255 255
255 255 255
255 255 255
255 255 255
255 255 255
255 255 255
255 255 255
255 255 255
255 255 255
255 255 255
255 255 255
255 255 255
255 255 255
255 255 255
255 255 255
255 255 255
255 255 255
255 255 255
255 255 255
255 255 255
255 255 255
255 255 255
255 255 255
255 255 255
255 255 255
255 255 255
255 255 255
255 255 255
255 255 255
255 255 255
255 255 255
255 255 255
255 255 255
255 255 255
255 255 255
255 255 255
255 150   0
255 255 255
255 255 255
255 255 255
255 255 255
255 255 255
255 255 255
255 255 255
255 255 255
255 255 255
255 255 255
255 255 255
255 255 255
255 255 255
255 255 255
255 255 255
255 255 255
255 255 255
255 255 255
  0   0   0
  0   0   0
  0   0   0
  0   0   0
 79   0   0
 96   0   0
111   0   0
122   0   0
130   0   0
135   0   0
138   0   0
139   0   0
138   0   0
136   0   0
133   0   0
130   0   0
126   0   0
123   0   0
119   0   0
116   0   0
112   0   0
255 150   0
107   0   0
104   0   0
102   0   0
100   0   0
 99   0   0
 97   0   0
 95   0   0
 94   0   0
 93   0   0
 92   0   0
 91   0   0
 90   0   0
 90   0   0
 89   0   0
 88   0   0
 88   0   0
 88   0   0
 87   0   0
 87   0   0
 87   0   0
 87   0   0
 87   0   0
 87   0   0
 87   0   0
 88   0   0
 88   0   0
 88   0   0
 89   0   0
 90   0   0
 90   0   0
 91   0   0
 92   0   0
 93   0   0
 94   0   0
 95   0   0
 97   0   0
 99   0   0
100   0   0
102   0   0
105   0   0
107   0   0
110   0   0
113   0   0
117   0   0
121   0   0
125   0   0
130   0   0
135   0   0
140   0   0
145   0   0
150   0   0
155   0   0
159   0   0
161   0   0
160   0   0
156   0   0
144   0   0
117   0   0
  0   0  93
  0   0 152
  0   0 186
  0   0 211
  0   0 231
  0   0 245
  0   0 253
  0   0 255
  0   0 250
  0   0 237
  0   0 214
  0   0 175
  0   0  68
165   0   0
197   0   0
212   0   0
217   0   0
215   0   0
207   0   0
195   0   0
180   0   0
163   0   0
145   0   0
127   0   0
108   0   0
 91   0   0
 76   0   0
255 255 255
255 255 255
255 255 255
255 255 255
255 255 255
255 255 255
255 255 255
255 255 255
255 255 255
255 255 255
255 255 255
255 255 255
255 255 255
255 255 255
255 255 255
255 255 255
255 255 255
255 255 255
255 255 255
255 255 255
255 255 255
255 255 255
255 255 255
255 255 255
255 255 255
255 255 255
255 255 255
255 255 255
255 255 255
255 255 255
255 255 255
255 255 255
255 255 255
255 255 255
255 255 255
255 255 255
255 255 255
255 255 255
255 255 255
255 255 255
255 255 255
255 255 255
255 255 255
255 255 255
255 255 255
255 255 255
255 255 255
255 255 255
255 255 255
255 255 255
255 255 255
255 255 255
255 255 255
255 255 255
255 255 255
255 255 255
255 255 255
255 255 255
255 255 255
255 255 255
255 255 255
255 255 255
255 255 255
255 255 255
255 255 255
255 255 255
255 255 255
255 255 255
255 255 255
255 255 255
255 255 255
255 255 255
255 255 255
255 255 255
255 255 255
255 150   0
255 255 255
255 255 255
255 255 255
255 255 255
255 255 255
255 255 255
255 255 255
255 255 255
255 255 255
255 255 255
255 255 255
255 255 255
255 255 255
255 255 255
255 255 255
255 255 255
255 255 255
255 255 255
  0   0   0
  0   0   0
  0   0   0
  0   0   0
255 255 255
 65   0   0
 91   0   0
110   0   0
123   0   0
133   0   0
139   0   0
142   0   0
143   0   0
142   0   0
140   0   0
138   0   0
134   0   0
130   0   0
127   0   0
123   0   0
119   0   0
255 150   0
113   0   0
110   0   0
108   0   0
105   0   0
103   0   0
101   0   0
100   0   0
 98   0   0
 97   0   0
 96   0   0
 95   0   0
 94   0   0
 93   0   0
 92   0   0
 92   0   0
 91   0   0
 91   0   0
 91   0   0
 90   0   0
 90   0   0
 90   0   0
 90   0   0
 90   0   0
 91   0   0
 91   0   0
 91   0   0
 92   0   0
 92   0   0
 93   0   0
 94   0   0
 95   0   0
 96   0   0
 97   0   0
 98   0   0
100   0   0
101   0   0
103   0   0
105   0   0
108   0   0
110   0   0
113   0   0
116   0   0
120   0   0
124   0   0
128   0   0
133   0   0
137   0   0
143   0   0
148   0   0
152   0   0
156   0   0
160   0   0
161   0   0
160   0   0
154   0   0
141   0   0
110   0   0
  0   0 102
  0   0 155
  0   0 187
  0   0 212
  0   0 231
  0   0 244
  0   0 253
  0   0 255
  0   0 250
  0   0 238
  0   0 217
  0   0 182
  0   0 107
156   0   0
193   0   0
210   0   0
217   0   0
216   0   0
210   0   0
199   0   0
185   0   0
168   0   0
151   0   0
132   0   0
114   0   0
 97   0   0
 81   0   0
 66   0   0
255 255 255
255 255 255
255 255 255
255 255 255
255 255 255
255 255 255
255 255 255
255 255 255
255 255 255
255 255 255
255 255 255
255 255 255
255 255 255
255 255 255
255 255 255
255 255 255
255 255 255
255 255 255
255 255 255
255 255 255
255 255 255
255 255 255
255 255 255
255 255 255
255 255 255
255 255 255
255 255 255
255 255 255
255 255 255
255 255 255
255 255 255
255 255 255
255 255 255
255 255 255
255 255 255
255 255 255
255 255 255
255 255 255
255 255 255
255 255 255
255 255 255
255 255 255
255 255 255
255 255 255
255 255 255
255 255 255
255 255 255
255 255 255
255 255 255
255 255 255
255 255 255
255 255 255
255 255 255
255 255 255
255 255 255
255 255 255
255 255 255
255 255 255
255 255 255
255 255 255
255 255 255
255 255 255
255 255 255
255 255 255
255 255 255
255 255 255
255 255 255
255 255 255
255 255 255
255 255 255
255 255 255
255 255 255
255 255 255
255 255 255
255 255 255
255 150   0
255 255 255
255 255 255
255 255 255
255 255 255
255 255 255
255 255 255
255 255 255
255 255 255
255 255 255
255 255 255
255 255 255
255 255 255
255 255 255
255 255 255
255 255 255
255 255 255
255 255 255
255 255 255
  0   0   0
  0   0   0
  0   0   0
  0   0   0
  0   0  93
  0   0  91
  0   0  71
 74   0   0
105   0   0
123   0   0
135   0   0
142   0   0
146   0   0
148   0   0
147   0   0
145   0   0
142   0   0
139   0   0
135   0   0
131   0   0
127   0   0
255 150   0
120   0   0
117   0   0
114   0   0
111   0   0
109   0   0
107   0   0
105   0   0
103   0   0
102   0   0
100   0   0
 99   0   0
 98   0   0
 97   0   0
 97   0   0
 96   0   0
 95   0   0
 95   0   0
 95   0   0
 94   0   0
 94   0   0
 94   0   0
 94   0   0
 94   0   0
 95   0   0
 95   0   0
 95   0   0
 96   0   0
 97   0   0
 97   0   0
 98   0   0
 99   0   0
100   0   0
102   0   0
103   0   0
105   0   0
107   0   0
109   0   0
111   0   0
114   0   0
117   0   0
120   0   0
123   0   0
127   0   0
132   0   0
136   0   0
141   0   0
145   0   0
150   0   0
154   0   0
158   0   0
160   0   0
161   0   0
158   0   0
151   0   0
136   0   0
 99   0   0
  0   0 114
  0   0 160
  0   0 190
  0   0 213
  0   0 232
  0   0 245
  0   0 253
  0   0 255
  0   0 251
  0   0 239
  0   0 220
  0   0 187
  0   0 123
148   0   0
189   0   0
208   0   0
216   0   0
217   0   0
212   0   0
202   0   0
188   0   0
173   0   0
155   0   0
137   0   0
120   0   0
102   0   0
 86   0   0
 71   0   0
255 255 255
255 255 255
255 255 255
255 255 255
255 255 255
255 255 255
255 255 255
255 255 255
255 255 255
255 255 255
255 255 255
255 255 255
255 255 255
255 255 255
255 255 255
255 255 255
255 255 255
255 255 255
255 255 255
255 255 255
255 255 255
255 255 255
255 255 255
255 255 255
255 255 255
255 255 255
255 255 255
255 255 255
255 255 255
255 255 255
255 255 255
255 255 255
255 255 255
255 255 255
255 255 255
255 255 255
255 255 255
255 255 255
255 255 255
255 255 255
255 255 255
255 255 255
255 255 255
255 255 255
255 255 255
255 255 255
255 255 255
255 255 255
255 255 255
255 255 255
255 255 255
255 255 255
255 255 255
255 255 255
255 255 255
255 255 255
255 255 255
255 255 255
255 255 255
255 255 255
255 255 255
255 255 255
255 255 255
255 255 255
255 255 255
255 255 255
255 255 255
255 255 255
255 255 255
255 255 255
255 255 255
255 255 255
255 255 255
255 255 255
255 255 255
255 255 255
255 150   0
255 255 255
255 255 255
255 255 255
255 255 255
255 255 255
255 255 255
255 255 255
255 255 255
255 255 255
255 255 255
255 255 255
255 255 255
255 255 255
255 255 255
255 255 255
255 255 255
255 255 255
255 255 255
  0   0   0
  0   0   0
  0   0   0
  0   0   0
  0   0 117
  0   0 123
  0   0 119
  0   0 104
255 255 255
 97   0   0
122   0   0
137   0   0
145   0   0
150   0   0
152   0   0
152   0   0
150   0   0
147   0   0
143   0   0
139   0   0
135   0   0
255 150   0
127   0   0
124   0   0
121   0   0
118   0   0
115   0   0
113   0   0
111   0   0
109   0   0
107   0   0
106   0   0
104   0   0
103   0   0
102   0   0
101   0   0
100   0   0
100   0   0
 99   0   0
 99   0   0
 99   0   0
 99   0   0
 98   0   0
 99   0   0
 99   0   0
 99   0   0
 99   0   0
100   0   0
100   0   0
101   0   0
102   0   0
103   0   0
104   0   0
106   0   0
107   0   0
109   0   0
111   0   0
113   0   0
115   0   0
118   0   0
121   0   0
124   0   0
128   0   0
131   0   0
136   0   0
140   0   0
144   0   0
149   0   0
153   0   0
157   0   0
159   0   0
161   0   0
160   0   0
156   0   0
148   0   0
129   0   0
 76   0   0
  0   0 127
  0   0 166
  0   0 194
  0   0 216
  0   0 233
  0   0 245
  0   0 253
  0   0 255
  0   0 251
  0   0 240
  0   0 221
  0   0 190
  0   0 132
141   0   0
185   0   0
206   0   0
216   0   0
217   0   0
213   0   0
204   0   0
191   0   0
176   0   0
160   0   0
142   0   0
124   0   0
107   0   0
 90   0   0
 75   0   0
255 255 255
255 255 255
255 255 255
255 255 255
255 255 255
255 255 255
255 255 255
255 255 255
255 255 255
255 255 255
255 255 255
255 255 255
255 255 255
255 255 255
255 255 255
255 255 255
255 255 255
255 255 255
255 255 255
255 255 255
255 255 255
255 255 255
255 255 255
255 255 255
255 255 255
255 255 255
255 255 255
255 255 255
255 255 255
255 255 255
255 255 255
255 255 255
255 255 255
255 255 255
255 255 255
255 255 255
255 255 255
255 255 255
255 255 255
255 255 255
255 255 255
255 255 255
255 255 255
255 255 255
255 255 255
255 255 255
255 255 255
255 255 255
255 255 255
255 255 255
255 255 255
255 255 255
255 255 255
255 255 255
255 255 255
255 255 255
255 255 255
255 255 255
255 255 255
255 255 255
255 255 255
255 255 255
255 255 255
255 255 255
255 255 255
255 255 255
255 255 255
255 255 255
255 255 255
255 255 255
255 255 255
255 255 255
255 255 255
255 255 255
255 255 255
255 255 255
255 255 255
255 150   0
255 255 255
255 255 255
255 255 255
255 255 255
255 255 255
255 255 255
255 255 255
255 255 255
255 255 255
255 255 255
255 255 255
255 255 255
255 255 255
255 255 255
255 255 255
255 255 255
255 255 255
255 255 255
  0   0   0
  0   0   0
  0   0   0
  0   0   0
  0   0 134
  0   0 144
  0   0 146
  0   0 140
  0   0 125
  0   0  95
 82   0   0
119   0   0
137   0   0
148   0   0
153   0   0
156   0   0
156   0   0
154   0   0
151   0   0
148   0   0
144   0   0
255 150   0
136   0   0
132   0   0
129   0   0
126   0   0
123   0   0
120   0   0
118   0   0
115   0   0
113   0   0
112   0   0
110   0   0
109   0   0
108   0   0
107   0   0
106   0   0
105   0   0
105   0   0
104   0   0
104   0   0
104   0   0
104   0   0
104   0   0
104   0   0
104   0   0
105   0   0
105   0   0
106   0   0
107   0   0
108   0   0
109   0   0
110   0   0
112   0   0
113   0   0
115   0   0
118   0   0
120   0   0
123   0   0
126   0   0
129   0   0
132   0   0
136   0   0
140   0   0
144   0   0
148   0   0
152   0   0
156   0   0
159   0   0
161   0   0
161   0   0
159   0   0
153   0   0
142   0   0
117   0   0
  0   0  74
  0   0 140
  0   0 174
  0   0 199
  0   0 220
  0   0 235
  0   0 247
  0   0 253
  0   0 255
  0   0 250
  0   0 239
  0   0 221
  0   0 190
  0   0 135
136   0   0
183   0   0
205   0   0
215   0   0
217   0   0
214   0   0
206   0   0
194   0   0
180   0   0
163   0   0
146   0   0
128   0   0
111   0   0
 95   0   0
 79   0   0
 65   0   0
255 255 255
255 255 255
255 255 255
255 255 255
255 255 255
255 255 255
255 255 255
255 255 255
255 255 255
255 255 255
255 255 255
255 255 255
255 255 255
255 255 255
255 255 255
255 255 255
255 255 255
255 255 255
255 255 255
255 255 255
255 255 255
255 255 255
255 255 255
255 255 255
255 255 255
255 255 255
255 255 255
255 255 255
255 255 255
255 255 255
255 255 255
255 255 255
255 255 255
255 255 255
255 255 255
255 255 255
255 255 255
255 255 255
255 255 255
255 255 255
255 255 255
255 255 255
255 255 255
255 255 255
255 255 255
255 255 255
255 255 255
255 255 255
255 255 255
255 255 255
255 255 255
255 255 255
255 255 255
255 255 255
255 255 255
255 255 255
255 255 255
255 255 255
255 255 255
255 255 255
255 255 255
255 255 255
255 255 255
255 255 255
255 255 255
255 255 255
255 255 255
255 255 255
255 255 255
255 255 255
255 255 255
255 255 255
255 255 255
255 255 255
255 255 255
255 255 255
255 255 255
255 150   0
255 255 255
255 255 255
255 255 255
255 255 255
255 255 255
255 255 255
255 255 255
255 255 255
255 255 255
255 255 255
255 255 255
255 255 255
255 255 255
255 255 255
255 255 255
255 255 255
255 255 255
255 255 255
  0   0   0
  0   0   0
  0   0   0
  0   0   0
  0   0 146
  0   0 160
  0   0 166
  0   0 165
  0   0 157
  0   0 142
  0   0 116
255 255 255
114   0   0
136   0   0
148   0   0
155   0   0
158   0   0
159   0   0
157   0   0
155   0   0
152   0   0
255 150   0
145   0   0
141   0   0
137   0   0
134   0   0
131   0   0
128   0   0
125   0   0
123   0   0
121   0   0
119   0   0
117   0   0
116   0   0
114   0   0
113   0   0
112   0   0
111   0   0
111   0   0
110   0   0
110   0   0
110   0   0
110   0   0
110   0   0
110   0   0
110   0   0
111   0   0
111   0   0
112   0   0
113   0   0
114   0   0
116   0   0
117   0   0
119   0   0
121   0   0
123   0   0
125   0   0
128   0   0
131   0   0
134   0   0
137   0   0
141   0   0
145   0   0
148   0   0
152   0   0
155   0   0
158   0   0
160   0   0
161   0   0
160   0   0
156   0   0
148   0   0
132   0   0
 96   0   0
  0   0 109
  0   0 153
  0   0 182
  0   0 205
  0   0 224
  0   0 238
  0   0 248
  0   0 254
  0   0 254
  0   0 250
  0   0 238
  0   0 220
  0   0 190
  0   0 135
135   0   0
182   0   0
204   0   0
214   0   0
217   0   0
215   0   0
207   0   0
196   0   0
182   0   0
166   0   0
149   0   0
132   0   0
115   0   0
 98   0   0
 83   0   0
 69   0   0
255 255 255
255 255 255
255 255 255
255 255 255
255 255 255
255 255 255
255 255 255
255 255 255
255 255 255
255 255 255
255 255 255
255 255 255
255 255 255
255 255 255
255 255 255
255 255 255
255 255 255
255 255 255
255 255 255
255 255 255
255 255 255
255 255 255
255 255 255
255 255 255
255 255 255
255 255 255
255 255 255
255 255 255
255 255 255
255 255 255
255 255 255
255 255 255
255 255 255
255 255 255
255 255 255
255 255 255
255 255 255
255 255 255
255 255 255
255 255 255
255 255 255
255 255 255
255 255 255
255 255 255
255 255 255
255 255 255
255 255 255
255 255 255
255 255 255
255 255 255
255 255 255
255 255 255
255 255 255
255 255 255
255 255 255
255 255 255
255 255 255
255 255 255
255 255 255
255 255 255
255 255 255
255 255 255
255 255 255
255 255 255
255 255 255
255 255 255
255 255 255
255 255 255
255 255 255
255 255 255
255 255 255
255 255 255
255 255 255
255 255 255
255 255 255
255 255 255
255 255 255
255 255 255
255 150   0
255 255 255
255 255 255
255 255 255
255 255 255
255 255 255
255 255 255
255 255 255
255 255 255
255 255 255
255 255 255
255 255 255
255 255 255
255 255 255
255 255 255
255 255 255
255 255 255
255 255 255
255 255 255
  0   0   0
  0   0   0
  0   0   0
  0   0   0
  0   0 153
  0   0 170
  0   0 180
  0   0 183
  0   0 181
  0   0 172
  0   0 157
  0   0 134
  0   0  91
100   0   0
131   0   0
146   0   0
155   0   0
159   0   0
160   0   0
160   0   0
158   0   0
255 150   0
153   0   0
149   0   0
146   0   0
143   0   0
140   0   0
137   0   0
134   0   0
131   0   0
129   0   0
127   0   0
125   0   0
123   0   0
122   0   0
121   0   0
120   0   0
119   0   0
118   0   0
117   0   0
117   0   0
117   0   0
117   0   0
117   0   0
117   0   0
117   0   0
118   0   0
119   0   0
120   0   0
121   0   0
122   0   0
123   0   0
125   0   0
127   0   0
129   0   0
131   0   0
134   0   0
137   0   0
140   0   0
143   0   0
146   0   0
149   0   0
153   0   0
156   0   0
158   0   0
160   0   0
161   0   0
160   0   0
158   0   0
151   0   0
140   0   0
117   0   0
255 255 255
  0   0 133
  0   0 166
  0   0 192
  0   0 212
  0   0 229
  0   0 241
  0   0 250
  0   0 254
  0   0 254
  0   0 248
  0   0 237
  0   0 217
  0   0 187
  0   0 132
136   0   0
182   0   0
203   0   0
214   0   0
217   0   0
215   0   0
208   0   0
197   0   0
184   0   0
169   0   0
152   0   0
135   0   0
118   0   0
102   0   0
 86   0   0
 72   0   0
255 255 255
255 255 255
255 255 255
255 255 255
255 255 255
255 255 255
255 255 255
255 255 255
255 255 255
255 255 255
255 255 255
255 255 255
255 255 255
255 255 255
255 255 255
255 255 255
255 255 255
255 255 255
255 255 255
255 255 255
255 255 255
255 255 255
255 255 255
255 255 255
255 255 255
255 255 255
255 255 255
255 255 255
255 255 255
255 255 255
255 255 255
255 255 255
255 255 255
255 255 255
255 255 255
255 255 255
255 255 255
255 255 255
255 255 255
255 255 255
255 255 255
255 255 255
255 255 255
255 255 255
255 255 255
255 255 255
255 255 255
255 255 255
255 255 255
255 255 255
255 255 255
255 255 255
255 255 255
255 255 255
255 255 255
255 255 255
255 255 255
255 255 255
255 255 255
255 255 255
255 255 255
255 255 255
255 255 255
255 255 255
255 255 255
255 255 255
255 255 255
255 255 255
255 255 255
255 255 255
255 255 255
255 255 255
255 255 255
255 255 255
255 255 255
255 255 255
255 255 255
255 255 255
255 255 255
255 150   0
255 255 255
255 255 255
255 255 255
255 255 255
255 255 255
255 255 255
255 255 255
255 255 255
255 255 255
255 255 255
255 255 255
255 255 255
255 255 255
255 255 255
255 255 255
255 255 255
255 255 255
255 255 255
  0   0   0
  0   0   0
  0   0   0
  0   0   0
  0   0 156
  0   0 175
  0   0 188
  0   0 196
  0   0 198
  0   0 194
  0   0 186
  0   0 172
  0   0 151
  0   0 120
255 255 255
119   0   0
140   0   0
151   0   0
157   0   0
160   0   0
161   0   0
255 150   0
159   0   0
157   0   0
154   0   0
151   0   0
149   0   0
146   0   0
143   0   0
141   0   0
138   0   0
136   0   0
134   0   0
132   0   0
131   0   0
129   0   0
128   0   0
127   0   0
126   0   0
125   0   0
125   0   0
125   0   0
125   0   0
125   0   0
125   0   0
125   0   0
126   0   0
127   0   0
128   0   0
129   0   0
131   0   0
132   0   0
134   0   0
136   0   0
138   0   0
141   0   0
143   0   0
146   0   0
149   0   0
151   0   0
154   0   0
157   0   0
159   0   0
160   0   0
161   0   0
160   0   0
158   0   0
153   0   0
143   0   0
126   0   0
 83   0   0
  0   0 114
  0   0 153
  0   0 180
  0   0 201
  0   0 219
  0   0 234
  0   0 245
  0   0 252
  0   0 255
  0   0 253
  0   0 247
  0   0 234
  0   0 214
  0   0 182
  0   0 123
141   0   0
183   0   0
204   0   0
214   0   0
217   0   0
215   0   0
208   0   0
198   0   0
185   0   0
170   0   0
154   0   0
138   0   0
121   0   0
104   0   0
 89   0   0
 75   0   0
255 255 255
255 255 255
255 255 255
255 255 255
255 255 255
255 255 255
255 255 255
255 255 255
255 255 255
255 255 255
255 255 255
255 255 255
255 255 255
255 255 255
255 255 255
255 255 255
255 255 255
255 255 255
255 255 255
255 255 255
255 255 255
255 255 255
255 255 255
255 255 255
255 255 255
255 255 255
255 255 255
255 255 255
255 255 255
255 255 255
255 255 255
255 255 255
255 255 255
255 255 255
255 255 255
255 255 255
255 255 255
255 255 255
255 255 255
255 255 255
255 255 255
255 255 255
255 255 255
255 255 255
255 255 255
255 255 255
255 255 255
255 255 255
255 255 255
255 255 255
255 255 255
255 255 255
255 255 255
255 255 255
255 255 255
255 255 255
255 255 255
255 255 255
255 255 255
255 255 255
255 255 255
255 255 255
255 255 255
255 255 255
255 255 255
255 255 255
255 255 255
255 255 255
255 255 255
255 255 255
255 255 255
255 255 255
255 255 255
255 255 255
255 255 255
255 255 255
255 255 255
255 255 255
255 255 255
255 255 255
255 150   0
255 255 255
255 255 255
255 255 255
255 255 255
255 255 255
255 255 255
255 255 255
255 255 255
255 255 255
255 255 255
255 255 255
255 255 255
255 255 255
255 255 255
255 255 255
255 255 255
255 255 255
255 255 255
  0   0   0
  0   0   0
  0   0   0
  0   0   0
  0   0 153
  0   0 175
  0   0 191
  0   0 202
  0   0 209
  0   0 210
  0   0 207
  0   0 199
  0   0 186
  0   0 168
  0   0 143
  0   0 104
 91   0   0
127   0   0
143   0   0
152   0   0
158   0   0
255 150   0
161   0   0
161   0   0
160   0   0
158   0   0
156   0   0
154   0   0
152   0   0
149   0   0
147   0   0
145   0   0
143   0   0
141   0   0
140   0   0
138   0   0
137   0   0
136   0   0
135   0   0
135   0   0
134   0   0
134   0   0
134   0   0
134   0   0
134   0   0
135   0   0
135   0   0
136   0   0
137   0   0
138   0   0
140   0   0
141   0   0
143   0   0
145   0   0
147   0   0
149   0   0
152   0   0
154   0   0
156   0   0
158   0   0
160   0   0
161   0   0
161   0   0
160   0   0
158   0   0
153   0   0
144   0   0
129   0   0
 97   0   0
  0   0  99
  0   0 142
  0   0 170
  0   0 193
  0   0 211
  0   0 227
  0   0 239
  0   0 248
  0   0 253
  0   0 255
  0   0 252
  0   0 244
  0   0 230
  0   0 209
  0   0 175
  0   0 107
148   0   0
185   0   0
205   0   0
214   0   0
217   0   0
215   0   0
209   0   0
199   0   0
186   0   0
172   0   0
156   0   0
139   0   0
123   0   0
107   0   0
 91   0   0
 77   0   0
255 255 255
255 255 255
255 255 255
255 255 255
255 255 255
255 255 255
255 255 255
255 255 255
255 255 255
255 255 255
255 255 255
255 255 255
255 255 255
255 255 255
255 255 255
255 255 255
255 255 255
255 255 255
255 255 255
255 255 255
255 255 255
255 255 255
255 255 255
255 255 255
255 255 255
255 255 255
255 255 255
255 255 255
255 255 255
255 255 255
255 255 255
255 255 255
255 255 255
255 255 255
255 255 255
255 255 255
255 255 255
255 255 255
255 255 255
255 255 255
255 255 255
255 255 255
255 255 255
255 255 255
255 255 255
255 255 255
255 255 255
255 255 255
255 255 255
255 255 255
255 255 255
255 255 255
255 255 255
255 255 255
255 255 255
255 255 255
255 255 255
255 255 255
255 255 255
255 255 255
255 255 255
255 255 255
255 255 255
255 255 255
255 255 255
255 255 255
255 255 255
255 255 255
255 255 255
255 255 255
255 255 255
255 255 255
255 255 255
255 255 255
255 255 255
255 255 255
255 255 255
255 255 255
255 255 255
255 255 255
255 255 255
255 150   0
255 255 255
255 255 255
255 255 255
255 255 255
255 255 255
255 255 255
255 255 255
255 255 255
255 255 255
255 255 255
255 255 255
255 255 255
255 255 255
255 255 255
255 255 255
255 255 255
255 255 255
255 255 255
  0   0   0
  0   0   0
  0   0   0
  0   0   0
  0   0 145
  0   0 168
  0   0 188
  0   0 203
  0   0 214
  0   0 220
  0   0 221
  0   0 219
  0   0 211
  0   0 200
  0   0 184
  0   0 164
  0   0 137
  0   0  95
 96   0   0
127   0   0
142   0   0
255 150   0
156   0   0
159   0   0
161   0   0
161   0   0
161   0   0
160   0   0
158   0   0
157   0   0
155   0   0
154   0   0
152   0   0
150   0   0
149   0   0
148   0   0
146   0   0
145   0   0
145   0   0
144   0   0
143   0   0
143   0   0
143   0   0
143   0   0
143   0   0
144   0   0
145   0   0
145   0   0
146   0   0
148   0   0
149   0   0
150   0   0
152   0   0
154   0   0
155   0   0
157   0   0
158   0   0
160   0   0
161   0   0
161   0   0
161   0   0
159   0   0
156   0   0
151   0   0
142   0   0
128   0   0
 98   0   0
  0   0  92
  0   0 137
  0   0 165
  0   0 187
  0   0 205
  0   0 221
  0   0 234
  0   0 244
  0   0 251
  0   0 254
  0   0 254
  0   0 250
  0   0 240
  0   0 225
  0   0 202
  0   0 165
  0   0  68
156   0   0
189   0   0
206   0   0
215   0   0
217   0   0
215   0   0
208   0   0
199   0   0
186   0   0
172   0   0
157   0   0
141   0   0
124   0   0
108   0   0
 93   0   0
 79   0   0
 66   0   0
255 255 255
255 255 255
255 255 255
255 255 255
255 255 255
255 255 255
255 255 255
255 255 255
255 255 255
255 255 255
255 255 255
255 255 255
255 255 255
255 255 255
255 255 255
255 255 255
255 255 255
255 255 255
255 255 255
255 255 255
255 255 255
255 255 255
255 255 255
255 255 255
255 255 255
255 255 255
255 255 255
255 255 255
255 255 255
255 255 255
255 255 255
255 255 255
255 255 255
255 255 255
255 255 255
255 255 255
255 255 255
255 255 255
255 255 255
255 255 255
255 255 255
255 255 255
255 255 255
255 255 255
255 255 255
255 255 255
255 255 255
255 255 255
255 255 255
255 255 255
255 255 255
255 255 255
255 255 255
255 255 255
255 255 255
255 255 255
255 255 255
255 255 255
255 255 255
255 255 255
255 255 255
255 255 255
255 255 255
255 255 255
255 255 255
255 255 255
255 255 255
255 255 255
255 255 255
255 255 255
255 255 255
255 255 255
255 255 255
255 255 255
255 255 255
255 255 255
255 255 255
255 255 255
255 255 255
255 255 255
255 255 255
255 150   0
255 255 255
255 255 255
255 255 255
255 255 255
255 255 255
255 255 255
255 255 255
255 255 255
255 255 255
255 255 255
255 255 255
255 255 255
255 255 255
255 255 255
255 255 255
255 255 255
255 255 255
255 255 255
  0   0   0
  0   0   0
  0   0   0
  0   0   0
  0   0 128
  0   0 154
  0   0 177
  0   0 196
  0   0 211
  0   0 222
  0   0 229
  0   0 231
  0   0 229
  0   0 223
  0   0 213
  0   0 200
  0   0 184
  0   0 163
  0   0 138
  0   0  99
 87   0   0
255 150   0
138   0   0
147   0   0
154   0   0
157   0   0
160   0   0
161   0   0
161   0   0
161   0   0
160   0   0
160   0   0
159   0   0
158   0   0
157   0   0
156   0   0
155   0   0
154   0   0
153   0   0
153   0   0
152   0   0
152   0   0
152   0   0
152   0   0
152   0   0
153   0   0
153   0   0
154   0   0
155   0   0
156   0   0
157   0   0
158   0   0
159   0   0
160   0   0
160   0   0
161   0   0
161   0   0
161   0   0
160   0   0
157   0   0
154   0   0
147   0   0
138   0   0
122   0   0
 88   0   0
  0   0  99
  0   0 137
  0   0 163
  0   0 184
  0   0 202
  0   0 217
  0   0 230
  0   0 241
  0   0 248
  0   0 253
  0   0 255
  0   0 253
  0   0 246
  0   0 235
  0   0 218
  0   0 192
  0   0 151
 98   0   0
165   0   0
193   0   0
208   0   0
216   0   0
217   0   0
215   0   0
208   0   0
198   0   0
186   0   0
172   0   0
157   0   0
141   0   0
125   0   0
110   0   0
 94   0   0
 80   0   0
 67   0   0
255 255 255
255 255 255
255 255 255
255 255 255
255 255 255
255 255 255
255 255 255
255 255 255
255 255 255
255 255 255
255 255 255
255 255 255
255 255 255
255 255 255
255 255 255
255 255 255
255 255 255
255 255 255
255 255 255
255 255 255
255 255 255
255 255 255
255 255 255
255 255 255
255 255 255
255 255 255
255 255 255
255 255 255
255 255 255
255 255 255
255 255 255
255 255 255
255 255 255
255 255 255
255 255 255
255 255 255
255 255 255
255 255 255
255 255 255
255 255 255
255 255 255
255 255 255
255 255 255
255 255 255
255 255 255
255 255 255
255 255 255
255 255 255
255 255 255
255 255 255
255 255 255
255 255 255
255 255 255
255 255 255
255 255 255
255 255 255
255 255 255
255 255 255
255 255 255
255 255 255
255 255 255
255 255 255
255 255 255
255 255 255
255 255 255
255 255 255
255 255 255
255 255 255
255 255 255
255 255 255
255 255 255
255 255 255
255 255 255
255 255 255
255 255 255
255 255 255
255 255 255
255 255 255
255 255 255
255 255 255
255 255 255
255 255 255
255 150   0
255 255 255
255 255 255
255 255 255
255 255 255
255 255 255
255 255 255
255 255 255
255 255 255
255 255 255
255 255 255
255 255 255
255 255 255
255 255 255
255 255 255
255 255 255
255 255 255
255 255 255
255 255 255
  0   0   0
  0   0   0
  0   0   0
  0   0   0
  0   0  98
  0   0 129
  0   0 156
  0   0 181
  0   0 201
  0   0 217
  0   0 229
  0   0 236
  0   0 239
  0   0 238
  0   0 233
  0   0 226
  0   0 215
  0   0 201
  0   0 185
  0   0 167
  0   0 144
255 150   0
255 255 255
107   0   0
128   0   0
140   0   0
148   0   0
153   0   0
156   0   0
159   0   0
160   0   0
161   0   0
161   0   0
161   0   0
161   0   0
161   0   0
160   0   0
160   0   0
159   0   0
159   0   0
159   0   0
159   0   0
159   0   0
159   0   0
159   0   0
159   0   0
159   0   0
160   0   0
160   0   0
161   0   0
161   0   0
161   0   0
161   0   0
161   0   0
160   0   0
159   0   0
156   0   0
153   0   0
148   0   0
140   0   0
128   0   0
107   0   0
255 255 255
  0   0 114
  0   0 144
  0   0 167
  0   0 185
  0   0 202
  0   0 216
  0   0 228
  0   0 239
  0   0 247
  0   0 252
  0   0 255
  0   0 254
  0   0 250
  0   0 242
  0   0 228
  0   0 209
  0   0 180
  0   0 128
128   0   0
174   0   0
197   0   0
210   0   0
216   0   0
217   0   0
214   0   0
207   0   0
197   0   0
185   0   0
172   0   0
157   0   0
141   0   0
126   0   0
110   0   0
 95   0   0
 81   0   0
 68   0   0
255 255 255
255 255 255
255 255 255
255 255 255
255 255 255
255 255 255
255 255 255
255 255 255
255 255 255
255 255 255
255 255 255
255 255 255
255 255 255
255 255 255
255 255 255
255 255 255
255 255 255
255 255 255
255 255 255
255 255 255
255 255 255
255 255 255
255 255 255
255 255 255
255 255 255
255 255 255
255 255 255
255 255 255
255 255 255
255 255 255
255 255 255
255 255 255
255 255 255
255 255 255
255 255 255
255 255 255
255 255 255
255 255 255
255 255 255
255 255 255
255 255 255
255 255 255
255 255 255
255 255 255
255 255 255
255 255 255
255 255 255
255 255 255
255 255 255
255 255 255
255 255 255
255 255 255
255 255 255
255 255 255
255 255 255
255 255 255
255 255 255
255 255 255
255 255 255
255 255 255
255 255 255
255 255 255
255 255 255
255 255 255
255 255 255
255 255 255
255 255 255
255 255 255
255 255 255
255 255 255
255 255 255
255 255 255
255 255 255
255 255 255
255 255 255
255 255 255
255 255 255
255 255 255
255 255 255
255 255 255
255 255 255
255 255 255
255 255 255
255 150   0
255 255 255
255 255 255
255 255 255
255 255 255
255 255 255
255 255 255
255 255 255
255 255 255
255 255 255
255 255 255
255 255 255
255 255 255
255 255 255
255 255 255
255 255 255
255 255 255
255 255 255
255 255 255
  0   0   0
  0   0   0
  0   0   0
  0   0   0
 77   0   0
  0   0  66
  0   0 119
  0   0 153
  0   0 181
  0   0 203
  0   0 220
  0   0 233
  0   0 241
  0   0 245
  0   0 245
  0   0 242
  0   0 236
  0   0 228
  0   0 217
  0   0 205
  0   0 190
255 150   0
  0   0 155
  0   0 133
  0   0 102
255 255 255
108   0   0
126   0   0
137   0   0
144   0   0
149   0   0
153   0   0
156   0   0
157   0   0
159   0   0
160   0   0
160   0   0
161   0   0
161   0   0
161   0   0
161   0   0
161   0   0
161   0   0
161   0   0
161   0   0
161   0   0
161   0   0
161   0   0
160   0   0
160   0   0
159   0   0
157   0   0
156   0   0
153   0   0
149   0   0
144   0   0
137   0   0
126   0   0
108   0   0
255 255 255
  0   0 102
  0   0 133
  0   0 155
  0   0 174
  0   0 190
  0   0 205
  0   0 217
  0   0 229
  0   0 238
  0   0 246
  0   0 251
  0   0 254
  0   0 255
  0   0 252
  0   0 246
  0   0 235
  0   0 219
  0   0 197
  0   0 162
  0   0  79
150   0   0
183   0   0
202   0   0
212   0   0
217   0   0
217   0   0
213   0   0
206   0   0
196   0   0
184   0   0
170   0   0
156   0   0
141   0   0
125   0   0
110   0   0
 96   0   0
 82   0   0
 69   0   0
255 255 255
255 255 255
255 255 255
255 255 255
255 255 255
255 255 255
255 255 255
255 255 255
255 255 255
255 255 255
255 255 255
255 255 255
255 255 255
255 255 255
255 255 255
255 255 255
255 255 255
255 255 255
255 255 255
255 255 255
255 255 255
255 255 255
255 255 255
255 255 255
255 255 255
255 255 255
255 255 255
255 255 255
255 255 255
255 255 255
255 255 255
255 255 255
255 255 255
255 255 255
255 255 255
255 255 255
255 255 255
255 255 255
255 255 255
255 255 255
255 255 255
255 255 255
255 255 255
255 255 255
255 255 255
255 255 255
255 255 255
255 255 255
255 255 255
255 255 255
255 255 255
255 255 255
255 255 255
255 255 255
255 255 255
255 255 255
255 255 255
255 255 255
255 255 255
255 255 255
255 255 255
255 255 255
255 255 255
255 255 255
255 255 255
255 255 255
255 255 255
255 255 255
255 255 255
255 255 255
255 255 255
255 255 255
255 255 255
255 255 255
255 255 255
255 255 255
255 255 255
255 255 255
255 255 255
255 255 255
255 255 255
255 255 255
255 255 255
255 255 255
255 150   0
255 255 255
255 255 255
255 255 255
255 255 255
255 255 255
255 255 255
255 255 255
255 255 255
255 255 255
255 255 255
255 255 255
255 255 255
255 255 255
255 255 255
255 255 255
255 255 255
255 255 255
255 255 255
  0   0   0
  0   0   0
  0   0   0
  0   0   0
115   0   0
116   0   0
 96   0   0
  0   0  94
  0   0 144
  0   0 177
  0   0 201
  0   0 220
  0   0 234
  0   0 243
  0   0 249
  0   0 250
  0   0 249
  0   0 245
  0   0 239
  0   0 231
  0   0 221
255 150   0
  0   0 198
  0   0 184
  0   0 170
  0   0 153
  0   0 134
  0   0 110
  0   0  68
 88   0   0
111   0   0
124   0   0
133   0   0
139   0   0
144   0   0
147   0   0
150   0   0
151   0   0
153   0   0
154   0   0
154   0   0
155   0   0
155   0   0
155   0   0
154   0   0
154   0   0
153   0   0
151   0   0
150   0   0
147   0   0
144   0   0
139   0   0
133   0   0
124   0   0
111   0   0
 88   0   0
  0   0  68
  0   0 110
  0   0 134
  0   0 153
  0   0 170
  0   0 184
  0   0 198
  0   0 210
  0   0 221
  0   0 231
  0   0 239
  0   0 246
  0   0 251
  0   0 254
  0   0 255
  0   0 253
  0   0 248
  0   0 239
  0   0 226
  0   0 207
  0   0 180
  0   0 135
114   0   0
167   0   0
192   0   0
206   0   0
214   0   0
217   0   0
216   0   0
212   0   0
204   0   0
194   0   0
182   0   0
169   0   0
154   0   0
139   0   0
124   0   0
110   0   0
 95   0   0
 82   0   0
 69   0   0
255 255 255
255 255 255
255 255 255
255 255 255
255 255 255
255 255 255
255 255 255
255 255 255
255 255 255
255 255 255
255 255 255
255 255 255
255 255 255
255 255 255
255 255 255
255 255 255
255 255 255
255 255 255
255 255 255
255 255 255
255 255 255
255 255 255
255 255 255
255 255 255
255 255 255
255 255 255
255 255 255
255 255 255
255 255 255
255 255 255
255 255 255
255 255 255
255 255 255
255 255 255
255 255 255
255 255 255
255 255 255
255 255 255
255 255 255
255 255 255
255 255 255
255 255 255
255 255 255
255 255 255
255 255 255
255 255 255
255 255 255
255 255 255
255 255 255
255 255 255
255 255 255
255 255 255
255 255 255
255 255 255
255 255 255
255 255 255
255 255 255
255 255 255
255 255 255
255 255 255
255 255 255
255 255 255
255 255 255
255 255 255
255 255 255
255 255 255
255 255 255
255 255 255
255 255 255
255 255 255
255 255 255
255 255 255
255 255 255
255 255 255
255 255 255
255 255 255
255 255 255
255 255 255
255 255 255
255 255 255
255 255 255
255 255 255
255 255 255
255 255 255
255 255 255
255 150   0
255 255 255
255 255 255
255 255 255
255 255 255
255 255 255
255 255 255
255 255 255
255 255 255
255 255 255
255 255 255
255 255 255
255 255 255
255 255 255
255 255 255
255 255 255
255 255 255
255 255 255
255 255 255
  0   0   0
  0   0   0
  0   0   0
  0   0   0
131   0   0
141   0   0
141   0   0
129   0   0
 83   0   0
  0   0 126
  0   0 167
  0   0 195
  0   0 216
  0   0 231
  0   0 242
  0   0 249
  0   0 253
  0   0 253
  0   0 251
  0   0 248
  0   0 242
255 150   0
  0   0 227
  0   0 218
  0   0 208
  0   0 197
  0   0 186
  0   0 174
  0   0 161
  0   0 147
  0   0 132
  0   0 114
  0   0  92
255 255 255
 83   0   0
100   0   0
111   0   0
118   0   0
123   0   0
126   0   0
128   0   0
129   0   0
130   0   0
129   0   0
128   0   0
126   0   0
123   0   0
118   0   0
111   0   0
100   0   0
 83   0   0
255 255 255
  0   0  92
  0   0 114
  0   0 132
  0   0 147
  0   0 161
  0   0 174
  0   0 186
  0   0 197
  0   0 208
  0   0 218
  0   0 227
  0   0 235
  0   0 242
  0   0 248
  0   0 252
  0   0 254
  0   0 255
  0   0 253
  0   0 248
  0   0 241
  0   0 229
  0   0 213
  0   0 191
  0   0 156
  0   0  66
148   0   0
180   0   0
199   0   0
210   0   0
216   0   0
217   0   0
215   0   0
210   0   0
202   0   0
191   0   0
180   0   0
166   0   0
152   0   0
138   0   0
123   0   0
108   0   0
 94   0   0
 81   0   0
 69   0   0
255 255 255
255 255 255
255 255 255
255 255 255
255 255 255
255 255 255
255 255 255
255 255 255
255 255 255
255 255 255
255 255 255
255 255 255
255 255 255
255 255 255
255 255 255
255 255 255
255 255 255
255 255 255
255 255 255
255 255 255
255 255 255
255 255 255
255 255 255
255 255 255
255 255 255
255 255 255
255 255 255
255 255 255
255 255 255
255 255 255
255 255 255
255 255 255
255 255 255
255 255 255
255 255 255
255 255 255
255 255 255
255 255 255
255 255 255
255 255 255
255 255 255
255 255 255
255 255 255
255 255 255
255 255 255
255 255 255
255 255 255
255 255 255
255 255 255
255 255 255
255 255 255
255 255 255
255 255 255
255 255 255
255 255 255
255 255 255
255 255 255
255 255 255
255 255 255
255 255 255
255 255 255
255 255 255
255 255 255
255 255 255
255 255 255
255 255 255
255 255 255
255 255 255
255 255 255
255 255 255
255 255 255
255 255 255
255 255 255
255 255 255
255 255 255
255 255 255
255 255 255
255 255 255
255 255 255
255 255 255
255 255 255
255 255 255
255 255 255
255 255 255
255 255 255
255 255 255
255 150   0
255 255 255
255 255 255
255 255 255
255 255 255
255 255 255
255 255 255
255 255 255
255 255 255
255 255 255
255 255 255
255 255 255
255 255 255
255 255 255
255 255 255
255 255 255
255 255 255
255 255 255
255 255 255
  0   0   0
  0   0   0
  0   0   0
  0   0   0
137   0   0
152   0   0
160   0   0
160   0   0
151   0   0
127   0   0
  0   0  76
  0   0 148
  0   0 182
  0   0 206
  0   0 224
  0   0 237
  0   0 246
  0   0 251
  0   0 254
  0   0 255
  0   0 253
255 150   0
  0   0 246
  0   0 240
  0   0 234
  0   0 227
  0   0 219
  0   0 211
  0   0 203
  0   0 194
  0   0 186
  0   0 177
  0   0 168
  0   0 159
  0   0 151
  0   0 142
  0   0 134
  0   0 126
  0   0 120
  0   0 114
  0   0 109
  0   0 106
  0   0 105
  0   0 106
  0   0 109
  0   0 114
  0   0 120
  0   0 126
  0   0 134
  0   0 142
  0   0 151
  0   0 159
  0   0 168
  0   0 177
  0   0 186
  0   0 194
  0   0 203
  0   0 211
  0   0 219
  0   0 227
  0   0 234
  0   0 240
  0   0 246
  0   0 250
  0   0 253
  0   0 255
  0   0 255
  0   0 252
  0   0 248
  0   0 241
  0   0 230
  0   0 216
  0   0 196
  0   0 167
  0   0 114
129   0   0
170   0   0
192   0   0
206   0   0
214   0   0
217   0   0
217   0   0
213   0   0
207   0   0
199   0   0
188   0   0
176   0   0
163   0   0
149   0   0
135   0   0
121   0   0
107   0   0
 93   0   0
 80   0   0
 68   0   0
255 255 255
255 255 255
255 255 255
255 255 255
255 255 255
255 255 255
255 255 255
255 255 255
255 255 255
255 255 255
255 255 255
255 255 255
255 255 255
255 255 255
255 255 255
255 255 255
255 255 255
255 255 255
255 255 255
255 255 255
255 255 255
255 255 255
255 255 255
255 255 255
255 255 255
255 255 255
255 255 255
255 255 255
255 255 255
255 255 255
255 255 255
255 255 255
255 255 255
255 255 255
255 255 255
255 255 255
255 255 255
255 255 255
255 255 255
255 255 255
255 255 255
255 255 255
255 255 255
255 255 255
255 255 255
255 255 255
255 255 255
255 255 255
255 255 255
255 255 255
255 255 255
255 255 255
255 255 255
255 255 255
255 255 255
255 255 255
255 255 255
255 255 255
255 255 255
255 255 255
255 255 255
255 255 255
255 255 255
255 255 255
255 255 255
255 255 255
255 255 255
255 255 255
255 255 255
255 255 255
255 255 255
255 255 255
255 255 255
255 255 255
255 255 255
255 255 255
255 255 255
255 255 255
255 255 255
255 255 255
255 255 255
255 255 255
255 255 255
255 255 255
255 255 255
255 255 255
255 255 255
255 150   0
255 255 255
255 255 255
255 255 255
255 255 255
255 255 255
255 255 255
255 255 255
255 255 255
255 255 255
255 255 255
255 255 255
255 255 255
255 255 255
255 255 255
255 255 255
255 255 255
255 255 255
255 255 255
  0   0   0
  0   0   0
  0   0   0
  0   0   0
138   0   0
155   0   0
167   0   0
174   0   0
175   0   0
170   0   0
154   0   0
119   0   0
  0   0 109
  0   0 161
  0   0 191
  0   0 211
  0   0 227
  0   0 238
  0   0 246
  0   0 251
  0   0 254
255 150   0
  0   0 254
  0   0 253
  0   0 250
  0   0 246
  0   0 242
  0   0 237
  0   0 231
  0   0 225
  0   0 220
  0   0 214
  0   0 208
  0   0 202
  0   0 197
  0   0 192
  0   0 187
  0   0 183
  0   0 180
  0   0 177
  0   0 175
  0   0 174
  0   0 174
  0   0 174
  0   0 175
  0   0 177
  0   0 180
  0   0 183
  0   0 187
  0   0 192
  0   0 197
  0   0 202
  0   0 208
  0   0 214
  0   0 220
  0   0 225
  0   0 231
  0   0 237
  0   0 242
  0   0 246
  0   0 250
  0   0 253
  0   0 254
  0   0 255
  0   0 254
  0   0 251
  0   0 246
  0   0 239
  0   0 229
  0   0 216
  0   0 197
  0   0 171
  0   0 127
112   0   0
161   0   0
186   0   0
201   0   0
211   0   0
216   0   0
217   0   0
216   0   0
211   0   0
204   0   0
195   0   0
185   0   0
173   0   0
160   0   0
146   0   0
132   0   0
118   0   0
104   0   0
 91   0   0
 79   0   0
 67   0   0
255 255 255
255 255 255
255 255 255
255 255 255
255 255 255
255 255 255
255 255 255
255 255 255
255 255 255
255 255 255
255 255 255
255 255 255
255 255 255
255 255 255
255 255 255
255 255 255
255 255 255
255 255 255
255 255 255
255 255 255
255 255 255
255 255 255
255 255 255
255 255 255
255 255 255
255 255 255
255 255 255
255 255 255
255 255 255
255 255 255
255 255 255
255 255 255
255 255 255
255 255 255
255 255 255
255 255 255
255 255 255
255 255 255
255 255 255
255 255 255
255 255 255
255 255 255
255 255 255
255 255 255
255 255 255
255 255 255
255 255 255
255 255 255
255 255 255
255 255 255
255 255 255
255 255 255
255 255 255
255 255 255
255 255 255
255 255 255
255 255 255
255 255 255
255 255 255
255 255 255
255 255 255
255 255 255
255 255 255
255 255 255
255 255 255
255 255 255
255 255 255
255 255 255
255 255 255
255 255 255
255 255 255
255 255 255
255 255 255
255 255 255
255 255 255
255 255 255
255 255 255
255 255 255
255 255 255
255 255 255
255 255 255
255 255 255
255 255 255
255 255 255
255 255 255
255 255 255
255 255 255
255 255 255
255 150   0
255 255 255
255 255 255
255 255 255
255 255 255
255 255 255
255 255 255
255 255 255
255 255 255
255 255 255
255 255 255
255 255 255
255 255 255
255 255 255
255 255 255
255 255 255
255 255 255
255 255 255
255 255 255
  0   0   0
  0   0   0
  0   0   0
  0   0   0
134   0   0
153   0   0
168   0   0
179   0   0
186   0   0
188   0   0
184   0   0
174   0   0
154   0   0
112   0   0
  0   0 119
  0   0 165
  0   0 192
  0   0 211
  0   0 225
  0   0 236
  0   0 243
255 150   0
  0   0 252
  0   0 254
  0   0 255
  0   0 255
  0   0 253
  0   0 251
  0   0 249
  0   0 245
  0   0 242
  0   0 238
  0   0 235
  0   0 231
  0   0 228
  0   0 224
  0   0 221
  0   0 219
  0   0 216
  0   0 215
  0   0 213
  0   0 213
  0   0 212
  0   0 213
  0   0 213
  0   0 215
  0   0 216
  0   0 219
  0   0 221
  0   0 224
  0   0 228
  0   0 231
  0   0 235
  0   0 238
  0   0 242
  0   0 245
  0   0 249
  0   0 251
  0   0 253
  0   0 255
  0   0 255
  0   0 254
  0   0 252
  0   0 249
  0   0 243
  0   0 236
  0   0 226
  0   0 212
  0   0 194
  0   0 169
  0   0 128
105   0   0
156   0   0
182   0   0
198   0   0
208   0   0
215   0   0
217   0   0
217   0   0
214   0   0
208   0   0
200   0   0
191   0   0
180   0   0
168   0   0
155   0   0
142   0   0
128   0   0
115   0   0
102   0   0
 89   0   0
 77   0   0
 66   0   0
255 255 255
255 255 255
255 255 255
255 255 255
255 255 255
255 255 255
255 255 255
255 255 255
255 255 255
255 255 255
255 255 255
255 255 255
255 255 255
255 255 255
255 255 255
255 255 255
255 255 255
255 255 255
255 255 255
255 255 255
255 255 255
255 255 255
255 255 255
255 255 255
255 255 255
255 255 255
255 255 255
255 255 255
255 255 255
255 255 255
255 255 255
255 255 255
255 255 255
255 255 255
255 255 255
255 255 255
255 255 255
255 255 255
255 255 255
255 255 255
255 255 255
255 255 255
255 255 255
255 255 255
255 255 255
255 255 255
255 255 255
255 255 255
255 255 255
255 255 255
255 255 255
255 255 255
255 255 255
255 255 255
255 255 255
255 255 255
255 255 255
255 255 255
255 255 255
255 255 255
255 255 255
255 255 255
255 255 255
255 255 255
255 255 255
255 255 255
255 255 255
255 255 255
255 255 255
255 255 255
255 255 255
255 255 255
255 255 255
255 255 255
255 255 255
255 255 255
255 255 255
255 255 255
255 255 255
255 255 255
255 255 255
255 255 255
255 255 255
255 255 255
255 255 255
255 255 255
255 255 255
255 255 255
255 255 255
255 150   0
255 255 255
255 255 255
255 255 255
255 255 255
255 255 255
255 255 255
255 255 255
255 255 255
255 255 255
255 255 255
255 255 255
255 255 255
255 255 255
255 255 255
255 255 255
255 255 255
255 255 255
255 255 255
  0   0   0
  0   0   0
  0   0   0
  0   0   0
127   0   0
147   0   0
163   0   0
177   0   0
187   0   0
194   0   0
197   0   0
196   0   0
190   0   0
178   0   0
156   0   0
115   0   0
  0   0 113
  0   0 160
  0   0 186
  0   0 205
  0   0 219
255 150   0
  0   0 238
  0   0 244
  0   0 249
  0   0 252
  0   0 254
  0   0 255
  0   0 255
  0   0 254
  0   0 254
  0   0 252
  0   0 251
  0   0 249
  0   0 247
  0   0 245
  0   0 243
  0   0 242
  0   0 240
  0   0 239
  0   0 239
  0   0 238
  0   0 238
  0   0 238
  0   0 239
  0   0 239
  0   0 240
  0   0 242
  0   0 243
  0   0 245
  0   0 247
  0   0 249
  0   0 251
  0   0 252
  0   0 254
  0   0 254
  0   0 255
  0   0 255
  0   0 254
  0   0 252
  0   0 249
  0   0 244
  0   0 238
  0   0 230
  0   0 219
  0   0 205
  0   0 187
  0   0 161
  0   0 117
112   0   0
157   0   0
181   0   0
196   0   0
207   0   0
214   0   0
217   0   0
217   0   0
215   0   0
211   0   0
204   0   0
196   0   0
186   0   0
175   0   0
163   0   0
151   0   0
137   0   0
124   0   0
111   0   0
 98   0   0
 86   0   0
 75   0   0
255 255 255
255 255 255
255 255 255
255 255 255
255 255 255
255 255 255
255 255 255
255 255 255
255 255 255
255 255 255
255 255 255
255 255 255
255 255 255
255 255 255
255 255 255
255 255 255
255 255 255
255 255 255
255 255 255
255 255 255
255 255 255
255 255 255
255 255 255
255 255 255
255 255 255
255 255 255
255 255 255
255 255 255
255 255 255
255 255 255
255 255 255
255 255 255
255 255 255
255 255 255
255 255 255
255 255 255
255 255 255
255 255 255
255 255 255
255 255 255
255 255 255
255 255 255
255 255 255
255 255 255
255 255 255
255 255 255
255 255 255
255 255 255
255 255 255
255 255 255
255 255 255
255 255 255
255 255 255
255 255 255
255 255 255
255 255 255
255 255 255
255 255 255
255 255 255
255 255 255
255 255 255
255 255 255
255 255 255
255 255 255
255 255 255
255 255 255
255 255 255
255 255 255
255 255 255
255 255 255
255 255 255
255 255 255
255 255 255
255 255 255
255 255 255
255 255 255
255 255 255
255 255 255
255 255 255
255 255 255
255 255 255
255 255 255
255 255 255
255 255 255
255 255 255
255 255 255
255 255 255
255 255 255
255 255 255
255 255 255
255 255 255
255 150   0
255 255 255
255 255 255
255 255 255
255 255 255
255 255 255
255 255 255
255 255 255
255 255 255
255 255 255
255 255 255
255 255 255
255 255 255
255 255 255
255 255 255
255 255 255
255 255 255
255 255 255
255 255 255
  0   0   0
  0   0   0
  0   0   0
  0   0   0
118   0   0
138   0   0
155   0   0
170   0   0
182   0   0
193   0   0
200   0   0
204   0   0
205   0   0
202   0   0
194   0   0
182   0   0
162   0   0
130   0   0
  0   0  81
  0   0 145
  0   0 174
255 150   0
  0   0 209
  0   0 220
  0   0 229
  0   0 237
  0   0 242
  0   0 246
  0   0 250
  0   0 252
  0   0 253
  0   0 254
  0   0 255
  0   0 255
  0   0 255
  0   0 254
  0   0 254
  0   0 254
  0   0 253
  0   0 253
  0   0 252
  0   0 252
  0   0 252
  0   0 252
  0   0 252
  0   0 253
  0   0 253
  0   0 254
  0   0 254
  0   0 254
  0   0 255
  0   0 255
  0   0 255
  0   0 254
  0   0 253
  0   0 252
  0   0 250
  0   0 246
  0   0 242
  0   0 237
  0   0 229
  0   0 220
  0   0 209
  0   0 194
  0   0 174
  0   0 145
  0   0  82
129   0   0
163   0   0
183   0   0
197   0   0
207   0   0
213   0   0
216   0   0
217   0   0
216   0   0
212   0   0
207   0   0
199   0   0
190   0   0
180   0   0
169   0   0
157   0   0
145   0   0
132   0   0
120   0   0
107   0   0
 95   0   0
 83   0   0
 72   0   0
255 255 255
255 255 255
255 255 255
255 255 255
255 255 255
255 255 255
255 255 255
255 255 255
255 255 255
255 255 255
255 255 255
255 255 255
255 255 255
255 255 255
255 255 255
255 255 255
255 255 255
255 255 255
255 255 255
255 255 255
255 255 255
255 255 255
255 255 255
255 255 255
255 255 255
255 255 255
255 255 255
255 255 255
255 255 255
255 255 255
255 255 255
255 255 255
255 255 255
255 255 255
255 255 255
255 255 255
255 255 255
255 255 255
255 255 255
255 255 255
255 255 255
255 255 255
255 255 255
255 255 255
255 255 255
255 255 255
255 255 255
255 255 255
255 255 255
255 255 255
255 255 255
255 255 255
255 255 255
255 255 255
255 255 255
255 255 255
255 255 255
255 255 255
255 255 255
255 255 255
255 255 255
255 255 255
255 255 255
255 255 255
255 255 255
255 255 255
255 255 255
255 255 255
255 255 255
255 255 255
255 255 255
255 255 255
255 255 255
255 255 255
255 255 255
255 255 255
255 255 255
255 255 255
255 255 255
255 255 255
255 255 255
255 255 255
255 255 255
255 255 255
255 255 255
255 255 255
255 255 255
255 255 255
255 255 255
255 255 255
255 255 255
255 255 255
255 150   0
255 255 255
255 255 255
255 255 255
255 255 255
255 255 255
255 255 255
255 255 255
255 255 255
255 255 255
255 255 255
255 255 255
255 255 255
255 255 255
255 255 255
255 255 255
255 255 255
255 255 255
255 255 255
  0   0   0
  0   0   0
  0   0   0
  0   0   0
107   0   0
126   0   0
143   0   0
159   0   0
173   0   0
185   0   0
196   0   0
203   0   0
208   0   0
211   0   0
210   0   0
206   0   0
199   0   0
188   0   0
172   0   0
148   0   0
106   0   0
255 150   0
  0   0 151
  0   0 175
  0   0 192
  0   0 205
  0   0 216
  0   0 224
  0   0 231
  0   0 236
  0   0 241
  0   0 244
  0   0 247
  0   0 249
  0   0 251
  0   0 252
  0   0 253
  0   0 253
  0   0 254
  0   0 254
  0   0 254
  0   0 254
  0   0 254
  0   0 254
  0   0 254
  0   0 254
  0   0 254
  0   0 253
  0   0 253
  0   0 252
  0   0 251
  0   0 249
  0   0 247
  0   0 244
  0   0 241
  0   0 236
  0   0 231
  0   0 224
  0   0 216
  0   0 205
  0   0 192
  0   0 175
  0   0 151
  0   0 110
106   0   0
148   0   0
172   0   0
188   0   0
200   0   0
208   0   0
213   0   0
216   0   0
217   0   0
216   0   0
213   0   0
208   0   0
201   0   0
193   0   0
184   0   0
174   0   0
163   0   0
151   0   0
139   0   0
127   0   0
114   0   0
102   0   0
 90   0   0
 79   0   0
 69   0   0
255 255 255
255 255 255
255 255 255
255 255 255
255 255 255
255 255 255
255 255 255
255 255 255
255 255 255
255 255 255
255 255 255
255 255 255
255 255 255
255 255 255
255 255 255
255 255 255
255 255 255
255 255 255
255 255 255
255 255 255
255 255 255
255 255 255
255 255 255
255 255 255
255 255 255
255 255 255
255 255 255
255 255 255
255 255 255
255 255 255
255 255 255
255 255 255
255 255 255
255 255 255
255 255 255
255 255 255
255 255 255
255 255 255
255 255 255
255 255 255
255 255 255
255 255 255
255 255 255
255 255 255
255 255 255
255 255 255
255 255 255
255 255 255
255 255 255
255 255 255
255 255 255
255 255 255
255 255 255
255 255 255
255 255 255
255 255 255
255 255 255
255 255 255
255 255 255
255 255 255
255 255 255
255 255 255
255 255 255
255 255 255
255 255 255
255 255 255
255 255 255
255 255 255
255 255 255
255 255 255
255 255 255
255 255 255
255 255 255
255 255 255
255 255 255
255 255 255
255 255 255
255 255 255
255 255 255
255 255 255
255 255 255
255 255 255
255 255 255
255 255 255
255 255 255
255 255 255
255 255 255
255 255 255
255 255 255
255 255 255
255 255 255
255 255 255
255 255 255
255 150   0
255 255 255
255 255 255
255 255 255
255 255 255
255 255 255
255 255 255
255 255 255
255 255 255
255 255 255
255 255 255
255 255 255
255 255 255
255 255 255
255 255 255
255 255 255
255 255 255
255 255 255
255 255 255
  0   0   0
  0   0   0
  0   0   0
  0   0   0
 95   0   0
113   0   0
129   0   0
145   0   0
160   0   0
174   0   0
186   0   0
196   0   0
204   0   0
210   0   0
213   0   0
214   0   0
213   0   0
210   0   0
203   0   0
195   0   0
183   0   0
255 150   0
144   0   0
106   0   0
  0   0 100
  0   0 141
  0   0 164
  0   0 181
  0   0 194
  0   0 204
  0   0 212
  0   0 219
  0   0 224
  0   0 229
  0   0 233
  0   0 236
  0   0 238
  0   0 240
  0   0 241
  0   0 243
  0   0 243
  0   0 244
  0   0 244
  0   0 244
  0   0 243
  0   0 243
  0   0 241
  0   0 240
  0   0 238
  0   0 236
  0   0 233
  0   0 229
  0   0 224
  0   0 219
  0   0 212
  0   0 204
  0   0 194
  0   0 181
  0   0 164
  0   0 141
  0   0 100
106   0   0
144   0   0
167   0   0
183   0   0
195   0   0
204   0   0
210   0   0
214   0   0
217   0   0
217   0   0
216   0   0
213   0   0
208   0   0
202   0   0
195   0   0
186   0   0
177   0   0
166   0   0
155   0   0
144   0   0
132   0   0
120   0   0
108   0   0
 97   0   0
 86   0   0
 75   0   0
 65   0   0
255 255 255
255 255 255
255 255 255
255 255 255
255 255 255
255 255 255
255 255 255
255 255 255
255 255 255
255 255 255
255 255 255
255 255 255
255 255 255
255 255 255
255 255 255
255 255 255
255 255 255
255 255 255
255 255 255
255 255 255
255 255 255
255 255 255
255 255 255
255 255 255
255 255 255
255 255 255
255 255 255
255 255 255
255 255 255
255 255 255
255 255 255
255 255 255
255 255 255
255 255 255
255 255 255
255 255 255
255 255 255
255 255 255
255 255 255
255 255 255
255 255 255
255 255 255
255 255 255
255 255 255
255 255 255
255 255 255
255 255 255
255 255 255
255 255 255
255 255 255
255 255 255
255 255 255
255 255 255
255 255 255
255 255 255
255 255 255
255 255 255
255 255 255
255 255 255
255 255 255
255 255 255
255 255 255
255 255 255
255 255 255
255 255 255
255 255 255
255 255 255
255 255 255
255 255 255
255 255 255
255 255 255
255 255 255
255 255 255
255 255 255
255 255 255
255 255 255
255 255 255
255 255 255
255 255 255
255 255 255
255 255 255
255 255 255
255 255 255
255 255 255
255 255 255
255 255 255
255 255 255
255 255 255
255 255 255
255 255 255
255 255 255
255 255 255
255 255 255
255 255 255
255 150   0
255 255 255
255 255 255
255 255 255
255 255 255
255 255 255
255 255 255
255 255 255
255 255 255
255 255 255
255 255 255
255 255 255
255 255 255
255 255 255
255 255 255
255 255 255
255 255 255
255 255 255
255 255 255
  0   0   0
  0   0   0
  0   0   0
  0   0   0
 83   0   0
 99   0   0
115   0   0
130   0   0
145   0   0
159   0   0
172   0   0
183   0   0
193   0   0
202   0   0
208   0   0
213   0   0
216   0   0
216   0   0
215   0   0
213   0   0
208   0   0
255 150   0
194   0   0
183   0   0
170   0   0
153   0   0
129   0   0
 85   0   0
  0   0 105
  0   0 137
  0   0 156
  0   0 170
  0   0 181
  0   0 190
  0   0 196
  0   0 202
  0   0 207
  0   0 210
  0   0 213
  0   0 215
  0   0 217
  0   0 217
  0   0 218
  0   0 217
  0   0 217
  0   0 215
  0   0 213
  0   0 210
  0   0 207
  0   0 202
  0   0 196
  0   0 190
  0   0 181
  0   0 170
  0   0 156
  0   0 137
  0   0 105
 85   0   0
129   0   0
153   0   0
170   0   0
183   0   0
194   0   0
202   0   0
208   0   0
213   0   0
216   0   0
217   0   0
217   0   0
215   0   0
212   0   0
208   0   0
202   0   0
195   0   0
187   0   0
178   0   0
169   0   0
158   0   0
147   0   0
136   0   0
125   0   0
114   0   0
102   0   0
 91   0   0
 81   0   0
 71   0   0
255 255 255
255 255 255
255 255 255
255 255 255
255 255 255
255 255 255
255 255 255
255 255 255
255 255 255
255 255 255
255 255 255
255 255 255
255 255 255
255 255 255
255 255 255
255 255 255
255 255 255
255 255 255
255 255 255
255 255 255
255 255 255
255 255 255
255 255 255
255 255 255
255 255 255
255 255 255
255 255 255
255 255 255
255 255 255
255 255 255
255 255 255
255 255 255
255 255 255
255 255 255
255 255 255
255 255 255
255 255 255
255 255 255
255 255 255
255 255 255
255 255 255
255 255 255
255 255 255
255 255 255
255 255 255
255 255 255
255 255 255
255 255 255
255 255 255
255 255 255
255 255 255
255 255 255
255 255 255
255 255 255
255 255 255
255 255 255
255 255 255
255 255 255
255 255 255
255 255 255
255 255 255
255 255 255
255 255 255
255 255 255
255 255 255
255 255 255
255 255 255
255 255 255
255 255 255
255 255 255
255 255 255
255 255 255
255 255 255
255 255 255
255 255 255
255 255 255
255 255 255
255 255 255
255 255 255
255 255 255
255 255 255
255 255 255
255 255 255
255 255 255
255 255 255
255 255 255
255 255 255
255 255 255
255 255 255
255 255 255
255 255 255
255 255 255
255 255 255
255 255 255
255 255 255
255 255 255
255 150   0
255 255 255
255 255 255
255 255 255
255 255 255
255 255 255
255 255 255
255 255 255
255 255 255
255 255 255
255 255 255
255 255 255
255 255 255
255 255 255
255 255 255
255 255 255
255 255 255
255 255 255
255 255 255
  0   0   0
  0   0   0
  0   0   0
  0   0   0
 71   0   0
 86   0   0
100   0   0
114   0   0
128   0   0
142   0   0
155   0   0
168   0   0
179   0   0
189   0   0
197   0   0
204   0   0
209   0   0
213   0   0
216   0   0
217   0   0
217   0   0
255 150   0
213   0   0
209   0   0
204   0   0
197   0   0
190   0   0
180   0   0
170   0   0
157   0   0
142   0   0
122   0   0
 90   0   0
  0   0  77
  0   0 112
  0   0 130
  0   0 142
  0   0 150
  0   0 157
  0   0 161
  0   0 164
  0   0 166
  0   0 167
  0   0 166
  0   0 164
  0   0 161
  0   0 157
  0   0 150
  0   0 142
  0   0 130
  0   0 112
  0   0  77
 90   0   0
122   0   0
142   0   0
157   0   0
170   0   0
180   0   0
190   0   0
197   0   0
204   0   0
209   0   0
213   0   0
215   0   0
217   0   0
217   0   0
216   0   0
214   0   0
211   0   0
206   0   0
201   0   0
194   0   0
187   0   0
179   0   0
169   0   0
160   0   0
150   0   0
139   0   0
128   0   0
117   0   0
106   0   0
 96   0   0
 85   0   0
 76   0   0
 66   0   0
255 255 255
255 255 255
255 255 255
255 255 255
255 255 255
255 255 255
255 255 255
255 255 255
255 255 255
255 255 255
255 255 255
255 255 255
255 255 255
255 255 255
255 255 255
255 255 255
255 255 255
255 255 255
255 255 255
255 255 255
255 255 255
255 255 255
255 255 255
255 255 255
255 255 255
255 255 255
255 255 255
255 255 255
255 255 255
255 255 255
255 255 255
255 255 255
255 255 255
255 255 255
255 255 255
255 255 255
255 255 255
255 255 255
255 255 255
255 255 255
255 255 255
255 255 255
255 255 255
255 255 255
255 255 255
255 255 255
255 255 255
255 255 255
255 255 255
255 255 255
255 255 255
255 255 255
255 255 255
255 255 255
255 255 255
255 255 255
255 255 255
255 255 255
255 255 255
255 255 255
255 255 255
255 255 255
255 255 255
255 255 255
255 255 255
255 255 255
255 255 255
255 255 255
255 255 255
255 255 255
255 255 255
255 255 255
255 255 255
255 255 255
255 255 255
255 255 255
255 255 255
255 255 255
255 255 255
255 255 255
255 255 255
255 255 255
255 255 255
255 255 255
255 255 255
255 255 255
255 255 255
255 255 255
255 255 255
255 255 255
255 255 255
255 255 255
255 255 255
255 255 255
255 255 255
255 255 255
255 255 255
255 150   0
255 255 255
255 255 255
255 255 255
255 255 255
255 255 255
255 255 255
255 255 255
255 255 255
255 255 255
255 255 255
255 255 255
255 255 255
255 255 255
255 255 255
255 255 255
255 255 255
255 255 255
255 255 255
  0   0   0
  0   0   0
  0   0   0
  0   0   0
255 255 255
 72   0   0
 85   0   0
 98   0   0
112   0   0
125   0   0
138   0   0
150   0   0
161   0   0
172   0   0
182   0   0
190   0   0
197   0   0
203   0   0
208   0   0
212   0   0
215   0   0
255 150   0
217   0   0
217   0   0
216   0   0
214   0   0
211   0   0
208   0   0
204   0   0
199   0   0
194   0   0
188   0   0
182   0   0
175   0   0
169   0   0
162   0   0
155   0   0
148   0   0
142   0   0
137   0   0
133   0   0
131   0   0
130   0   0
131   0   0
133   0   0
137   0   0
142   0   0
148   0   0
155   0   0
162   0   0
169   0   0
175   0   0
182   0   0
188   0   0
194   0   0
199   0   0
204   0   0
208   0   0
211   0   0
214   0   0
216   0   0
217   0   0
217   0   0
216   0   0
215   0   0
212   0   0
209   0   0
204   0   0
199   0   0
192   0   0
185   0   0
177   0   0
169   0   0
160   0   0
150   0   0
140   0   0
130   0   0
119   0   0
109   0   0
 99   0   0
 89   0   0
 79   0   0
 70   0   0
255 255 255
255 255 255
255 255 255
255 255 255
255 255 255
255 255 255
255 255 255
255 255 255
255 255 255
255 255 255
255 255 255
255 255 255
255 255 255
255 255 255
255 255 255
255 255 255
255 255 255
255 255 255
255 255 255
255 255 255
255 255 255
255 255 255
255 255 255
255 255 255
255 255 255
255 255 255
255 255 255
255 255 255
255 255 255
255 255 255
255 255 255
255 255 255
255 255 255
255 255 255
255 255 255
255 255 255
255 255 255
255 255 255
255 255 255
255 255 255
255 255 255
255 255 255
255 255 255
255 255 255
255 255 255
255 255 255
255 255 255
255 255 255
255 255 255
255 255 255
255 255 255
255 255 255
255 255 255
255 255 255
255 255 255
255 255 255
255 255 255
255 255 255
255 255 255
255 255 255
255 255 255
255 255 255
255 255 255
255 255 255
255 255 255
255 255 255
255 255 255
255 255 255
255 255 255
255 255 255
255 255 255
255 255 255
255 255 255
255 255 255
255 255 255
255 255 255
255 255 255
255 255 255
255 255 255
255 255 255
255 255 255
255 255 255
255 255 255
255 255 255
255 255 255
255 255 255
255 255 255
255 255 255
255 255 255
255 255 255
255 255 255
255 255 255
255 255 255
255 255 255
255 255 255
255 255 255
255 255 255
255 255 255
255 255 255
255 150   0
255 255 255
255 255 255
255 255 255
255 255 255
255 255 255
255 255 255
255 255 255
255 255 255
255 255 255
255 255 255
255 255 255
255 255 255
255 255 255
255 255 255
255 255 255
255 255 255
255 255 255
255 255 255
  0   0   0
  0   0   0
  0   0   0
  0   0   0
255 255 255
255 255 255
 71   0   0
 83   0   0
 95   0   0
107   0   0
119   0   0
131   0   0
142   0   0
153   0   0
163   0   0
172   0   0
181   0   0
188   0   0
195   0   0
200   0   0
205   0   0
255 150   0
212   0   0
214   0   0
216   0   0
217   0   0
217   0   0
217   0   0
216   0   0
215   0   0
213   0   0
211   0   0
209   0   0
206   0   0
204   0   0
201   0   0
199   0   0
196   0   0
194   0   0
193   0   0
192   0   0
191   0   0
191   0   0
191   0   0
192   0   0
193   0   0
194   0   0
196   0   0
199   0   0
201   0   0
204   0   0
206   0   0
209   0   0
211   0   0
213   0   0
215   0   0
216   0   0
217   0   0
217   0   0
217   0   0
216   0   0
214   0   0
212   0   0
209   0   0
205   0   0
200   0   0
195   0   0
189   0   0
182   0   0
175   0   0
167   0   0
158   0   0
149   0   0
140   0   0
130   0   0
120   0   0
110   0   0
101   0   0
 91   0   0
 82   0   0
 73   0   0
 64   0   0
255 255 255
255 255 255
255 255 255
255 255 255
255 255 255
255 255 255
255 255 255
255 255 255
255 255 255
255 255 255
255 255 255
255 255 255
255 255 255
255 255 255
255 255 255
255 255 255
255 255 255
255 255 255
255 255 255
255 255 255
255 255 255
255 255 255
255 255 255
255 255 255
255 255 255
255 255 255
255 255 255
255 255 255
255 255 255
255 255 255
255 255 255
255 255 255
255 255 255
255 255 255
255 255 255
255 255 255
255 255 255
255 255 255
255 255 255
255 255 255
255 255 255
255 255 255
255 255 255
255 255 255
255 255 255
255 255 255
255 255 255
255 255 255
255 255 255
255 255 255
255 255 255
255 255 255
255 255 255
255 255 255
255 255 255
255 255 255
255 255 255
255 255 255
255 255 255
255 255 255
255 255 255
255 255 255
255 255 255
255 255 255
255 255 255
255 255 255
255 255 255
255 255 255
255 255 255
255 255 255
255 255 255
255 255 255
255 255 255
255 255 255
255 255 255
255 255 255
255 255 255
255 255 255
255 255 255
255 255 255
255 255 255
255 255 255
255 255 255
255 255 255
255 255 255
255 255 255
255 255 255
255 255 255
255 255 255
255 255 255
255 255 255
255 255 255
255 255 255
255 255 255
255 255 255
255 255 255
255 255 255
255 255 255
255 255 255
255 255 255
255 150   0
255 255 255
255 255 255
255 255 255
255 255 255
255 255 255
255 255 255
255 255 255
255 255 255
255 255 255
255 255 255
255 255 255
255 255 255
255 255 255
255 255 255
255 255 255
255 255 255
255 255 255
255 255 255
  0   0   0
  0   0   0
  0   0   0
  0   0   0
255 255 255
255 255 255
255 255 255
 69   0   0
 79   0   0
 90   0   0
101   0   0
112   0   0
123   0   0
133   0   0
143   0   0
153   0   0
162   0   0
170   0   0
177   0   0
184   0   0
190   0   0
255 150   0
200   0   0
204   0   0
207   0   0
210   0   0
213   0   0
214   0   0
216   0   0
217   0   0
217   0   0
217   0   0
217   0   0
216   0   0
216   0   0
215   0   0
215   0   0
214   0   0
213   0   0
213   0   0
212   0   0
212   0   0
212   0   0
212   0   0
212   0   0
213   0   0
213   0   0
214   0   0
215   0   0
215   0   0
216   0   0
216   0   0
217   0   0
217   0   0
217   0   0
217   0   0
216   0   0
214   0   0
213   0   0
210   0   0
207   0   0
204   0   0
200   0   0
195   0   0
190   0   0
184   0   0
177   0   0
170   0   0
163   0   0
155   0   0
146   0   0
138   0   0
129   0   0
119   0   0
110   0   0
101   0   0
 92   0   0
 83   0   0
 75   0   0
 66   0   0
255 255 255
255 255 255
255 255 255
255 255 255
255 255 255
255 255 255
255 255 255
255 255 255
255 255 255
255 255 255
255 255 255
255 255 255
255 255 255
255 255 255
255 255 255
255 255 255
255 255 255
255 255 255
255 255 255
255 255 255
255 255 255
255 255 255
255 255 255
255 255 255
255 255 255
255 255 255
255 255 255
255 255 255
255 255 255
255 255 255
255 255 255
255 255 255
255 255 255
255 255 255
255 255 255
255 255 255
255 255 255
255 255 255
255 255 255
255 255 255
255 255 255
255 255 255
255 255 255
255 255 255
255 255 255
255 255 255
255 255 255
255 255 255
255 255 255
255 255 255
255 255 255
255 255 255
255 255 255
255 255 255
255 255 255
255 255 255
255 255 255
255 255 255
255 255 255
255 255 255
255 255 255
255 255 255
255 255 255
255 255 255
255 255 255
255 255 255
255 255 255
255 255 255
255 255 255
255 255 255
255 255 255
255 255 255
255 255 255
255 255 255
255 255 255
255 255 255
255 255 255
255 255 255
255 255 255
255 255 255
255 255 255
255 255 255
255 255 255
255 255 255
255 255 255
255 255 255
255 255 255
255 255 255
255 255 255
255 255 255
255 255 255
255 255 255
255 255 255
255 255 255
255 255 255
255 255 255
255 255 255
255 255 255
255 255 255
255 255 255
255 255 255
255 255 255
255 150   0
255 255 255
255 255 255
255 255 255
255 255 255
255 255 255
255 255 255
255 255 255
255 255 255
255 255 255
255 255 255
255 255 255
255 255 255
255 255 255
255 255 255
255 255 255
255 255 255
255 255 255
255 255 255
  0   0   0
  0   0   0
  0   0   0
  0   0   0
255 255 255
255 255 255
255 255 255
255 255 255
 65   0   0
 74   0   0
 84   0   0
 94   0   0
104   0   0
114   0   0
123   0   0
132   0   0
141   0   0
149   0   0
157   0   0
165   0   0
171   0   0
255 150   0
183   0   0
188   0   0
193   0   0
197   0   0
201   0   0
204   0   0
207   0   0
209   0   0
211   0   0
213   0   0
214   0   0
215   0   0
216   0   0
216   0   0
216   0   0
217   0   0
217   0   0
217   0   0
217   0   0
217   0   0
217   0   0
217   0   0
217   0   0
217   0   0
217   0   0
217   0   0
216   0   0
216   0   0
216   0   0
215   0   0
214   0   0
213   0   0
211   0   0
209   0   0
207   0   0
204   0   0
201   0   0
197   0   0
193   0   0
188   0   0
183   0   0
177   0   0
171   0   0
165   0   0
158   0   0
150   0   0
142   0   0
134   0   0
126   0   0
117   0   0
109   0   0
100   0   0
 92   0   0
 83   0   0
 75   0   0
 67   0   0
255 255 255
255 255 255
255 255 255
255 255 255
255 255 255
255 255 255
255 255 255
255 255 255
255 255 255
255 255 255
255 255 255
255 255 255
255 255 255
255 255 255
255 255 255
255 255 255
255 255 255
255 255 255
255 255 255
255 255 255
255 255 255
255 255 255
255 255 255
255 255 255
255 255 255
255 255 255
255 255 255
255 255 255
255 255 255
255 255 255
255 255 255
255 255 255
255 255 255
255 255 255
255 255 255
255 255 255
255 255 255
255 255 255
255 255 255
255 255 255
255 255 255
255 255 255
255 255 255
255 255 255
255 255 255
255 255 255
255 255 255
255 255 255
255 255 255
255 255 255
255 255 255
255 255 255
255 255 255
255 255 255
255 255 255
255 255 255
255 255 255
255 255 255
255 255 255
255 255 255
255 255 255
255 255 255
255 255 255
255 255 255
255 255 255
255 255 255
255 255 255
255 255 255
255 255 255
255 255 255
255 255 255
255 255 255
255 255 255
255 255 255
255 255 255
255 255 255
255 255 255
255 255 255
255 255 255
255 255 255
255 255 255
255 255 255
255 255 255
255 255 255
255 255 255
255 255 255
255 255 255
255 255 255
255 255 255
255 255 255
255 255 255
255 255 255
255 255 255
255 255 255
255 255 255
255 255 255
255 255 255
255 255 255
255 255 255
255 255 255
255 255 255
255 255 255
255 255 255
255 255 255
255 150   0
255 255 255
255 255 255
255 255 255
255 255 255
255 255 255
255 255 255
255 255 255
255 255 255
255 255 255
255 255 255
255 255 255
255 255 255
255 255 255
255 255 255
255 255 255
255 255 255
255 255 255
255 255 255
  0   0   0
  0   0   0
  0   0   0
  0   0   0
255 255 255
255 255 255
255 255 255
255 255 255
255 255 255
255 255 255
 68   0   0
 77   0   0
 86   0   0
 95   0   0
104   0   0
112   0   0
121   0   0
129   0   0
136   0   0
144   0   0
151   0   0
255 150   0
163   0   0
169   0   0
175   0   0
180   0   0
184   0   0
188   0   0
192   0   0
195   0   0
198   0   0
201   0   0
203   0   0
205   0   0
206   0   0
208   0   0
209   0   0
210   0   0
210   0   0
211   0   0
211   0   0
211   0   0
211   0   0
211   0   0
211   0   0
211   0   0
210   0   0
210   0   0
209   0   0
208   0   0
206   0   0
205   0   0
203   0   0
201   0   0
198   0   0
195   0   0
192   0   0
188   0   0
184   0   0
180   0   0
175   0   0
169   0   0
163   0   0
157   0   0
151   0   0
144   0   0
137   0   0
129   0   0
121   0   0
114   0   0
106   0   0
 98   0   0
 90   0   0
 82   0   0
 75   0   0
 67   0   0
255 255 255
255 255 255
255 255 255
255 255 255
255 255 255
255 255 255
255 255 255
255 255 255
255 255 255
255 255 255
255 255 255
255 255 255
255 255 255
255 255 255
255 255 255
255 255 255
255 255 255
255 255 255
255 255 255
255 255 255
255 255 255
255 255 255
255 255 255
255 255 255
255 255 255
255 255 255
255 255 255
255 255 255
255 255 255
255 255 255
255 255 255
255 255 255
255 255 255
255 255 255
255 255 255
255 255 255
255 255 255
255 255 255
255 255 255
255 255 255
255 255 255
255 255 255
255 255 255
255 255 255
255 255 255
255 255 255
255 255 255
255 255 255
255 255 255
255 255 255
255 255 255
255 255 255
255 255 255
255 255 255
255 255 255
255 255 255
255 255 255
255 255 255
255 255 255
255 255 255
255 255 255
255 255 255
255 255 255
255 255 255
255 255 255
255 255 255
255 255 255
255 255 255
255 255 255
255 255 255
255 255 255
255 255 255
255 255 255
255 255 255
255 255 255
255 255 255
255 255 255
255 255 255
255 255 255
255 255 255
255 255 255
255 255 255
255 255 255
255 255 255
255 255 255
255 255 255
255 255 255
255 255 255
255 255 255
255 255 255
255 255 255
255 255 255
255 255 255
255 255 255
255 255 255
255 255 255
255 255 255
255 255 255
255 255 255
255 255 255
255 255 255
255 255 255
255 255 255
255 255 255
255 255 255
255 255 255
255 150   0
255 255 255
255 255 255
255 255 255
255 255 255
255 255 255
255 255 255
255 255 255
255 255 255
255 255 255
255 255 255
255 255 255
255 255 255
255 255 255
255 255 255
255 255 255
255 255 255
255 255 255
255 255 255
  0   0   0
  0   0   0
  0   0   0
  0   0   0
255 255 255
255 255 255
255 255 255
255 255 255
255 255 255
255 255 255
255 255 255
255 255 255
 70   0   0
 77   0   0
 85   0   0
 93   0   0
101   0   0
108   0   0
116   0   0
123   0   0
129   0   0
255 150   0
142   0   0
148   0   0
154   0   0
159   0   0
164   0   0
169   0   0
173   0   0
177   0   0
180   0   0
184   0   0
186   0   0
189   0   0
191   0   0
193   0   0
194   0   0
196   0   0
197   0   0
198   0   0
198   0   0
199   0   0
199   0   0
199   0   0
198   0   0
198   0   0
197   0   0
196   0   0
194   0   0
193   0   0
191   0   0
189   0   0
186   0   0
184   0   0
180   0   0
177   0   0
173   0   0
169   0   0
164   0   0
159   0   0
154   0   0
148   0   0
142   0   0
136   0   0
129   0   0
123   0   0
116   0   0
109   0   0
101   0   0
 94   0   0
 87   0   0
 80   0   0
 73   0   0
 66   0   0
255 255 255
255 255 255
255 255 255
255 255 255
255 255 255
255 255 255
255 255 255
255 255 255
255 255 255
255 255 255
255 255 255
255 255 255
255 255 255
255 255 255
255 255 255
255 255 255
255 255 255
255 255 255
255 255 255
255 255 255
255 255 255
255 255 255
255 255 255
255 255 255
255 255 255
255 255 255
255 255 255
255 255 255
255 255 255
255 255 255
255 255 255
255 255 255
255 255 255
255 255 255
255 255 255
255 255 255
255 255 255
255 255 255
255 255 255
255 255 255
255 255 255
255 255 255
255 255 255
255 255 255
255 255 255
255 255 255
255 255 255
255 255 255
255 255 255
255 255 255
255 255 255
255 255 255
255 255 255
255 255 255
255 255 255
255 255 255
255 255 255
255 255 255
255 255 255
255 255 255
255 255 255
255 255 255
255 255 255
255 255 255
255 255 255
255 255 255
255 255 255
255 255 255
255 255 255
255 255 255
255 255 255
255 255 255
255 255 255
255 255 255
255 255 255
255 255 255
255 255 255
255 255 255
255 255 255
255 255 255
255 255 255
255 255 255
255 255 255
255 255 255
255 255 255
255 255 255
255 255 255
255 255 255
255 255 255
255 255 255
255 255 255
255 255 255
255 255 255
255 255 255
255 255 255
255 255 255
255 255 255
255 255 255
255 255 255
255 255 255
255 255 255
255 255 255
255 255 255
255 255 255
255 255 255
255 255 255
255 255 255
255 255 255
255 150   0
255 255 255
255 255 255
255 255 255
255 255 255
255 255 255
255 255 255
255 255 255
255 255 255
255 255 255
255 255 255
255 255 255
255 255 255
255 255 255
255 255 255
255 255 255
255 255 255
255 255 255
255 255 255
  0   0   0
  0   0   0
  0   0   0
  0   0   0
255 255 255
255 255 255
255 255 255
255 255 255
255 255 255
255 255 255
255 255 255
255 255 255
255 255 255
255 255 255
 69   0   0
 75   0   0
 82   0   0
 89   0   0
 96   0   0
102   0   0
109   0   0
255 150   0
121   0   0
127   0   0
132   0   0
138   0   0
143   0   0
148   0   0
152   0   0
156   0   0
160   0   0
163   0   0
166   0   0
169   0   0
172   0   0
174   0   0
176   0   0
177   0   0
179   0   0
180   0   0
180   0   0
181   0   0
181   0   0
181   0   0
180   0   0
180   0   0
179   0   0
177   0   0
176   0   0
174   0   0
172   0   0
169   0   0
166   0   0
163   0   0
160   0   0
156   0   0
152   0   0
148   0   0
143   0   0
138   0   0
132   0   0
127   0   0
121   0   0
115   0   0
109   0   0
102   0   0
 96   0   0
 89   0   0
 83   0   0
 76   0   0
 70   0   0
255 255 255
255 255 255
255 255 255
255 255 255
255 255 255
255 255 255
255 255 255
255 255 255
255 255 255
255 255 255
255 255 255
255 255 255
255 255 255
255 255 255
255 255 255
255 255 255
255 255 255
255 255 255
255 255 255
255 255 255
255 255 255
255 255 255
255 255 255
255 255 255
255 255 255
255 255 255
255 255 255
255 255 255
255 255 255
255 255 255
255 255 255
255 255 255
255 255 255
255 255 255
255 255 255
255 255 255
255 255 255
255 255 255
255 255 255
255 255 255
255 255 255
255 255 255
255 255 255
255 255 255
255 255 255
255 255 255
255 255 255
255 255 255
255 255 255
255 255 255
255 255 255
255 255 255
255 255 255
255 255 255
255 255 255
255 255 255
255 255 255
255 255 255
255 255 255
255 255 255
255 255 255
255 255 255
255 255 255
255 255 255
255 255 255
255 255 255
255 255 255
255 255 255
255 255 255
255 255 255
255 255 255
255 255 255
255 255 255
255 255 255
255 255 255
255 255 255
255 255 255
255 255 255
255 255 255
255 255 255
255 255 255
255 255 255
255 255 255
255 255 255
255 255 255
255 255 255
255 255 255
255 255 255
255 255 255
255 255 255
255 255 255
255 255 255
255 255 255
255 255 255
255 255 255
255 255 255
255 255 255
255 255 255
255 255 255
255 255 255
255 255 255
255 255 255
255 255 255
255 255 255
255 255 255
255 255 255
255 255 255
255 255 255
255 255 255
255 255 255
255 255 255
255 150   0
255 255 255
255 255 255
255 255 255
255 255 255
255 255 255
255 255 255
255 255 255
255 255 255
255 255 255
255 255 255
255 255 255
255 255 255
255 255 255
255 255 255
255 255 255
255 255 255
255 255 255
255 255 255
  0   0   0
  0   0   0
  0   0   0
  0   0   0
255 255 255
255 255 255
255 255 255
255 255 255
255 255 255
255 255 255
255 255 255
255 255 255
255 255 255
255 255 255
255 255 255
255 255 255
 66   0   0
 72   0   0
 78   0   0
 83   0   0
 89   0   0
255 150   0
100   0   0
106   0   0
111   0   0
116   0   0
121   0   0
126   0   0
130   0   0
134   0   0
138   0   0
142   0   0
145   0   0
148   0   0
150   0   0
153   0   0
155   0   0
156   0   0
158   0   0
159   0   0
159   0   0
160   0   0
160   0   0
160   0   0
159   0   0
159   0   0
158   0   0
156   0   0
155   0   0
153   0   0
150   0   0
148   0   0
145   0   0
142   0   0
138   0   0
134   0   0
130   0   0
126   0   0
121   0   0
116   0   0
111   0   0
106   0   0
100   0   0
 95   0   0
 89   0   0
 83   0   0
 78   0   0
 72   0   0
 66   0   0
255 255 255
255 255 255
255 255 255
255 255 255
255 255 255
255 255 255
255 255 255
255 255 255
255 255 255
255 255 255
255 255 255
255 255 255
255 255 255
255 255 255
255 255 255
255 255 255
255 255 255
255 255 255
255 255 255
255 255 255
255 255 255
255 255 255
255 255 255
255 255 255
255 255 255
255 255 255
255 255 255
255 255 255
255 255 255
255 255 255
255 255 255
255 255 255
255 255 255
255 255 255
255 255 255
255 255 255
255 255 255
255 255 255
255 255 255
255 255 255
255 255 255
255 255 255
255 255 255
255 255 255
255 255 255
255 255 255
255 255 255
255 255 255
255 255 255
255 255 255
255 255 255
255 255 255
255 255 255
255 255 255
255 255 255
255 255 255
255 255 255
255 255 255
255 255 255
255 255 255
255 255 255
255 255 255
255 255 255
255 255 255
255 255 255
255 255 255
255 255 255
255 255 255
255 255 255
255 255 255
255 255 255
255 255 255
255 255 255
255 255 255
255 255 255
255 255 255
255 255 255
255 255 255
255 255 255
255 255 255
255 255 255
255 255 255
255 255 255
255 255 255
255 255 255
255 255 255
255 255 255
255 255 255
255 255 255
255 255 255
255 255 255
255 255 255
255 255 255
255 255 255
255 255 255
255 255 255
255 255 255
255 255 255
255 255 255
255 255 255
255 255 255
255 255 255
255 255 255
255 255 255
255 255 255
255 255 255
255 255 255
255 255 255
255 255 255
255 255 255
255 255 255
255 255 255
255 255 255
255 150   0
255 255 255
255 255 255
255 255 255
255 255 255
255 255 255
255 255 255
255 255 255
255 255 255
255 255 255
255 255 255
255 255 255
255 255 255
255 255 255
255 255 255
255 255 255
255 255 255
255 255 255
255 255 255
  0   0   0
  0   0   0
  0   0   0
  0   0   0
255 255 255
255 255 255
255 255 255
255 255 255
255 255 255
255 255 255
255 255 255
255 255 255
255 255 255
255 255 255
255 255 255
255 255 255
255 255 255
255 255 255
255 255 255
 66   0   0
 71   0   0
255 150   0
 81   0   0
 86   0   0
 91   0   0
 96   0   0
100   0   0
105   0   0
109   0   0
113   0   0
116   0   0
120   0   0
123   0   0
126   0   0
128   0   0
131   0   0
132   0   0
134   0   0
136   0   0
137   0   0
137   0   0
138   0   0
138   0   0
138   0   0
137   0   0
137   0   0
136   0   0
134   0   0
132   0   0
131   0   0
128   0   0
126   0   0
123   0   0
120   0   0
116   0   0
113   0   0
109   0   0
105   0   0
100   0   0
 96   0   0
 91   0   0
 86   0   0
 81   0   0
 76   0   0
 71   0   0
 66   0   0
255 255 255
255 255 255
255 255 255
255 255 255
255 255 255
255 255 255
255 255 255
255 255 255
255 255 255
255 255 255
255 255 255
255 255 255
255 255 255
255 255 255
255 255 255
255 255 255
255 255 255
255 255 255
255 255 255
255 255 255
255 255 255
255 255 255
255 255 255
255 255 255
255 255 255
255 255 255
255 255 255
255 255 255
255 255 255
255 255 255
255 255 255
255 255 255
255 255 255
255 255 255
255 255 255
255 255 255
255 255 255
255 255 255
255 255 255
255 255 255
255 255 255
255 255 255
255 255 255
255 255 255
255 255 255
255 255 255
255 255 255
255 255 255
255 255 255
255 255 255
255 255 255
255 255 255
255 255 255
255 255 255
255 255 255
255 255 255
255 255 255
255 255 255
255 255 255
255 255 255
255 255 255
255 255 255
255 255 255
255 255 255
255 255 255
255 255 255
255 255 255
255 255 255
255 255 255
255 255 255
255 255 255
255 255 255
255 255 255
255 255 255
255 255 255
255 255 255
255 255 255
255 255 255
255 255 255
255 255 255
255 255 255
255 255 255
255 255 255
255 255 255
255 255 255
255 255 255
255 255 255
255 255 255
255 255 255
255 255 255
255 255 255
255 255 255
255 255 255
255 255 255
255 255 255
255 255 255
255 255 255
255 255 255
255 255 255
255 255 255
255 255 255
255 255 255
255 255 255
255 255 255
255 255 255
255 255 255
255 255 255
255 255 255
255 255 255
255 255 255
255 255 255
255 255 255
255 255 255
255 255 255
255 255 255
255 255 255
255 150   0
255 255 255
255 255 255
255 255 255
255 255 255
255 255 255
255 255 255
255 255 255
255 255 255
255 255 255
255 255 255
255 255 255
255 255 255
255 255 255
255 255 255
255 255 255
255 255 255
255 255 255
255 255 255
  0   0   0
  0   0   0
  0   0   0
  0   0   0
255 255 255
255 255 255
255 255 255
255 255 255
255 255 255
255 255 255
255 255 255
255 255 255
255 255 255
255 255 255
255 255 255
255 255 255
255 255 255
255 255 255
255 255 255
255 255 255
255 255 255
255 150   0
 64   0   0
 69   0   0
 73   0   0
 77   0   0
 81   0   0
 85   0   0
 89   0   0
 92   0   0
 96   0   0
 99   0   0
102   0   0
104   0   0
107   0   0
109   0   0
111   0   0
112   0   0
114   0   0
115   0   0
115   0   0
116   0   0
116   0   0
116   0   0
115   0   0
115   0   0
114   0   0
112   0   0
111   0   0
109   0   0
107   0   0
104   0   0
102   0   0
 99   0   0
 96   0   0
 92   0   0
 89   0   0
 85   0   0
 81   0   0
 77   0   0
 73   0   0
 69   0   0
 64   0   0
255 255 255
255 255 255
255 255 255
255 255 255
255 255 255
255 255 255
255 255 255
255 255 255
255 255 255
255 255 255
255 255 255
255 255 255
255 255 255
255 255 255
255 255 255
255 255 255
255 255 255
255 255 255
255 255 255
255 255 255
255 255 255
255 255 255
255 255 255
255 255 255
255 255 255
255 255 255
255 255 255
255 255 255
255 255 255
255 255 255
255 255 255
255 255 255
255 255 255
255 255 255
255 255 255
255 255 255
255 255 255
255 255 255
255 255 255
255 255 255
255 255 255
255 255 255
255 255 255
255 255 255
255 255 255
255 255 255
255 255 255
255 255 255
255 255 255
255 255 255
255 255 255
255 255 255
255 255 255
255 255 255
255 255 255
255 255 255
255 255 255
255 255 255
255 255 255
255 255 255
255 255 255
255 255 255
255 255 255
255 255 255
255 255 255
255 255 255
255 255 255
255 255 255
255 255 255
255 255 255
255 255 255
255 255 255
255 255 255
255 255 255
255 255 255
255 255 255
255 255 255
255 255 255
255 255 255
255 255 255
255 255 255
255 255 255
255 255 255
255 255 255
255 255 255
255 255 255
255 255 255
255 255 255
255 255 255
255 255 255
255 255 255
255 255 255
255 255 255
255 255 255
255 255 255
255 255 255
255 255 255
255 255 255
255 255 255
255 255 255
255 255 255
255 255 255
255 255 255
255 255 255
255 255 255
255 255 255
255 255 255
255 255 255
255 255 255
255 255 255
255 255 255
255 255 255
255 255 255
255 255 255
255 255 255
255 255 255
255 255 255
255 255 255
255 255 255
255 150   0
255 255 255
255 255 255
255 255 255
255 255 255
255 255 255
255 255 255
255 255 255
255 255 255
255 255 255
255 255 255
255 255 255
255 255 255
255 255 255
255 255 255
255 255 255
255 255 255
255 255 255
255 255 255
  0   0   0
  0   0   0
  0   0   0
  0   0   0
255 255 255
255 255 255
255 255 255
255 255 255
255 255 255
255 255 255
255 255 255
255 255 255
255 255 255
255 255 255
255 255 255
255 255 255
255 255 255
255 255 255
255 255 255
255 255 255
255 255 255
255 150   0
255 255 255
255 255 255
255 255 255
255 255 255
255 255 255
 67   0   0
 71   0   0
 74   0   0
 77   0   0
 79   0   0
 82   0   0
 84   0   0
 87   0   0
 88   0   0
 90   0   0
 92   0   0
 93   0   0
 94   0   0
 94   0   0
 95   0   0
 95   0   0
 95   0   0
 94   0   0
 94   0   0
 93   0   0
 92   0   0
 90   0   0
 88   0   0
 87   0   0
 84   0   0
 82   0   0
 79   0   0
 77   0   0
 74   0   0
 71   0   0
 67   0   0
255 255 255
255 255 255
255 255 255
255 255 255
255 255 255
255 255 255
255 255 255
255 255 255
255 255 255
255 255 255
255 255 255
255 255 255
255 255 255
255 255 255
255 255 255
255 255 255
255 255 255
255 255 255
255 255 255
255 255 255
255 255 255
255 255 255
255 255 255
255 255 255
255 255 255
255 255 255
255 255 255
255 255 255
255 255 255
255 255 255
255 255 255
255 255 255
255 255 255
255 255 255
255 255 255
255 255 255
255 255 255
255 255 255
255 255 255
255 255 255
255 255 255
255 255 255
255 255 255
255 255 255
255 255 255
255 255 255
255 255 255
255 255 255
255 255 255
255 255 255
255 255 255
255 255 255
255 255 255
255 255 255
255 255 255
255 255 255
255 255 255
255 255 255
255 255 255
255 255 255
255 255 255
255 255 255
255 255 255
255 255 255
255 255 255
255 255 255
255 255 255
255 255 255
255 255 255
255 255 255
255 255 255
255 255 255
255 255 255
255 255 255
255 255 255
255 255 255
255 255 255
255 255 255
255 255 255
255 255 255
255 255 255
255 255 255
255 255 255
255 255 255
255 255 255
255 255 255
255 255 255
255 255 255
255 255 255
255 255 255
255 255 255
255 255 255
255 255 255
255 255 255
255 255 255
255 255 255
255 255 255
255 255 255
255 255 255
255 255 255
255 255 255
255 255 255
255 255 255
255 255 255
255 255 255
255 255 255
255 255 255
255 255 255
255 255 255
255 255 255
255 255 255
255 255 255
255 255 255
255 255 255
255 255 255
255 255 255
255 255 255
255 255 255
255 255 255
255 255 255
255 255 255
255 255 255
255 255 255
255 255 255
255 150   0
255 255 255
255 255 255
255 255 255
255 255 255
255 255 255
255 255 255
255 255 255
255 255 255
255 255 255
255 255 255
255 255 255
255 255 255
255 255 255
255 255 255
255 255 255
255 255 255
255 255 255
255 255 255
  0   0   0
  0   0   0
  0   0   0
  0   0   0
255 255 255
255 255 255
255 255 255
255 255 255
255 255 255
255 255 255
255 255 255
255 255 255
255 255 255
255 255 255
255 255 255
255 255 255
255 255 255
255 255 255
255 255 255
255 255 255
255 255 255
255 150   0
255 255 255
255 255 255
255 255 255
255 255 255
255 255 255
255 255 255
255 255 255
255 255 255
255 255 255
255 255 255
 64   0   0
 67   0   0
 68   0   0
 70   0   0
 72   0   0
 73   0   0
 74   0   0
 75   0   0
 75   0   0
 76   0   0
 76   0   0
 76   0   0
 75   0   0
 75   0   0
 74   0   0
 73   0   0
 72   0   0
 70   0   0
 68   0   0
 67   0   0
 64   0   0
255 255 255
255 255 255
255 255 255
255 255 255
255 255 255
255 255 255
255 255 255
255 255 255
255 255 255
255 255 255
255 255 255
255 255 255
255 255 255
255 255 255
255 255 255
255 255 255
255 255 255
255 255 255
255 255 255
255 255 255
255 255 255
255 255 255
255 255 255
255 255 255
255 255 255
255 255 255
255 255 255
255 255 255
255 255 255
255 255 255
255 255 255
255 255 255
255 255 255
255 255 255
255 255 255
255 255 255
255 255 255
255 255 255
255 255 255
255 255 255
255 255 255
255 255 255
255 255 255
255 255 255
255 255 255
255 255 255
255 255 255
255 255 255
255 255 255
255 255 255
255 255 255
255 255 255
255 255 255
255 255 255
255 255 255
255 255 255
255 255 255
255 255 255
255 255 255
255 255 255
255 255 255
255 255 255
255 255 255
255 255 255
255 255 255
255 255 255
255 255 255
255 255 255
255 255 255
255 255 255
255 255 255
255 255 255
255 255 255
255 255 255
255 255 255
255 255 255
255 255 255
255 255 255
255 255 255
255 255 255
255 255 255
255 255 255
255 255 255
255 255 255
255 255 255
255 255 255
255 255 255
255 255 255
255 255 255
255 255 255
255 255 255
255 255 255
255 255 255
255 255 255
255 255 255
255 255 255
255 255 255
255 255 255
255 255 255
255 255 255
255 255 255
255 255 255
255 255 255
255 255 255
255 255 255
255 255 255
255 255 255
255 255 255
255 255 255
255 255 255
255 255 255
255 255 255
255 255 255
255 255 255
255 255 255
255 255 255
255 255 255
255 255 255
255 255 255
255 255 255
255 255 255
255 255 255
255 255 255
255 255 255
255 255 255
255 255 255
255 255 255
255 255 255
255 255 255
255 150   0
255 255 255
255 255 255
255 255 255
255 255 255
255 255 255
255 255 255
255 255 255
255 255 255
255 255 255
255 255 255
255 255 255
255 255 255
255 255 255
255 255 255
255 255 255
255 255 255
255 255 255
255 255 255
  0   0   0
  0   0   0
  0   0   0
  0   0   0
255 255 255
255 255 255
255 255 255
255 255 255
255 255 255
255 255 255
255 255 255
255 255 255
255 255 255
255 255 255
255 255 255
255 255 255
255 255 255
255 255 255
255 255 255
255 255 255
255 255 255
255 150   0
255 255 255
255 255 255
255 255 255
255 255 255
255 255 255
255 255 255
255 255 255
255 255 255
255 255 255
255 255 255
255 255 255
255 255 255
255 255 255
255 255 255
255 255 255
255 255 255
255 255 255
255 255 255
255 255 255
255 255 255
255 255 255
255 255 255
255 255 255
255 255 255
255 255 255
255 255 255
255 255 255
255 255 255
255 255 255
255 255 255
255 255 255
255 255 255
255 255 255
255 255 255
255 255 255
255 255 255
255 255 255
255 255 255
255 255 255
255 255 255
255 255 255
255 255 255
255 255 255
255 255 255
255 255 255
255 255 255
255 255 255
255 255 255
255 255 255
255 255 255
255 255 255
255 255 255
255 255 255
255 255 255
255 255 255
255 255 255
255 255 255
255 255 255
255 255 255
255 255 255
255 255 255
255 255 255
255 255 255
255 255 255
255 255 255
255 255 255
255 255 255
255 255 255
255 255 255
255 255 255
255 255 255
255 255 255
255 255 255
255 255 255
255 255 255
255 255 255
255 255 255
255 255 255
255 255 255
255 255 255
255 255 255
255 255 255
255 255 255
255 255 255
255 255 255
255 255 255
255 255 255
255 255 255
255 255 255
255 255 255
255 255 255
255 255 255
255 255 255
255 255 255
255 255 255
255 255 255
255 255 255
255 255 255
255 255 255
255 255 255
255 255 255
255 255 255
255 255 255
255 255 255
255 255 255
255 255 255
255 255 255
255 255 255
255 255 255
255 255 255
255 255 255
255 255 255
255 255 255
255 255 255
255 255 255
255 255 255
255 255 255
255 255 255
255 255 255
255 255 255
255 255 255
255 255 255
255 255 255
255 255 255
255 255 255
255 255 255
255 255 255
255 255 255
255 255 255
255 255 255
255 255 255
255 255 255
255 255 255
255 255 255
255 255 255
255 255 255
255 255 255
255 255 255
255 255 255
255 255 255
255 255 255
255 255 255
255 255 255
255 255 255
255 255 255
255 255 255
255 255 255
255 255 255
255 255 255
255 255 255
255 255 255
255 255 255
255 255 255
255 255 255
255 255 255
255 255 255
255 255 255
255 255 255
255 255 255
255 255 255
255 150   0
255 255 255
255 255 255
255 255 255
255 255 255
255 255 255
255 255 255
255 255 255
255 255 255
255 255 255
255 255 255
255 255 255
255 255 255
255 255 255
255 255 255
255 255 255
255 255 255
255 255 255
255 255 255
  0   0   0
  0   0   0
  0   0   0
  0   0   0
255 255 255
255 255 255
255 255 255
255 255 255
255 255 255
255 255 255
255 255 255
255 255 255
255 255 255
255 255 255
255 255 255
255 255 255
255 255 255
255 255 255
255 255 255
255 255 255
255 255 255
255 150   0
255 255 255
255 255 255
255 255 255
255 255 255
255 255 255
255 255 255
255 255 255
255 255 255
255 255 255
255 255 255
255 255 255
255 255 255
255 255 255
255 255 255
255 255 255
255 255 255
255 255 255
255 255 255
255 255 255
255 255 255
255 255 255
255 255 255
255 255 255
255 255 255
255 255 255
255 255 255
255 255 255
255 255 255
255 255 255
255 255 255
255 255 255
255 255 255
255 255 255
255 255 255
255 255 255
255 255 255
255 255 255
255 255 255
255 255 255
255 255 255
255 255 255
255 255 255
255 255 255
255 255 255
255 255 255
255 255 255
255 255 255
255 255 255
255 255 255
255 255 255
255 255 255
255 255 255
255 255 255
255 255 255
255 255 255
255 255 255
255 255 255
255 255 255
255 255 255
255 255 255
255 255 255
255 255 255
255 255 255
255 255 255
255 255 255
255 255 255
255 255 255
255 255 255
255 255 255
255 255 255
255 255 255
255 255 255
255 255 255
255 255 255
255 255 255
255 255 255
255 255 255
255 255 255
255 255 255
255 255 255
255 255 255
255 255 255
255 255 255
255 255 255
255 255 255
255 255 255
255 255 255
255 255 255
255 255 255
255 255 255
255 255 255
255 255 255
255 255 255
255 255 255
255 255 255
255 255 255
255 255 255
255 255 255
255 255 255
255 255 255
255 255 255
255 255 255
255 255 255
255 255 255
255 255 255
255 255 255
255 255 255
255 255 255
255 255 255
255 255 255
255 255 255
255 255 255
255 255 255
255 255 255
255 255 255
255 255 255
255 255 255
255 255 255
255 255 255
255 255 255
255 255 255
255 255 255
255 255 255
255 255 255
255 255 255
255 255 255
255 255 255
255 255 255
255 255 255
255 255 255
255 255 255
255 255 255
255 255 255
255 255 255
255 255 255
255 255 255
255 255 255
255 255 255
255 255 255
255 255 255
255 255 255
255 255 255
255 255 255
255 255 255
255 255 255
255 255 255
255 255 255
255 255 255
255 255 255
255 255 255
255 255 255
255 255 255
255 255 255
255 255 255
255 255 255
255 255 255
255 255 255
255 255 255
255 255 255
255 255 255
255 150   0
255 255 255
255 255 255
255 255 255
255 255 255
255 255 255
255 255 255
255 255 255
255 255 255
255 255 255
255 255 255
255 255 255
255 255 255
255 255 255
255 255 255
255 255 255
255 255 255
255 255 255
255 255 255
  0   0   0
  0   0   0
  0   0   0
  0   0   0
255 255 255
255 255 255
255 255 255
255 255 255
255 255 255
255 255 255
255 255 255
255 255 255
255 255 255
255 255 255
255 255 255
255 255 255
255 255 255
255 255 255
255 255 255
255 255 255
255 255 255
255 150   0
255 255 255
255 255 255
255 255 255
255 255 255
255 255 255
255 255 255
255 255 255
255 255 255
255 255 255
255 255 255
255 255 255
255 255 255
255 255 255
255 255 255
255 255 255
255 255 255
255 255 255
255 255 255
255 255 255
255 255 255
255 255 255
255 255 255
255 255 255
255 255 255
255 255 255
255 255 255
255 255 255
255 255 255
255 255 255
255 255 255
255 255 255
255 255 255
255 255 255
255 255 255
255 255 255
255 255 255
255 255 255
255 255 255
255 255 255
255 255 255
255 255 255
255 255 255
255 255 255
255 255 255
255 255 255
255 255 255
255 255 255
255 255 255
255 255 255
255 255 255
255 255 255
255 255 255
255 255 255
255 255 255
255 255 255
255 255 255
255 255 255
255 255 255
255 255 255
255 255 255
255 255 255
255 255 255
255 255 255
255 255 255
255 255 255
255 255 255
255 255 255
255 255 255
255 255 255
255 255 255
255 255 255
255 255 255
255 255 255
255 255 255
255 255 255
255 255 255
255 255 255
255 255 255
255 255 255
255 255 255
255 255 255
255 255 255
255 255 255
255 255 255
255 255 255
255 255 255
255 255 255
255 255 255
255 255 255
255 255 255
255 255 255
255 255 255
255 255 255
255 255 255
255 255 255
255 255 255
255 255 255
255 255 255
255 255 255
255 255 255
255 255 255
255 255 255
255 255 255
255 255 255
255 255 255
255 255 255
255 255 255
255 255 255
255 255 255
255 255 255
255 255 255
255 255 255
255 255 255
255 255 255
255 255 255
255 255 255
255 255 255
255 255 255
255 255 255
255 255 255
255 255 255
255 255 255
255 255 255
255 255 255
255 255 255
255 255 255
255 255 255
255 255 255
255 255 255
255 255 255
255 255 255
255 255 255
255 255 255
255 255 255
255 255 255
255 255 255
255 255 255
255 255 255
255 255 255
255 255 255
255 255 255
255 255 255
255 255 255
255 255 255
255 255 255
255 255 255
255 255 255
255 255 255
255 255 255
255 255 255
255 255 255
255 255 255
255 255 255
255 255 255
255 255 255
255 255 255
255 255 255
255 255 255
255 255 255
255 255 255
255 150   0
255 255 255
255 255 255
255 255 255
255 255 255
255 255 255
255 255 255
255 255 255
255 255 255
255 255 255
255 255 255
255 255 255
255 255 255
255 255 255
255 255 255
255 255 255
255 255 255
255 255 255
255 255 255
  0   0   0
  0   0   0
  0   0   0
  0   0   0
255 255 255
255 255 255
255 255 255
255 255 255
255 255 255
255 255 255
255 255 255
255 255 255
255 255 255
255 255 255
255 255 255
255 255 255
255 255 255
255 255 255
255 255 255
255 255 255
255 255 255
255 150   0
255 255 255
255 255 255
255 255 255
255 255 255
255 255 255
255 255 255
255 255 255
255 255 255
255 255 255
255 255 255
255 255 255
255 255 255
255 255 255
255 255 255
255 255 255
255 255 255
255 255 255
255 255 255
255 255 255
255 255 255
255 255 255
255 255 255
255 255 255
255 255 255
255 255 255
255 255 255
255 255 255
255 255 255
255 255 255
255 255 255
255 255 255
255 255 255
255 255 255
255 255 255
255 255 255
255 255 255
255 255 255
255 255 255
255 255 255
255 255 255
255 255 255
255 255 255
255 255 255
255 255 255
255 255 255
255 255 255
255 255 255
255 255 255
255 255 255
255 255 255
255 255 255
255 255 255
255 255 255
255 255 255
255 255 255
255 255 255
255 255 255
255 255 255
255 255 255
255 255 255
255 255 255
255 255 255
255 255 255
255 255 255
255 255 255
255 255 255
255 255 255
255 255 255
255 255 255
255 255 255
255 255 255
255 255 255
255 255 255
255 255 255
255 255 255
255 255 255
255 255 255
255 255 255
255 255 255
255 255 255
255 255 255
255 255 255
255 255 255
255 255 255
255 255 255
255 255 255
255 255 255
255 255 255
255 255 255
255 255 255
255 255 255
255 255 255
255 255 255
255 255 255
255 255 255
255 255 255
255 255 255
255 255 255
255 255 255
255 255 255
255 255 255
255 255 255
255 255 255
255 255 255
255 255 255
255 255 255
255 255 255
255 255 255
255 255 255
255 255 255
255 255 255
255 255 255
255 255 255
255 255 255
255 255 255
255 255 255
255 255 255
255 255 255
255 255 255
255 255 255
255 255 255
255 255 255
255 255 255
255 255 255
255 255 255
255 255 255
255 255 255
255 255 255
255 255 255
255 255 255
255 255 255
255 255 255
255 255 255
255 255 255
255 255 255
255 255 255
255 255 255
255 255 255
255 255 255
255 255 255
255 255 255
255 255 255
255 255 255
255 255 255
255 255 255
255 255 255
255 255 255
255 255 255
255 255 255
255 255 255
255 255 255
255 255 255
255 255 255
255 255 255
255 255 255
255 255 255
255 255 255
255 255 255
255 255 255
255 255 255
255 150   0
255 255 255
255 255 255
255 255 255
255 255 255
255 255 255
255 255 255
255 255 255
255 255 255
255 255 255
255 255 255
255 255 255
255 255 255
255 255 255
255 255 255
255 255 255
255 255 255
255 255 255
255 255 255
  0   0   0
  0   0   0
  0   0   0
  0   0   0
255 150   0
255 150   0
255 150   0
255 150   0
255 150   0
255 150   0
255 150   0
255 150   0
255 150   0
255 150   0
255 150   0
255 150   0
255 150   0
255 150   0
255 150   0
255 150   0
255 150   0
255 150   0
255 150   0
255 150   0
255 150   0
255 150   0
255 150   0
255 150   0
255 150   0
255 150   0
255 150   0
255 150   0
255 150   0
255 150   0
255 150   0
255 150   0
255 150   0
255 150   0
255 150   0
255 150   0
255 150   0
255 150   0
255 150   0
255 150   0
255 150   0
255 150   0
255 150   0
255 150   0
255 150   0
255 150   0
255 150   0
255 150   0
255 150   0
255 150   0
255 150   0
255 150   0
255 150   0
255 150   0
255 150   0
255 150   0
255 150   0
255 150   0
255 150   0
255 150   0
255 150   0
255 150   0
255 150   0
255 150   0
255 150   0
255 150   0
255 150   0
255 150   0
255 150   0
255 150   0
255 150   0
255 150   0
255 150   0
255 150   0
255 150   0
255 150   0
255 150   0
255 150   0
255 150   0
255 150   0
255 150   0
255 150   0
255 150   0
255 150   0
255 150   0
255 150   0
255 150   0
255 150   0
255 150   0
255 150   0
255 150   0
255 150   0
255 150   0
255 150   0
255 150   0
255 150   0
255 150   0
255 150   0
255 150   0
255 150   0
255 150   0
255 150   0
255 150   0
255 150   0
255 150   0
255 150   0
255 150   0
255 150   0
255 150   0
255 150   0
255 150   0
255 150   0
255 150   0
255 150   0
255 150   0
255 150   0
255 150   0
255 150   0
255 150   0
255 150   0
255 150   0
255 150   0
255 150   0
255 150   0
255 150   0
255 150   0
255 150   0
255 150   0
255 150   0
255 150   0
255 150   0
255 150   0
255 150   0
255 150   0
255 150   0
255 150   0
255 150   0
255 150   0
255 150   0
255 150   0
255 150   0
255 150   0
255 150   0
255 150   0
255 150   0
255 150   0
255 150   0
255 150   0
255 150   0
255 150   0
255 150   0
255 150   0
255 150   0
255 150   0
255 150   0
255 150   0
255 150   0
255 150   0
255 150   0
255 150   0
255 150   0
255 150   0
255 150   0
255 150   0
255 150   0
255 150   0
255 150   0
255 150   0
255 150   0
255 150   0
255 150   0
255 150   0
255 150   0
255 150   0
255 150   0
255 150   0
255 150   0
255 150   0
255 150   0
255 150   0
255 150   0
255 150   0
255 150   0
255 150   0
255 150   0
255 150   0
255 150   0
255 150   0
255 150   0
255 150   0
255 150   0
255 150   0
255 150   0
255 150   0
255 150   0
255 150   0
255 150   0
  0   0   0
  0   0   0
  0   0   0
  0   0   0
255 255 255
255 255 255
255 255 255
255 255 255
255 255 255
255 255 255
255 255 255
255 255 255
255 255 255
255 255 255
255 255 255
255 255 255
255 255 255
255 255 255
255 255 255
255 255 255
255 255 255
255 150   0
255 255 255
255 255 255
255 255 255
255 255 255
255 255 255
255 255 255
255 255 255
255 255 255
255 255 255
255 255 255
255 255 255
255 255 255
255 255 255
255 255 255
255 255 255
255 255 255
255 255 255
255 255 255
255 255 255
255 255 255
255 255 255
255 255 255
255 255 255
255 255 255
255 255 255
255 255 255
255 255 255
255 255 255
255 255 255
255 255 255
255 255 255
255 255 255
255 255 255
255 255 255
255 255 255
255 255 255
255 255 255
255 255 255
255 255 255
255 255 255
255 255 255
255 255 255
255 255 255
255 255 255
255 255 255
255 255 255
255 255 255
255 255 255
255 255 255
255 255 255
255 255 255
255 255 255
255 255 255
255 255 255
255 255 255
255 255 255
255 255 255
255 255 255
255 255 255
255 255 255
255 255 255
255 255 255
255 255 255
255 255 255
255 255 255
255 255 255
255 255 255
255 255 255
255 255 255
255 255 255
255 255 255
255 255 255
255 255 255
255 255 255
255 255 255
255 255 255
255 255 255
255 255 255
255 255 255
255 255 255
255 255 255
255 255 255
255 255 255
255 255 255
255 255 255
255 255 255
255 255 255
255 255 255
255 255 255
255 255 255
255 255 255
255 255 255
255 255 255
255 255 255
255 255 255
255 255 255
255 255 255
255 255 255
255 255 255
255 255 255
255 255 255
255 255 255
255 255 255
255 255 255
255 255 255
255 255 255
255 255 255
255 255 255
255 255 255
255 255 255
255 255 255
255 255 255
255 255 255
255 255 255
255 255 255
255 255 255
255 255 255
255 255 255
255 255 255
255 255 255
255 255 255
255 255 255
255 255 255
255 255 255
255 255 255
255 255 255
255 255 255
255 255 255
255 255 255
255 255 255
255 255 255
255 255 255
255 255 255
255 255 255
255 255 255
255 255 255
255 255 255
255 255 255
255 255 255
255 255 255
255 255 255
255 255 255
255 255 255
255 255 255
255 255 255
255 255 255
255 255 255
255 255 255
255 255 255
255 255 255
255 255 255
255 255 255
255 255 255
255 255 255
255 255 255
255 255 255
255 255 255
255 255 255
255 255 255
255 255 255
255 150   0
255 255 255
255 255 255
255 255 255
255 255 255
255 255 255
255 255 255
255 255 255
255 255 255
255 255 255
255 255 255
255 255 255
255 255 255
255 255 255
255 255 255
255 255 255
255 255 255
255 255 255
255 255 255
  0   0   0
  0   0   0
  0   0   0
  0   0   0
255 255 255
255 255 255
255 255 255
255 255 255
255 255 255
255 255 255
255 255 255
255 255 255
255 255 255
255 255 255
255 255 255
255 255 255
255 255 255
255 255 255
255 255 255
255 255 255
255 255 255
255 150   0
255 255 255
255 255 255
255 255 255
255 255 255
255 255 255
255 255 255
255 255 255
255 255 255
255 255 255
255 255 255
255 255 255
255 255 255
255 255 255
255 255 255
255 255 255
255 255 255
255 255 255
255 255 255
255 255 255
255 255 255
255 255 255
255 255 255
255 255 255
255 255 255
255 255 255
255 255 255
255 255 255
255 255 255
255 255 255
255 255 255
255 255 255
255 255 255
255 255 255
255 255 255
255 255 255
255 255 255
255 255 255
255 255 255
255 255 255
255 255 255
255 255 255
255 255 255
255 255 255
255 255 255
255 255 255
255 255 255
255 255 255
255 255 255
255 255 255
255 255 255
255 255 255
255 255 255
255 255 255
255 255 255
255 255 255
255 255 255
255 255 255
255 255 255
255 255 255
255 255 255
255 255 255
255 255 255
255 255 255
255 255 255
255 255 255
255 255 255
255 255 255
255 255 255
255 255 255
255 255 255
255 255 255
255 255 255
255 255 255
255 255 255
255 255 255
255 255 255
255 255 255
255 255 255
255 255 255
255 255 255
255 255 255
255 255 255
255 255 255
255 255 255
255 255 255
255 255 255
255 255 255
255 255 255
255 255 255
255 255 255
255 255 255
255 255 255
255 255 255
255 255 255
255 255 255
255 255 255
255 255 255
255 255 255
255 255 255
255 255 255
255 255 255
255 255 255
255 255 255
255 255 255
255 255 255
255 255 255
255 255 255
255 255 255
255 255 255
255 255 255
255 255 255
255 255 255
255 255 255
255 255 255
255 255 255
255 255 255
255 255 255
255 255 255
255 255 255
255 255 255
255 255 255
255 255 255
255 255 255
255 255 255
255 255 255
255 255 255
255 255 255
255 255 255
255 255 255
255 255 255
255 255 255
255 255 255
255 255 255
255 255 255
255 255 255
255 255 255
255 255 255
255 255 255
255 255 255
255 255 255
255 255 255
255 255 255
255 255 255
255 255 255
255 255 255
255 255 255
255 255 255
255 255 255
255 255 255
255 255 255
255 255 255
255 255 255
255 255 255
255 255 255
255 255 255
255 255 255
255 255 255
255 255 255
255 255 255
255 255 255
255 150   0
255 255 255
255 255 255
255 255 255
255 255 255
255 255 255
255 255 255
255 255 255
255 255 255
255 255 255
255 255 255
255 255 255
255 255 255
255 255 255
255 255 255
255 255 255
255 255 255
255 255 255
255 255 255
  0   0   0
  0   0   0
  0   0   0
  0   0   0
255 255 255
255 255 255
255 255 255
255 255 255
255 255 255
255 255 255
255 255 255
255 255 255
255 255 255
255 255 255
255 255 255
255 255 255
255 255 255
255 255 255
255 255 255
255 255 255
255 255 255
255 150   0
255 255 255
255 255 255
255 255 255
255 255 255
255 255 255
255 255 255
255 255 255
255 255 255
255 255 255
255 255 255
255 255 255
255 255 255
255 255 255
255 255 255
255 255 255
255 255 255
255 255 255
255 255 255
255 255 255
255 255 255
255 255 255
255 255 255
255 255 255
255 255 255
255 255 255
255 255 255
255 255 255
255 255 255
255 255 255
255 255 255
255 255 255
255 255 255
255 255 255
255 255 255
255 255 255
255 255 255
255 255 255
255 255 255
255 255 255
255 255 255
255 255 255
255 255 255
255 255 255
255 255 255
255 255 255
255 255 255
255 255 255
255 255 255
255 255 255
255 255 255
255 255 255
255 255 255
255 255 255
255 255 255
255 255 255
255 255 255
255 255 255
255 255 255
255 255 255
255 255 255
255 255 255
255 255 255
255 255 255
255 255 255
255 255 255
255 255 255
255 255 255
255 255 255
255 255 255
255 255 255
255 255 255
255 255 255
255 255 255
255 255 255
255 255 255
255 255 255
255 255 255
255 255 255
255 255 255
255 255 255
255 255 255
255 255 255
255 255 255
255 255 255
255 255 255
255 255 255
255 255 255
255 255 255
255 255 255
255 255 255
255 255 255
255 255 255
255 255 255
255 255 255
255 255 255
255 255 255
255 255 255
255 255 255
255 255 255
255 255 255
255 255 255
255 255 255
255 255 255
255 255 255
255 255 255
255 255 255
255 255 255
255 255 255
255 255 255
255 255 255
255 255 255
255 255 255
255 255 255
255 255 255
255 255 255
255 255 255
255 255 255
255 255 255
255 255 255
255 255 255
255 255 255
255 255 255
255 255 255
255 255 255
255 255 255
255 255 255
255 255 255
255 255 255
255 255 255
255 255 255
255 255 255
255 255 255
255 255 255
255 255 255
255 255 255
255 255 255
255 255 255
255 255 255
255 255 255
255 255 255
255 255 255
255 255 255
255 255 255
255 255 255
255 255 255
255 255 255
255 255 255
255 255 255
255 255 255
255 255 255
255 255 255
255 255 255
255 255 255
255 255 255
255 255 255
255 255 255
255 255 255
255 255 255
255 255 255
255 255 255
255 150   0
255 255 255
255 255 255
255 255 255
255 255 255
255 255 255
255 255 255
255 255 255
255 255 255
255 255 255
255 255 255
255 255 255
255 255 255
255 255 255
255 255 255
255 255 255
255 255 255
255 255 255
255 255 255
  0   0   0
  0   0   0
  0   0   0
  0   0   0
255 255 255
255 255 255
255 255 255
255 255 255
255 255 255
255 255 255
255 255 255
255 255 255
255 255 255
255 255 255
255 255 255
255 255 255
255 255 255
255 255 255
255 255 255
255 255 255
255 255 255
255 150   0
255 255 255
255 255 255
255 255 255
255 255 255
255 255 255
255 255 255
255 255 255
255 255 255
255 255 255
255 255 255
255 255 255
255 255 255
255 255 255
255 255 255
255 255 255
255 255 255
255 255 255
255 255 255
255 255 255
255 255 255
255 255 255
255 255 255
255 255 255
255 255 255
255 255 255
255 255 255
255 255 255
255 255 255
255 255 255
255 255 255
255 255 255
255 255 255
255 255 255
255 255 255
255 255 255
255 255 255
255 255 255
255 255 255
255 255 255
255 255 255
255 255 255
255 255 255
255 255 255
255 255 255
255 255 255
255 255 255
255 255 255
255 255 255
255 255 255
255 255 255
255 255 255
255 255 255
255 255 255
255 255 255
255 255 255
255 255 255
255 255 255
255 255 255
255 255 255
255 255 255
255 255 255
255 255 255
255 255 255
255 255 255
255 255 255
255 255 255
255 255 255
255 255 255
255 255 255
255 255 255
255 255 255
255 255 255
255 255 255
255 255 255
255 255 255
255 255 255
255 255 255
255 255 255
255 255 255
255 255 255
255 255 255
255 255 255
255 255 255
255 255 255
255 255 255
255 255 255
255 255 255
255 255 255
255 255 255
255 255 255
255 255 255
255 255 255
255 255 255
255 255 255
255 255 255
255 255 255
255 255 255
255 255 255
255 255 255
255 255 255
255 255 255
255 255 255
255 255 255
255 255 255
255 255 255
255 255 255
255 255 255
255 255 255
255 255 255
255 255 255
255 255 255
255 255 255
255 255 255
255 255 255
255 255 255
255 255 255
255 255 255
255 255 255
255 255 255
255 255 255
255 255 255
255 255 255
255 255 255
255 255 255
255 255 255
255 255 255
255 255 255
255 255 255
255 255 255
255 255 255
255 255 255
255 255 255
255 255 255
255 255 255
255 255 255
255 255 255
255 255 255
255 255 255
255 255 255
255 255 255
255 255 255
255 255 255
255 255 255
255 255 255
255 255 255
255 255 255
255 255 255
255 255 255
255 255 255
255 255 255
255 255 255
255 255 255
255 255 255
255 255 255
255 255 255
255 255 255
255 255 255
255 255 255
255 255 255
255 255 255
255 150   0
255 255 255
255 255 255
255 255 255
255 255 255
255 255 255
255 255 255
255 255 255
255 255 255
255 255 255
255 255 255
255 255 255
255 255 255
255 255 255
255 255 255
255 255 255
255 255 255
255 255 255
255 255 255
  0   0   0
  0   0   0
  0   0   0
  0   0   0
255 255 255
255 255 255
255 255 255
255 255 255
255 255 255
255 255 255
255 255 255
255 255 255
255 255 255
255 255 255
255 255 255
255 255 255
255 255 255
255 255 255
255 255 255
255 255 255
255 255 255
255 150   0
255 255 255
255 255 255
255 255 255
255 255 255
255 255 255
255 255 255
255 255 255
255 255 255
255 255 255
255 255 255
255 255 255
255 255 255
255 255 255
255 255 255
255 255 255
255 255 255
255 255 255
255 255 255
255 255 255
255 255 255
255 255 255
255 255 255
255 255 255
255 255 255
255 255 255
255 255 255
255 255 255
255 255 255
255 255 255
255 255 255
255 255 255
255 255 255
255 255 255
255 255 255
255 255 255
255 255 255
255 255 255
255 255 255
255 255 255
255 255 255
255 255 255
255 255 255
255 255 255
255 255 255
255 255 255
255 255 255
255 255 255
255 255 255
255 255 255
255 255 255
255 255 255
255 255 255
255 255 255
255 255 255
255 255 255
255 255 255
255 255 255
255 255 255
255 255 255
255 255 255
255 255 255
255 255 255
255 255 255
255 255 255
255 255 255
255 255 255
255 255 255
255 255 255
255 255 255
255 255 255
255 255 255
255 255 255
255 255 255
255 255 255
255 255 255
255 255 255
255 255 255
255 255 255
255 255 255
255 255 255
255 255 255
255 255 255
255 255 255
255 255 255
255 255 255
255 255 255
255 255 255
255 255 255
255 255 255
255 255 255
255 255 255
255 255 255
255 255 255
255 255 255
255 255 255
255 255 255
255 255 255
255 255 255
255 255 255
255 255 255
255 255 255
255 255 255
255 255 255
255 255 255
255 255 255
255 255 255
255 255 255
255 255 255
255 255 255
255 255 255
255 255 255
255 255 255
255 255 255
255 255 255
255 255 255
255 255 255
255 255 255
255 255 255
255 255 255
255 255 255
255 255 255
255 255 255
255 255 255
255 255 255
255 255 255
255 255 255
255 255 255
255 255 255
255 255 255
255 255 255
255 255 255
255 255 255
255 255 255
255 255 255
255 255 255
255 255 255
255 255 255
255 255 255
255 255 255
255 255 255
255 255 255
255 255 255
255 255 255
255 255 255
255 255 255
255 255 255
255 255 255
255 255 255
255 255 255
255 255 255
255 255 255
255 255 255
255 255 255
255 255 255
255 255 255
255 255 255
255 255 255
255 255 255
255 255 255
255 255 255
255 150   0
255 255 255
255 255 255
255 255 255
255 255 255
255 255 255
255 255 255
255 255 255
255 255 255
255 255 255
255 255 255
255 255 255
255 255 255
255 255 255
255 255 255
255 255 255
255 255 255
255 255 255
255 255 255
  0   0   0
  0   0   0
  0   0   0
  0   0   0
255 255 255
255 255 255
255 255 255
255 255 255
255 255 255
255 255 255
255 255 255
255 255 255
255 255 255
255 255 255
255 255 255
255 255 255
255 255 255
255 255 255
255 255 255
255 255 255
255 255 255
255 150   0
255 255 255
255 255 255
255 255 255
255 255 255
255 255 255
255 255 255
255 255 255
255 255 255
255 255 255
255 255 255
255 255 255
255 255 255
255 255 255
255 255 255
255 255 255
255 255 255
255 255 255
255 255 255
255 255 255
255 255 255
255 255 255
255 255 255
255 255 255
255 255 255
255 255 255
255 255 255
255 255 255
255 255 255
255 255 255
255 255 255
255 255 255
255 255 255
255 255 255
255 255 255
255 255 255
255 255 255
255 255 255
255 255 255
255 255 255
255 255 255
255 255 255
255 255 255
255 255 255
255 255 255
255 255 255
255 255 255
255 255 255
255 255 255
255 255 255
255 255 255
255 255 255
255 255 255
255 255 255
255 255 255
255 255 255
255 255 255
255 255 255
255 255 255
255 255 255
255 255 255
255 255 255
255 255 255
255 255 255
255 255 255
255 255 255
255 255 255
255 255 255
255 255 255
255 255 255
255 255 255
255 255 255
255 255 255
255 255 255
255 255 255
255 255 255
255 255 255
255 255 255
255 255 255
255 255 255
255 255 255
255 255 255
255 255 255
255 255 255
255 255 255
255 255 255
255 255 255
255 255 255
255 255 255
255 255 255
255 255 255
255 255 255
255 255 255
255 255 255
255 255 255
255 255 255
255 255 255
255 255 255
255 255 255
255 255 255
255 255 255
255 255 255
255 255 255
255 255 255
255 255 255
255 255 255
255 255 255
255 255 255
255 255 255
255 255 255
255 255 255
255 255 255
255 255 255
255 255 255
255 255 255
255 255 255
255 255 255
255 255 255
255 255 255
255 255 255
255 255 255
255 255 255
255 255 255
255 255 255
255 255 255
255 255 255
255 255 255
255 255 255
255 255 255
255 255 255
255 255 255
255 255 255
255 255 255
255 255 255
255 255 255
255 255 255
255 255 255
255 255 255
255 255 255
255 255 255
255 255 255
255 255 255
255 255 255
255 255 255
255 255 255
255 255 255
255 255 255
255 255 255
255 255 255
255 255 255
255 255 255
255 255 255
255 255 255
255 255 255
255 255 255
255 255 255
255 255 255
255 255 255
255 255 255
255 255 255
255 255 255
255 150   0
255 255 255
255 255 255
255 255 255
255 255 255
255 255 255
255 255 255
255 255 255
255 255 255
255 255 255
255 255 255
255 255 255
255 255 255
255 255 255
255 255 255
255 255 255
255 255 255
255 255 255
255 255 255
  0   0   0
  0   0   0
  0   0   0
  0   0   0
255 255 255
255 255 255
255 255 255
255 255 255
255 255 255
255 255 255
255 255 255
255 255 255
255 255 255
255 255 255
255 255 255
255 255 255
255 255 255
255 255 255
255 255 255
255 255 255
255 255 255
255 150   0
255 255 255
255 255 255
255 255 255
255 255 255
255 255 255
255 255 255
255 255 255
255 255 255
255 255 255
255 255 255
255 255 255
255 255 255
255 255 255
255 255 255
255 255 255
255 255 255
255 255 255
255 255 255
255 255 255
255 255 255
255 255 255
255 255 255
255 255 255
255 255 255
255 255 255
255 255 255
255 255 255
255 255 255
255 255 255
255 255 255
255 255 255
255 255 255
255 255 255
255 255 255
255 255 255
255 255 255
255 255 255
255 255 255
255 255 255
255 255 255
255 255 255
255 255 255
255 255 255
255 255 255
255 255 255
255 255 255
255 255 255
255 255 255
255 255 255
255 255 255
255 255 255
255 255 255
255 255 255
255 255 255
255 255 255
255 255 255
255 255 255
255 255 255
255 255 255
255 255 255
255 255 255
255 255 255
255 255 255
255 255 255
255 255 255
255 255 255
255 255 255
255 255 255
255 255 255
255 255 255
255 255 255
255 255 255
255 255 255
255 255 255
255 255 255
255 255 255
255 255 255
255 255 255
255 255 255
255 255 255
255 255 255
255 255 255
255 255 255
255 255 255
255 255 255
255 255 255
255 255 255
255 255 255
255 255 255
255 255 255
255 255 255
255 255 255
255 255 255
255 255 255
255 255 255
255 255 255
255 255 255
255 255 255
255 255 255
255 255 255
255 255 255
255 255 255
255 255 255
255 255 255
255 255 255
255 255 255
255 255 255
255 255 255
255 255 255
255 255 255
255 255 255
255 255 255
255 255 255
255 255 255
255 255 255
255 255 255
255 255 255
255 255 255
255 255 255
255 255 255
255 255 255
255 255 255
255 255 255
255 255 255
255 255 255
255 255 255
255 255 255
255 255 255
255 255 255
255 255 255
255 255 255
255 255 255
255 255 255
255 255 255
255 255 255
255 255 255
255 255 255
255 255 255
255 255 255
255 255 255
255 255 255
255 255 255
255 255 255
255 255 255
255 255 255
255 255 255
255 255 255
255 255 255
255 255 255
255 255 255
255 255 255
255 255 255
255 255 255
255 255 255
255 255 255
255 255 255
255 255 255
255 255 255
255 255 255
255 255 255
255 150   0
255 255 255
255 255 255
255 255 255
255 255 255
255 255 255
255 255 255
255 255 255
255 255 255
255 255 255
255 255 255
255 255 255
255 255 255
255 255 255
255 255 255
255 255 255
255 255 255
255 255 255
255 255 255
  0   0   0
  0   0   0
  0   0   0
  0   0   0
255 255 255
255 255 255
255 255 255
255 255 255
255 255 255
255 255 255
255 255 255
255 255 255
255 255 255
255 255 255
255 255 255
255 255 255
255 255 255
255 255 255
255 255 255
255 255 255
255 255 255
255 150   0
255 255 255
255 255 255
255 255 255
255 255 255
255 255 255
255 255 255
255 255 255
255 255 255
255 255 255
255 255 255
255 255 255
255 255 255
255 255 255
255 255 255
255 255 255
255 255 255
255 255 255
255 255 255
255 255 255
255 255 255
255 255 255
255 255 255
255 255 255
255 255 255
255 255 255
255 255 255
255 255 255
255 255 255
255 255 255
255 255 255
255 255 255
255 255 255
255 255 255
255 255 255
255 255 255
255 255 255
255 255 255
255 255 255
255 255 255
255 255 255
255 255 255
255 255 255
255 255 255
255 255 255
255 255 255
255 255 255
255 255 255
255 255 255
255 255 255
255 255 255
255 255 255
255 255 255
255 255 255
255 255 255
255 255 255
255 255 255
255 255 255
255 255 255
255 255 255
255 255 255
255 255 255
255 255 255
255 255 255
255 255 255
255 255 255
255 255 255
255 255 255
255 255 255
255 255 255
255 255 255
255 255 255
255 255 255
255 255 255
255 255 255
255 255 255
255 255 255
255 255 255
255 255 255
255 255 255
255 255 255
255 255 255
255 255 255
255 255 255
255 255 255
255 255 255
255 255 255
255 255 255
255 255 255
255 255 255
255 255 255
255 255 255
255 255 255
255 255 255
255 255 255
255 255 255
255 255 255
255 255 255
255 255 255
255 255 255
255 255 255
255 255 255
255 255 255
255 255 255
255 255 255
255 255 255
255 255 255
255 255 255
255 255 255
255 255 255
255 255 255
255 255 255
255 255 255
255 255 255
255 255 255
255 255 255
255 255 255
255 255 255
255 255 255
255 255 255
255 255 255
255 255 255
255 255 255
255 255 255
255 255 255
255 255 255
255 255 255
255 255 255
255 255 255
255 255 255
255 255 255
255 255 255
255 255 255
255 255 255
255 255 255
255 255 255
255 255 255
255 255 255
255 255 255
255 255 255
255 255 255
255 255 255
255 255 255
255 255 255
255 255 255
255 255 255
255 255 255
255 255 255
255 255 255
255 255 255
255 255 255
255 255 255
255 255 255
255 255 255
255 255 255
255 255 255
255 255 255
255 255 255
255 255 255
255 255 255
255 255 255
255 150   0
255 255 255
255 255 255
255 255 255
255 255 255
255 255 255
255 255 255
255 255 255
255 255 255
255 255 255
255 255 255
255 255 255
255 255 255
255 255 255
255 255 255
255 255 255
255 255 255
255 255 255
255 255 255
  0   0   0
  0   0   0
  0   0   0
  0   0   0
255 255 255
255 255 255
255 255 255
255 255 255
255 255 255
255 255 255
255 255 255
255 255 255
255 255 255
255 255 255
255 255 255
255 255 255
255 255 255
255 255 255
255 255 255
255 255 255
255 255 255
255 150   0
255 255 255
255 255 255
255 255 255
255 255 255
255 255 255
255 255 255
255 255 255
255 255 255
255 255 255
255 255 255
255 255 255
255 255 255
255 255 255
255 255 255
255 255 255
255 255 255
255 255 255
255 255 255
255 255 255
255 255 255
255 255 255
255 255 255
255 255 255
255 255 255
255 255 255
255 255 255
255 255 255
255 255 255
255 255 255
255 255 255
255 255 255
255 255 255
255 255 255
255 255 255
255 255 255
255 255 255
255 255 255
255 255 255
255 255 255
255 255 255
255 255 255
255 255 255
255 255 255
255 255 255
255 255 255
255 255 255
255 255 255
255 255 255
255 255 255
255 255 255
255 255 255
255 255 255
255 255 255
255 255 255
255 255 255
255 255 255
255 255 255
255 255 255
255 255 255
255 255 255
255 255 255
255 255 255
255 255 255
255 255 255
255 255 255
255 255 255
255 255 255
255 255 255
255 255 255
255 255 255
255 255 255
255 255 255
255 255 255
255 255 255
255 255 255
255 255 255
255 255 255
255 255 255
255 255 255
255 255 255
255 255 255
255 255 255
255 255 255
255 255 255
255 255 255
255 255 255
255 255 255
255 255 255
255 255 255
255 255 255
255 255 255
255 255 255
255 255 255
255 255 255
255 255 255
255 255 255
255 255 255
255 255 255
255 255 255
255 255 255
255 255 255
255 255 255
255 255 255
255 255 255
255 255 255
255 255 255
255 255 255
255 255 255
255 255 255
255 255 255
255 255 255
255 255 255
255 255 255
255 255 255
255 255 255
255 255 255
255 255 255
255 255 255
255 255 255
255 255 255
255 255 255
255 255 255
255 255 255
255 255 255
255 255 255
255 255 255
255 255 255
255 255 255
255 255 255
255 255 255
255 255 255
255 255 255
255 255 255
255 255 255
255 255 255
255 255 255
255 255 255
255 255 255
255 255 255
255 255 255
255 255 255
255 255 255
255 255 255
255 255 255
255 255 255
255 255 255
255 255 255
255 255 255
255 255 255
255 255 255
255 255 255
255 255 255
255 255 255
255 255 255
255 255 255
255 255 255
255 255 255
255 255 255
255 255 255
255 255 255
255 150   0
255 255 255
255 255 255
255 255 255
255 255 255
255 255 255
255 255 255
255 255 255
255 255 255
255 255 255
255 255 255
255 255 255
255 255 255
255 255 255
255 255 255
255 255 255
255 255 255
255 255 255
255 255 255
  0   0   0
  0   0   0
  0   0   0
  0   0   0
255 255 255
255 255 255
255 255 255
255 255 255
255 255 255
255 255 255
255 255 255
255 255 255
255 255 255
255 255 255
255 255 255
255 255 255
255 255 255
255 255 255
255 255 255
255 255 255
255 255 255
255 150   0
255 255 255
255 255 255
255 255 255
255 255 255
255 255 255
255 255 255
255 255 255
255 255 255
255 255 255
255 255 255
255 255 255
255 255 255
255 255 255
255 255 255
255 255 255
255 255 255
255 255 255
255 255 255
255 255 255
255 255 255
255 255 255
255 255 255
255 255 255
255 255 255
255 255 255
255 255 255
255 255 255
255 255 255
255 255 255
255 255 255
255 255 255
255 255 255
255 255 255
255 255 255
255 255 255
255 255 255
255 255 255
255 255 255
255 255 255
255 255 255
255 255 255
255 255 255
255 255 255
255 255 255
255 255 255
255 255 255
255 255 255
255 255 255
255 255 255
255 255 255
255 255 255
255 255 255
255 255 255
255 255 255
255 255 255
255 255 255
255 255 255
255 255 255
255 255 255
255 255 255
255 255 255
255 255 255
255 255 255
255 255 255
255 255 255
255 255 255
255 255 255
255 255 255
255 255 255
255 255 255
255 255 255
255 255 255
255 255 255
255 255 255
255 255 255
255 255 255
255 255 255
255 255 255
255 255 255
255 255 255
255 255 255
255 255 255
255 255 255
255 255 255
255 255 255
255 255 255
255 255 255
255 255 255
255 255 255
255 255 255
255 255 255
255 255 255
255 255 255
255 255 255
255 255 255
255 255 255
255 255 255
255 255 255
255 255 255
255 255 255
255 255 255
255 255 255
255 255 255
255 255 255
255 255 255
255 255 255
255 255 255
255 255 255
255 255 255
255 255 255
255 255 255
255 255 255
255 255 255
255 255 255
255 255 255
255 255 255
255 255 255
255 255 255
255 255 255
255 255 255
255 255 255
255 255 255
255 255 255
255 255 255
255 255 255
255 255 255
255 255 255
255 255 255
255 255 255
255 255 255
255 255 255
255 255 255
255 255 255
255 255 255
255 255 255
255 255 255
255 255 255
255 255 255
255 255 255
255 255 255
255 255 255
255 255 255
255 255 255
255 255 255
255 255 255
255 255 255
255 255 255
255 255 255
255 255 255
255 255 255
255 255 255
255 255 255
255 255 255
255 255 255
255 255 255
255 255 255
255 255 255
255 255 255
255 255 255
255 255 255
255 150   0
255 255 255
255 255 255
255 255 255
255 255 255
255 255 255
255 255 255
255 255 255
255 255 255
255 255 255
255 255 255
255 255 255
255 255 255
255 255 255
255 255 255
255 255 255
255 255 255
255 255 255
255 255 255
  0   0   0
  0   0   0
  0   0   0
  0   0   0
255 255 255
255 255 255
255 255 255
255 255 255
255 255 255
255 255 255
255 255 255
255 255 255
255 255 255
255 255 255
255 255 255
255 255 255
255 255 255
255 255 255
255 255 255
255 255 255
255 255 255
255 150   0
255 255 255
255 255 255
255 255 255
255 255 255
255 255 255
255 255 255
255 255 255
255 255 255
255 255 255
255 255 255
255 255 255
255 255 255
255 255 255
255 255 255
255 255 255
255 255 255
255 255 255
255 255 255
255 255 255
255 255 255
255 255 255
255 255 255
255 255 255
255 255 255
255 255 255
255 255 255
255 255 255
255 255 255
255 255 255
255 255 255
255 255 255
255 255 255
255 255 255
255 255 255
255 255 255
255 255 255
255 255 255
255 255 255
255 255 255
255 255 255
255 255 255
255 255 255
255 255 255
255 255 255
255 255 255
255 255 255
255 255 255
255 255 255
255 255 255
255 255 255
255 255 255
255 255 255
255 255 255
255 255 255
255 255 255
255 255 255
255 255 255
255 255 255
255 255 255
255 255 255
255 255 255
255 255 255
255 255 255
255 255 255
255 255 255
255 255 255
255 255 255
255 255 255
255 255 255
255 255 255
255 255 255
255 255 255
255 255 255
255 255 255
255 255 255
255 255 255
255 255 255
255 255 255
255 255 255
255 255 255
255 255 255
255 255 255
255 255 255
255 255 255
255 255 255
255 255 255
255 255 255
255 255 255
255 255 255
255 255 255
255 255 255
255 255 255
255 255 255
255 255 255
255 255 255
255 255 255
255 255 255
255 255 255
255 255 255
255 255 255
255 255 255
255 255 255
255 255 255
255 255 255
255 255 255
255 255 255
255 255 255
255 255 255
255 255 255
255 255 255
255 255 255
255 255 255
255 255 255
255 255 255
255 255 255
255 255 255
255 255 255
255 255 255
255 255 255
255 255 255
255 255 255
255 255 255
255 255 255
255 255 255
255 255 255
255 255 255
255 255 255
255 255 255
255 255 255
255 255 255
255 255 255
255 255 255
255 255 255
255 255 255
255 255 255
255 255 255
255 255 255
255 255 255
255 255 255
255 255 255
255 255 255
255 255 255
255 255 255
255 255 255
255 255 255
255 255 255
255 255 255
255 255 255
255 255 255
255 255 255
255 255 255
255 255 255
255 255 255
255 255 255
255 255 255
255 255 255
255 255 255
255 255 255
255 255 255
255 255 255
255 150   0
255 255 255
255 255 255
255 255 255
255 255 255
255 255 255
255 255 255
255 255 255
255 255 255
255 255 255
255 255 255
255 255 255
255 255 255
255 255 255
255 255 255
255 255 255
255 255 255
255 255 255
255 255 255
  0   0   0
  0   0   0
  0   0   0
  0   0   0
255 255 255
255 255 255
255 255 255
255 255 255
255 255 255
255 255 255
255 255 255
255 255 255
255 255 255
255 255 255
255 255 255
255 255 255
255 255 255
255 255 255
255 255 255
255 255 255
255 255 255
255 150   0
255 255 255
255 255 255
255 255 255
255 255 255
255 255 255
255 255 255
255 255 255
255 255 255
255 255 255
255 255 255
255 255 255
255 255 255
255 255 255
255 255 255
255 255 255
255 255 255
255 255 255
255 255 255
255 255 255
255 255 255
255 255 255
255 255 255
255 255 255
255 255 255
255 255 255
255 255 255
255 255 255
255 255 255
255 255 255
255 255 255
255 255 255
255 255 255
255 255 255
255 255 255
255 255 255
255 255 255
255 255 255
255 255 255
255 255 255
255 255 255
255 255 255
255 255 255
255 255 255
255 255 255
255 255 255
255 255 255
255 255 255
255 255 255
255 255 255
255 255 255
255 255 255
255 255 255
255 255 255
255 255 255
255 255 255
255 255 255
255 255 255
255 255 255
255 255 255
255 255 255
255 255 255
255 255 255
255 255 255
255 255 255
255 255 255
255 255 255
255 255 255
255 255 255
255 255 255
255 255 255
255 255 255
255 255 255
255 255 255
255 255 255
255 255 255
255 255 255
255 255 255
255 255 255
255 255 255
255 255 255
255 255 255
255 255 255
255 255 255
255 255 255
255 255 255
255 255 255
255 255 255
255 255 255
255 255 255
255 255 255
255 255 255
255 255 255
255 255 255
255 255 255
255 255 255
255 255 255
255 255 255
255 255 255
255 255 255
255 255 255
255 255 255
255 255 255
255 255 255
255 255 255
255 255 255
255 255 255
255 255 255
255 255 255
255 255 255
255 255 255
255 255 255
255 255 255
255 255 255
255 255 255
255 255 255
255 255 255
255 255 255
255 255 255
255 255 255
255 255 255
255 255 255
255 255 255
255 255 255
255 255 255
255 255 255
255 255 255
255 255 255
255 255 255
255 255 255
255 255 255
255 255 255
255 255 255
255 255 255
255 255 255
255 255 255
255 255 255
255 255 255
255 255 255
255 255 255
255 255 255
255 255 255
255 255 255
255 255 255
255 255 255
255 255 255
255 255 255
255 255 255
255 255 255
255 255 255
255 255 255
255 255 255
255 255 255
255 255 255
255 255 255
255 255 255
255 255 255
255 255 255
255 255 255
255 255 255
255 255 255
255 150   0
255 255 255
255 255 255
255 255 255
255 255 255
255 255 255
255 255 255
255 255 255
255 255 255
255 255 255
255 255 255
255 255 255
255 255 255
255 255 255
255 255 255
255 255 255
255 255 255
255 255 255
255 255 255
  0   0   0
  0   0   0
  0   0   0
  0   0   0
255 255 255
255 255 255
255 255 255
255 255 255
255 255 255
255 255 255
255 255 255
255 255 255
255 255 255
255 255 255
255 255 255
255 255 255
255 255 255
255 255 255
255 255 255
255 255 255
255 255 255
255 150   0
255 255 255
255 255 255
255 255 255
255 255 255
255 255 255
255 255 255
255 255 255
255 255 255
255 255 255
255 255 255
255 255 255
255 255 255
255 255 255
255 255 255
255 255 255
255 255 255
255 255 255
255 255 255
255 255 255
255 255 255
255 255 255
255 255 255
255 255 255
255 255 255
255 255 255
255 255 255
255 255 255
255 255 255
255 255 255
255 255 255
255 255 255
255 255 255
255 255 255
255 255 255
255 255 255
255 255 255
255 255 255
255 255 255
255 255 255
255 255 255
255 255 255
255 255 255
255 255 255
255 255 255
255 255 255
255 255 255
255 255 255
255 255 255
255 255 255
255 255 255
255 255 255
255 255 255
255 255 255
255 255 255
255 255 255
255 255 255
255 255 255
255 255 255
255 255 255
255 255 255
255 255 255
255 255 255
255 255 255
255 255 255
255 255 255
255 255 255
255 255 255
255 255 255
255 255 255
255 255 255
255 255 255
255 255 255
255 255 255
255 255 255
255 255 255
255 255 255
255 255 255
255 255 255
255 255 255
255 255 255
255 255 255
255 255 255
255 255 255
255 255 255
255 255 255
255 255 255
255 255 255
255 255 255
255 255 255
255 255 255
255 255 255
255 255 255
255 255 255
255 255 255
255 255 255
255 255 255
255 255 255
255 255 255
255 255 255
255 255 255
255 255 255
255 255 255
255 255 255
255 255 255
255 255 255
255 255 255
255 255 255
255 255 255
255 255 255
255 255 255
255 255 255
255 255 255
255 255 255
255 255 255
255 255 255
255 255 255
255 255 255
255 255 255
255 255 255
255 255 255
255 255 255
255 255 255
255 255 255
255 255 255
255 255 255
255 255 255
255 255 255
255 255 255
255 255 255
255 255 255
255 255 255
255 255 255
255 255 255
255 255 255
255 255 255
255 255 255
255 255 255
255 255 255
255 255 255
255 255 255
255 255 255
255 255 255
255 255 255
255 255 255
255 255 255
255 255 255
255 255 255
255 255 255
255 255 255
255 255 255
255 255 255
255 255 255
255 255 255
255 255 255
255 255 255
255 255 255
255 255 255
255 255 255
255 255 255
255 255 255
255 150   0
255 255 255
255 255 255
255 255 255
255 255 255
255 255 255
255 255 255
255 255 255
255 255 255
255 255 255
255 255 255
255 255 255
255 255 255
255 255 255
255 255 255
255 255 255
255 255 255
255 255 255
255 255 255
  0   0   0
  0   0   0
  0   0   0
  0   0   0
255 255 255
255 255 255
255 255 255
255 255 255
255 255 255
255 255 255
255 255 255
255 255 255
255 255 255
255 255 255
255 255 255
255 255 255
255 255 255
255 255 255
255 255 255
255 255 255
255 255 255
255 150   0
255 255 255
255 255 255
255 255 255
255 255 255
255 255 255
255 255 255
255 255 255
255 255 255
255 255 255
255 255 255
255 255 255
255 255 255
255 255 255
255 255 255
255 255 255
255 255 255
255 255 255
255 255 255
255 255 255
255 255 255
255 255 255
255 255 255
255 255 255
255 255 255
255 255 255
255 255 255
255 255 255
255 255 255
255 255 255
255 255 255
255 255 255
255 255 255
255 255 255
255 255 255
255 255 255
255 255 255
255 255 255
255 255 255
255 255 255
255 255 255
255 255 255
255 255 255
255 255 255
255 255 255
255 255 255
255 255 255
255 255 255
255 255 255
255 255 255
255 255 255
255 255 255
255 255 255
255 255 255
255 255 255
255 255 255
255 255 255
255 255 255
255 255 255
255 255 255
255 255 255
255 255 255
255 255 255
255 255 255
255 255 255
255 255 255
255 255 255
255 255 255
255 255 255
255 255 255
255 255 255
255 255 255
255 255 255
255 255 255
255 255 255
255 255 255
255 255 255
255 255 255
255 255 255
255 255 255
255 255 255
255 255 255
255 255 255
255 255 255
255 255 255
255 255 255
255 255 255
255 255 255
255 255 255
255 255 255
255 255 255
255 255 255
255 255 255
255 255 255
255 255 255
255 255 255
255 255 255
255 255 255
255 255 255
255 255 255
255 255 255
255 255 255
255 255 255
255 255 255
255 255 255
255 255 255
255 255 255
255 255 255
255 255 255
255 255 255
255 255 255
255 255 255
255 255 255
255 255 255
255 255 255
255 255 255
255 255 255
255 255 255
255 255 255
255 255 255
255 255 255
255 255 255
255 255 255
255 255 255
255 255 255
255 255 255
255 255 255
255 255 255
255 255 255
255 255 255
255 255 255
255 255 255
255 255 255
255 255 255
255 255 255
255 255 255
255 255 255
255 255 255
255 255 255
255 255 255
255 255 255
255 255 255
255 255 255
255 255 255
255 255 255
255 255 255
255 255 255
255 255 255
255 255 255
255 255 255
255 255 255
255 255 255
255 255 255
255 255 255
255 255 255
255 255 255
255 255 255
255 255 255
255 255 255
255 255 255
255 255 255
255 150   0
255 255 255
255 255 255
255 255 255
255 255 255
255 255 255
255 255 255
255 255 255
255 255 255
255 255 255
255 255 255
255 255 255
255 255 255
255 255 255
255 255 255
255 255 255
255 255 255
255 255 255
255 255 255
  0   0   0
  0   0   0
  0   0   0
  0   0   0
255 255 255
255 255 255
255 255 255
255 255 255
255 255 255
255 255 255
255 255 255
255 255 255
255 255 255
255 255 255
255 255 255
255 255 255
255 255 255
255 255 255
255 255 255
255 255 255
255 255 255
255 150   0
255 255 255
255 255 255
255 255 255
255 255 255
255 255 255
255 255 255
255 255 255
255 255 255
255 255 255
255 255 255
255 255 255
255 255 255
255 255 255
255 255 255
255 255 255
255 255 255
255 255 255
255 255 255
255 255 255
255 255 255
255 255 255
255 255 255
255 255 255
255 255 255
255 255 255
255 255 255
255 255 255
255 255 255
255 255 255
255 255 255
255 255 255
255 255 255
255 255 255
255 255 255
255 255 255
255 255 255
255 255 255
255 255 255
255 255 255
255 255 255
255 255 255
255 255 255
255 255 255
255 255 255
255 255 255
255 255 255
255 255 255
255 255 255
255 255 255
255 255 255
255 255 255
255 255 255
255 255 255
255 255 255
255 255 255
255 255 255
255 255 255
255 255 255
255 255 255
255 255 255
255 255 255
255 255 255
255 255 255
255 255 255
255 255 255
255 255 255
255 255 255
255 255 255
255 255 255
255 255 255
255 255 255
255 255 255
255 255 255
255 255 255
255 255 255
255 255 255
255 255 255
255 255 255
255 255 255
255 255 255
255 255 255
255 255 255
255 255 255
255 255 255
255 255 255
255 255 255
255 255 255
255 255 255
255 255 255
255 255 255
255 255 255
255 255 255
255 255 255
255 255 255
255 255 255
255 255 255
255 255 255
255 255 255
255 255 255
255 255 255
255 255 255
255 255 255
255 255 255
255 255 255
255 255 255
255 255 255
255 255 255
255 255 255
255 255 255
255 255 255
255 255 255
255 255 255
255 255 255
255 255 255
255 255 255
255 255 255
255 255 255
255 255 255
255 255 255
255 255 255
255 255 255
255 255 255
255 255 255
255 255 255
255 255 255
255 255 255
255 255 255
255 255 255
255 255 255
255 255 255
255 255 255
255 255 255
255 255 255
255 255 255
255 255 255
255 255 255
255 255 255
255 255 255
255 255 255
255 255 255
255 255 255
255 255 255
255 255 255
255 255 255
255 255 255
255 255 255
255 255 255
255 255 255
255 255 255
255 255 255
255 255 255
255 255 255
255 255 255
255 255 255
255 255 255
255 255 255
255 255 255
255 255 255
255 255 255
255 255 255
255 150   0
255 255 255
255 255 255
255 255 255
255 255 255
255 255 255
255 255 255
255 255 255
255 255 255
255 255 255
255 255 255
255 255 255
255 255 255
255 255 255
255 255 255
255 255 255
255 255 255
255 255 255
255 255 255
  0   0   0
  0   0   0
  0   0   0
  0   0   0
255 255 255
255 255 255
255 255 255
255 255 255
255 255 255
255 255 255
255 255 255
255 255 255
255 255 255
255 255 255
255 255 255
255 255 255
255 255 255
255 255 255
255 255 255
255 255 255
255 255 255
255 150   0
255 255 255
255 255 255
255 255 255
255 255 255
255 255 255
255 255 255
255 255 255
255 255 255
255 255 255
255 255 255
255 255 255
255 255 255
255 255 255
255 255 255
255 255 255
255 255 255
255 255 255
255 255 255
255 255 255
255 255 255
255 255 255
255 255 255
255 255 255
255 255 255
255 255 255
255 255 255
255 255 255
255 255 255
255 255 255
255 255 255
255 255 255
255 255 255
255 255 255
255 255 255
255 255 255
255 255 255
255 255 255
255 255 255
255 255 255
255 255 255
255 255 255
255 255 255
255 255 255
255 255 255
255 255 255
255 255 255
255 255 255
255 255 255
255 255 255
255 255 255
255 255 255
255 255 255
255 255 255
255 255 255
255 255 255
255 255 255
255 255 255
255 255 255
255 255 255
255 255 255
255 255 255
255 255 255
255 255 255
255 255 255
255 255 255
255 255 255
255 255 255
255 255 255
255 255 255
255 255 255
255 255 255
255 255 255
255 255 255
255 255 255
255 255 255
255 255 255
255 255 255
255 255 255
255 255 255
255 255 255
255 255 255
255 255 255
255 255 255
255 255 255
255 255 255
255 255 255
255 255 255
255 255 255
255 255 255
255 255 255
255 255 255
255 255 255
255 255 255
255 255 255
255 255 255
255 255 255
255 255 255
255 255 255
255 255 255
255 255 255
255 255 255
255 255 255
255 255 255
255 255 255
255 255 255
255 255 255
255 255 255
255 255 255
255 255 255
255 255 255
255 255 255
255 255 255
255 255 255
255 255 255
255 255 255
255 255 255
255 255 255
255 255 255
255 255 255
255 255 255
255 255 255
255 255 255
255 255 255
255 255 255
255 255 255
255 255 255
255 255 255
255 255 255
255 255 255
255 255 255
255 255 255
255 255 255
255 255 255
255 255 255
255 255 255
255 255 255
255 255 255
255 255 255
255 255 255
255 255 255
255 255 255
255 255 255
255 255 255
255 255 255
255 255 255
255 255 255
255 255 255
255 255 255
255 255 255
255 255 255
255 255 255
255 255 255
255 255 255
255 255 255
255 255 255
255 255 255
255 255 255
255 255 255
255 255 255
255 255 255
255 150   0
255 255 255
255 255 255
255 255 255
255 255 255
255 255 255
255 255 255
255 255 255
255 255 255
255 255 255
255 255 255
255 255 255
255 255 255
255 255 255
255 255 255
255 255 255
255 255 255
255 255 255
255 255 255
  0   0   0
  0   0   0
  0   0   0
  0   0   0
255 255 255
255 255 255
255 255 255
255 255 255
255 255 255
255 255 255
255 255 255
255 255 255
255 255 255
255 255 255
255 255 255
255 255 255
255 255 255
255 255 255
255 255 255
255 255 255
255 255 255
255 150   0
255 255 255
255 255 255
255 255 255
255 255 255
255 255 255
255 255 255
255 255 255
255 255 255
255 255 255
255 255 255
255 255 255
255 255 255
255 255 255
255 255 255
255 255 255
255 255 255
255 255 255
255 255 255
255 255 255
255 255 255
255 255 255
255 255 255
255 255 255
255 255 255
255 255 255
255 255 255
255 255 255
255 255 255
255 255 255
255 255 255
255 255 255
255 255 255
255 255 255
255 255 255
255 255 255
255 255 255
255 255 255
255 255 255
255 255 255
255 255 255
255 255 255
255 255 255
255 255 255
255 255 255
255 255 255
255 255 255
255 255 255
255 255 255
255 255 255
255 255 255
255 255 255
255 255 255
255 255 255
255 255 255
255 255 255
255 255 255
255 255 255
255 255 255
255 255 255
255 255 255
255 255 255
255 255 255
255 255 255
255 255 255
255 255 255
255 255 255
255 255 255
255 255 255
255 255 255
255 255 255
255 255 255
255 255 255
255 255 255
255 255 255
255 255 255
255 255 255
255 255 255
255 255 255
255 255 255
255 255 255
255 255 255
255 255 255
255 255 255
255 255 255
255 255 255
255 255 255
255 255 255
255 255 255
255 255 255
255 255 255
255 255 255
255 255 255
255 255 255
255 255 255
255 255 255
255 255 255
255 255 255
255 255 255
255 255 255
255 255 255
255 255 255
255 255 255
255 255 255
255 255 255
255 255 255
255 255 255
255 255 255
255 255 255
255 255 255
255 255 255
255 255 255
255 255 255
255 255 255
255 255 255
255 255 255
255 255 255
255 255 255
255 255 255
255 255 255
255 255 255
255 255 255
255 255 255
255 255 255
255 255 255
255 255 255
255 255 255
255 255 255
255 255 255
255 255 255
255 255 255
255 255 255
255 255 255
255 255 255
255 255 255
255 255 255
255 255 255
255 255 255
255 255 255
255 255 255
255 255 255
255 255 255
255 255 255
255 255 255
255 255 255
255 255 255
255 255 255
255 255 255
255 255 255
255 255 255
255 255 255
255 255 255
255 255 255
255 255 255
255 255 255
255 255 255
255 255 255
255 255 255
255 255 255
255 255 255
255 255 255
255 150   0
255 255 255
255 255 255
255 255 255
255 255 255
255 255 255
255 255 255
255 255 255
255 255 255
255 255 255
255 255 255
255 255 255
255 255 255
255 255 255
255 255 255
255 255 255
255 255 255
255 255 255
255 255 255
  0   0   0
  0   0   0
  0   0   0
  0   0   0
  0   0   0
  0   0   0
  0   0   0
  0   0   0
  0   0   0
  0   0   0
  0   0   0
  0   0   0
  0   0   0
  0   0   0
  0   0   0
  0   0   0
  0   0   0
  0   0   0
  0   0   0
  0   0   0
  0   0   0
  0   0   0
  0   0   0
  0   0   0
  0   0   0
  0   0   0
  0   0   0
  0   0   0
  0   0   0
  0   0   0
  0   0   0
  0   0   0
  0   0   0
  0   0   0
  0   0   0
  0   0   0
  0   0   0
  0   0   0
  0   0   0
  0   0   0
  0   0   0
  0   0   0
  0   0   0
  0   0   0
  0   0   0
  0   0   0
  0   0   0
  0   0   0
  0   0   0
  0   0   0
  0   0   0
  0   0   0
  0   0   0
  0   0   0
  0   0   0
  0   0   0
  0   0   0
  0   0   0
  0   0   0
  0   0   0
  0   0   0
  0   0   0
  0   0   0
  0   0   0
  0   0   0
  0   0   0
  0   0   0
  0   0   0
  0   0   0
  0   0   0
  0   0   0
  0   0   0
  0   0   0
  0   0   0
  0   0   0
  0   0   0
  0   0   0
  0   0   0
  0   0   0
  0   0   0
  0   0   0
  0   0   0
  0   0   0
  0   0   0
  0   0   0
  0   0   0
  0   0   0
  0   0   0
  0   0   0
  0   0   0
  0   0   0
  0   0   0
  0   0   0
  0   0   0
  0   0   0
  0   0   0
  0   0   0
  0   0   0
  0   0   0
  0   0   0
  0   0   0
  0   0   0
  0   0   0
  0   0   0
  0   0   0
  0   0   0
  0   0   0
  0   0   0
  0   0   0
  0   0   0
  0   0   0
  0   0   0
  0   0   0
  0   0   0
  0   0   0
  0   0   0
  0   0   0
  0   0   0
  0   0   0
  0   0   0
  0   0   0
  0   0   0
  0   0   0
  0   0   0
  0   0   0
  0   0   0
  0   0   0
  0   0   0
  0   0   0
  0   0   0
  0   0   0
  0   0   0
  0   0   0
  0   0   0
  0   0   0
  0   0   0
  0   0   0
  0   0   0
  0   0   0
  0   0   0
  0   0   0
  0   0   0
  0   0   0
  0   0   0
  0   0   0
  0   0   0
  0   0   0
  0   0   0
  0   0   0
  0   0   0
  0   0   0
  0   0   0
  0   0   0
  0   0   0
  0   0   0
  0   0   0
  0   0   0
  0   0   0
  0   0   0
  0   0   0
  0   0   0
  0   0   0
  0   0   0
  0   0   0
  0   0   0
  0   0   0
  0   0   0
  0   0   0
  0   0   0
  0   0   0
  0   0   0
  0   0   0
  0   0   0
  0   0   0
  0   0   0
  0   0   0
  0   0   0
  0   0   0
  0   0   0
  0   0   0
  0   0   0
  0   0   0
  0   0   0
  0   0   0
  0   0   0
  0   0   0
  0   0   0
  0   0   0
  0   0   0
  0   0   0
  0   0   0
  0   0   0
  0   0   0
  0   0   0
  0   0   0
  0   0   0
  0   0   0
  0   0   0
  0   0   0
  0   0   0
  0   0   0
  0   0   0
  0   0   0
  0   0   0
  0   0   0
  0   0   0
  0   0   0
  0   0   0
  0   0   0
  0   0   0
  0   0   0
  0   0   0
  0   0   0
  0   0   0
  0   0   0
  0   0   0
  0   0   0
  0   0   0
  0   0   0
  0   0   0
  0   0   0
  0   0   0
  0   0   0
  0   0   0
  0   0   0
  0   0   0
  0   0   0
  0   0   0
  0   0   0
  0   0   0
  0   0   0
  0   0   0
  0   0   0
  0   0   0
  0   0   0
  0   0   0
  0   0   0
  0   0   0
  0   0   0
  0   0   0
  0   0   0
  0   0   0
  0   0   0
  0   0   0
  0   0   0
  0   0   0
  0   0   0
  0   0   0
  0   0   0
  0   0   0
  0   0   0
  0   0   0
  0   0   0
  0   0   0
  0   0   0
  0   0   0
  0   0   0
  0   0   0
  0   0   0
  0   0   0
  0   0   0
  0   0   0
  0   0   0
  0   0   0
  0   0   0
  0   0   0
  0   0   0
  0   0   0
  0   0   0
  0   0   0
  0   0   0
  0   0   0
  0   0   0
  0   0   0
  0   0   0
  0   0   0
  0   0   0
  0   0   0
  0   0   0
  0   0   0
  0   0   0
  0   0   0
  0   0   0
  0   0   0
  0   0   0
  0   0   0
  0   0   0
  0   0   0
  0   0   0
  0   0   0
  0   0   0
  0   0   0
  0   0   0
  0   0   0
  0   0   0
  0   0   0
  0   0   0
  0   0   0
  0   0   0
  0   0   0
  0   0   0
  0   0   0
  0   0   0
  0   0   0
  0   0   0
  0   0   0
  0   0   0
  0   0   0
  0   0   0
  0   0   0
  0   0   0
  0   0   0
  0   0   0
  0   0   0
  0   0   0
  0   0   0
  0   0   0
  0   0   0
  0   0   0
  0   0   0
  0   0   0
  0   0   0
  0   0   0
  0   0   0
  0   0   0
  0   0   0
  0   0   0
  0   0   0
  0   0   0
  0   0   0
  0   0   0
  0   0   0
  0   0   0
  0   0   0
  0   0   0
  0   0   0
  0   0   0
  0   0   0
  0   0   0
  0   0   0
  0   0   0
  0   0   0
  0   0   0
  0   0   0
  0   0   0
  0   0   0
  0   0   0
  0   0   0
  0   0   0
  0   0   0
  0   0   0
  0   0   0
  0   0   0
  0   0   0
  0   0   0
  0   0   0
  0   0   0
  0   0   0
  0   0   0
  0   0   0
  0   0   0
  0   0   0
  0   0   0
  0   0   0
  0   0   0
  0   0   0
  0   0   0
  0   0   0
  0   0   0
  0   0   0
  0   0   0
  0   0   0
  0   0   0
  0   0   0
  0   0   0
  0   0   0
  0   0   0
  0   0   0
  0   0   0
  0   0   0
  0   0   0
  0   0   0
  0   0   0
  0   0   0
  0   0   0
  0   0   0
  0   0   0
  0   0   0
  0   0   0
  0   0   0
  0   0   0
  0   0   0
  0   0   0
  0   0   0
  0   0   0
  0   0   0
  0   0   0
  0   0   0
  0   0   0
  0   0   0
  0   0   0
  0   0   0
  0   0   0
  0   0   0
