P3
         201         201
 255
  0   0   0
  0   0   0
  0   0   0
  0   0   0
  0   0   0
  0   0   0
  0   0   0
  0   0   0
  0   0   0
  0   0   0
  0   0   0
  0   0   0
  0   0   0
  0   0   0
  0   0   0
  0   0   0
  0   0   0
  0   0   0
  0   0   0
  0   0   0
  0   0   0
  0   0   0
  0   0   0
  0   0   0
  0   0   0
  0   0   0
  0   0   0
  0   0   0
  0   0   0
  0   0   0
  0   0   0
  0   0   0
  0   0   0
  0   0   0
  0   0   0
  0   0   0
  0   0   0
  0   0   0
  0   0   0
  0   0   0
  0   0   0
  0   0   0
  0   0   0
  0   0   0
  0   0   0
  0   0   0
  0   0   0
  0   0   0
  0   0   0
  0   0   0
  0   0   0
  0   0   0
  0   0   0
  0   0   0
  0   0   0
  0   0   0
  0   0   0
  0   0   0
  0   0   0
  0   0   0
  0   0   0
  0   0   0
  0   0   0
  0   0   0
  0   0   0
  0   0   0
  0   0   0
  0   0   0
  0   0   0
  0   0   0
  0   0   0
  0   0   0
  0   0   0
  0   0   0
  0   0   0
  0   0   0
  0   0   0
  0   0   0
  0   0   0
  0   0   0
  0   0   0
  0   0   0
  0   0   0
  0   0   0
  0   0   0
  0   0   0
  0   0   0
  0   0   0
  0   0   0
  0   0   0
  0   0   0
  0   0   0
  0   0   0
  0   0   0
  0   0   0
  0   0   0
  0   0   0
  0   0   0
  0   0   0
  0   0   0
  0   0   0
  0   0   0
  0   0   0
  0   0   0
  0   0   0
  0   0   0
  0   0   0
  0   0   0
  0   0   0
  0   0   0
  0   0   0
  0   0   0
  0   0   0
  0   0   0
  0   0   0
  0   0   0
  0   0   0
  0   0   0
  0   0   0
  0   0   0
  0   0   0
  0   0   0
  0   0   0
  0   0   0
  0   0   0
  0   0   0
  0   0   0
  0   0   0
  0   0   0
  0   0   0
  0   0   0
  0   0   0
  0   0   0
  0   0   0
  0   0   0
  0   0   0
  0   0   0
  0   0   0
  0   0   0
  0   0   0
  0   0   0
  0   0   0
  0   0   0
  0   0   0
  0   0   0
  0   0   0
  0   0   0
  0   0   0
  0   0   0
  0   0   0
  0   0   0
  0   0   0
  0   0   0
  0   0   0
  0   0   0
  0   0   0
  0   0   0
  0   0   0
  0   0   0
  0   0   0
  0   0   0
  0   0   0
  0   0   0
  0   0   0
  0   0   0
  0   0   0
  0   0   0
  0   0   0
  0   0   0
  0   0   0
  0   0   0
  0   0   0
  0   0   0
  0   0   0
  0   0   0
  0   0   0
  0   0   0
  0   0   0
  0   0   0
  0   0   0
  0   0   0
  0   0   0
  0   0   0
  0   0   0
  0   0   0
  0   0   0
  0   0   0
  0   0   0
  0   0   0
  0   0   0
  0   0   0
  0   0   0
  0   0   0
  0   0   0
  0   0   0
  0   0   0
  0   0   0
  0   0   0
  0   0   0
  0   0   0
  0   0   0
  0   0   0
  0   0   0
  0   0   0
  0   0   0
  0   0   0
  0   0   0
  0   0   0
  0   0   0
  0   0   0
  0   0   0
  0   0   0
  0   0   0
  0   0   0
  0   0   0
  0   0   0
  0   0   0
  0   0   0
  0   0   0
  0   0   0
  0   0   0
  0   0   0
  0   0   0
  0   0   0
  0   0   0
  0   0   0
  0   0   0
  0   0   0
  0   0   0
  0   0   0
  0   0   0
  0   0   0
  0   0   0
  0   0   0
  0   0   0
  0   0   0
  0   0   0
  0   0   0
  0   0   0
  0   0   0
  0   0   0
  0   0   0
  0   0   0
  0   0   0
  0   0   0
  0   0   0
  0   0   0
  0   0   0
  0   0   0
  0   0   0
  0   0   0
  0   0   0
  0   0   0
  0   0   0
  0   0   0
  0   0   0
  0   0   0
  0   0   0
  0   0   0
  0   0   0
  0   0   0
  0   0   0
  0   0   0
  0   0   0
  0   0   0
  0   0   0
  0   0   0
  0   0   0
  0   0   0
  0   0   0
  0   0   0
  0   0   0
  0   0   0
  0   0   0
  0   0   0
  0   0   0
  0   0   0
  0   0   0
  0   0   0
  0   0   0
  0   0   0
  0   0   0
  0   0   0
  0   0   0
  0   0   0
  0   0   0
  0   0   0
  0   0   0
  0   0   0
  0   0   0
  0   0   0
  0   0   0
  0   0   0
  0   0   0
  0   0   0
  0   0   0
  0   0   0
  0   0   0
  0   0   0
  0   0   0
  0   0   0
  0   0   0
  0   0   0
  0   0   0
  0   0   0
  0   0   0
  0   0   0
  0   0   0
  0   0   0
  0   0   0
  0   0   0
  0   0   0
  0   0   0
  0   0   0
  0   0   0
  0   0   0
  0   0   0
  0   0   0
  0   0   0
  0   0   0
  0   0   0
  0   0   0
  0   0   0
  0   0   0
  0   0   0
  0   0   0
  0   0   0
  0   0   0
  0   0   0
  0   0   0
  0   0   0
  0   0   0
  0   0   0
  0   0   0
  0   0   0
  0   0   0
  0   0   0
  0   0   0
  0   0   0
  0   0   0
  0   0   0
  0   0   0
  0   0   0
  0   0   0
  0   0   0
  0   0   0
  0   0   0
  0   0   0
  0   0   0
  0   0   0
  0   0   0
  0   0   0
  0   0   0
  0   0   0
  0   0   0
  0   0   0
  0   0   0
  0   0   0
  0   0   0
  0   0   0
  0   0   0
  0   0   0
  0   0   0
  0   0   0
  0   0   0
  0   0   0
  0   0   0
  0   0   0
  0   0   0
  0   0   0
  0   0   0
  0   0   0
  0   0   0
  0   0   0
  0   0   0
  0   0   0
  0   0   0
  0   0   0
  0   0   0
  0   0   0
  0   0   0
  0   0   0
  0   0   0
  0   0   0
  0   0   0
  0   0   0
  0   0   0
  0   0   0
  0   0   0
  0   0   0
  0   0   0
  0   0   0
  0   0   0
  0   0   0
  0   0   0
  0   0   0
  0   0   0
  0   0   0
  0   0   0
  0   0   0
  0   0   0
  0   0   0
  0   0   0
  0   0   0
255 255 255
255 255 255
255 255 255
255 255 255
255 255 255
255 255 255
255 255 255
255 255 255
255 255 255
255 255 255
255 255 255
255 255 255
255 255 255
255 255 255
255 255 255
255 255 255
255 255 255
255 255 255
255 255 255
255 255 255
255 255 255
255 255 255
255 255 255
255 255 255
255 255 255
255 255 255
255 255 255
255 255 255
255 255 255
255 255 255
255 255 255
255 255 255
255 255 255
255 255 255
255 255 255
255 255 255
255 255 255
255 255 255
255 255 255
255 255 255
255 255 255
255 255 255
255 255 255
255 255 255
255 255 255
255 255 255
255 255 255
255 255 255
255 255 255
255 255 255
255 255 255
255 255 255
255 255 255
255 255 255
255 255 255
255 255 255
255 255 255
255 255 255
255 255 255
255 255 255
255 255 255
255 255 255
255 255 255
255 255 255
255 255 255
255 255 255
255 255 255
255 255 255
255 255 255
255 255 255
255 255 255
255 255 255
255 255 255
255 255 255
255 255 255
255 255 255
255 255 255
255 255 255
255 255 255
255 255 255
255 255 255
255 255 255
255 255 255
255 255 255
255 255 255
255 255 255
255 255 255
255 255 255
255 255 255
255 255 255
255 255 255
255 255 255
255 255 255
255 255 255
255 255 255
255 255 255
255 255 255
255 255 255
255 255 255
255 255 255
255 255 255
255 255 255
255 255 255
255 255 255
255 255 255
255 255 255
255 255 255
255 255 255
255 255 255
255 255 255
255 255 255
255 255 255
255 255 255
255 255 255
255 255 255
255 255 255
255 255 255
255 255 255
255 255 255
255 255 255
255 255 255
255 255 255
255 255 255
255 255 255
255 255 255
255 255 255
255 255 255
255 255 255
255 255 255
255 255 255
255 255 255
255 255 255
255 255 255
255 255 255
255 255 255
255 255 255
255 255 255
255 255 255
255 255 255
255 255 255
255 255 255
255 255 255
255 255 255
255 255 255
255 255 255
255 255 255
255 255 255
255 255 255
255 255 255
255 255 255
255 255 255
255 255 255
255 255 255
255 255 255
255 255 255
255 255 255
255 255 255
255 255 255
255 255 255
255 255 255
255 255 255
255 255 255
255 255 255
255 255 255
255 255 255
255 255 255
255 255 255
255 255 255
255 255 255
255 255 255
255 255 255
255 255 255
255 255 255
255 255 255
255 255 255
255 255 255
255 255 255
255 255 255
255 255 255
255 255 255
255 255 255
255 255 255
255 255 255
255 255 255
255 255 255
255 255 255
255 255 255
255 255 255
255 255 255
255 255 255
255 255 255
255 255 255
255 255 255
255 255 255
255 255 255
255 255 255
255 255 255
  0   0   0
  0   0   0
  0   0   0
  0   0   0
255 255 255
255 255 255
255 255 255
255 255 255
255 255 255
255 255 255
255 255 255
255 255 255
255 255 255
255 255 255
255 255 255
255 255 255
255 255 255
255 255 255
255 255 255
255 255 255
255 255 255
255 255 255
255 255 255
255 255 255
255 255 255
255 255 255
255 255 255
255 255 255
255 255 255
255 255 255
255 255 255
255 255 255
255 255 255
255 255 255
255 255 255
255 255 255
255 255 255
255 255 255
255 255 255
255 255 255
255 255 255
255 255 255
255 255 255
255 255 255
255 255 255
255 255 255
255 255 255
255 255 255
255 255 255
255 255 255
255 255 255
255 255 255
255 255 255
255 255 255
255 255 255
255 255 255
255 255 255
255 255 255
255 255 255
255 255 255
255 255 255
255 255 255
255 255 255
255 255 255
255 255 255
255 255 255
255 255 255
255 255 255
255 255 255
255 255 255
255 255 255
255 255 255
255 255 255
255 255 255
255 255 255
255 255 255
255 255 255
255 255 255
255 255 255
255 255 255
255 255 255
255 255 255
255 255 255
255 255 255
255 255 255
255 255 255
255 255 255
255 255 255
255 255 255
255 255 255
255 255 255
255 255 255
255 255 255
255 255 255
255 255 255
255 255 255
255 255 255
255 255 255
255 255 255
255 255 255
255 255 255
255 255 255
255 255 255
255 255 255
255 255 255
255 255 255
255 255 255
255 255 255
255 255 255
255 255 255
255 255 255
255 255 255
255 255 255
255 255 255
255 255 255
255 255 255
255 255 255
255 255 255
255 255 255
255 255 255
255 255 255
255 255 255
255 255 255
255 255 255
255 255 255
255 255 255
255 255 255
255 255 255
255 255 255
255 255 255
255 255 255
255 255 255
255 255 255
255 255 255
255 255 255
255 255 255
255 255 255
255 255 255
255 255 255
255 255 255
255 255 255
255 255 255
255 255 255
255 255 255
255 255 255
255 255 255
255 255 255
255 255 255
255 255 255
255 255 255
255 255 255
255 255 255
255 255 255
255 255 255
255 255 255
255 255 255
255 255 255
255 255 255
255 255 255
255 255 255
255 255 255
255 255 255
255 255 255
255 255 255
255 255 255
255 255 255
255 255 255
255 255 255
255 255 255
255 255 255
255 255 255
255 255 255
255 255 255
255 255 255
255 255 255
255 255 255
255 255 255
255 255 255
255 255 255
255 255 255
255 255 255
255 255 255
255 255 255
255 255 255
255 255 255
255 255 255
255 255 255
255 255 255
255 255 255
255 255 255
255 255 255
255 255 255
255 255 255
255 255 255
255 255 255
255 255 255
255 255 255
255 255 255
255 255 255
255 255 255
255 255 255
  0   0   0
  0   0   0
  0   0   0
  0   0   0
255 255 255
255 255 255
255 255 255
255 255 255
255 255 255
255 255 255
255 255 255
255 255 255
255 255 255
255 255 255
255 255 255
255 255 255
255 255 255
255 255 255
255 255 255
255 255 255
255 255 255
255 255 255
255 255 255
255 255 255
255 255 255
255 255 255
255 255 255
255 255 255
255 255 255
255 255 255
255 255 255
255 255 255
255 255 255
255 255 255
255 255 255
255 255 255
255 255 255
255 255 255
255 255 255
255 255 255
255 255 255
255 255 255
255 255 255
255 255 255
255 255 255
255 255 255
255 255 255
255 255 255
255 255 255
255 255 255
255 255 255
255 255 255
255 255 255
255 255 255
255 255 255
255 255 255
255 255 255
255 255 255
255 255 255
255 255 255
255 255 255
255 255 255
255 255 255
255 255 255
255 255 255
255 255 255
255 255 255
255 255 255
255 255 255
255 255 255
255 255 255
255 255 255
255 255 255
255 255 255
255 255 255
255 255 255
255 255 255
255 255 255
255 255 255
255 255 255
255 255 255
255 255 255
255 255 255
255 255 255
255 255 255
255 255 255
255 255 255
255 255 255
255 255 255
255 255 255
255 255 255
255 255 255
255 255 255
255 255 255
255 255 255
255 255 255
255 255 255
255 255 255
255 255 255
255 255 255
255 255 255
255 255 255
255 255 255
255 255 255
255 255 255
255 255 255
255 255 255
255 255 255
255 255 255
255 255 255
255 255 255
255 255 255
255 255 255
255 255 255
255 255 255
255 255 255
255 255 255
255 255 255
255 255 255
255 255 255
255 255 255
255 255 255
255 255 255
255 255 255
255 255 255
255 255 255
255 255 255
255 255 255
255 255 255
255 255 255
255 255 255
255 255 255
255 255 255
255 255 255
255 255 255
255 255 255
255 255 255
255 255 255
255 255 255
255 255 255
255 255 255
255 255 255
255 255 255
255 255 255
255 255 255
255 255 255
255 255 255
255 255 255
255 255 255
255 255 255
255 255 255
255 255 255
255 255 255
255 255 255
255 255 255
255 255 255
255 255 255
255 255 255
255 255 255
255 255 255
255 255 255
255 255 255
255 255 255
255 255 255
255 255 255
255 255 255
255 255 255
255 255 255
255 255 255
255 255 255
255 255 255
255 255 255
255 255 255
255 255 255
255 255 255
255 255 255
255 255 255
255 255 255
255 255 255
255 255 255
255 255 255
255 255 255
255 255 255
255 255 255
255 255 255
255 255 255
255 255 255
255 255 255
255 255 255
255 255 255
255 255 255
255 255 255
255 255 255
255 255 255
255 255 255
255 255 255
255 255 255
255 255 255
255 255 255
255 255 255
255 255 255
  0   0   0
  0   0   0
  0   0   0
  0   0   0
255 255 255
255 255 255
255 255 255
255 255 255
255 255 255
255 255 255
255 255 255
255 255 255
255 255 255
255 255 255
255 255 255
255 255 255
255 255 255
255 255 255
255 255 255
255 255 255
255 255 255
255 255 255
255 255 255
255 255 255
255 255 255
255 255 255
255 255 255
255 255 255
255 255 255
255 255 255
255 255 255
255 255 255
255 255 255
255 255 255
255 255 255
255 255 255
255 255 255
255 255 255
255 255 255
255 255 255
255 255 255
255 255 255
255 255 255
255 255 255
255 255 255
255 255 255
255 255 255
255 255 255
255 255 255
255 255 255
255 255 255
255 255 255
255 255 255
255 255 255
255 255 255
255 255 255
255 255 255
255 255 255
255 255 255
255 255 255
255 255 255
255 255 255
255 255 255
255 255 255
255 255 255
255 255 255
255 255 255
255 255 255
255 255 255
255 255 255
255 255 255
255 255 255
255 255 255
255 255 255
255 255 255
255 255 255
255 255 255
255 255 255
255 255 255
255 255 255
255 255 255
255 255 255
255 255 255
255 255 255
255 255 255
255 255 255
255 255 255
255 255 255
255 255 255
255 255 255
255 255 255
255 255 255
255 255 255
255 255 255
255 255 255
255 255 255
255 255 255
255 255 255
255 255 255
255 255 255
255 255 255
255 255 255
255 255 255
255 255 255
255 255 255
255 255 255
255 255 255
255 255 255
255 255 255
255 255 255
255 255 255
255 255 255
255 255 255
255 255 255
255 255 255
255 255 255
255 255 255
255 255 255
255 255 255
255 255 255
255 255 255
255 255 255
255 255 255
255 255 255
255 255 255
255 255 255
255 255 255
255 255 255
255 255 255
255 255 255
255 255 255
255 255 255
255 255 255
255 255 255
255 255 255
255 255 255
255 255 255
255 255 255
255 255 255
255 255 255
255 255 255
255 255 255
255 255 255
255 255 255
255 255 255
255 255 255
255 255 255
255 255 255
255 255 255
255 255 255
255 255 255
255 255 255
255 255 255
255 255 255
255 255 255
255 255 255
255 255 255
255 255 255
255 255 255
255 255 255
255 255 255
255 255 255
255 255 255
255 255 255
255 255 255
255 255 255
255 255 255
255 255 255
255 255 255
255 255 255
255 255 255
255 255 255
255 255 255
255 255 255
255 255 255
255 255 255
255 255 255
255 255 255
255 255 255
255 255 255
255 255 255
255 255 255
255 255 255
255 255 255
255 255 255
255 255 255
255 255 255
255 255 255
255 255 255
255 255 255
255 255 255
255 255 255
255 255 255
255 255 255
255 255 255
255 255 255
255 255 255
255 255 255
255 255 255
255 255 255
255 255 255
  0   0   0
  0   0   0
  0   0   0
  0   0   0
255 255 255
255 255 255
255 255 255
255 255 255
255 255 255
255 255 255
255 255 255
255 255 255
255 255 255
255 255 255
255 255 255
255 255 255
255 255 255
255 255 255
255 255 255
255 255 255
255 255 255
255 255 255
255 255 255
255 255 255
255 255 255
255 255 255
255 255 255
255 255 255
255 255 255
255 255 255
255 255 255
255 255 255
255 255 255
255 255 255
255 255 255
255 255 255
255 255 255
255 255 255
255 255 255
255 255 255
255 255 255
255 255 255
255 255 255
255 255 255
255 255 255
255 255 255
255 255 255
255 255 255
255 255 255
255 255 255
255 255 255
255 255 255
255 255 255
255 255 255
255 255 255
255 255 255
255 255 255
255 255 255
255 255 255
255 255 255
255 255 255
255 255 255
255 255 255
255 255 255
255 255 255
255 255 255
255 255 255
255 255 255
255 255 255
255 255 255
255 255 255
255 255 255
255 255 255
255 255 255
255 255 255
255 255 255
255 255 255
255 255 255
255 255 255
255 255 255
255 255 255
255 255 255
255 255 255
255 255 255
255 255 255
255 255 255
255 255 255
255 255 255
255 255 255
255 255 255
255 255 255
255 255 255
255 255 255
255 255 255
255 255 255
255 255 255
255 255 255
255 255 255
255 255 255
255 255 255
255 255 255
255 255 255
255 255 255
255 255 255
255 255 255
255 255 255
255 255 255
255 255 255
255 255 255
255 255 255
255 255 255
255 255 255
255 255 255
255 255 255
255 255 255
255 255 255
255 255 255
255 255 255
255 255 255
255 255 255
255 255 255
255 255 255
255 255 255
255 255 255
255 255 255
255 255 255
255 255 255
255 255 255
255 255 255
255 255 255
255 255 255
255 255 255
255 255 255
255 255 255
255 255 255
255 255 255
255 255 255
255 255 255
255 255 255
255 255 255
255 255 255
255 255 255
255 255 255
255 255 255
255 255 255
255 255 255
255 255 255
255 255 255
255 255 255
255 255 255
255 255 255
255 255 255
255 255 255
255 255 255
255 255 255
255 255 255
255 255 255
255 255 255
255 255 255
255 255 255
255 255 255
255 255 255
255 255 255
255 255 255
255 255 255
255 255 255
255 255 255
255 255 255
255 255 255
255 255 255
255 255 255
255 255 255
255 255 255
255 255 255
255 255 255
255 255 255
255 255 255
255 255 255
255 255 255
255 255 255
255 255 255
255 255 255
255 255 255
255 255 255
255 255 255
255 255 255
255 255 255
255 255 255
255 255 255
255 255 255
255 255 255
255 255 255
255 255 255
255 255 255
255 255 255
255 255 255
255 255 255
255 255 255
255 255 255
255 255 255
255 255 255
  0   0   0
  0   0   0
  0   0   0
  0   0   0
255 255 255
255 255 255
255 255 255
255 255 255
255 255 255
255 255 255
255 255 255
255 255 255
255 255 255
255 255 255
255 255 255
255 255 255
255 255 255
255 255 255
255 255 255
255 255 255
255 255 255
255 255 255
255 255 255
255 255 255
255 255 255
255 255 255
255 255 255
255 255 255
255 255 255
255 255 255
255 255 255
255 255 255
255 255 255
255 255 255
255 255 255
255 255 255
255 255 255
255 255 255
255 255 255
255 255 255
255 255 255
255 255 255
255 255 255
255 255 255
255 255 255
255 255 255
255 255 255
255 255 255
255 255 255
255 255 255
255 255 255
255 255 255
255 255 255
255 255 255
255 255 255
255 255 255
255 255 255
255 255 255
255 255 255
255 255 255
255 255 255
255 255 255
255 255 255
255 255 255
255 255 255
255 255 255
255 255 255
255 255 255
255 255 255
255 255 255
255 255 255
255 255 255
255 255 255
255 255 255
255 255 255
255 255 255
255 255 255
255 255 255
255 255 255
255 255 255
255 255 255
255 255 255
255 255 255
255 255 255
255 255 255
255 255 255
255 255 255
255 255 255
255 255 255
255 255 255
255 255 255
255 255 255
255 255 255
255 255 255
255 255 255
255 255 255
255 255 255
255 255 255
255 255 255
255 255 255
255 255 255
255 255 255
255 255 255
255 255 255
255 255 255
255 255 255
255 255 255
255 255 255
255 255 255
255 255 255
255 255 255
255 255 255
255 255 255
255 255 255
255 255 255
255 255 255
255 255 255
255 255 255
255 255 255
255 255 255
255 255 255
255 255 255
255 255 255
255 255 255
255 255 255
255 255 255
255 255 255
255 255 255
255 255 255
255 255 255
255 255 255
255 255 255
255 255 255
255 255 255
255 255 255
255 255 255
255 255 255
255 255 255
255 255 255
255 255 255
255 255 255
255 255 255
255 255 255
255 255 255
255 255 255
255 255 255
255 255 255
255 255 255
255 255 255
255 255 255
255 255 255
255 255 255
255 255 255
255 255 255
255 255 255
255 255 255
255 255 255
255 255 255
255 255 255
255 255 255
255 255 255
255 255 255
255 255 255
255 255 255
255 255 255
255 255 255
255 255 255
255 255 255
255 255 255
255 255 255
255 255 255
255 255 255
255 255 255
255 255 255
255 255 255
255 255 255
255 255 255
255 255 255
255 255 255
255 255 255
255 255 255
255 255 255
255 255 255
255 255 255
255 255 255
255 255 255
255 255 255
255 255 255
255 255 255
255 255 255
255 255 255
255 255 255
255 255 255
255 255 255
255 255 255
255 255 255
255 255 255
255 255 255
255 255 255
255 255 255
255 255 255
  0   0   0
  0   0   0
  0   0   0
  0   0   0
255 255 255
255 255 255
255 255 255
255 255 255
255 255 255
255 255 255
255 255 255
255 255 255
255 255 255
255 255 255
255 255 255
255 255 255
255 255 255
255 255 255
255 255 255
255 255 255
255 255 255
255 255 255
255 255 255
255 255 255
255 255 255
255 255 255
255 255 255
255 255 255
255 255 255
255 255 255
255 255 255
255 255 255
255 255 255
255 255 255
255 255 255
255 255 255
255 255 255
255 255 255
255 255 255
255 255 255
255 255 255
255 255 255
255 255 255
255 255 255
255 255 255
255 255 255
255 255 255
255 255 255
255 255 255
255 255 255
255 255 255
255 255 255
255 255 255
255 255 255
255 255 255
255 255 255
255 255 255
255 255 255
255 255 255
255 255 255
255 255 255
255 255 255
255 255 255
255 255 255
255 255 255
255 255 255
255 255 255
255 255 255
255 255 255
255 255 255
255 255 255
255 255 255
255 255 255
255 255 255
255 255 255
255 255 255
255 255 255
255 255 255
255 255 255
255 255 255
255 255 255
255 255 255
255 255 255
255 255 255
255 255 255
255 255 255
255 255 255
255 255 255
255 255 255
255 255 255
255 255 255
255 255 255
255 255 255
255 255 255
255 255 255
255 255 255
255 255 255
255 255 255
255 255 255
255 255 255
255 255 255
255 255 255
255 255 255
255 255 255
255 255 255
255 255 255
255 255 255
255 255 255
255 255 255
255 255 255
255 255 255
255 255 255
255 255 255
255 255 255
255 255 255
255 255 255
255 255 255
255 255 255
255 255 255
255 255 255
255 255 255
255 255 255
255 255 255
255 255 255
255 255 255
255 255 255
255 255 255
255 255 255
255 255 255
255 255 255
255 255 255
255 255 255
255 255 255
255 255 255
255 255 255
255 255 255
255 255 255
255 255 255
255 255 255
255 255 255
255 255 255
255 255 255
255 255 255
255 255 255
255 255 255
255 255 255
255 255 255
255 255 255
255 255 255
255 255 255
255 255 255
255 255 255
255 255 255
255 255 255
255 255 255
255 255 255
255 255 255
255 255 255
255 255 255
255 255 255
255 255 255
255 255 255
255 255 255
255 255 255
255 255 255
255 255 255
255 255 255
255 255 255
255 255 255
255 255 255
255 255 255
255 255 255
255 255 255
255 255 255
255 255 255
255 255 255
255 255 255
255 255 255
255 255 255
255 255 255
255 255 255
255 255 255
255 255 255
255 255 255
255 255 255
255 255 255
255 255 255
255 255 255
255 255 255
255 255 255
255 255 255
255 255 255
255 255 255
255 255 255
255 255 255
255 255 255
255 255 255
255 255 255
255 255 255
255 255 255
255 255 255
  0   0   0
  0   0   0
  0   0   0
  0   0   0
255 255 255
255 255 255
255 255 255
255 255 255
255 255 255
255 255 255
255 255 255
255 255 255
255 255 255
255 255 255
255 255 255
255 255 255
255 255 255
255 255 255
255 255 255
255 255 255
255 255 255
255 255 255
255 255 255
255 255 255
255 255 255
255 255 255
255 255 255
255 255 255
255 255 255
255 255 255
255 255 255
255 255 255
255 255 255
255 255 255
255 255 255
255 255 255
255 255 255
255 255 255
255 255 255
255 255 255
255 255 255
255 255 255
255 255 255
255 255 255
255 255 255
255 255 255
255 255 255
255 255 255
255 255 255
255 255 255
255 255 255
255 255 255
255 255 255
255 255 255
255 255 255
255 255 255
255 255 255
255 255 255
255 255 255
255 255 255
255 255 255
255 255 255
255 255 255
255 255 255
255 255 255
255 255 255
255 255 255
255 255 255
255 255 255
255 255 255
255 255 255
255 255 255
255 255 255
255 255 255
255 255 255
255 255 255
255 255 255
255 255 255
255 255 255
255 255 255
255 255 255
255 255 255
255 255 255
255 255 255
255 255 255
255 255 255
255 255 255
255 255 255
255 255 255
255 255 255
255 255 255
255 255 255
255 255 255
255 255 255
255 255 255
255 255 255
255 255 255
255 255 255
255 255 255
255 255 255
255 255 255
255 255 255
255 255 255
255 255 255
255 255 255
255 255 255
255 255 255
255 255 255
255 255 255
255 255 255
255 255 255
255 255 255
255 255 255
255 255 255
255 255 255
255 255 255
255 255 255
255 255 255
255 255 255
255 255 255
255 255 255
255 255 255
255 255 255
255 255 255
255 255 255
255 255 255
255 255 255
255 255 255
255 255 255
255 255 255
255 255 255
255 255 255
255 255 255
255 255 255
255 255 255
255 255 255
255 255 255
255 255 255
255 255 255
255 255 255
255 255 255
255 255 255
255 255 255
255 255 255
255 255 255
255 255 255
255 255 255
255 255 255
255 255 255
255 255 255
255 255 255
255 255 255
255 255 255
255 255 255
255 255 255
255 255 255
255 255 255
255 255 255
255 255 255
255 255 255
255 255 255
255 255 255
255 255 255
255 255 255
255 255 255
255 255 255
255 255 255
255 255 255
255 255 255
255 255 255
255 255 255
255 255 255
255 255 255
255 255 255
255 255 255
255 255 255
255 255 255
255 255 255
255 255 255
255 255 255
255 255 255
255 255 255
255 255 255
255 255 255
255 255 255
255 255 255
255 255 255
255 255 255
255 255 255
255 255 255
255 255 255
255 255 255
255 255 255
255 255 255
255 255 255
255 255 255
255 255 255
255 255 255
255 255 255
255 255 255
255 255 255
  0   0   0
  0   0   0
  0   0   0
  0   0   0
255 255 255
255 255 255
255 255 255
255 255 255
255 255 255
255 255 255
255 255 255
255 255 255
255 255 255
255 255 255
255 255 255
255 255 255
255 255 255
255 255 255
255 255 255
255 255 255
255 255 255
255 255 255
255 255 255
255 255 255
255 255 255
255 255 255
255 255 255
255 255 255
255 255 255
255 255 255
255 255 255
255 255 255
255 255 255
255 255 255
255 255 255
255 255 255
255 255 255
255 255 255
255 255 255
255 255 255
255 255 255
255 255 255
255 255 255
255 255 255
255 255 255
255 255 255
255 255 255
255 255 255
255 255 255
255 255 255
255 255 255
255 255 255
255 255 255
255 255 255
255 255 255
255 255 255
255 255 255
255 255 255
255 255 255
255 255 255
255 255 255
255 255 255
255 255 255
255 255 255
255 255 255
255 255 255
255 255 255
255 255 255
255 255 255
255 255 255
255 255 255
255 255 255
255 255 255
255 255 255
255 255 255
255 255 255
255 255 255
255 255 255
255 255 255
255 255 255
255 255 255
255 255 255
255 255 255
255 255 255
255 255 255
255 255 255
255 255 255
255 255 255
255 255 255
255 255 255
255 255 255
255 255 255
255 255 255
255 255 255
255 255 255
255 255 255
255 255 255
255 255 255
255 255 255
255 255 255
255 255 255
255 255 255
255 255 255
255 255 255
255 255 255
255 255 255
255 255 255
255 255 255
255 255 255
255 255 255
255 255 255
255 255 255
255 255 255
255 255 255
255 255 255
255 255 255
255 255 255
255 255 255
255 255 255
255 255 255
255 255 255
255 255 255
255 255 255
255 255 255
255 255 255
255 255 255
255 255 255
255 255 255
255 255 255
255 255 255
255 255 255
255 255 255
255 255 255
255 255 255
255 255 255
255 255 255
255 255 255
255 255 255
255 255 255
255 255 255
255 255 255
255 255 255
255 255 255
255 255 255
255 255 255
255 255 255
255 255 255
255 255 255
255 255 255
255 255 255
255 255 255
255 255 255
255 255 255
255 255 255
255 255 255
255 255 255
255 255 255
255 255 255
255 255 255
255 255 255
255 255 255
255 255 255
255 255 255
255 255 255
255 255 255
255 255 255
255 255 255
255 255 255
255 255 255
255 255 255
255 255 255
255 255 255
255 255 255
255 255 255
255 255 255
255 255 255
255 255 255
255 255 255
255 255 255
255 255 255
255 255 255
255 255 255
255 255 255
255 255 255
255 255 255
255 255 255
255 255 255
255 255 255
255 255 255
255 255 255
255 255 255
255 255 255
255 255 255
255 255 255
255 255 255
255 255 255
255 255 255
255 255 255
255 255 255
255 255 255
255 255 255
  0   0   0
  0   0   0
  0   0   0
  0   0   0
255 255 255
255 255 255
255 255 255
255 255 255
255 255 255
255 255 255
255 255 255
255 255 255
255 255 255
255 255 255
255 255 255
255 255 255
255 255 255
255 255 255
255 255 255
255 255 255
255 255 255
255 255 255
255 255 255
255 255 255
255 255 255
255 255 255
255 255 255
255 255 255
255 255 255
255 255 255
255 255 255
255 255 255
255 255 255
255 255 255
255 255 255
255 255 255
255 255 255
255 255 255
255 255 255
255 255 255
255 255 255
255 255 255
255 255 255
255 255 255
255 255 255
255 255 255
255 255 255
255 255 255
255 255 255
255 255 255
255 255 255
255 255 255
255 255 255
255 255 255
255 255 255
255 255 255
255 255 255
255 255 255
255 255 255
255 255 255
255 255 255
255 255 255
255 255 255
255 255 255
255 255 255
255 255 255
255 255 255
255 255 255
255 255 255
255 255 255
255 255 255
255 255 255
255 255 255
255 255 255
255 255 255
255 255 255
255 255 255
255 255 255
255 255 255
255 255 255
255 255 255
255 255 255
255 255 255
255 255 255
255 255 255
255 255 255
255 255 255
255 255 255
255 255 255
255 255 255
255 255 255
255 255 255
255 255 255
255 255 255
255 255 255
255 255 255
255 255 255
255 255 255
255 255 255
255 255 255
255 255 255
255 255 255
255 255 255
255 255 255
255 255 255
255 255 255
255 255 255
255 255 255
255 255 255
255 255 255
255 255 255
255 255 255
255 255 255
255 255 255
255 255 255
255 255 255
255 255 255
255 255 255
255 255 255
255 255 255
255 255 255
255 255 255
255 255 255
255 255 255
255 255 255
255 255 255
255 255 255
255 255 255
255 255 255
255 255 255
255 255 255
255 255 255
255 255 255
255 255 255
255 255 255
255 255 255
255 255 255
255 255 255
255 255 255
255 255 255
255 255 255
255 255 255
255 255 255
255 255 255
255 255 255
255 255 255
255 255 255
255 255 255
255 255 255
255 255 255
255 255 255
255 255 255
255 255 255
255 255 255
255 255 255
255 255 255
255 255 255
255 255 255
255 255 255
255 255 255
255 255 255
255 255 255
255 255 255
255 255 255
255 255 255
255 255 255
255 255 255
255 255 255
255 255 255
255 255 255
255 255 255
255 255 255
255 255 255
255 255 255
255 255 255
255 255 255
255 255 255
255 255 255
255 255 255
255 255 255
255 255 255
255 255 255
255 255 255
255 255 255
255 255 255
255 255 255
255 255 255
255 255 255
255 255 255
255 255 255
255 255 255
255 255 255
255 255 255
255 255 255
255 255 255
255 255 255
255 255 255
255 255 255
255 255 255
255 255 255
255 255 255
  0   0   0
  0   0   0
  0   0   0
  0   0   0
255 255 255
255 255 255
255 255 255
255 255 255
255 255 255
255 255 255
255 255 255
255 255 255
255 255 255
255 255 255
255 255 255
255 255 255
255 255 255
255 255 255
255 255 255
255 255 255
255 255 255
255 255 255
255 255 255
255 255 255
255 255 255
255 255 255
255 255 255
255 255 255
255 255 255
255 255 255
255 255 255
255 255 255
255 255 255
255 255 255
255 255 255
255 255 255
255 255 255
255 255 255
255 255 255
255 255 255
255 255 255
255 255 255
255 255 255
255 255 255
255 255 255
255 255 255
255 255 255
255 255 255
255 255 255
255 255 255
255 255 255
255 255 255
255 255 255
255 255 255
255 255 255
255 255 255
255 255 255
255 255 255
255 255 255
255 255 255
255 255 255
255 255 255
255 255 255
255 255 255
255 255 255
255 255 255
255 255 255
255 255 255
255 255 255
255 255 255
255 255 255
255 255 255
255 255 255
255 255 255
255 255 255
255 255 255
255 255 255
255 255 255
255 255 255
255 255 255
255 255 255
255 255 255
255 255 255
255 255 255
255 255 255
255 255 255
255 255 255
255 255 255
255 255 255
255 255 255
255 255 255
255 255 255
255 255 255
255 255 255
255 255 255
255 255 255
255 255 255
255 255 255
255 255 255
255 255 255
255 255 255
255 255 255
255 255 255
255 255 255
255 255 255
255 255 255
255 255 255
255 255 255
255 255 255
255 255 255
255 255 255
255 255 255
255 255 255
255 255 255
255 255 255
255 255 255
255 255 255
255 255 255
255 255 255
255 255 255
255 255 255
255 255 255
255 255 255
255 255 255
255 255 255
255 255 255
255 255 255
255 255 255
255 255 255
255 255 255
255 255 255
255 255 255
255 255 255
255 255 255
255 255 255
255 255 255
255 255 255
255 255 255
255 255 255
255 255 255
255 255 255
255 255 255
255 255 255
255 255 255
255 255 255
255 255 255
255 255 255
255 255 255
255 255 255
255 255 255
255 255 255
255 255 255
255 255 255
255 255 255
255 255 255
255 255 255
255 255 255
255 255 255
255 255 255
255 255 255
255 255 255
255 255 255
255 255 255
255 255 255
255 255 255
255 255 255
255 255 255
255 255 255
255 255 255
255 255 255
255 255 255
255 255 255
255 255 255
255 255 255
255 255 255
255 255 255
255 255 255
255 255 255
255 255 255
255 255 255
255 255 255
255 255 255
255 255 255
255 255 255
255 255 255
255 255 255
255 255 255
255 255 255
255 255 255
255 255 255
255 255 255
255 255 255
255 255 255
255 255 255
255 255 255
255 255 255
255 255 255
255 255 255
255 255 255
255 255 255
255 255 255
  0   0   0
  0   0   0
  0   0   0
  0   0   0
255 255 255
255 255 255
255 255 255
255 255 255
255 255 255
255 255 255
255 255 255
255 255 255
255 255 255
255 255 255
255 255 255
255 255 255
255 255 255
255 255 255
255 255 255
255 255 255
255 255 255
255 255 255
255 255 255
255 255 255
255 255 255
255 255 255
255 255 255
255 255 255
255 255 255
255 255 255
255 255 255
255 255 255
255 255 255
255 255 255
255 255 255
255 255 255
255 255 255
255 255 255
255 255 255
255 255 255
255 255 255
255 255 255
255 255 255
255 255 255
255 255 255
255 255 255
255 255 255
255 255 255
255 255 255
255 255 255
255 255 255
255 255 255
255 255 255
255 255 255
255 255 255
255 255 255
255 255 255
255 255 255
255 255 255
255 255 255
255 255 255
255 255 255
255 255 255
255 255 255
255 255 255
255 255 255
255 255 255
255 255 255
255 255 255
255 255 255
255 255 255
255 255 255
255 255 255
255 255 255
255 255 255
255 255 255
255 255 255
255 255 255
255 255 255
255 255 255
255 255 255
255 255 255
255 255 255
255 255 255
255 255 255
255 255 255
255 255 255
255 255 255
255 255 255
255 255 255
255 255 255
255 255 255
255 255 255
255 255 255
255 255 255
255 255 255
255 255 255
255 255 255
255 255 255
255 255 255
255 255 255
255 255 255
255 255 255
255 255 255
255 255 255
255 255 255
255 255 255
255 255 255
255 255 255
255 255 255
255 255 255
255 255 255
255 255 255
255 255 255
255 255 255
255 255 255
255 255 255
255 255 255
255 255 255
255 255 255
255 255 255
255 255 255
255 255 255
255 255 255
255 255 255
255 255 255
255 255 255
255 255 255
255 255 255
255 255 255
255 255 255
255 255 255
255 255 255
255 255 255
255 255 255
255 255 255
255 255 255
255 255 255
255 255 255
255 255 255
255 255 255
255 255 255
255 255 255
255 255 255
255 255 255
255 255 255
255 255 255
255 255 255
255 255 255
255 255 255
255 255 255
255 255 255
255 255 255
255 255 255
255 255 255
255 255 255
255 255 255
255 255 255
255 255 255
255 255 255
255 255 255
255 255 255
255 255 255
255 255 255
255 255 255
255 255 255
255 255 255
255 255 255
255 255 255
255 255 255
255 255 255
255 255 255
255 255 255
255 255 255
255 255 255
255 255 255
255 255 255
255 255 255
255 255 255
255 255 255
255 255 255
255 255 255
255 255 255
255 255 255
255 255 255
255 255 255
255 255 255
255 255 255
255 255 255
255 255 255
255 255 255
255 255 255
255 255 255
255 255 255
255 255 255
255 255 255
255 255 255
255 255 255
255 255 255
255 255 255
255 255 255
  0   0   0
  0   0   0
  0   0   0
  0   0   0
255 255 255
255 255 255
255 255 255
255 255 255
255 255 255
255 255 255
255 255 255
255 255 255
255 255 255
255 255 255
255 255 255
255 255 255
255 255 255
255 255 255
255 255 255
255 255 255
255 255 255
255 255 255
255 255 255
255 255 255
255 255 255
255 255 255
255 255 255
255 255 255
255 255 255
255 255 255
255 255 255
255 255 255
255 255 255
255 255 255
255 255 255
255 255 255
255 255 255
255 255 255
255 255 255
255 255 255
255 255 255
255 255 255
255 255 255
255 255 255
255 255 255
255 255 255
255 255 255
255 255 255
255 255 255
255 255 255
255 255 255
255 255 255
255 255 255
255 255 255
255 255 255
255 255 255
255 255 255
255 255 255
255 255 255
255 255 255
255 255 255
255 255 255
255 255 255
255 255 255
255 255 255
255 255 255
255 255 255
255 255 255
255 255 255
255 255 255
255 255 255
255 255 255
255 255 255
255 255 255
255 255 255
255 255 255
255 255 255
255 255 255
255 255 255
255 255 255
255 255 255
255 255 255
255 255 255
255 255 255
255 255 255
255 255 255
255 255 255
255 255 255
255 255 255
255 255 255
255 255 255
255 255 255
255 255 255
255 255 255
255 255 255
255 255 255
255 255 255
255 255 255
255 255 255
255 255 255
255 255 255
255 255 255
255 255 255
255 255 255
255 255 255
255 255 255
255 255 255
255 255 255
255 255 255
255 255 255
255 255 255
255 255 255
255 255 255
255 255 255
255 255 255
255 255 255
255 255 255
255 255 255
255 255 255
255 255 255
255 255 255
255 255 255
255 255 255
255 255 255
255 255 255
255 255 255
255 255 255
255 255 255
255 255 255
255 255 255
255 255 255
255 255 255
255 255 255
255 255 255
255 255 255
255 255 255
255 255 255
255 255 255
255 255 255
255 255 255
255 255 255
255 255 255
255 255 255
255 255 255
255 255 255
255 255 255
255 255 255
255 255 255
255 255 255
255 255 255
255 255 255
255 255 255
255 255 255
255 255 255
255 255 255
255 255 255
255 255 255
255 255 255
255 255 255
255 255 255
255 255 255
255 255 255
255 255 255
255 255 255
255 255 255
255 255 255
255 255 255
255 255 255
255 255 255
255 255 255
255 255 255
255 255 255
255 255 255
255 255 255
255 255 255
255 255 255
255 255 255
255 255 255
255 255 255
255 255 255
255 255 255
255 255 255
255 255 255
255 255 255
255 255 255
255 255 255
255 255 255
255 255 255
255 255 255
255 255 255
255 255 255
255 255 255
255 255 255
255 255 255
255 255 255
255 255 255
255 255 255
255 255 255
255 255 255
255 255 255
255 255 255
  0   0   0
  0   0   0
  0   0   0
  0   0   0
255 255 255
255 255 255
255 255 255
255 255 255
255 255 255
255 255 255
255 255 255
255 255 255
255 255 255
255 255 255
255 255 255
255 255 255
255 255 255
255 255 255
255 255 255
255 255 255
255 255 255
255 255 255
255 255 255
255 255 255
255 255 255
255 255 255
255 255 255
255 255 255
255 255 255
255 255 255
255 255 255
255 255 255
255 255 255
255 255 255
255 255 255
255 255 255
255 255 255
255 255 255
255 255 255
255 255 255
255 255 255
255 255 255
255 255 255
255 255 255
255 255 255
255 255 255
255 255 255
255 255 255
255 255 255
255 255 255
255 255 255
255 255 255
255 255 255
255 255 255
255 255 255
255 255 255
255 255 255
255 255 255
255 255 255
255 255 255
255 255 255
255 255 255
255 255 255
255 255 255
255 255 255
255 255 255
255 255 255
255 255 255
255 255 255
255 255 255
255 255 255
255 255 255
255 255 255
255 255 255
255 255 255
255 255 255
255 255 255
255 255 255
255 255 255
255 255 255
255 255 255
255 255 255
255 255 255
255 255 255
255 255 255
255 255 255
255 255 255
255 255 255
255 255 255
255 255 255
255 255 255
255 255 255
255 255 255
255 255 255
255 255 255
255 255 255
255 255 255
255 255 255
255 255 255
255 255 255
255 255 255
255 255 255
255 255 255
255 255 255
255 255 255
255 255 255
255 255 255
255 255 255
255 255 255
255 255 255
255 255 255
255 255 255
255 255 255
255 255 255
255 255 255
255 255 255
255 255 255
255 255 255
255 255 255
255 255 255
255 255 255
255 255 255
255 255 255
255 255 255
255 255 255
255 255 255
255 255 255
255 255 255
255 255 255
255 255 255
255 255 255
255 255 255
255 255 255
255 255 255
255 255 255
255 255 255
255 255 255
255 255 255
255 255 255
255 255 255
255 255 255
255 255 255
255 255 255
255 255 255
255 255 255
255 255 255
255 255 255
255 255 255
255 255 255
255 255 255
255 255 255
255 255 255
255 255 255
255 255 255
255 255 255
255 255 255
255 255 255
255 255 255
255 255 255
255 255 255
255 255 255
255 255 255
255 255 255
255 255 255
255 255 255
255 255 255
255 255 255
255 255 255
255 255 255
255 255 255
255 255 255
255 255 255
255 255 255
255 255 255
255 255 255
255 255 255
255 255 255
255 255 255
255 255 255
255 255 255
255 255 255
255 255 255
255 255 255
255 255 255
255 255 255
255 255 255
255 255 255
255 255 255
255 255 255
255 255 255
255 255 255
255 255 255
255 255 255
255 255 255
255 255 255
255 255 255
255 255 255
255 255 255
255 255 255
255 255 255
255 255 255
  0   0   0
  0   0   0
  0   0   0
  0   0   0
255 255 255
255 255 255
255 255 255
255 255 255
255 255 255
255 255 255
255 255 255
255 255 255
255 255 255
255 255 255
255 255 255
255 255 255
255 255 255
255 255 255
255 255 255
255 255 255
255 255 255
255 255 255
255 255 255
255 255 255
255 255 255
255 255 255
255 255 255
255 255 255
255 255 255
255 255 255
255 255 255
255 255 255
255 255 255
255 255 255
255 255 255
255 255 255
255 255 255
255 255 255
255 255 255
255 255 255
255 255 255
255 255 255
255 255 255
255 255 255
255 255 255
255 255 255
255 255 255
255 255 255
255 255 255
255 255 255
255 255 255
255 255 255
255 255 255
255 255 255
255 255 255
255 255 255
255 255 255
255 255 255
255 255 255
255 255 255
255 255 255
255 255 255
255 255 255
255 255 255
255 255 255
255 255 255
255 255 255
255 255 255
255 255 255
255 255 255
255 255 255
255 255 255
255 255 255
255 255 255
255 255 255
255 255 255
255 255 255
255 255 255
255 255 255
255 255 255
255 255 255
255 255 255
255 255 255
255 255 255
255 255 255
255 255 255
255 255 255
255 255 255
255 255 255
255 255 255
255 255 255
255 255 255
255 255 255
255 255 255
255 255 255
255 255 255
255 255 255
255 255 255
255 255 255
255 255 255
255 255 255
255 255 255
255 255 255
255 255 255
255 255 255
255 255 255
255 255 255
255 255 255
255 255 255
255 255 255
255 255 255
255 255 255
255 255 255
255 255 255
255 255 255
255 255 255
255 255 255
255 255 255
255 255 255
255 255 255
255 255 255
255 255 255
255 255 255
255 255 255
255 255 255
255 255 255
255 255 255
255 255 255
255 255 255
255 255 255
255 255 255
255 255 255
255 255 255
255 255 255
255 255 255
255 255 255
255 255 255
255 255 255
255 255 255
255 255 255
255 255 255
255 255 255
255 255 255
255 255 255
255 255 255
255 255 255
255 255 255
255 255 255
255 255 255
255 255 255
255 255 255
255 255 255
255 255 255
255 255 255
255 255 255
255 255 255
255 255 255
255 255 255
255 255 255
255 255 255
255 255 255
255 255 255
255 255 255
255 255 255
255 255 255
255 255 255
255 255 255
255 255 255
255 255 255
255 255 255
255 255 255
255 255 255
255 255 255
255 255 255
255 255 255
255 255 255
255 255 255
255 255 255
255 255 255
255 255 255
255 255 255
255 255 255
255 255 255
255 255 255
255 255 255
255 255 255
255 255 255
255 255 255
255 255 255
255 255 255
255 255 255
255 255 255
255 255 255
255 255 255
255 255 255
255 255 255
255 255 255
255 255 255
255 255 255
255 255 255
255 255 255
  0   0   0
  0   0   0
  0   0   0
  0   0   0
255 255 255
255 255 255
255 255 255
255 255 255
255 255 255
255 255 255
255 255 255
255 255 255
255 255 255
255 255 255
255 255 255
255 255 255
255 255 255
255 255 255
255 255 255
255 255 255
255 255 255
255 255 255
255 255 255
255 255 255
255 255 255
255 255 255
255 255 255
255 255 255
255 255 255
255 255 255
255 255 255
255 255 255
255 255 255
255 255 255
255 255 255
255 255 255
255 255 255
255 255 255
255 255 255
255 255 255
255 255 255
255 255 255
255 255 255
255 255 255
255 255 255
255 255 255
255 255 255
255 255 255
255 255 255
255 255 255
255 255 255
255 255 255
255 255 255
255 255 255
255 255 255
255 255 255
255 255 255
255 255 255
255 255 255
255 255 255
255 255 255
255 255 255
255 255 255
255 255 255
255 255 255
255 255 255
255 255 255
255 255 255
255 255 255
255 255 255
255 255 255
255 255 255
255 255 255
255 255 255
255 255 255
255 255 255
255 255 255
255 255 255
255 255 255
255 255 255
255 255 255
255 255 255
255 255 255
255 255 255
255 255 255
255 255 255
255 255 255
255 255 255
255 255 255
255 255 255
255 255 255
255 255 255
255 255 255
255 255 255
255 255 255
255 255 255
255 255 255
255 255 255
255 255 255
255 255 255
255 255 255
255 255 255
255 255 255
255 255 255
255 255 255
255 255 255
255 255 255
255 255 255
255 255 255
255 255 255
255 255 255
255 255 255
255 255 255
255 255 255
255 255 255
255 255 255
255 255 255
255 255 255
255 255 255
255 255 255
255 255 255
255 255 255
255 255 255
255 255 255
255 255 255
255 255 255
255 255 255
255 255 255
255 255 255
255 255 255
255 255 255
255 255 255
255 255 255
255 255 255
255 255 255
255 255 255
255 255 255
255 255 255
255 255 255
255 255 255
255 255 255
255 255 255
255 255 255
255 255 255
255 255 255
255 255 255
255 255 255
255 255 255
255 255 255
255 255 255
255 255 255
255 255 255
255 255 255
255 255 255
255 255 255
255 255 255
255 255 255
255 255 255
255 255 255
255 255 255
255 255 255
255 255 255
255 255 255
255 255 255
255 255 255
255 255 255
255 255 255
255 255 255
255 255 255
255 255 255
255 255 255
255 255 255
255 255 255
255 255 255
255 255 255
255 255 255
255 255 255
255 255 255
255 255 255
255 255 255
255 255 255
255 255 255
255 255 255
255 255 255
255 255 255
255 255 255
255 255 255
255 255 255
255 255 255
255 255 255
255 255 255
255 255 255
255 255 255
255 255 255
255 255 255
255 255 255
255 255 255
255 255 255
255 255 255
255 255 255
255 255 255
  0   0   0
  0   0   0
  0   0   0
  0   0   0
255 255 255
255 255 255
255 255 255
255 255 255
255 255 255
255 255 255
255 255 255
255 255 255
255 255 255
255 255 255
255 255 255
255 255 255
255 255 255
255 255 255
255 255 255
255 255 255
255 255 255
255 255 255
255 255 255
255 255 255
255 255 255
255 255 255
255 255 255
255 255 255
255 255 255
255 255 255
255 255 255
255 255 255
255 255 255
255 255 255
255 255 255
255 255 255
255 255 255
255 255 255
255 255 255
255 255 255
255 255 255
255 255 255
255 255 255
255 255 255
255 255 255
255 255 255
255 255 255
255 255 255
255 255 255
255 255 255
255 255 255
255 255 255
255 255 255
255 255 255
255 255 255
255 255 255
255 255 255
255 255 255
255 255 255
255 255 255
255 255 255
255 255 255
255 255 255
255 255 255
255 255 255
255 255 255
255 255 255
255 255 255
255 255 255
255 255 255
255 255 255
255 255 255
255 255 255
255 255 255
255 255 255
255 255 255
255 255 255
255 255 255
255 255 255
255 255 255
255 255 255
255 255 255
255 255 255
255 255 255
255 255 255
255 255 255
255 255 255
255 255 255
255 255 255
255 255 255
255 255 255
255 255 255
255 255 255
255 255 255
255 255 255
255 255 255
255 255 255
255 255 255
255 255 255
255 255 255
255 255 255
255 255 255
255 255 255
255 255 255
255 255 255
255 255 255
255 255 255
255 255 255
255 255 255
255 255 255
255 255 255
255 255 255
255 255 255
255 255 255
255 255 255
255 255 255
255 255 255
255 255 255
255 255 255
255 255 255
255 255 255
255 255 255
255 255 255
255 255 255
255 255 255
255 255 255
255 255 255
255 255 255
255 255 255
255 255 255
255 255 255
255 255 255
255 255 255
255 255 255
255 255 255
255 255 255
255 255 255
255 255 255
255 255 255
255 255 255
255 255 255
255 255 255
255 255 255
255 255 255
255 255 255
255 255 255
255 255 255
255 255 255
255 255 255
255 255 255
255 255 255
255 255 255
255 255 255
255 255 255
255 255 255
255 255 255
255 255 255
255 255 255
255 255 255
255 255 255
255 255 255
255 255 255
255 255 255
255 255 255
255 255 255
255 255 255
255 255 255
255 255 255
255 255 255
255 255 255
255 255 255
255 255 255
255 255 255
255 255 255
255 255 255
255 255 255
255 255 255
255 255 255
255 255 255
255 255 255
255 255 255
255 255 255
255 255 255
255 255 255
255 255 255
255 255 255
255 255 255
255 255 255
255 255 255
255 255 255
255 255 255
255 255 255
255 255 255
255 255 255
255 255 255
255 255 255
255 255 255
255 255 255
255 255 255
255 255 255
255 255 255
  0   0   0
  0   0   0
  0   0   0
  0   0   0
255 255 255
255 255 255
255 255 255
255 255 255
255 255 255
255 255 255
255 255 255
255 255 255
255 255 255
255 255 255
255 255 255
255 255 255
255 255 255
255 255 255
255 255 255
255 255 255
255 255 255
255 255 255
255 255 255
255 255 255
255 255 255
255 255 255
255 255 255
255 255 255
255 255 255
255 255 255
255 255 255
255 255 255
255 255 255
255 255 255
255 255 255
255 255 255
255 255 255
255 255 255
255 255 255
255 255 255
255 255 255
255 255 255
255 255 255
255 255 255
255 255 255
255 255 255
255 255 255
255 255 255
255 255 255
255 255 255
255 255 255
255 255 255
255 255 255
255 255 255
255 255 255
255 255 255
255 255 255
255 255 255
255 255 255
255 255 255
255 255 255
255 255 255
255 255 255
255 255 255
255 255 255
255 255 255
255 255 255
255 255 255
255 255 255
255 255 255
255 255 255
255 255 255
255 255 255
255 255 255
255 255 255
255 255 255
255 255 255
255 255 255
255 255 255
255 255 255
255 255 255
255 255 255
255 255 255
255 255 255
255 255 255
255 255 255
255 255 255
255 255 255
255 255 255
255 255 255
255 255 255
255 255 255
255 255 255
255 255 255
255 255 255
255 255 255
255 255 255
255 255 255
255 255 255
255 255 255
255 255 255
255 255 255
255 255 255
255 255 255
255 255 255
255 255 255
255 255 255
255 255 255
255 255 255
255 255 255
255 255 255
255 255 255
255 255 255
255 255 255
255 255 255
255 255 255
255 255 255
255 255 255
255 255 255
255 255 255
255 255 255
255 255 255
255 255 255
255 255 255
255 255 255
255 255 255
255 255 255
255 255 255
255 255 255
255 255 255
255 255 255
255 255 255
255 255 255
255 255 255
255 255 255
255 255 255
255 255 255
255 255 255
255 255 255
255 255 255
255 255 255
255 255 255
255 255 255
255 255 255
255 255 255
255 255 255
255 255 255
255 255 255
255 255 255
255 255 255
255 255 255
255 255 255
255 255 255
255 255 255
255 255 255
255 255 255
255 255 255
255 255 255
255 255 255
255 255 255
255 255 255
255 255 255
255 255 255
255 255 255
255 255 255
255 255 255
255 255 255
255 255 255
255 255 255
255 255 255
255 255 255
255 255 255
255 255 255
255 255 255
255 255 255
255 255 255
255 255 255
255 255 255
255 255 255
255 255 255
255 255 255
255 255 255
255 255 255
255 255 255
255 255 255
255 255 255
255 255 255
255 255 255
255 255 255
255 255 255
255 255 255
255 255 255
255 255 255
255 255 255
255 255 255
255 255 255
255 255 255
255 255 255
255 255 255
255 255 255
255 255 255
  0   0   0
  0   0   0
  0   0   0
  0   0   0
255 255 255
255 255 255
255 255 255
255 255 255
255 255 255
255 255 255
255 255 255
255 255 255
255 255 255
255 255 255
255 255 255
255 255 255
255 255 255
255 255 255
255 255 255
255 255 255
255 255 255
255 255 255
255 255 255
255 255 255
255 255 255
255 255 255
255 255 255
255 255 255
255 255 255
255 255 255
255 255 255
255 255 255
255 255 255
255 255 255
255 255 255
255 255 255
255 255 255
255 255 255
255 255 255
255 255 255
255 255 255
255 255 255
255 255 255
255 255 255
255 255 255
255 255 255
255 255 255
255 255 255
255 255 255
255 255 255
255 255 255
255 255 255
255 255 255
255 255 255
255 255 255
255 255 255
255 255 255
255 255 255
255 255 255
255 255 255
255 255 255
255 255 255
255 255 255
255 255 255
255 255 255
255 255 255
255 255 255
255 255 255
255 255 255
255 255 255
255 255 255
255 255 255
255 255 255
255 255 255
255 255 255
255 255 255
255 255 255
255 255 255
255 255 255
255 255 255
255 255 255
255 255 255
255 255 255
255 255 255
255 255 255
255 255 255
255 255 255
255 255 255
255 255 255
255 255 255
255 255 255
255 255 255
255 255 255
255 255 255
255 255 255
255 255 255
255 255 255
255 255 255
255 255 255
255 255 255
255 255 255
255 255 255
255 255 255
255 255 255
255 255 255
255 255 255
255 255 255
255 255 255
255 255 255
255 255 255
255 255 255
255 255 255
255 255 255
255 255 255
255 255 255
255 255 255
255 255 255
255 255 255
255 255 255
255 255 255
255 255 255
255 255 255
255 255 255
255 255 255
255 255 255
255 255 255
255 255 255
255 255 255
255 255 255
255 255 255
255 255 255
255 255 255
255 255 255
255 255 255
255 255 255
255 255 255
255 255 255
255 255 255
255 255 255
255 255 255
255 255 255
255 255 255
255 255 255
255 255 255
255 255 255
255 255 255
255 255 255
255 255 255
255 255 255
255 255 255
255 255 255
255 255 255
255 255 255
255 255 255
255 255 255
255 255 255
255 255 255
255 255 255
255 255 255
255 255 255
255 255 255
255 255 255
255 255 255
255 255 255
255 255 255
255 255 255
255 255 255
255 255 255
255 255 255
255 255 255
255 255 255
255 255 255
255 255 255
255 255 255
255 255 255
255 255 255
255 255 255
255 255 255
255 255 255
255 255 255
255 255 255
255 255 255
255 255 255
255 255 255
255 255 255
255 255 255
255 255 255
255 255 255
255 255 255
255 255 255
255 255 255
255 255 255
255 255 255
255 255 255
255 255 255
255 255 255
255 255 255
255 255 255
255 255 255
255 255 255
255 255 255
  0   0   0
  0   0   0
  0   0   0
  0   0   0
255 255 255
255 255 255
255 255 255
255 255 255
255 255 255
255 255 255
255 255 255
255 255 255
255 255 255
255 255 255
255 255 255
255 255 255
255 255 255
255 255 255
255 255 255
255 255 255
255 255 255
255 255 255
255 255 255
255 255 255
255 255 255
255 255 255
255 255 255
255 255 255
255 255 255
255 255 255
255 255 255
255 255 255
255 255 255
255 255 255
255 255 255
255 255 255
255 255 255
255 255 255
255 255 255
255 255 255
255 255 255
255 255 255
255 255 255
255 255 255
255 255 255
255 255 255
255 255 255
255 255 255
255 255 255
255 255 255
255 255 255
255 255 255
255 255 255
255 255 255
255 255 255
255 255 255
255 255 255
255 255 255
255 255 255
255 255 255
255 255 255
255 255 255
255 255 255
255 255 255
255 255 255
255 255 255
255 255 255
255 255 255
255 255 255
255 255 255
255 255 255
255 255 255
255 255 255
255 255 255
255 255 255
255 255 255
255 255 255
255 255 255
255 255 255
255 255 255
255 255 255
255 255 255
255 255 255
255 255 255
255 255 255
255 255 255
255 255 255
255 255 255
255 255 255
255 255 255
255 255 255
255 255 255
255 255 255
255 255 255
255 255 255
255 255 255
255 255 255
255 255 255
255 255 255
255 255 255
255 255 255
255 255 255
255 255 255
255 255 255
255 255 255
255 255 255
255 255 255
255 255 255
255 255 255
255 255 255
255 255 255
255 255 255
255 255 255
255 255 255
255 255 255
255 255 255
255 255 255
255 255 255
255 255 255
255 255 255
255 255 255
255 255 255
255 255 255
255 255 255
255 255 255
255 255 255
255 255 255
255 255 255
255 255 255
255 255 255
255 255 255
255 255 255
255 255 255
255 255 255
255 255 255
255 255 255
255 255 255
255 255 255
255 255 255
255 255 255
255 255 255
255 255 255
255 255 255
255 255 255
255 255 255
255 255 255
255 255 255
255 255 255
255 255 255
255 255 255
255 255 255
255 255 255
255 255 255
255 255 255
255 255 255
255 255 255
255 255 255
255 255 255
255 255 255
255 255 255
255 255 255
255 255 255
255 255 255
255 255 255
255 255 255
255 255 255
255 255 255
255 255 255
255 255 255
255 255 255
255 255 255
255 255 255
255 255 255
255 255 255
255 255 255
255 255 255
255 255 255
255 255 255
255 255 255
255 255 255
255 255 255
255 255 255
255 255 255
255 255 255
255 255 255
255 255 255
255 255 255
255 255 255
255 255 255
255 255 255
255 255 255
255 255 255
255 255 255
255 255 255
255 255 255
255 255 255
255 255 255
255 255 255
255 255 255
255 255 255
255 255 255
  0   0   0
  0   0   0
  0   0   0
  0   0   0
255 255 255
255 255 255
255 255 255
255 255 255
255 255 255
255 255 255
255 255 255
255 255 255
255 255 255
255 255 255
255 255 255
255 255 255
255 255 255
255 255 255
255 255 255
255 255 255
255 255 255
255 255 255
255 255 255
255 255 255
255 255 255
255 255 255
255 255 255
255 255 255
255 255 255
255 255 255
255 255 255
255 255 255
255 255 255
255 255 255
255 255 255
255 255 255
255 255 255
255 255 255
255 255 255
255 255 255
255 255 255
255 255 255
255 255 255
255 255 255
255 255 255
255 255 255
255 255 255
255 255 255
255 255 255
255 255 255
255 255 255
255 255 255
255 255 255
255 255 255
255 255 255
255 255 255
255 255 255
255 255 255
255 255 255
255 255 255
255 255 255
255 255 255
255 255 255
255 255 255
255 255 255
255 255 255
255 255 255
255 255 255
255 255 255
255 255 255
255 255 255
255 255 255
255 255 255
255 255 255
255 255 255
255 255 255
255 255 255
255 255 255
255 255 255
255 255 255
255 255 255
255 255 255
255 255 255
255 255 255
255 255 255
255 255 255
255 255 255
255 255 255
255 255 255
255 255 255
255 255 255
255 255 255
255 255 255
255 255 255
255 255 255
255 255 255
255 255 255
255 255 255
255 255 255
255 255 255
255 255 255
255 255 255
255 255 255
255 255 255
255 255 255
255 255 255
255 255 255
255 255 255
255 255 255
255 255 255
255 255 255
255 255 255
255 255 255
255 255 255
255 255 255
255 255 255
255 255 255
255 255 255
255 255 255
255 255 255
255 255 255
255 255 255
255 255 255
255 255 255
255 255 255
255 255 255
255 255 255
255 255 255
255 255 255
255 255 255
255 255 255
255 255 255
255 255 255
255 255 255
255 255 255
255 255 255
255 255 255
255 255 255
255 255 255
255 255 255
255 255 255
255 255 255
255 255 255
255 255 255
255 255 255
255 255 255
255 255 255
255 255 255
255 255 255
255 255 255
255 255 255
255 255 255
255 255 255
255 255 255
255 255 255
255 255 255
255 255 255
255 255 255
255 255 255
255 255 255
255 255 255
255 255 255
255 255 255
255 255 255
255 255 255
255 255 255
255 255 255
255 255 255
255 255 255
255 255 255
255 255 255
255 255 255
255 255 255
255 255 255
255 255 255
255 255 255
255 255 255
255 255 255
255 255 255
255 255 255
255 255 255
255 255 255
255 255 255
255 255 255
255 255 255
255 255 255
255 255 255
255 255 255
255 255 255
255 255 255
255 255 255
255 255 255
255 255 255
255 255 255
255 255 255
255 255 255
255 255 255
255 255 255
255 255 255
255 255 255
255 255 255
  0   0   0
  0   0   0
  0   0   0
  0   0   0
255 255 255
255 255 255
255 255 255
255 255 255
255 255 255
255 255 255
255 255 255
255 255 255
255 255 255
255 255 255
255 255 255
255 255 255
255 255 255
255 255 255
255 255 255
255 255 255
255 255 255
255 255 255
255 255 255
255 255 255
255 255 255
255 255 255
255 255 255
255 255 255
255 255 255
255 255 255
255 255 255
255 255 255
255 255 255
255 255 255
255 255 255
255 255 255
255 255 255
255 255 255
255 255 255
255 255 255
255 255 255
255 255 255
255 255 255
255 255 255
255 255 255
255 255 255
255 255 255
255 255 255
255 255 255
255 255 255
255 255 255
255 255 255
255 255 255
255 255 255
255 255 255
255 255 255
255 255 255
255 255 255
255 255 255
255 255 255
255 255 255
255 255 255
255 255 255
255 255 255
255 255 255
255 255 255
255 255 255
255 255 255
255 255 255
255 255 255
255 255 255
255 255 255
255 255 255
255 255 255
255 255 255
255 255 255
255 255 255
255 255 255
255 255 255
255 255 255
255 255 255
255 255 255
255 255 255
255 255 255
255 255 255
255 255 255
255 255 255
255 255 255
255 255 255
255 255 255
255 255 255
255 255 255
255 255 255
255 255 255
255 255 255
255 255 255
255 255 255
255 255 255
255 255 255
255 255 255
255 255 255
255 255 255
255 255 255
255 255 255
255 255 255
255 255 255
255 255 255
255 255 255
255 255 255
255 255 255
255 255 255
255 255 255
255 255 255
255 255 255
255 255 255
255 255 255
255 255 255
255 255 255
255 255 255
255 255 255
255 255 255
255 255 255
255 255 255
255 255 255
255 255 255
255 255 255
255 255 255
255 255 255
255 255 255
255 255 255
255 255 255
255 255 255
255 255 255
255 255 255
255 255 255
255 255 255
255 255 255
255 255 255
255 255 255
255 255 255
255 255 255
255 255 255
255 255 255
255 255 255
255 255 255
255 255 255
255 255 255
255 255 255
255 255 255
255 255 255
255 255 255
255 255 255
255 255 255
255 255 255
255 255 255
255 255 255
255 255 255
255 255 255
255 255 255
255 255 255
255 255 255
255 255 255
255 255 255
255 255 255
255 255 255
255 255 255
255 255 255
255 255 255
255 255 255
255 255 255
255 255 255
255 255 255
255 255 255
255 255 255
255 255 255
255 255 255
255 255 255
255 255 255
255 255 255
255 255 255
255 255 255
255 255 255
255 255 255
255 255 255
255 255 255
255 255 255
255 255 255
255 255 255
255 255 255
255 255 255
255 255 255
255 255 255
255 255 255
255 255 255
255 255 255
255 255 255
255 255 255
255 255 255
255 255 255
255 255 255
255 255 255
  0   0   0
  0   0   0
  0   0   0
  0   0   0
255 255 255
255 255 255
255 255 255
255 255 255
255 255 255
255 255 255
255 255 255
255 255 255
255 255 255
255 255 255
255 255 255
255 255 255
255 255 255
255 255 255
255 255 255
255 255 255
255 255 255
255 255 255
255 255 255
255 255 255
255 255 255
255 255 255
255 255 255
255 255 255
255 255 255
255 255 255
255 255 255
255 255 255
255 255 255
255 255 255
255 255 255
255 255 255
255 255 255
255 255 255
255 255 255
255 255 255
255 255 255
255 255 255
255 255 255
255 255 255
255 255 255
255 255 255
255 255 255
255 255 255
255 255 255
255 255 255
255 255 255
255 255 255
255 255 255
255 255 255
255 255 255
255 255 255
255 255 255
255 255 255
255 255 255
255 255 255
255 255 255
255 255 255
255 255 255
255 255 255
255 255 255
255 255 255
255 255 255
255 255 255
255 255 255
255 255 255
255 255 255
255 255 255
255 255 255
255 255 255
255 255 255
255 255 255
255 255 255
255 255 255
255 255 255
255 255 255
255 255 255
255 255 255
255 255 255
255 255 255
255 255 255
255 255 255
255 255 255
255 255 255
255 255 255
255 255 255
255 255 255
255 255 255
255 255 255
255 255 255
255 255 255
255 255 255
255 255 255
255 255 255
255 255 255
255 255 255
255 255 255
255 255 255
255 255 255
255 255 255
255 255 255
255 255 255
255 255 255
255 255 255
255 255 255
255 255 255
255 255 255
255 255 255
255 255 255
255 255 255
255 255 255
255 255 255
255 255 255
255 255 255
255 255 255
255 255 255
255 255 255
255 255 255
255 255 255
255 255 255
255 255 255
255 255 255
255 255 255
255 255 255
255 255 255
255 255 255
255 255 255
255 255 255
255 255 255
255 255 255
255 255 255
255 255 255
255 255 255
255 255 255
255 255 255
255 255 255
255 255 255
255 255 255
255 255 255
255 255 255
255 255 255
255 255 255
255 255 255
255 255 255
255 255 255
255 255 255
255 255 255
255 255 255
255 255 255
255 255 255
255 255 255
255 255 255
255 255 255
255 255 255
255 255 255
255 255 255
255 255 255
255 255 255
255 255 255
255 255 255
255 255 255
255 255 255
255 255 255
255 255 255
255 255 255
255 255 255
255 255 255
255 255 255
255 255 255
255 255 255
255 255 255
255 255 255
255 255 255
255 255 255
255 255 255
255 255 255
255 255 255
255 255 255
255 255 255
255 255 255
255 255 255
255 255 255
255 255 255
255 255 255
255 255 255
255 255 255
255 255 255
255 255 255
255 255 255
255 255 255
255 255 255
255 255 255
255 255 255
255 255 255
255 255 255
255 255 255
255 255 255
  0   0   0
  0   0   0
  0   0   0
  0   0   0
255 255 255
255 255 255
255 255 255
255 255 255
255 255 255
255 255 255
255 255 255
255 255 255
255 255 255
255 255 255
255 255 255
255 255 255
255 255 255
255 255 255
255 255 255
255 255 255
255 255 255
255 255 255
255 255 255
255 255 255
255 255 255
255 255 255
255 255 255
255 255 255
255 255 255
255 255 255
255 255 255
255 255 255
255 255 255
255 255 255
255 255 255
255 255 255
255 255 255
255 255 255
255 255 255
255 255 255
255 255 255
255 255 255
255 255 255
255 255 255
255 255 255
255 255 255
255 255 255
255 255 255
255 255 255
255 255 255
255 255 255
255 255 255
255 255 255
255 255 255
255 255 255
255 255 255
255 255 255
255 255 255
255 255 255
255 255 255
255 255 255
255 255 255
255 255 255
255 255 255
255 255 255
255 255 255
255 255 255
255 255 255
255 255 255
255 255 255
255 255 255
255 255 255
255 255 255
255 255 255
255 255 255
255 255 255
255 255 255
255 255 255
255 255 255
255 255 255
255 255 255
255 255 255
255 255 255
255 255 255
255 255 255
255 255 255
255 255 255
255 255 255
255 255 255
255 255 255
255 255 255
255 255 255
255 255 255
255 255 255
255 255 255
255 255 255
255 255 255
255 255 255
255 255 255
255 255 255
255 255 255
255 255 255
255 255 255
255 255 255
255 255 255
255 255 255
255 255 255
255 255 255
255 255 255
255 255 255
255 255 255
255 255 255
255 255 255
255 255 255
255 255 255
255 255 255
255 255 255
255 255 255
255 255 255
255 255 255
255 255 255
255 255 255
255 255 255
255 255 255
255 255 255
255 255 255
255 255 255
255 255 255
255 255 255
255 255 255
255 255 255
255 255 255
255 255 255
255 255 255
255 255 255
255 255 255
255 255 255
255 255 255
255 255 255
255 255 255
255 255 255
255 255 255
255 255 255
255 255 255
255 255 255
255 255 255
255 255 255
255 255 255
255 255 255
255 255 255
255 255 255
255 255 255
255 255 255
255 255 255
255 255 255
255 255 255
255 255 255
255 255 255
255 255 255
255 255 255
255 255 255
255 255 255
255 255 255
255 255 255
255 255 255
255 255 255
255 255 255
255 255 255
255 255 255
255 255 255
255 255 255
255 255 255
255 255 255
255 255 255
255 255 255
255 255 255
255 255 255
255 255 255
255 255 255
255 255 255
255 255 255
255 255 255
255 255 255
255 255 255
255 255 255
255 255 255
255 255 255
255 255 255
255 255 255
255 255 255
255 255 255
255 255 255
255 255 255
255 255 255
255 255 255
255 255 255
255 255 255
255 255 255
255 255 255
255 255 255
255 255 255
  0   0   0
  0   0   0
  0   0   0
  0   0   0
255 255 255
255 255 255
255 255 255
255 255 255
255 255 255
255 255 255
255 255 255
255 255 255
255 255 255
255 255 255
255 255 255
255 255 255
255 255 255
255 255 255
255 255 255
255 255 255
255 255 255
255 255 255
255 255 255
255 255 255
255 255 255
255 255 255
255 255 255
255 255 255
255 255 255
255 255 255
255 255 255
255 255 255
255 255 255
255 255 255
255 255 255
255 255 255
255 255 255
255 255 255
255 255 255
255 255 255
255 255 255
255 255 255
255 255 255
255 255 255
255 255 255
255 255 255
255 255 255
255 255 255
255 255 255
255 255 255
255 255 255
255 255 255
255 255 255
255 255 255
255 255 255
255 255 255
255 255 255
255 255 255
255 255 255
255 255 255
255 255 255
255 255 255
255 255 255
255 255 255
255 255 255
255 255 255
255 255 255
255 255 255
255 255 255
255 255 255
255 255 255
255 255 255
255 255 255
255 255 255
255 255 255
255 255 255
255 255 255
255 255 255
255 255 255
255 255 255
255 255 255
255 255 255
255 255 255
255 255 255
255 255 255
255 255 255
255 255 255
255 255 255
255 255 255
255 255 255
255 255 255
255 255 255
255 255 255
255 255 255
255 255 255
255 255 255
255 255 255
255 255 255
255 255 255
255 255 255
255 255 255
255 255 255
255 255 255
255 255 255
255 255 255
255 255 255
255 255 255
255 255 255
255 255 255
255 255 255
255 255 255
255 255 255
255 255 255
255 255 255
255 255 255
255 255 255
255 255 255
255 255 255
255 255 255
255 255 255
255 255 255
255 255 255
255 255 255
255 255 255
255 255 255
255 255 255
255 255 255
255 255 255
255 255 255
255 255 255
255 255 255
255 255 255
255 255 255
255 255 255
255 255 255
255 255 255
255 255 255
255 255 255
255 255 255
255 255 255
255 255 255
255 255 255
255 255 255
255 255 255
255 255 255
255 255 255
255 255 255
255 255 255
255 255 255
255 255 255
255 255 255
255 255 255
255 255 255
255 255 255
255 255 255
255 255 255
255 255 255
255 255 255
255 255 255
255 255 255
255 255 255
255 255 255
255 255 255
255 255 255
255 255 255
255 255 255
255 255 255
255 255 255
255 255 255
255 255 255
255 255 255
255 255 255
255 255 255
255 255 255
255 255 255
255 255 255
255 255 255
255 255 255
255 255 255
255 255 255
255 255 255
255 255 255
255 255 255
255 255 255
255 255 255
255 255 255
255 255 255
255 255 255
255 255 255
255 255 255
255 255 255
255 255 255
255 255 255
255 255 255
255 255 255
255 255 255
255 255 255
255 255 255
255 255 255
255 255 255
255 255 255
  0   0   0
  0   0   0
  0   0   0
  0   0   0
255 255 255
255 255 255
255 255 255
255 255 255
255 255 255
255 255 255
255 255 255
255 255 255
255 255 255
255 255 255
255 255 255
255 255 255
255 255 255
255 255 255
255 255 255
255 255 255
255 255 255
255 255 255
255 255 255
255 255 255
255 255 255
255 255 255
255 255 255
255 255 255
255 255 255
255 255 255
255 255 255
255 255 255
255 255 255
255 255 255
255 255 255
255 255 255
255 255 255
255 255 255
255 255 255
255 255 255
255 255 255
255 255 255
255 255 255
255 255 255
255 255 255
255 255 255
255 255 255
255 255 255
255 255 255
255 255 255
255 255 255
255 255 255
255 255 255
255 255 255
255 255 255
255 255 255
255 255 255
255 255 255
255 255 255
255 255 255
255 255 255
255 255 255
255 255 255
255 255 255
255 255 255
255 255 255
255 255 255
255 255 255
255 255 255
255 255 255
255 255 255
255 255 255
255 255 255
255 255 255
255 255 255
255 255 255
255 255 255
255 255 255
255 255 255
255 255 255
255 255 255
255 255 255
255 255 255
255 255 255
255 255 255
255 255 255
255 255 255
255 255 255
255 255 255
255 255 255
255 255 255
255 255 255
255 255 255
255 255 255
255 255 255
255 255 255
255 255 255
255 255 255
255 255 255
255 255 255
255 255 255
255 255 255
255 255 255
255 255 255
255 255 255
255 255 255
255 255 255
255 255 255
255 255 255
255 255 255
255 255 255
255 255 255
255 255 255
255 255 255
255 255 255
255 255 255
255 255 255
255 255 255
255 255 255
255 255 255
255 255 255
255 255 255
255 255 255
255 255 255
255 255 255
255 255 255
255 255 255
255 255 255
255 255 255
255 255 255
255 255 255
255 255 255
255 255 255
255 255 255
255 255 255
255 255 255
255 255 255
255 255 255
255 255 255
255 255 255
255 255 255
255 255 255
255 255 255
255 255 255
255 255 255
255 255 255
255 255 255
255 255 255
255 255 255
255 255 255
255 255 255
255 255 255
255 255 255
255 255 255
255 255 255
255 255 255
255 255 255
255 255 255
255 255 255
255 255 255
255 255 255
255 255 255
255 255 255
255 255 255
255 255 255
255 255 255
255 255 255
255 255 255
255 255 255
255 255 255
255 255 255
255 255 255
255 255 255
255 255 255
255 255 255
255 255 255
255 255 255
255 255 255
255 255 255
255 255 255
255 255 255
255 255 255
255 255 255
255 255 255
255 255 255
255 255 255
255 255 255
255 255 255
255 255 255
255 255 255
255 255 255
255 255 255
255 255 255
255 255 255
255 255 255
255 255 255
255 255 255
255 255 255
255 255 255
255 255 255
255 255 255
  0   0   0
  0   0   0
  0   0   0
  0   0   0
255 255 255
255 255 255
255 255 255
255 255 255
255 255 255
255 255 255
255 255 255
255 255 255
255 255 255
255 255 255
255 255 255
255 255 255
255 255 255
255 255 255
255 255 255
255 255 255
255 255 255
255 255 255
255 255 255
255 255 255
255 255 255
255 255 255
255 255 255
255 255 255
255 255 255
255 255 255
255 255 255
255 255 255
255 255 255
255 255 255
255 255 255
255 255 255
255 255 255
255 255 255
255 255 255
255 255 255
255 255 255
255 255 255
255 255 255
255 255 255
255 255 255
255 255 255
255 255 255
255 255 255
255 255 255
255 255 255
255 255 255
255 255 255
255 255 255
255 255 255
255 255 255
255 255 255
255 255 255
255 255 255
255 255 255
255 255 255
255 255 255
255 255 255
255 255 255
255 255 255
255 255 255
255 255 255
255 255 255
255 255 255
255 255 255
255 255 255
255 255 255
255 255 255
255 255 255
255 255 255
255 255 255
255 255 255
255 255 255
255 255 255
255 255 255
255 255 255
255 255 255
255 255 255
255 255 255
255 255 255
255 255 255
255 255 255
255 255 255
255 255 255
255 255 255
255 255 255
255 255 255
255 255 255
255 255 255
255 255 255
255 255 255
255 255 255
255 255 255
255 255 255
255 255 255
255 255 255
255 255 255
255 255 255
255 255 255
255 255 255
255 255 255
255 255 255
255 255 255
255 255 255
255 255 255
255 255 255
255 255 255
255 255 255
255 255 255
255 255 255
255 255 255
255 255 255
255 255 255
255 255 255
255 255 255
255 255 255
255 255 255
255 255 255
255 255 255
255 255 255
255 255 255
255 255 255
255 255 255
255 255 255
255 255 255
255 255 255
255 255 255
255 255 255
255 255 255
255 255 255
255 255 255
255 255 255
255 255 255
255 255 255
255 255 255
255 255 255
255 255 255
255 255 255
255 255 255
255 255 255
255 255 255
255 255 255
255 255 255
255 255 255
255 255 255
255 255 255
255 255 255
255 255 255
255 255 255
255 255 255
255 255 255
255 255 255
255 255 255
255 255 255
255 255 255
255 255 255
255 255 255
255 255 255
255 255 255
255 255 255
255 255 255
255 255 255
255 255 255
255 255 255
255 255 255
255 255 255
255 255 255
255 255 255
255 255 255
255 255 255
255 255 255
255 255 255
255 255 255
255 255 255
255 255 255
255 255 255
255 255 255
255 255 255
255 255 255
255 255 255
255 255 255
255 255 255
255 255 255
255 255 255
255 255 255
255 255 255
255 255 255
255 255 255
255 255 255
255 255 255
255 255 255
255 255 255
255 255 255
255 255 255
255 255 255
255 255 255
255 255 255
  0   0   0
  0   0   0
  0   0   0
  0   0   0
255 255 255
255 255 255
255 255 255
255 255 255
255 255 255
255 255 255
255 255 255
255 255 255
255 255 255
255 255 255
255 255 255
255 255 255
255 255 255
255 255 255
255 255 255
255 255 255
255 255 255
255 255 255
255 255 255
255 255 255
255 255 255
255 255 255
255 255 255
255 255 255
255 255 255
255 255 255
255 255 255
255 255 255
255 255 255
255 255 255
255 255 255
255 255 255
255 255 255
255 255 255
255 255 255
255 255 255
255 255 255
255 255 255
255 255 255
255 255 255
255 255 255
255 255 255
255 255 255
255 255 255
255 255 255
255 255 255
255 255 255
255 255 255
255 255 255
255 255 255
255 255 255
255 255 255
255 255 255
255 255 255
255 255 255
255 255 255
255 255 255
255 255 255
255 255 255
255 255 255
255 255 255
255 255 255
255 255 255
255 255 255
255 255 255
255 255 255
255 255 255
255 255 255
255 255 255
255 255 255
255 255 255
255 255 255
255 255 255
255 255 255
255 255 255
255 255 255
255 255 255
255 255 255
255 255 255
255 255 255
255 255 255
255 255 255
255 255 255
255 255 255
255 255 255
255 255 255
255 255 255
255 255 255
255 255 255
255 255 255
255 255 255
255 255 255
255 255 255
255 255 255
255 255 255
255 255 255
255 255 255
255 255 255
255 255 255
255 255 255
255 255 255
255 255 255
255 255 255
255 255 255
255 255 255
255 255 255
255 255 255
255 255 255
255 255 255
255 255 255
255 255 255
255 255 255
255 255 255
255 255 255
255 255 255
255 255 255
255 255 255
255 255 255
255 255 255
255 255 255
255 255 255
255 255 255
255 255 255
255 255 255
255 255 255
255 255 255
255 255 255
255 255 255
255 255 255
255 255 255
255 255 255
255 255 255
255 255 255
255 255 255
255 255 255
255 255 255
255 255 255
255 255 255
255 255 255
255 255 255
255 255 255
255 255 255
255 255 255
255 255 255
255 255 255
255 255 255
255 255 255
255 255 255
255 255 255
255 255 255
255 255 255
255 255 255
255 255 255
255 255 255
255 255 255
255 255 255
255 255 255
255 255 255
255 255 255
255 255 255
255 255 255
255 255 255
255 255 255
255 255 255
255 255 255
255 255 255
255 255 255
255 255 255
255 255 255
255 255 255
255 255 255
255 255 255
255 255 255
255 255 255
255 255 255
255 255 255
255 255 255
255 255 255
255 255 255
255 255 255
255 255 255
255 255 255
255 255 255
255 255 255
255 255 255
255 255 255
255 255 255
255 255 255
255 255 255
255 255 255
255 255 255
255 255 255
255 255 255
255 255 255
255 255 255
255 255 255
255 255 255
  0   0   0
  0   0   0
  0   0   0
  0   0   0
255 255 255
255 255 255
255 255 255
255 255 255
255 255 255
255 255 255
255 255 255
255 255 255
255 255 255
255 255 255
255 255 255
255 255 255
255 255 255
255 255 255
255 255 255
255 255 255
255 255 255
255 255 255
255 255 255
255 255 255
255 255 255
255 255 255
255 255 255
255 255 255
255 255 255
255 255 255
255 255 255
255 255 255
255 255 255
255 255 255
255 255 255
255 255 255
255 255 255
255 255 255
255 255 255
255 255 255
255 255 255
255 255 255
255 255 255
255 255 255
255 255 255
255 255 255
255 255 255
255 255 255
255 255 255
255 255 255
255 255 255
255 255 255
255 255 255
255 255 255
255 255 255
255 255 255
255 255 255
255 255 255
255 255 255
255 255 255
255 255 255
255 255 255
255 255 255
255 255 255
255 255 255
255 255 255
255 255 255
255 255 255
255 255 255
255 255 255
255 255 255
255 255 255
255 255 255
255 255 255
255 255 255
255 255 255
255 255 255
255 255 255
255 255 255
255 255 255
255 255 255
255 255 255
255 255 255
255 255 255
255 255 255
255 255 255
255 255 255
255 255 255
255 255 255
255 255 255
255 255 255
255 255 255
255 255 255
255 255 255
255 255 255
255 255 255
255 255 255
255 255 255
255 255 255
255 255 255
255 255 255
255 255 255
255 255 255
255 255 255
255 255 255
255 255 255
255 255 255
255 255 255
255 255 255
255 255 255
255 255 255
255 255 255
255 255 255
255 255 255
255 255 255
255 255 255
255 255 255
255 255 255
255 255 255
255 255 255
255 255 255
255 255 255
255 255 255
255 255 255
255 255 255
255 255 255
255 255 255
255 255 255
255 255 255
255 255 255
255 255 255
255 255 255
255 255 255
255 255 255
255 255 255
255 255 255
255 255 255
255 255 255
255 255 255
255 255 255
255 255 255
255 255 255
255 255 255
255 255 255
255 255 255
255 255 255
255 255 255
255 255 255
255 255 255
255 255 255
255 255 255
255 255 255
255 255 255
255 255 255
255 255 255
255 255 255
255 255 255
255 255 255
255 255 255
255 255 255
255 255 255
255 255 255
255 255 255
255 255 255
255 255 255
255 255 255
255 255 255
255 255 255
255 255 255
255 255 255
255 255 255
255 255 255
255 255 255
255 255 255
255 255 255
255 255 255
255 255 255
255 255 255
255 255 255
255 255 255
255 255 255
255 255 255
255 255 255
255 255 255
255 255 255
255 255 255
255 255 255
255 255 255
255 255 255
255 255 255
255 255 255
255 255 255
255 255 255
255 255 255
255 255 255
255 255 255
255 255 255
255 255 255
255 255 255
255 255 255
255 255 255
  0   0   0
  0   0   0
  0   0   0
  0   0   0
255 255 255
255 255 255
255 255 255
255 255 255
255 255 255
255 255 255
255 255 255
255 255 255
255 255 255
255 255 255
255 255 255
255 255 255
255 255 255
255 255 255
255 255 255
255 255 255
255 255 255
255 255 255
255 255 255
255 255 255
255 255 255
255 255 255
255 255 255
255 255 255
255 255 255
255 255 255
255 255 255
255 255 255
255 255 255
255 255 255
255 255 255
255 255 255
255 255 255
255 255 255
255 255 255
255 255 255
255 255 255
255 255 255
255 255 255
255 255 255
255 255 255
255 255 255
255 255 255
255 255 255
255 255 255
255 255 255
255 255 255
255 255 255
255 255 255
255 255 255
255 255 255
255 255 255
255 255 255
255 255 255
255 255 255
255 255 255
255 255 255
255 255 255
255 255 255
255 255 255
255 255 255
255 255 255
255 255 255
255 255 255
255 255 255
255 255 255
255 255 255
255 255 255
255 255 255
255 255 255
255 255 255
255 255 255
255 255 255
255 255 255
255 255 255
255 255 255
255 255 255
255 255 255
255 255 255
255 255 255
255 255 255
255 255 255
255 255 255
255 255 255
255 255 255
255 255 255
255 255 255
255 255 255
255 255 255
255 255 255
255 255 255
255 255 255
255 255 255
255 255 255
255 255 255
255 255 255
255 255 255
255 255 255
255 255 255
255 255 255
255 255 255
255 255 255
255 255 255
255 255 255
255 255 255
255 255 255
255 255 255
255 255 255
255 255 255
255 255 255
255 255 255
255 255 255
255 255 255
255 255 255
255 255 255
255 255 255
255 255 255
255 255 255
255 255 255
255 255 255
255 255 255
255 255 255
255 255 255
255 255 255
255 255 255
255 255 255
255 255 255
255 255 255
255 255 255
255 255 255
255 255 255
255 255 255
255 255 255
255 255 255
255 255 255
255 255 255
255 255 255
255 255 255
255 255 255
255 255 255
255 255 255
255 255 255
255 255 255
255 255 255
255 255 255
255 255 255
255 255 255
255 255 255
255 255 255
255 255 255
255 255 255
255 255 255
255 255 255
255 255 255
255 255 255
255 255 255
255 255 255
255 255 255
255 255 255
255 255 255
255 255 255
255 255 255
255 255 255
255 255 255
255 255 255
255 255 255
255 255 255
255 255 255
255 255 255
255 255 255
255 255 255
255 255 255
255 255 255
255 255 255
255 255 255
255 255 255
255 255 255
255 255 255
255 255 255
255 255 255
255 255 255
255 255 255
255 255 255
255 255 255
255 255 255
255 255 255
255 255 255
255 255 255
255 255 255
255 255 255
255 255 255
255 255 255
255 255 255
255 255 255
255 255 255
255 255 255
255 255 255
  0   0   0
  0   0   0
  0   0   0
  0   0   0
255 255 255
255 255 255
255 255 255
255 255 255
255 255 255
255 255 255
255 255 255
255 255 255
255 255 255
255 255 255
255 255 255
255 255 255
255 255 255
255 255 255
255 255 255
255 255 255
255 255 255
255 255 255
255 255 255
255 255 255
255 255 255
255 255 255
255 255 255
255 255 255
255 255 255
255 255 255
255 255 255
255 255 255
255 255 255
255 255 255
255 255 255
255 255 255
255 255 255
255 255 255
255 255 255
255 255 255
255 255 255
255 255 255
255 255 255
255 255 255
255 255 255
255 255 255
255 255 255
255 255 255
255 255 255
255 255 255
255 255 255
255 255 255
255 255 255
255 255 255
255 255 255
255 255 255
255 255 255
255 255 255
255 255 255
255 255 255
255 255 255
255 255 255
255 255 255
255 255 255
255 255 255
255 255 255
255 255 255
255 255 255
255 255 255
255 255 255
255 255 255
255 255 255
255 255 255
255 255 255
255 255 255
255 255 255
255 255 255
255 255 255
255 255 255
255 255 255
255 255 255
255 255 255
255 255 255
255 255 255
255 255 255
255 255 255
255 255 255
255 255 255
255 255 255
255 255 255
255 255 255
255 255 255
255 255 255
255 255 255
255 255 255
255 255 255
255 255 255
255 255 255
255 255 255
255 255 255
255 255 255
255 255 255
255 255 255
255 255 255
255 255 255
255 255 255
255 255 255
255 255 255
255 255 255
255 255 255
255 255 255
255 255 255
255 255 255
255 255 255
255 255 255
255 255 255
255 255 255
255 255 255
255 255 255
255 255 255
255 255 255
255 255 255
255 255 255
255 255 255
255 255 255
255 255 255
255 255 255
255 255 255
255 255 255
255 255 255
255 255 255
255 255 255
255 255 255
255 255 255
255 255 255
255 255 255
255 255 255
255 255 255
255 255 255
255 255 255
255 255 255
255 255 255
255 255 255
255 255 255
255 255 255
255 255 255
255 255 255
255 255 255
255 255 255
255 255 255
255 255 255
255 255 255
255 255 255
255 255 255
255 255 255
255 255 255
255 255 255
255 255 255
255 255 255
255 255 255
255 255 255
255 255 255
255 255 255
255 255 255
255 255 255
255 255 255
255 255 255
255 255 255
255 255 255
255 255 255
255 255 255
255 255 255
255 255 255
255 255 255
255 255 255
255 255 255
255 255 255
255 255 255
255 255 255
255 255 255
255 255 255
255 255 255
255 255 255
255 255 255
255 255 255
255 255 255
255 255 255
255 255 255
255 255 255
255 255 255
255 255 255
255 255 255
255 255 255
255 255 255
255 255 255
255 255 255
255 255 255
255 255 255
255 255 255
255 255 255
255 255 255
  0   0   0
  0   0   0
  0   0   0
  0   0   0
255 255 255
255 255 255
255 255 255
255 255 255
255 255 255
255 255 255
255 255 255
255 255 255
255 255 255
255 255 255
255 255 255
255 255 255
255 255 255
255 255 255
255 255 255
255 255 255
255 255 255
255 255 255
255 255 255
255 255 255
255 255 255
255 255 255
255 255 255
255 255 255
255 255 255
255 255 255
255 255 255
255 255 255
255 255 255
255 255 255
255 255 255
255 255 255
255 255 255
255 255 255
255 255 255
255 255 255
255 255 255
255 255 255
255 255 255
255 255 255
255 255 255
255 255 255
255 255 255
255 255 255
255 255 255
255 255 255
255 255 255
255 255 255
255 255 255
255 255 255
255 255 255
255 255 255
255 255 255
255 255 255
255 255 255
255 255 255
255 255 255
255 255 255
255 255 255
255 255 255
255 255 255
255 255 255
255 255 255
255 255 255
255 255 255
255 255 255
255 255 255
255 255 255
255 255 255
255 255 255
255 255 255
255 255 255
255 255 255
255 255 255
255 255 255
255 255 255
255 255 255
255 255 255
255 255 255
255 255 255
255 255 255
255 255 255
255 255 255
255 255 255
255 255 255
255 255 255
255 255 255
255 255 255
255 255 255
255 255 255
255 255 255
255 255 255
255 255 255
255 255 255
255 255 255
255 255 255
255 255 255
255 255 255
255 255 255
255 255 255
255 255 255
255 255 255
255 255 255
255 255 255
255 255 255
255 255 255
255 255 255
255 255 255
255 255 255
255 255 255
255 255 255
255 255 255
255 255 255
255 255 255
255 255 255
255 255 255
255 255 255
255 255 255
255 255 255
255 255 255
255 255 255
255 255 255
255 255 255
255 255 255
255 255 255
255 255 255
255 255 255
255 255 255
255 255 255
255 255 255
255 255 255
255 255 255
255 255 255
255 255 255
255 255 255
255 255 255
255 255 255
255 255 255
255 255 255
255 255 255
255 255 255
255 255 255
255 255 255
255 255 255
255 255 255
255 255 255
255 255 255
255 255 255
255 255 255
255 255 255
255 255 255
255 255 255
255 255 255
255 255 255
255 255 255
255 255 255
255 255 255
255 255 255
255 255 255
255 255 255
255 255 255
255 255 255
255 255 255
255 255 255
255 255 255
255 255 255
255 255 255
255 255 255
255 255 255
255 255 255
255 255 255
255 255 255
255 255 255
255 255 255
255 255 255
255 255 255
255 255 255
255 255 255
255 255 255
255 255 255
255 255 255
255 255 255
255 255 255
255 255 255
255 255 255
255 255 255
255 255 255
255 255 255
255 255 255
255 255 255
255 255 255
255 255 255
255 255 255
255 255 255
255 255 255
255 255 255
255 255 255
  0   0   0
  0   0   0
  0   0   0
  0   0   0
255 255 255
255 255 255
255 255 255
255 255 255
255 255 255
255 255 255
255 255 255
255 255 255
255 255 255
255 255 255
255 255 255
255 255 255
255 255 255
255 255 255
255 255 255
255 255 255
255 255 255
255 255 255
255 255 255
255 255 255
255 255 255
255 255 255
255 255 255
255 255 255
255 255 255
255 255 255
255 255 255
255 255 255
255 255 255
255 255 255
255 255 255
255 255 255
255 255 255
255 255 255
255 255 255
255 255 255
255 255 255
255 255 255
255 255 255
255 255 255
255 255 255
255 255 255
255 255 255
255 255 255
255 255 255
255 255 255
255 255 255
255 255 255
255 255 255
255 255 255
255 255 255
255 255 255
255 255 255
255 255 255
255 255 255
255 255 255
255 255 255
255 255 255
255 255 255
255 255 255
255 255 255
255 255 255
255 255 255
255 255 255
255 255 255
255 255 255
255 255 255
255 255 255
255 255 255
255 255 255
255 255 255
255 255 255
255 255 255
255 255 255
255 255 255
255 255 255
255 255 255
255 255 255
255 255 255
255 255 255
255 255 255
255 255 255
255 255 255
255 255 255
255 255 255
255 255 255
255 255 255
255 255 255
255 255 255
255 255 255
255 255 255
255 255 255
255 255 255
255 255 255
255 255 255
255 255 255
255 255 255
255 255 255
255 255 255
255 255 255
255 255 255
255 255 255
255 255 255
255 255 255
255 255 255
255 255 255
255 255 255
255 255 255
255 255 255
255 255 255
255 255 255
255 255 255
255 255 255
255 255 255
255 255 255
255 255 255
255 255 255
255 255 255
255 255 255
255 255 255
255 255 255
255 255 255
255 255 255
255 255 255
255 255 255
255 255 255
255 255 255
255 255 255
255 255 255
255 255 255
255 255 255
255 255 255
255 255 255
255 255 255
255 255 255
255 255 255
255 255 255
255 255 255
255 255 255
255 255 255
255 255 255
255 255 255
255 255 255
255 255 255
255 255 255
255 255 255
255 255 255
255 255 255
255 255 255
255 255 255
255 255 255
255 255 255
255 255 255
255 255 255
255 255 255
255 255 255
255 255 255
255 255 255
255 255 255
255 255 255
255 255 255
255 255 255
255 255 255
255 255 255
255 255 255
255 255 255
255 255 255
255 255 255
255 255 255
255 255 255
255 255 255
255 255 255
255 255 255
255 255 255
255 255 255
255 255 255
255 255 255
255 255 255
255 255 255
255 255 255
255 255 255
255 255 255
255 255 255
255 255 255
255 255 255
255 255 255
255 255 255
255 255 255
255 255 255
255 255 255
255 255 255
255 255 255
255 255 255
255 255 255
255 255 255
255 255 255
255 255 255
  0   0   0
  0   0   0
  0   0   0
  0   0   0
255 255 255
255 255 255
255 255 255
255 255 255
255 255 255
255 255 255
255 255 255
255 255 255
255 255 255
255 255 255
255 255 255
255 255 255
255 255 255
255 255 255
255 255 255
255 255 255
255 255 255
255 255 255
255 255 255
255 255 255
255 255 255
255 255 255
255 255 255
255 255 255
255 255 255
255 255 255
255 255 255
255 255 255
255 255 255
255 255 255
255 255 255
255 255 255
255 255 255
255 255 255
255 255 255
255 255 255
255 255 255
255 255 255
255 255 255
255 255 255
255 255 255
255 255 255
255 255 255
255 255 255
255 255 255
255 255 255
255 255 255
255 255 255
255 255 255
255 255 255
255 255 255
255 255 255
255 255 255
255 255 255
255 255 255
255 255 255
255 255 255
255 255 255
255 255 255
255 255 255
255 255 255
255 255 255
255 255 255
255 255 255
255 255 255
255 255 255
255 255 255
255 255 255
255 255 255
255 255 255
255 255 255
255 255 255
255 255 255
255 255 255
255 255 255
255 255 255
255 255 255
255 255 255
255 255 255
255 255 255
255 255 255
255 255 255
255 255 255
255 255 255
255 255 255
255 255 255
255 255 255
255 255 255
255 255 255
255 255 255
255 255 255
255 255 255
255 255 255
255 255 255
255 255 255
255 255 255
255 255 255
255 255 255
255 255 255
255 255 255
255 255 255
255 255 255
255 255 255
255 255 255
255 255 255
255 255 255
255 255 255
255 255 255
255 255 255
255 255 255
255 255 255
255 255 255
255 255 255
255 255 255
255 255 255
255 255 255
255 255 255
255 255 255
255 255 255
255 255 255
255 255 255
255 255 255
255 255 255
255 255 255
255 255 255
255 255 255
255 255 255
255 255 255
255 255 255
255 255 255
255 255 255
255 255 255
255 255 255
255 255 255
255 255 255
255 255 255
255 255 255
255 255 255
255 255 255
255 255 255
255 255 255
255 255 255
255 255 255
255 255 255
255 255 255
255 255 255
255 255 255
255 255 255
255 255 255
255 255 255
255 255 255
255 255 255
255 255 255
255 255 255
255 255 255
255 255 255
255 255 255
255 255 255
255 255 255
255 255 255
255 255 255
255 255 255
255 255 255
255 255 255
255 255 255
255 255 255
255 255 255
255 255 255
255 255 255
255 255 255
255 255 255
255 255 255
255 255 255
255 255 255
255 255 255
255 255 255
255 255 255
255 255 255
255 255 255
255 255 255
255 255 255
255 255 255
255 255 255
255 255 255
255 255 255
255 255 255
255 255 255
255 255 255
255 255 255
255 255 255
255 255 255
255 255 255
255 255 255
255 255 255
255 255 255
255 255 255
255 255 255
  0   0   0
  0   0   0
  0   0   0
  0   0   0
255 255 255
255 255 255
255 255 255
255 255 255
255 255 255
255 255 255
255 255 255
255 255 255
255 255 255
255 255 255
255 255 255
255 255 255
255 255 255
255 255 255
255 255 255
255 255 255
255 255 255
255 255 255
255 255 255
255 255 255
255 255 255
255 255 255
255 255 255
255 255 255
255 255 255
255 255 255
255 255 255
255 255 255
255 255 255
255 255 255
255 255 255
255 255 255
255 255 255
255 255 255
255 255 255
255 255 255
255 255 255
255 255 255
255 255 255
255 255 255
255 255 255
255 255 255
255 255 255
255 255 255
255 255 255
255 255 255
255 255 255
255 255 255
255 255 255
255 255 255
255 255 255
255 255 255
255 255 255
255 255 255
255 255 255
255 255 255
255 255 255
255 255 255
255 255 255
255 255 255
255 255 255
255 255 255
255 255 255
255 255 255
255 255 255
255 255 255
255 255 255
255 255 255
255 255 255
255 255 255
255 255 255
255 255 255
255 255 255
255 255 255
255 255 255
255 255 255
255 255 255
255 255 255
255 255 255
255 255 255
255 255 255
255 255 255
255 255 255
255 255 255
255 255 255
255 255 255
255 255 255
255 255 255
255 255 255
255 255 255
255 255 255
255 255 255
255 255 255
255 255 255
255 255 255
255 255 255
255 255 255
255 255 255
255 255 255
255 255 255
255 255 255
255 255 255
255 255 255
255 255 255
255 255 255
255 255 255
255 255 255
255 255 255
255 255 255
255 255 255
255 255 255
255 255 255
255 255 255
255 255 255
255 255 255
255 255 255
255 255 255
255 255 255
255 255 255
255 255 255
255 255 255
255 255 255
255 255 255
255 255 255
255 255 255
255 255 255
255 255 255
255 255 255
255 255 255
255 255 255
255 255 255
255 255 255
255 255 255
255 255 255
255 255 255
255 255 255
255 255 255
255 255 255
255 255 255
255 255 255
255 255 255
255 255 255
255 255 255
255 255 255
255 255 255
255 255 255
255 255 255
255 255 255
255 255 255
255 255 255
255 255 255
255 255 255
255 255 255
255 255 255
255 255 255
255 255 255
255 255 255
255 255 255
255 255 255
255 255 255
255 255 255
255 255 255
255 255 255
255 255 255
255 255 255
255 255 255
255 255 255
255 255 255
255 255 255
255 255 255
255 255 255
255 255 255
255 255 255
255 255 255
255 255 255
255 255 255
255 255 255
255 255 255
255 255 255
255 255 255
255 255 255
255 255 255
255 255 255
255 255 255
255 255 255
255 255 255
255 255 255
255 255 255
255 255 255
255 255 255
255 255 255
255 255 255
255 255 255
255 255 255
255 255 255
255 255 255
255 255 255
  0   0   0
  0   0   0
  0   0   0
  0   0   0
255 255 255
255 255 255
255 255 255
255 255 255
255 255 255
255 255 255
255 255 255
255 255 255
255 255 255
255 255 255
255 255 255
255 255 255
255 255 255
255 255 255
255 255 255
255 255 255
255 255 255
255 255 255
255 255 255
255 255 255
255 255 255
255 255 255
255 255 255
255 255 255
255 255 255
255 255 255
255 255 255
255 255 255
255 255 255
255 255 255
255 255 255
255 255 255
255 255 255
255 255 255
255 255 255
255 255 255
255 255 255
255 255 255
255 255 255
255 255 255
255 255 255
255 255 255
255 255 255
255 255 255
255 255 255
255 255 255
255 255 255
255 255 255
255 255 255
255 255 255
255 255 255
255 255 255
255 255 255
255 255 255
255 255 255
255 255 255
255 255 255
255 255 255
255 255 255
255 255 255
255 255 255
255 255 255
255 255 255
255 255 255
255 255 255
255 255 255
255 255 255
255 255 255
255 255 255
255 255 255
255 255 255
255 255 255
255 255 255
255 255 255
255 255 255
255 255 255
255 255 255
255 255 255
255 255 255
255 255 255
255 255 255
255 255 255
255 255 255
255 255 255
255 255 255
255 255 255
255 255 255
255 255 255
255 255 255
255 255 255
255 255 255
255 255 255
255 255 255
255 255 255
255 255 255
255 255 255
255 255 255
255 255 255
255 255 255
255 255 255
255 255 255
255 255 255
255 255 255
255 255 255
255 255 255
255 255 255
255 255 255
255 255 255
255 255 255
255 255 255
255 255 255
255 255 255
255 255 255
255 255 255
255 255 255
255 255 255
255 255 255
255 255 255
255 255 255
255 255 255
255 255 255
255 255 255
255 255 255
255 255 255
255 255 255
255 255 255
255 255 255
255 255 255
255 255 255
255 255 255
255 255 255
255 255 255
255 255 255
255 255 255
255 255 255
255 255 255
255 255 255
255 255 255
255 255 255
255 255 255
255 255 255
255 255 255
255 255 255
255 255 255
255 255 255
255 255 255
255 255 255
255 255 255
255 255 255
255 255 255
255 255 255
255 255 255
255 255 255
255 255 255
255 255 255
255 255 255
255 255 255
255 255 255
255 255 255
255 255 255
255 255 255
255 255 255
255 255 255
255 255 255
255 255 255
255 255 255
255 255 255
255 255 255
255 255 255
255 255 255
255 255 255
255 255 255
255 255 255
255 255 255
255 255 255
255 255 255
255 255 255
255 255 255
255 255 255
255 255 255
255 255 255
255 255 255
255 255 255
255 255 255
255 255 255
255 255 255
255 255 255
255 255 255
255 255 255
255 255 255
255 255 255
255 255 255
255 255 255
255 255 255
255 255 255
255 255 255
255 255 255
  0   0   0
  0   0   0
  0   0   0
  0   0   0
255 255 255
255 255 255
255 255 255
255 255 255
255 255 255
255 255 255
255 255 255
255 255 255
255 255 255
255 255 255
255 255 255
255 255 255
255 255 255
255 255 255
255 255 255
255 255 255
255 255 255
255 255 255
255 255 255
255 255 255
255 255 255
255 255 255
255 255 255
255 255 255
255 255 255
255 255 255
255 255 255
255 255 255
255 255 255
255 255 255
255 255 255
255 255 255
255 255 255
255 255 255
255 255 255
255 255 255
255 255 255
255 255 255
255 255 255
255 255 255
255 255 255
255 255 255
255 255 255
255 255 255
255 255 255
255 255 255
255 255 255
255 255 255
255 255 255
255 255 255
255 255 255
255 255 255
255 255 255
255 255 255
255 255 255
255 255 255
255 255 255
255 255 255
255 255 255
255 255 255
255 255 255
255 255 255
255 255 255
255 255 255
255 255 255
255 255 255
255 255 255
255 255 255
255 255 255
255 255 255
255 255 255
255 255 255
255 255 255
255 255 255
255 255 255
255 255 255
255 255 255
255 255 255
255 255 255
255 255 255
255 255 255
255 255 255
255 255 255
255 255 255
255 255 255
255 255 255
255 255 255
255 255 255
255 255 255
255 255 255
255 255 255
255 255 255
255 255 255
255 255 255
255 255 255
255 255 255
255 255 255
255 255 255
255 255 255
255 255 255
255 255 255
255 255 255
255 255 255
255 255 255
255 255 255
255 255 255
255 255 255
255 255 255
255 255 255
255 255 255
255 255 255
255 255 255
255 255 255
255 255 255
255 255 255
255 255 255
255 255 255
255 255 255
255 255 255
255 255 255
255 255 255
255 255 255
255 255 255
255 255 255
255 255 255
255 255 255
255 255 255
255 255 255
255 255 255
255 255 255
255 255 255
255 255 255
255 255 255
255 255 255
255 255 255
255 255 255
255 255 255
255 255 255
255 255 255
255 255 255
255 255 255
255 255 255
255 255 255
255 255 255
255 255 255
255 255 255
255 255 255
255 255 255
255 255 255
255 255 255
255 255 255
255 255 255
255 255 255
255 255 255
255 255 255
255 255 255
255 255 255
255 255 255
255 255 255
255 255 255
255 255 255
255 255 255
255 255 255
255 255 255
255 255 255
255 255 255
255 255 255
255 255 255
255 255 255
255 255 255
255 255 255
255 255 255
255 255 255
255 255 255
255 255 255
255 255 255
255 255 255
255 255 255
255 255 255
255 255 255
255 255 255
255 255 255
255 255 255
255 255 255
255 255 255
255 255 255
255 255 255
255 255 255
255 255 255
255 255 255
255 255 255
255 255 255
255 255 255
255 255 255
255 255 255
255 255 255
255 255 255
  0   0   0
  0   0   0
  0   0   0
  0   0   0
255 255 255
255 255 255
255 255 255
255 255 255
255 255 255
255 255 255
255 255 255
255 255 255
255 255 255
255 255 255
255 255 255
255 255 255
255 255 255
255 255 255
255 255 255
255 255 255
255 255 255
255 255 255
255 255 255
255 255 255
255 255 255
255 255 255
255 255 255
255 255 255
255 255 255
255 255 255
255 255 255
255 255 255
255 255 255
255 255 255
255 255 255
255 255 255
255 255 255
255 255 255
255 255 255
255 255 255
255 255 255
255 255 255
255 255 255
255 255 255
255 255 255
255 255 255
255 255 255
255 255 255
255 255 255
255 255 255
255 255 255
255 255 255
255 255 255
255 255 255
255 255 255
255 255 255
255 255 255
255 255 255
255 255 255
255 255 255
255 255 255
255 255 255
255 255 255
255 255 255
255 255 255
255 255 255
255 255 255
255 255 255
255 255 255
255 255 255
255 255 255
255 255 255
255 255 255
255 255 255
255 255 255
255 255 255
255 255 255
255 255 255
255 255 255
255 255 255
255 255 255
255 255 255
255 255 255
255 255 255
255 255 255
255 255 255
255 255 255
255 255 255
255 255 255
255 255 255
255 255 255
255 255 255
255 255 255
255 255 255
255 255 255
255 255 255
255 255 255
255 255 255
255 255 255
255 255 255
255 255 255
255 255 255
255 255 255
255 255 255
255 255 255
255 255 255
255 255 255
255 255 255
255 255 255
255 255 255
255 255 255
255 255 255
255 255 255
255 255 255
255 255 255
255 255 255
255 255 255
255 255 255
255 255 255
255 255 255
255 255 255
255 255 255
255 255 255
255 255 255
255 255 255
255 255 255
255 255 255
255 255 255
255 255 255
255 255 255
255 255 255
255 255 255
255 255 255
255 255 255
255 255 255
255 255 255
255 255 255
255 255 255
255 255 255
255 255 255
255 255 255
255 255 255
255 255 255
255 255 255
255 255 255
255 255 255
255 255 255
255 255 255
255 255 255
255 255 255
255 255 255
255 255 255
255 255 255
255 255 255
255 255 255
255 255 255
255 255 255
255 255 255
255 255 255
255 255 255
255 255 255
255 255 255
255 255 255
255 255 255
255 255 255
255 255 255
255 255 255
255 255 255
255 255 255
255 255 255
255 255 255
255 255 255
255 255 255
255 255 255
255 255 255
255 255 255
255 255 255
255 255 255
255 255 255
255 255 255
255 255 255
255 255 255
255 255 255
255 255 255
255 255 255
255 255 255
255 255 255
255 255 255
255 255 255
255 255 255
255 255 255
255 255 255
255 255 255
255 255 255
255 255 255
255 255 255
255 255 255
255 255 255
255 255 255
255 255 255
255 255 255
  0   0   0
  0   0   0
  0   0   0
  0   0   0
255 255 255
255 255 255
255 255 255
255 255 255
255 255 255
255 255 255
255 255 255
255 255 255
255 255 255
255 255 255
255 255 255
255 255 255
255 255 255
255 255 255
255 255 255
255 255 255
255 255 255
255 255 255
255 255 255
255 255 255
255 255 255
255 255 255
255 255 255
255 255 255
255 255 255
255 255 255
255 255 255
255 255 255
255 255 255
255 255 255
255 255 255
255 255 255
255 255 255
255 255 255
255 255 255
255 255 255
255 255 255
255 255 255
255 255 255
255 255 255
255 255 255
255 255 255
255 255 255
255 255 255
255 255 255
255 255 255
255 255 255
255 255 255
255 255 255
255 255 255
255 255 255
255 255 255
255 255 255
255 255 255
255 255 255
255 255 255
255 255 255
255 255 255
255 255 255
255 255 255
255 255 255
255 255 255
255 255 255
255 255 255
255 255 255
255 255 255
255 255 255
255 255 255
255 255 255
255 255 255
255 255 255
255 255 255
255 255 255
255 255 255
255 255 255
255 255 255
255 255 255
255 255 255
255 255 255
255 255 255
255 255 255
255 255 255
255 255 255
255 255 255
255 255 255
255 255 255
255 255 255
255 255 255
255 255 255
255 255 255
255 255 255
255 255 255
255 255 255
255 255 255
255 255 255
255 255 255
255 255 255
255 255 255
255 255 255
255 255 255
255 255 255
255 255 255
255 255 255
255 255 255
255 255 255
255 255 255
255 255 255
255 255 255
255 255 255
255 255 255
255 255 255
255 255 255
255 255 255
255 255 255
255 255 255
255 255 255
255 255 255
255 255 255
255 255 255
255 255 255
255 255 255
255 255 255
255 255 255
255 255 255
255 255 255
255 255 255
255 255 255
255 255 255
255 255 255
255 255 255
255 255 255
255 255 255
255 255 255
255 255 255
255 255 255
255 255 255
255 255 255
255 255 255
255 255 255
255 255 255
255 255 255
255 255 255
255 255 255
255 255 255
255 255 255
255 255 255
255 255 255
255 255 255
255 255 255
255 255 255
255 255 255
255 255 255
255 255 255
255 255 255
255 255 255
255 255 255
255 255 255
255 255 255
255 255 255
255 255 255
255 255 255
255 255 255
255 255 255
255 255 255
255 255 255
255 255 255
255 255 255
255 255 255
255 255 255
255 255 255
255 255 255
255 255 255
255 255 255
255 255 255
255 255 255
255 255 255
255 255 255
255 255 255
255 255 255
255 255 255
255 255 255
255 255 255
255 255 255
255 255 255
255 255 255
255 255 255
255 255 255
255 255 255
255 255 255
255 255 255
255 255 255
255 255 255
255 255 255
255 255 255
255 255 255
255 255 255
255 255 255
  0   0   0
  0   0   0
  0   0   0
  0   0   0
255 255 255
255 255 255
255 255 255
255 255 255
255 255 255
255 255 255
255 255 255
255 255 255
255 255 255
255 255 255
255 255 255
255 255 255
255 255 255
255 255 255
255 255 255
255 255 255
255 255 255
255 255 255
255 255 255
255 255 255
255 255 255
255 255 255
255 255 255
255 255 255
255 255 255
255 255 255
255 255 255
255 255 255
255 255 255
255 255 255
255 255 255
255 255 255
255 255 255
255 255 255
255 255 255
255 255 255
255 255 255
255 255 255
255 255 255
255 255 255
255 255 255
255 255 255
255 255 255
255 255 255
255 255 255
255 255 255
255 255 255
255 255 255
255 255 255
255 255 255
255 255 255
255 255 255
255 255 255
255 255 255
255 255 255
255 255 255
255 255 255
255 255 255
255 255 255
255 255 255
255 255 255
255 255 255
255 255 255
255 255 255
255 255 255
255 255 255
255 255 255
255 255 255
255 255 255
255 255 255
255 255 255
255 255 255
255 255 255
255 255 255
255 255 255
255 255 255
255 255 255
255 255 255
255 255 255
255 255 255
255 255 255
255 255 255
255 255 255
255 255 255
255 255 255
255 255 255
255 255 255
255 255 255
255 255 255
255 255 255
255 255 255
255 255 255
255 255 255
255 255 255
255 255 255
255 255 255
255 255 255
255 255 255
255 255 255
255 255 255
255 255 255
255 255 255
255 255 255
255 255 255
255 255 255
255 255 255
255 255 255
255 255 255
255 255 255
255 255 255
255 255 255
255 255 255
255 255 255
255 255 255
255 255 255
255 255 255
255 255 255
255 255 255
255 255 255
255 255 255
255 255 255
255 255 255
255 255 255
255 255 255
255 255 255
255 255 255
255 255 255
255 255 255
255 255 255
255 255 255
255 255 255
255 255 255
255 255 255
255 255 255
255 255 255
255 255 255
255 255 255
255 255 255
255 255 255
255 255 255
255 255 255
255 255 255
255 255 255
255 255 255
255 255 255
255 255 255
255 255 255
255 255 255
255 255 255
255 255 255
255 255 255
255 255 255
255 255 255
255 255 255
255 255 255
255 255 255
255 255 255
255 255 255
255 255 255
255 255 255
255 255 255
255 255 255
255 255 255
255 255 255
255 255 255
255 255 255
255 255 255
255 255 255
255 255 255
255 255 255
255 255 255
255 255 255
255 255 255
255 255 255
255 255 255
255 255 255
255 255 255
255 255 255
255 255 255
255 255 255
255 255 255
255 255 255
255 255 255
255 255 255
255 255 255
255 255 255
255 255 255
255 255 255
255 255 255
255 255 255
255 255 255
255 255 255
255 255 255
255 255 255
255 255 255
255 255 255
255 255 255
  0   0   0
  0   0   0
  0   0   0
  0   0   0
255 255 255
255 255 255
255 255 255
255 255 255
255 255 255
255 255 255
255 255 255
255 255 255
255 255 255
255 255 255
255 255 255
255 255 255
255 255 255
255 255 255
255 255 255
255 255 255
255 255 255
255 255 255
255 255 255
255 255 255
255 255 255
255 255 255
255 255 255
255 255 255
255 255 255
255 255 255
255 255 255
255 255 255
255 255 255
255 255 255
255 255 255
255 255 255
255 255 255
255 255 255
255 255 255
255 255 255
255 255 255
255 255 255
255 255 255
255 255 255
255 255 255
255 255 255
255 255 255
255 255 255
255 255 255
255 255 255
255 255 255
255 255 255
255 255 255
255 255 255
255 255 255
255 255 255
255 255 255
255 255 255
255 255 255
255 255 255
255 255 255
255 255 255
255 255 255
255 255 255
255 255 255
255 255 255
255 255 255
255 255 255
255 255 255
255 255 255
255 255 255
255 255 255
255 255 255
255 255 255
255 255 255
255 255 255
255 255 255
255 255 255
255 255 255
255 255 255
255 255 255
255 255 255
255 255 255
255 255 255
255 255 255
255 255 255
255 255 255
255 255 255
255 255 255
255 255 255
255 255 255
255 255 255
255 255 255
255 255 255
255 255 255
255 255 255
255 255 255
255 255 255
255 255 255
255 255 255
255 255 255
255 255 255
255 255 255
255 255 255
255 255 255
255 255 255
255 255 255
255 255 255
255 255 255
255 255 255
255 255 255
255 255 255
255 255 255
255 255 255
255 255 255
255 255 255
255 255 255
255 255 255
255 255 255
255 255 255
255 255 255
255 255 255
255 255 255
255 255 255
255 255 255
255 255 255
255 255 255
255 255 255
255 255 255
255 255 255
255 255 255
255 255 255
255 255 255
255 255 255
255 255 255
255 255 255
255 255 255
255 255 255
255 255 255
255 255 255
255 255 255
255 255 255
255 255 255
255 255 255
255 255 255
255 255 255
255 255 255
255 255 255
255 255 255
255 255 255
255 255 255
255 255 255
255 255 255
255 255 255
255 255 255
255 255 255
255 255 255
255 255 255
255 255 255
255 255 255
255 255 255
255 255 255
255 255 255
255 255 255
255 255 255
255 255 255
255 255 255
255 255 255
255 255 255
255 255 255
255 255 255
255 255 255
255 255 255
255 255 255
255 255 255
255 255 255
255 255 255
255 255 255
255 255 255
255 255 255
255 255 255
255 255 255
255 255 255
255 255 255
255 255 255
255 255 255
255 255 255
255 255 255
255 255 255
255 255 255
255 255 255
255 255 255
255 255 255
255 255 255
255 255 255
255 255 255
255 255 255
255 255 255
255 255 255
255 255 255
255 255 255
  0   0   0
  0   0   0
  0   0   0
  0   0   0
255 255 255
255 255 255
255 255 255
255 255 255
255 255 255
255 255 255
255 255 255
255 255 255
255 255 255
255 255 255
255 255 255
255 255 255
255 255 255
255 255 255
255 255 255
255 255 255
255 255 255
255 255 255
255 255 255
255 255 255
255 255 255
255 255 255
255 255 255
255 255 255
255 255 255
255 255 255
255 255 255
255 255 255
255 255 255
255 255 255
255 255 255
255 255 255
255 255 255
255 255 255
255 255 255
255 255 255
255 255 255
255 255 255
255 255 255
255 255 255
255 255 255
255 255 255
255 255 255
255 255 255
255 255 255
255 255 255
255 255 255
255 255 255
255 255 255
255 255 255
255 255 255
255 255 255
255 255 255
255 255 255
255 255 255
255 255 255
255 255 255
255 255 255
255 255 255
255 255 255
255 255 255
255 255 255
255 255 255
255 255 255
255 255 255
255 255 255
255 255 255
255 255 255
255 255 255
255 255 255
255 255 255
255 255 255
255 255 255
255 255 255
255 255 255
255 255 255
255 255 255
255 255 255
255 255 255
255 255 255
255 255 255
255 255 255
255 255 255
255 255 255
255 255 255
255 255 255
255 255 255
255 255 255
255 255 255
255 255 255
255 255 255
255 255 255
255 255 255
255 255 255
255 255 255
255 255 255
255 255 255
255 255 255
255 255 255
255 255 255
255 255 255
255 255 255
255 255 255
255 255 255
255 255 255
255 255 255
255 255 255
255 255 255
255 255 255
255 255 255
255 255 255
255 255 255
255 255 255
255 255 255
255 255 255
255 255 255
255 255 255
255 255 255
255 255 255
255 255 255
255 255 255
255 255 255
255 255 255
255 255 255
255 255 255
255 255 255
255 255 255
255 255 255
255 255 255
255 255 255
255 255 255
255 255 255
255 255 255
255 255 255
255 255 255
255 255 255
255 255 255
255 255 255
255 255 255
255 255 255
255 255 255
255 255 255
255 255 255
255 255 255
255 255 255
255 255 255
255 255 255
255 255 255
255 255 255
255 255 255
255 255 255
255 255 255
255 255 255
255 255 255
255 255 255
255 255 255
255 255 255
255 255 255
255 255 255
255 255 255
255 255 255
255 255 255
255 255 255
255 255 255
255 255 255
255 255 255
255 255 255
255 255 255
255 255 255
255 255 255
255 255 255
255 255 255
255 255 255
255 255 255
255 255 255
255 255 255
255 255 255
255 255 255
255 255 255
255 255 255
255 255 255
255 255 255
255 255 255
255 255 255
255 255 255
255 255 255
255 255 255
255 255 255
255 255 255
255 255 255
255 255 255
255 255 255
255 255 255
255 255 255
255 255 255
255 255 255
255 255 255
  0   0   0
  0   0   0
  0   0   0
  0   0   0
255 255 255
255 255 255
255 255 255
255 255 255
255 255 255
255 255 255
255 255 255
255 255 255
255 255 255
255 255 255
255 255 255
255 255 255
255 255 255
255 255 255
255 255 255
255 255 255
255 255 255
255 255 255
255 255 255
255 255 255
255 255 255
255 255 255
255 255 255
255 255 255
255 255 255
255 255 255
255 255 255
255 255 255
255 255 255
255 255 255
255 255 255
255 255 255
255 255 255
255 255 255
255 255 255
255 255 255
255 255 255
255 255 255
255 255 255
255 255 255
255 255 255
255 255 255
255 255 255
255 255 255
255 255 255
255 255 255
255 255 255
255 255 255
255 255 255
255 255 255
255 255 255
255 255 255
255 255 255
255 255 255
255 255 255
255 255 255
255 255 255
255 255 255
255 255 255
255 255 255
255 255 255
255 255 255
255 255 255
255 255 255
255 255 255
255 255 255
255 255 255
255 255 255
255 255 255
255 255 255
255 255 255
255 255 255
255 255 255
255 255 255
255 255 255
255 255 255
255 255 255
255 255 255
255 255 255
255 255 255
255 255 255
255 255 255
255 255 255
255 255 255
255 255 255
255 255 255
255 255 255
255 255 255
255 255 255
255 255 255
255 255 255
255 255 255
255 255 255
255 255 255
255 255 255
255 255 255
255 255 255
255 255 255
255 255 255
255 255 255
255 255 255
255 255 255
255 255 255
255 255 255
255 255 255
255 255 255
255 255 255
255 255 255
255 255 255
255 255 255
255 255 255
255 255 255
255 255 255
255 255 255
255 255 255
255 255 255
255 255 255
255 255 255
255 255 255
255 255 255
255 255 255
255 255 255
255 255 255
255 255 255
255 255 255
255 255 255
255 255 255
255 255 255
255 255 255
255 255 255
255 255 255
255 255 255
255 255 255
255 255 255
255 255 255
255 255 255
255 255 255
255 255 255
255 255 255
255 255 255
255 255 255
255 255 255
255 255 255
255 255 255
255 255 255
255 255 255
255 255 255
255 255 255
255 255 255
255 255 255
255 255 255
255 255 255
255 255 255
255 255 255
255 255 255
255 255 255
255 255 255
255 255 255
255 255 255
255 255 255
255 255 255
255 255 255
255 255 255
255 255 255
255 255 255
255 255 255
255 255 255
255 255 255
255 255 255
255 255 255
255 255 255
255 255 255
255 255 255
255 255 255
255 255 255
255 255 255
255 255 255
255 255 255
255 255 255
255 255 255
255 255 255
255 255 255
255 255 255
255 255 255
255 255 255
255 255 255
255 255 255
255 255 255
255 255 255
255 255 255
255 255 255
255 255 255
255 255 255
255 255 255
255 255 255
255 255 255
255 255 255
  0   0   0
  0   0   0
  0   0   0
  0   0   0
255 255 255
255 255 255
255 255 255
255 255 255
255 255 255
255 255 255
255 255 255
255 255 255
255 255 255
255 255 255
255 255 255
255 255 255
255 255 255
255 255 255
255 255 255
255 255 255
255 255 255
255 255 255
255 255 255
255 255 255
255 255 255
255 255 255
255 255 255
255 255 255
255 255 255
255 255 255
255 255 255
255 255 255
255 255 255
255 255 255
255 255 255
255 255 255
255 255 255
255 255 255
255 255 255
255 255 255
255 255 255
255 255 255
255 255 255
255 255 255
255 255 255
255 255 255
255 255 255
255 255 255
255 255 255
255 255 255
255 255 255
255 255 255
255 255 255
255 255 255
255 255 255
255 255 255
255 255 255
255 255 255
255 255 255
255 255 255
255 255 255
255 255 255
255 255 255
255 255 255
255 255 255
255 255 255
255 255 255
255 255 255
255 255 255
255 255 255
255 255 255
255 255 255
255 255 255
255 255 255
255 255 255
255 255 255
255 255 255
255 255 255
255 255 255
255 255 255
255 255 255
255 255 255
255 255 255
255 255 255
255 255 255
255 255 255
255 255 255
255 255 255
255 255 255
255 255 255
255 255 255
255 255 255
255 255 255
255 255 255
255 255 255
255 255 255
255 255 255
255 255 255
255 255 255
255 255 255
255 255 255
255 255 255
255 255 255
255 255 255
255 255 255
255 255 255
255 255 255
255 255 255
255 255 255
255 255 255
255 255 255
255 255 255
255 255 255
255 255 255
255 255 255
255 255 255
255 255 255
255 255 255
255 255 255
255 255 255
255 255 255
255 255 255
255 255 255
255 255 255
255 255 255
255 255 255
255 255 255
255 255 255
255 255 255
255 255 255
255 255 255
255 255 255
255 255 255
255 255 255
255 255 255
255 255 255
255 255 255
255 255 255
255 255 255
255 255 255
255 255 255
255 255 255
255 255 255
255 255 255
255 255 255
255 255 255
255 255 255
255 255 255
255 255 255
255 255 255
255 255 255
255 255 255
255 255 255
255 255 255
255 255 255
255 255 255
255 255 255
255 255 255
255 255 255
255 255 255
255 255 255
255 255 255
255 255 255
255 255 255
255 255 255
255 255 255
255 255 255
255 255 255
255 255 255
255 255 255
255 255 255
255 255 255
255 255 255
255 255 255
255 255 255
255 255 255
255 255 255
255 255 255
255 255 255
255 255 255
255 255 255
255 255 255
255 255 255
255 255 255
255 255 255
255 255 255
255 255 255
255 255 255
255 255 255
255 255 255
255 255 255
255 255 255
255 255 255
255 255 255
255 255 255
255 255 255
255 255 255
255 255 255
255 255 255
255 255 255
255 255 255
  0   0   0
  0   0   0
  0   0   0
  0   0   0
255 255 255
255 255 255
255 255 255
255 255 255
255 255 255
255 255 255
255 255 255
255 255 255
255 255 255
255 255 255
255 255 255
255 255 255
255 255 255
255 255 255
255 255 255
255 255 255
255 255 255
255 255 255
255 255 255
255 255 255
255 255 255
255 255 255
255 255 255
255 255 255
255 255 255
255 255 255
255 255 255
255 255 255
255 255 255
255 255 255
255 255 255
255 255 255
255 255 255
255 255 255
255 255 255
255 255 255
255 255 255
255 255 255
255 255 255
255 255 255
255 255 255
255 255 255
255 255 255
255 255 255
255 255 255
255 255 255
255 255 255
255 255 255
255 255 255
255 255 255
255 255 255
255 255 255
255 255 255
255 255 255
255 255 255
255 255 255
255 255 255
255 255 255
255 255 255
255 255 255
255 255 255
255 255 255
255 255 255
255 255 255
255 255 255
255 255 255
255 255 255
255 255 255
255 255 255
255 255 255
255 255 255
255 255 255
255 255 255
255 255 255
255 255 255
255 255 255
255 255 255
255 255 255
255 255 255
255 255 255
255 255 255
255 255 255
255 255 255
255 255 255
255 255 255
255 255 255
255 255 255
255 255 255
255 255 255
255 255 255
255 255 255
255 255 255
255 255 255
255 255 255
255 255 255
255 255 255
255 255 255
255 255 255
255 255 255
255 255 255
255 255 255
255 255 255
255 255 255
255 255 255
255 255 255
255 255 255
255 255 255
255 255 255
255 255 255
255 255 255
255 255 255
255 255 255
255 255 255
255 255 255
255 255 255
255 255 255
255 255 255
255 255 255
255 255 255
255 255 255
255 255 255
255 255 255
255 255 255
255 255 255
255 255 255
255 255 255
255 255 255
255 255 255
255 255 255
255 255 255
255 255 255
255 255 255
255 255 255
255 255 255
255 255 255
255 255 255
255 255 255
255 255 255
255 255 255
255 255 255
255 255 255
255 255 255
255 255 255
255 255 255
255 255 255
255 255 255
255 255 255
255 255 255
255 255 255
255 255 255
255 255 255
255 255 255
255 255 255
255 255 255
255 255 255
255 255 255
255 255 255
255 255 255
255 255 255
255 255 255
255 255 255
255 255 255
255 255 255
255 255 255
255 255 255
255 255 255
255 255 255
255 255 255
255 255 255
255 255 255
255 255 255
255 255 255
255 255 255
255 255 255
255 255 255
255 255 255
255 255 255
255 255 255
255 255 255
255 255 255
255 255 255
255 255 255
255 255 255
255 255 255
255 255 255
255 255 255
255 255 255
255 255 255
255 255 255
255 255 255
255 255 255
255 255 255
255 255 255
255 255 255
255 255 255
255 255 255
255 255 255
  0   0   0
  0   0   0
  0   0   0
  0   0   0
255 255 255
255 255 255
255 255 255
255 255 255
255 255 255
255 255 255
255 255 255
255 255 255
255 255 255
255 255 255
255 255 255
255 255 255
255 255 255
255 255 255
255 255 255
255 255 255
255 255 255
255 255 255
255 255 255
255 255 255
255 255 255
255 255 255
255 255 255
255 255 255
255 255 255
255 255 255
255 255 255
255 255 255
255 255 255
255 255 255
255 255 255
255 255 255
255 255 255
255 255 255
255 255 255
255 255 255
255 255 255
255 255 255
255 255 255
255 255 255
255 255 255
255 255 255
255 255 255
255 255 255
255 255 255
255 255 255
255 255 255
255 255 255
255 255 255
255 255 255
255 255 255
255 255 255
255 255 255
255 255 255
255 255 255
255 255 255
255 255 255
255 255 255
255 255 255
255 255 255
255 255 255
255 255 255
255 255 255
255 255 255
255 255 255
255 255 255
255 255 255
255 255 255
255 255 255
255 255 255
255 255 255
255 255 255
255 255 255
255 255 255
255 255 255
255 255 255
255 255 255
255 255 255
255 255 255
255 255 255
255 255 255
255 255 255
255 255 255
255 255 255
255 255 255
255 255 255
255 255 255
255 255 255
255 255 255
255 255 255
255 255 255
255 255 255
255 255 255
255 255 255
255 255 255
255 255 255
255 255 255
255 255 255
255 255 255
255 255 255
255 255 255
255 255 255
255 255 255
255 255 255
255 255 255
255 255 255
255 255 255
255 255 255
255 255 255
255 255 255
255 255 255
255 255 255
255 255 255
255 255 255
255 255 255
255 255 255
255 255 255
255 255 255
255 255 255
255 255 255
255 255 255
255 255 255
255 255 255
255 255 255
255 255 255
255 255 255
255 255 255
255 255 255
255 255 255
255 255 255
255 255 255
255 255 255
255 255 255
255 255 255
255 255 255
255 255 255
255 255 255
255 255 255
255 255 255
255 255 255
255 255 255
255 255 255
255 255 255
255 255 255
255 255 255
255 255 255
255 255 255
255 255 255
255 255 255
255 255 255
255 255 255
255 255 255
255 255 255
255 255 255
255 255 255
255 255 255
255 255 255
255 255 255
255 255 255
255 255 255
255 255 255
255 255 255
255 255 255
255 255 255
255 255 255
255 255 255
255 255 255
255 255 255
255 255 255
255 255 255
255 255 255
255 255 255
255 255 255
255 255 255
255 255 255
255 255 255
255 255 255
255 255 255
255 255 255
255 255 255
255 255 255
255 255 255
255 255 255
255 255 255
255 255 255
255 255 255
255 255 255
255 255 255
255 255 255
255 255 255
255 255 255
255 255 255
255 255 255
255 255 255
255 255 255
255 255 255
255 255 255
  0   0   0
  0   0   0
  0   0   0
  0   0   0
255 255 255
255 255 255
255 255 255
255 255 255
255 255 255
255 255 255
255 255 255
255 255 255
255 255 255
255 255 255
255 255 255
255 255 255
255 255 255
255 255 255
255 255 255
255 255 255
255 255 255
255 255 255
255 255 255
255 255 255
255 255 255
255 255 255
255 255 255
255 255 255
255 255 255
255 255 255
255 255 255
255 255 255
255 255 255
255 255 255
255 255 255
255 255 255
255 255 255
255 255 255
255 255 255
255 255 255
255 255 255
255 255 255
255 255 255
255 255 255
255 255 255
255 255 255
255 255 255
255 255 255
255 255 255
255 255 255
255 255 255
255 255 255
255 255 255
255 255 255
255 255 255
255 255 255
255 255 255
255 255 255
255 255 255
255 255 255
255 255 255
255 255 255
255 255 255
255 255 255
255 255 255
255 255 255
255 255 255
255 255 255
255 255 255
255 255 255
255 255 255
255 255 255
255 255 255
255 255 255
255 255 255
255 255 255
255 255 255
255 255 255
255 255 255
255 255 255
255 255 255
255 255 255
255 255 255
255 255 255
255 255 255
255 255 255
255 255 255
255 255 255
255 255 255
255 255 255
255 255 255
255 255 255
255 255 255
255 255 255
255 255 255
255 255 255
255 255 255
255 255 255
255 255 255
255 255 255
255 255 255
255 255 255
255 255 255
255 255 255
255 255 255
255 255 255
255 255 255
255 255 255
255 255 255
255 255 255
255 255 255
255 255 255
255 255 255
255 255 255
255 255 255
255 255 255
255 255 255
255 255 255
255 255 255
255 255 255
255 255 255
255 255 255
255 255 255
255 255 255
255 255 255
255 255 255
255 255 255
255 255 255
255 255 255
255 255 255
255 255 255
255 255 255
255 255 255
255 255 255
255 255 255
255 255 255
255 255 255
255 255 255
255 255 255
255 255 255
255 255 255
255 255 255
255 255 255
255 255 255
255 255 255
255 255 255
255 255 255
255 255 255
255 255 255
255 255 255
255 255 255
255 255 255
255 255 255
255 255 255
255 255 255
255 255 255
255 255 255
255 255 255
255 255 255
255 255 255
255 255 255
255 255 255
255 255 255
255 255 255
255 255 255
255 255 255
255 255 255
255 255 255
255 255 255
255 255 255
255 255 255
255 255 255
255 255 255
255 255 255
255 255 255
255 255 255
255 255 255
255 255 255
255 255 255
255 255 255
255 255 255
255 255 255
255 255 255
255 255 255
255 255 255
255 255 255
255 255 255
255 255 255
255 255 255
255 255 255
255 255 255
255 255 255
255 255 255
255 255 255
255 255 255
255 255 255
255 255 255
255 255 255
255 255 255
255 255 255
255 255 255
  0   0   0
  0   0   0
  0   0   0
  0   0   0
255 255 255
255 255 255
255 255 255
255 255 255
255 255 255
255 255 255
255 255 255
255 255 255
255 255 255
255 255 255
255 255 255
255 255 255
255 255 255
255 255 255
255 255 255
255 255 255
255 255 255
255 255 255
255 255 255
255 255 255
255 255 255
255 255 255
255 255 255
255 255 255
255 255 255
255 255 255
255 255 255
255 255 255
255 255 255
255 255 255
255 255 255
255 255 255
255 255 255
255 255 255
255 255 255
255 255 255
255 255 255
255 255 255
255 255 255
255 255 255
255 255 255
255 255 255
255 255 255
255 255 255
255 255 255
255 255 255
255 255 255
255 255 255
255 255 255
255 255 255
255 255 255
255 255 255
255 255 255
255 255 255
255 255 255
255 255 255
255 255 255
255 255 255
255 255 255
255 255 255
255 255 255
255 255 255
255 255 255
255 255 255
255 255 255
255 255 255
255 255 255
255 255 255
255 255 255
255 255 255
255 255 255
255 255 255
255 255 255
255 255 255
255 255 255
255 255 255
255 255 255
255 255 255
255 255 255
255 255 255
255 255 255
255 255 255
255 255 255
255 255 255
255 255 255
255 255 255
255 255 255
255 255 255
255 255 255
255 255 255
255 255 255
255 255 255
255 255 255
255 255 255
255 255 255
255 255 255
255 255 255
255 255 255
255 255 255
255 255 255
255 255 255
255 255 255
255 255 255
255 255 255
255 255 255
255 255 255
255 255 255
255 255 255
255 255 255
255 255 255
255 255 255
255 255 255
255 255 255
255 255 255
255 255 255
255 255 255
255 255 255
255 255 255
255 255 255
255 255 255
255 255 255
255 255 255
255 255 255
255 255 255
255 255 255
255 255 255
255 255 255
255 255 255
255 255 255
255 255 255
255 255 255
255 255 255
255 255 255
255 255 255
255 255 255
255 255 255
255 255 255
255 255 255
255 255 255
255 255 255
255 255 255
255 255 255
255 255 255
255 255 255
255 255 255
255 255 255
255 255 255
255 255 255
255 255 255
255 255 255
255 255 255
255 255 255
255 255 255
255 255 255
255 255 255
255 255 255
255 255 255
255 255 255
255 255 255
255 255 255
255 255 255
255 255 255
255 255 255
255 255 255
255 255 255
255 255 255
255 255 255
255 255 255
255 255 255
255 255 255
255 255 255
255 255 255
255 255 255
255 255 255
255 255 255
255 255 255
255 255 255
255 255 255
255 255 255
255 255 255
255 255 255
255 255 255
255 255 255
255 255 255
255 255 255
255 255 255
255 255 255
255 255 255
255 255 255
255 255 255
255 255 255
255 255 255
255 255 255
255 255 255
255 255 255
255 255 255
255 255 255
  0   0   0
  0   0   0
  0   0   0
  0   0   0
255 255 255
255 255 255
255 255 255
255 255 255
255 255 255
255 255 255
255 255 255
255 255 255
255 255 255
255 255 255
255 255 255
255 255 255
255 255 255
255 255 255
255 255 255
255 255 255
255 255 255
255 255 255
255 255 255
255 255 255
255 255 255
255 255 255
255 255 255
255 255 255
255 255 255
255 255 255
255 255 255
255 255 255
255 255 255
255 255 255
255 255 255
255 255 255
255 255 255
255 255 255
255 255 255
255 255 255
255 255 255
255 255 255
255 255 255
255 255 255
255 255 255
255 255 255
255 255 255
255 255 255
255 255 255
255 255 255
255 255 255
255 255 255
255 255 255
255 255 255
255 255 255
255 255 255
255 255 255
255 255 255
255 255 255
255 255 255
255 255 255
255 255 255
255 255 255
255 255 255
255 255 255
255 255 255
255 255 255
255 255 255
255 255 255
255 255 255
255 255 255
255 255 255
255 255 255
255 255 255
255 255 255
255 255 255
255 255 255
255 255 255
255 255 255
255 255 255
255 255 255
255 255 255
255 255 255
255 255 255
255 255 255
255 255 255
255 255 255
255 255 255
255 255 255
255 255 255
255 255 255
255 255 255
255 255 255
255 255 255
255 255 255
255 255 255
255 255 255
255 255 255
255 255 255
255 255 255
255 255 255
255 255 255
255 255 255
255 255 255
255 255 255
255 255 255
255 255 255
255 255 255
255 255 255
255 255 255
255 255 255
255 255 255
255 255 255
255 255 255
255 255 255
255 255 255
255 255 255
255 255 255
255 255 255
255 255 255
255 255 255
255 255 255
255 255 255
255 255 255
255 255 255
255 255 255
255 255 255
255 255 255
255 255 255
255 255 255
255 255 255
255 255 255
255 255 255
255 255 255
255 255 255
255 255 255
255 255 255
255 255 255
255 255 255
255 255 255
255 255 255
255 255 255
255 255 255
255 255 255
255 255 255
255 255 255
255 255 255
255 255 255
255 255 255
255 255 255
255 255 255
255 255 255
255 255 255
255 255 255
255 255 255
255 255 255
255 255 255
255 255 255
255 255 255
255 255 255
255 255 255
255 255 255
255 255 255
255 255 255
255 255 255
255 255 255
255 255 255
255 255 255
255 255 255
255 255 255
255 255 255
255 255 255
255 255 255
255 255 255
255 255 255
255 255 255
255 255 255
255 255 255
255 255 255
255 255 255
255 255 255
255 255 255
255 255 255
255 255 255
255 255 255
255 255 255
255 255 255
255 255 255
255 255 255
255 255 255
255 255 255
255 255 255
255 255 255
255 255 255
255 255 255
255 255 255
255 255 255
255 255 255
255 255 255
255 255 255
255 255 255
  0   0   0
  0   0   0
  0   0   0
  0   0   0
255 255 255
255 255 255
255 255 255
255 255 255
255 255 255
255 255 255
255 255 255
255 255 255
255 255 255
255 255 255
255 255 255
255 255 255
255 255 255
255 255 255
255 255 255
255 255 255
255 255 255
255 255 255
255 255 255
255 255 255
255 255 255
255 255 255
255 255 255
255 255 255
255 255 255
255 255 255
255 255 255
255 255 255
255 255 255
255 255 255
255 255 255
255 255 255
255 255 255
255 255 255
255 255 255
255 255 255
255 255 255
255 255 255
255 255 255
255 255 255
255 255 255
255 255 255
255 255 255
255 255 255
255 255 255
255 255 255
255 255 255
255 255 255
255 255 255
255 255 255
255 255 255
255 255 255
255 255 255
255 255 255
255 255 255
255 255 255
255 255 255
255 255 255
255 255 255
255 255 255
255 255 255
255 255 255
255 255 255
255 255 255
255 255 255
255 255 255
255 255 255
255 255 255
255 255 255
255 255 255
255 255 255
255 255 255
255 255 255
255 255 255
255 255 255
255 255 255
255 255 255
255 255 255
255 255 255
255 255 255
255 255 255
255 255 255
255 255 255
255 255 255
255 255 255
255 255 255
255 255 255
255 255 255
255 255 255
255 255 255
255 255 255
255 255 255
255 255 255
255 255 255
255 255 255
255 255 255
255 255 255
255 255 255
255 255 255
255 255 255
255 255 255
255 255 255
255 255 255
255 255 255
255 255 255
255 255 255
255 255 255
255 255 255
255 255 255
255 255 255
255 255 255
255 255 255
255 255 255
255 255 255
255 255 255
255 255 255
255 255 255
255 255 255
255 255 255
255 255 255
255 255 255
255 255 255
255 255 255
255 255 255
255 255 255
255 255 255
255 255 255
255 255 255
255 255 255
255 255 255
255 255 255
255 255 255
255 255 255
255 255 255
255 255 255
255 255 255
255 255 255
255 255 255
255 255 255
255 255 255
255 255 255
255 255 255
255 255 255
255 255 255
255 255 255
255 255 255
255 255 255
255 255 255
255 255 255
255 255 255
255 255 255
255 255 255
255 255 255
255 255 255
255 255 255
255 255 255
255 255 255
255 255 255
255 255 255
255 255 255
255 255 255
255 255 255
255 255 255
255 255 255
255 255 255
255 255 255
255 255 255
255 255 255
255 255 255
255 255 255
255 255 255
255 255 255
255 255 255
255 255 255
255 255 255
255 255 255
255 255 255
255 255 255
255 255 255
255 255 255
255 255 255
255 255 255
255 255 255
255 255 255
255 255 255
255 255 255
255 255 255
255 255 255
255 255 255
255 255 255
255 255 255
255 255 255
255 255 255
255 255 255
255 255 255
255 255 255
255 255 255
  0   0   0
  0   0   0
  0   0   0
  0   0   0
255 255 255
255 255 255
255 255 255
255 255 255
255 255 255
255 255 255
255 255 255
255 255 255
255 255 255
255 255 255
255 255 255
255 255 255
255 255 255
255 255 255
255 255 255
255 255 255
255 255 255
255 255 255
255 255 255
255 255 255
255 255 255
255 255 255
255 255 255
255 255 255
255 255 255
255 255 255
255 255 255
255 255 255
255 255 255
255 255 255
255 255 255
255 255 255
255 255 255
255 255 255
255 255 255
255 255 255
255 255 255
255 255 255
255 255 255
255 255 255
255 255 255
255 255 255
255 255 255
255 255 255
255 255 255
255 255 255
255 255 255
255 255 255
255 255 255
255 255 255
255 255 255
255 255 255
255 255 255
255 255 255
255 255 255
255 255 255
255 255 255
255 255 255
255 255 255
255 255 255
255 255 255
255 255 255
255 255 255
255 255 255
255 255 255
255 255 255
255 255 255
255 255 255
255 255 255
255 255 255
255 255 255
255 255 255
255 255 255
255 255 255
255 255 255
255 255 255
255 255 255
255 255 255
255 255 255
255 255 255
255 255 255
255 255 255
255 255 255
255 255 255
255 255 255
255 255 255
255 255 255
255 255 255
255 255 255
255 255 255
255 255 255
255 255 255
255 255 255
255 255 255
255 255 255
255 255 255
255 255 255
255 255 255
255 255 255
255 255 255
255 255 255
255 255 255
255 255 255
255 255 255
255 255 255
255 255 255
255 255 255
255 255 255
255 255 255
255 255 255
255 255 255
255 255 255
255 255 255
255 255 255
255 255 255
255 255 255
255 255 255
255 255 255
255 255 255
255 255 255
255 255 255
255 255 255
255 255 255
255 255 255
255 255 255
255 255 255
255 255 255
255 255 255
255 255 255
255 255 255
255 255 255
255 255 255
255 255 255
255 255 255
255 255 255
255 255 255
255 255 255
255 255 255
255 255 255
255 255 255
255 255 255
255 255 255
255 255 255
255 255 255
255 255 255
255 255 255
255 255 255
255 255 255
255 255 255
255 255 255
255 255 255
255 255 255
255 255 255
255 255 255
255 255 255
255 255 255
255 255 255
255 255 255
255 255 255
255 255 255
255 255 255
255 255 255
255 255 255
255 255 255
255 255 255
255 255 255
255 255 255
255 255 255
255 255 255
255 255 255
255 255 255
255 255 255
255 255 255
255 255 255
255 255 255
255 255 255
255 255 255
255 255 255
255 255 255
255 255 255
255 255 255
255 255 255
255 255 255
255 255 255
255 255 255
255 255 255
255 255 255
255 255 255
255 255 255
255 255 255
255 255 255
255 255 255
255 255 255
255 255 255
255 255 255
255 255 255
255 255 255
  0   0   0
  0   0   0
  0   0   0
  0   0   0
255 255 255
255 255 255
255 255 255
255 255 255
255 255 255
255 255 255
255 255 255
255 255 255
255 255 255
255 255 255
255 255 255
255 255 255
255 255 255
255 255 255
255 255 255
255 255 255
255 255 255
255 255 255
255 255 255
255 255 255
255 255 255
255 255 255
255 255 255
255 255 255
255 255 255
255 255 255
255 255 255
255 255 255
255 255 255
255 255 255
255 255 255
255 255 255
255 255 255
255 255 255
255 255 255
255 255 255
255 255 255
255 255 255
255 255 255
255 255 255
255 255 255
255 255 255
255 255 255
255 255 255
255 255 255
255 255 255
255 255 255
255 255 255
255 255 255
255 255 255
255 255 255
255 255 255
255 255 255
255 255 255
255 255 255
255 255 255
255 255 255
255 255 255
255 255 255
255 255 255
255 255 255
255 255 255
255 255 255
255 255 255
255 255 255
255 255 255
255 255 255
255 255 255
255 255 255
255 255 255
255 255 255
255 255 255
255 255 255
255 255 255
255 255 255
255 255 255
255 255 255
255 255 255
255 255 255
255 255 255
255 255 255
255 255 255
255 255 255
255 255 255
255 255 255
255 255 255
255 255 255
255 255 255
255 255 255
255 255 255
255 255 255
255 255 255
255 255 255
255 255 255
255 255 255
255 255 255
255 255 255
255 255 255
255 255 255
255 255 255
255 255 255
255 255 255
255 255 255
255 255 255
255 255 255
255 255 255
255 255 255
255 255 255
255 255 255
255 255 255
255 255 255
255 255 255
255 255 255
255 255 255
255 255 255
255 255 255
255 255 255
255 255 255
255 255 255
255 255 255
255 255 255
255 255 255
255 255 255
255 255 255
255 255 255
255 255 255
255 255 255
255 255 255
255 255 255
255 255 255
255 255 255
255 255 255
255 255 255
255 255 255
255 255 255
255 255 255
255 255 255
255 255 255
255 255 255
255 255 255
255 255 255
255 255 255
255 255 255
255 255 255
255 255 255
255 255 255
255 255 255
255 255 255
255 255 255
255 255 255
255 255 255
255 255 255
255 255 255
255 255 255
255 255 255
255 255 255
255 255 255
255 255 255
255 255 255
255 255 255
255 255 255
255 255 255
255 255 255
255 255 255
255 255 255
255 255 255
255 255 255
255 255 255
255 255 255
255 255 255
255 255 255
255 255 255
255 255 255
255 255 255
255 255 255
255 255 255
255 255 255
255 255 255
255 255 255
255 255 255
255 255 255
255 255 255
255 255 255
255 255 255
255 255 255
255 255 255
255 255 255
255 255 255
255 255 255
255 255 255
255 255 255
255 255 255
255 255 255
255 255 255
255 255 255
255 255 255
255 255 255
  0   0   0
  0   0   0
  0   0   0
  0   0   0
255 255 255
255 255 255
255 255 255
255 255 255
255 255 255
255 255 255
255 255 255
255 255 255
255 255 255
255 255 255
255 255 255
255 255 255
255 255 255
255 255 255
255 255 255
255 255 255
255 255 255
255 255 255
255 255 255
255 255 255
255 255 255
255 255 255
255 255 255
255 255 255
255 255 255
255 255 255
255 255 255
255 255 255
255 255 255
255 255 255
255 255 255
255 255 255
255 255 255
255 255 255
255 255 255
255 255 255
255 255 255
255 255 255
255 255 255
255 255 255
255 255 255
255 255 255
255 255 255
255 255 255
255 255 255
255 255 255
255 255 255
255 255 255
255 255 255
255 255 255
255 255 255
255 255 255
255 255 255
255 255 255
255 255 255
255 255 255
255 255 255
255 255 255
255 255 255
255 255 255
255 255 255
255 255 255
255 255 255
255 255 255
255 255 255
255 255 255
255 255 255
255 255 255
255 255 255
255 255 255
255 255 255
255 255 255
255 255 255
255 255 255
255 255 255
255 255 255
255 255 255
255 255 255
255 255 255
255 255 255
255 255 255
255 255 255
255 255 255
255 255 255
255 255 255
255 255 255
255 255 255
255 255 255
255 255 255
255 255 255
255 255 255
255 255 255
255 255 255
255 255 255
255 255 255
255 255 255
255 255 255
255 255 255
255 255 255
255 255 255
255 255 255
255 255 255
255 255 255
255 255 255
255 255 255
255 255 255
255 255 255
255 255 255
255 255 255
255 255 255
255 255 255
255 255 255
255 255 255
255 255 255
255 255 255
255 255 255
255 255 255
255 255 255
255 255 255
255 255 255
255 255 255
255 255 255
255 255 255
255 255 255
255 255 255
255 255 255
255 255 255
255 255 255
255 255 255
255 255 255
255 255 255
255 255 255
255 255 255
255 255 255
255 255 255
255 255 255
255 255 255
255 255 255
255 255 255
255 255 255
255 255 255
255 255 255
255 255 255
255 255 255
255 255 255
255 255 255
255 255 255
255 255 255
255 255 255
255 255 255
255 255 255
255 255 255
255 255 255
255 255 255
255 255 255
255 255 255
255 255 255
255 255 255
255 255 255
255 255 255
255 255 255
255 255 255
255 255 255
255 255 255
255 255 255
255 255 255
255 255 255
255 255 255
255 255 255
255 255 255
255 255 255
255 255 255
255 255 255
255 255 255
255 255 255
255 255 255
255 255 255
255 255 255
255 255 255
255 255 255
255 255 255
255 255 255
255 255 255
255 255 255
255 255 255
255 255 255
255 255 255
255 255 255
255 255 255
255 255 255
255 255 255
255 255 255
255 255 255
255 255 255
255 255 255
255 255 255
255 255 255
  0   0   0
  0   0   0
  0   0   0
  0   0   0
255 255 255
255 255 255
255 255 255
255 255 255
255 255 255
255 255 255
255 255 255
255 255 255
255 255 255
255 255 255
255 255 255
255 255 255
255 255 255
255 255 255
255 255 255
255 255 255
255 255 255
255 255 255
255 255 255
255 255 255
255 255 255
255 255 255
255 255 255
255 255 255
255 255 255
255 255 255
255 255 255
255 255 255
255 255 255
255 255 255
255 255 255
255 255 255
255 255 255
255 255 255
255 255 255
255 255 255
255 255 255
255 255 255
255 255 255
255 255 255
255 255 255
255 255 255
255 255 255
255 255 255
255 255 255
255 255 255
255 255 255
255 255 255
255 255 255
255 255 255
255 255 255
255 255 255
255 255 255
255 255 255
255 255 255
255 255 255
255 255 255
255 255 255
255 255 255
255 255 255
255 255 255
255 255 255
255 255 255
255 255 255
255 255 255
255 255 255
255 255 255
255 255 255
255 255 255
255 255 255
255 255 255
255 255 255
255 255 255
255 255 255
255 255 255
255 255 255
255 255 255
255 255 255
255 255 255
255 255 255
255 255 255
255 255 255
255 255 255
255 255 255
255 255 255
255 255 255
255 255 255
255 255 255
255 255 255
255 255 255
255 255 255
255 255 255
255 255 255
255 255 255
255 255 255
255 255 255
255 255 255
255 255 255
255 255 255
255 255 255
255 255 255
255 255 255
255 255 255
255 255 255
255 255 255
255 255 255
255 255 255
255 255 255
255 255 255
255 255 255
255 255 255
255 255 255
255 255 255
255 255 255
255 255 255
255 255 255
255 255 255
255 255 255
255 255 255
255 255 255
255 255 255
255 255 255
255 255 255
255 255 255
255 255 255
255 255 255
255 255 255
255 255 255
255 255 255
255 255 255
255 255 255
255 255 255
255 255 255
255 255 255
255 255 255
255 255 255
255 255 255
255 255 255
255 255 255
255 255 255
255 255 255
255 255 255
255 255 255
255 255 255
255 255 255
255 255 255
255 255 255
255 255 255
255 255 255
255 255 255
255 255 255
255 255 255
255 255 255
255 255 255
255 255 255
255 255 255
255 255 255
255 255 255
255 255 255
255 255 255
255 255 255
255 255 255
255 255 255
255 255 255
255 255 255
255 255 255
255 255 255
255 255 255
255 255 255
255 255 255
255 255 255
255 255 255
255 255 255
255 255 255
255 255 255
255 255 255
255 255 255
255 255 255
255 255 255
255 255 255
255 255 255
255 255 255
255 255 255
255 255 255
255 255 255
255 255 255
255 255 255
255 255 255
255 255 255
255 255 255
255 255 255
255 255 255
255 255 255
255 255 255
255 255 255
255 255 255
255 255 255
  0   0   0
  0   0   0
  0   0   0
  0   0   0
255 255 255
255 255 255
255 255 255
255 255 255
255 255 255
255 255 255
255 255 255
255 255 255
255 255 255
255 255 255
255 255 255
255 255 255
255 255 255
255 255 255
255 255 255
255 255 255
255 255 255
255 255 255
255 255 255
255 255 255
255 255 255
255 255 255
255 255 255
255 255 255
255 255 255
255 255 255
255 255 255
255 255 255
255 255 255
255 255 255
255 255 255
255 255 255
255 255 255
255 255 255
255 255 255
255 255 255
255 255 255
255 255 255
255 255 255
255 255 255
255 255 255
255 255 255
255 255 255
255 255 255
255 255 255
255 255 255
255 255 255
255 255 255
255 255 255
255 255 255
255 255 255
255 255 255
255 255 255
255 255 255
255 255 255
255 255 255
255 255 255
255 255 255
255 255 255
255 255 255
255 255 255
255 255 255
255 255 255
255 255 255
255 255 255
255 255 255
255 255 255
255 255 255
255 255 255
255 255 255
255 255 255
255 255 255
255 255 255
  0   0  66
  0   0  68
  0   0  69
  0   0  70
  0   0  71
  0   0  72
  0   0  72
  0   0  72
  0   0  72
  0   0  72
  0   0  71
  0   0  71
  0   0  70
  0   0  69
  0   0  67
  0   0  65
255 255 255
255 255 255
255 255 255
255 255 255
255 255 255
255 255 255
255 255 255
255 255 255
255 255 255
255 255 255
255 255 255
255 255 255
255 255 255
255 255 255
255 255 255
255 255 255
255 255 255
255 255 255
255 255 255
255 255 255
255 255 255
255 255 255
255 255 255
255 255 255
255 255 255
255 255 255
255 255 255
255 255 255
255 255 255
255 255 255
255 255 255
255 255 255
255 255 255
255 255 255
255 255 255
255 255 255
255 255 255
255 255 255
255 255 255
255 255 255
255 255 255
255 255 255
255 255 255
255 255 255
255 255 255
255 255 255
255 255 255
255 255 255
255 255 255
255 255 255
255 255 255
255 255 255
255 255 255
255 255 255
255 255 255
255 255 255
255 255 255
255 255 255
255 255 255
255 255 255
255 255 255
255 255 255
255 255 255
255 255 255
255 255 255
255 255 255
255 255 255
255 255 255
255 255 255
255 255 255
255 255 255
255 255 255
255 255 255
255 255 255
255 255 255
255 255 255
255 255 255
255 255 255
255 255 255
255 255 255
255 255 255
255 255 255
255 255 255
255 255 255
255 255 255
255 255 255
255 255 255
255 255 255
255 255 255
255 255 255
255 255 255
255 255 255
255 255 255
255 255 255
255 255 255
255 255 255
255 255 255
255 255 255
255 255 255
255 255 255
255 255 255
255 255 255
255 255 255
255 255 255
255 255 255
255 255 255
255 255 255
255 255 255
  0   0   0
  0   0   0
  0   0   0
  0   0   0
255 255 255
255 255 255
255 255 255
255 255 255
255 255 255
255 255 255
255 255 255
255 255 255
255 255 255
255 255 255
255 255 255
255 255 255
255 255 255
255 255 255
255 255 255
255 255 255
255 255 255
255 255 255
255 255 255
255 255 255
255 255 255
255 255 255
255 255 255
255 255 255
255 255 255
255 255 255
255 255 255
255 255 255
255 255 255
255 255 255
255 255 255
255 255 255
255 255 255
255 255 255
255 255 255
255 255 255
255 255 255
255 255 255
255 255 255
255 255 255
255 255 255
255 255 255
255 255 255
255 255 255
255 255 255
255 255 255
255 255 255
255 255 255
255 255 255
255 255 255
255 255 255
255 255 255
255 255 255
255 255 255
255 255 255
255 255 255
255 255 255
255 255 255
255 255 255
255 255 255
255 255 255
255 255 255
255 255 255
255 255 255
255 255 255
255 255 255
  0   0  67
  0   0  70
  0   0  73
  0   0  75
  0   0  77
  0   0  79
  0   0  80
  0   0  81
  0   0  82
  0   0  83
  0   0  84
  0   0  84
  0   0  85
  0   0  85
  0   0  85
  0   0  85
  0   0  85
  0   0  84
  0   0  84
  0   0  84
  0   0  83
  0   0  82
  0   0  81
  0   0  80
  0   0  78
  0   0  76
  0   0  74
  0   0  72
  0   0  69
  0   0  65
255 255 255
255 255 255
255 255 255
255 255 255
255 255 255
255 255 255
255 255 255
255 255 255
255 255 255
255 255 255
255 255 255
255 255 255
255 255 255
255 255 255
255 255 255
255 255 255
255 255 255
255 255 255
255 255 255
255 255 255
255 255 255
255 255 255
255 255 255
255 255 255
255 255 255
255 255 255
255 255 255
255 255 255
255 255 255
255 255 255
255 255 255
255 255 255
255 255 255
255 255 255
255 255 255
255 255 255
255 255 255
255 255 255
255 255 255
255 255 255
255 255 255
255 255 255
255 255 255
255 255 255
255 255 255
255 255 255
255 255 255
255 255 255
255 255 255
255 255 255
255 255 255
255 255 255
255 255 255
255 255 255
255 255 255
255 255 255
255 255 255
255 255 255
255 255 255
255 255 255
255 255 255
255 255 255
255 255 255
255 255 255
255 255 255
255 255 255
255 255 255
255 255 255
255 255 255
255 255 255
255 255 255
255 255 255
255 255 255
255 255 255
255 255 255
255 255 255
255 255 255
255 255 255
255 255 255
255 255 255
255 255 255
255 255 255
255 255 255
255 255 255
255 255 255
255 255 255
255 255 255
255 255 255
255 255 255
255 255 255
255 255 255
255 255 255
255 255 255
255 255 255
255 255 255
255 255 255
255 255 255
255 255 255
255 255 255
255 255 255
255 255 255
  0   0   0
  0   0   0
  0   0   0
  0   0   0
255 255 255
255 255 255
255 255 255
255 255 255
255 255 255
255 255 255
255 255 255
255 255 255
255 255 255
255 255 255
255 255 255
255 255 255
255 255 255
255 255 255
255 255 255
255 255 255
255 255 255
255 255 255
255 255 255
255 255 255
255 255 255
255 255 255
255 255 255
255 255 255
255 255 255
255 255 255
255 255 255
255 255 255
255 255 255
255 255 255
255 255 255
255 255 255
255 255 255
255 255 255
255 255 255
255 255 255
255 255 255
255 255 255
255 255 255
255 255 255
255 255 255
255 255 255
255 255 255
255 255 255
255 255 255
255 255 255
255 255 255
255 255 255
255 255 255
255 255 255
255 255 255
255 255 255
255 255 255
255 255 255
255 255 255
255 255 255
255 255 255
255 255 255
255 255 255
255 255 255
255 255 255
  0   0  65
  0   0  70
  0   0  73
  0   0  77
  0   0  79
  0   0  81
  0   0  83
  0   0  85
  0   0  86
  0   0  87
  0   0  87
  0   0  88
  0   0  88
  0   0  88
  0   0  89
  0   0  89
  0   0  89
  0   0  89
  0   0  89
  0   0  89
  0   0  89
  0   0  89
  0   0  89
  0   0  89
  0   0  89
  0   0  89
  0   0  88
  0   0  88
  0   0  88
  0   0  87
  0   0  86
  0   0  85
  0   0  84
  0   0  82
  0   0  80
  0   0  78
  0   0  75
  0   0  71
  0   0  67
255 255 255
255 255 255
255 255 255
255 255 255
255 255 255
255 255 255
255 255 255
255 255 255
255 255 255
255 255 255
255 255 255
255 255 255
255 255 255
255 255 255
255 255 255
255 255 255
255 255 255
255 255 255
255 255 255
255 255 255
255 255 255
255 255 255
255 255 255
255 255 255
255 255 255
255 255 255
255 255 255
255 255 255
255 255 255
255 255 255
255 255 255
255 255 255
255 255 255
255 255 255
255 255 255
255 255 255
255 255 255
255 255 255
255 255 255
255 255 255
255 255 255
255 255 255
255 255 255
255 255 255
255 255 255
255 255 255
255 255 255
255 255 255
255 255 255
255 255 255
255 255 255
255 255 255
255 255 255
255 255 255
255 255 255
255 255 255
255 255 255
255 255 255
255 255 255
255 255 255
255 255 255
255 255 255
255 255 255
255 255 255
255 255 255
255 255 255
255 255 255
255 255 255
255 255 255
255 255 255
255 255 255
255 255 255
255 255 255
255 255 255
255 255 255
255 255 255
255 255 255
255 255 255
255 255 255
255 255 255
255 255 255
255 255 255
255 255 255
255 255 255
255 255 255
255 255 255
255 255 255
255 255 255
255 255 255
255 255 255
255 255 255
255 255 255
255 255 255
255 255 255
255 255 255
255 255 255
255 255 255
  0   0   0
  0   0   0
  0   0   0
  0   0   0
255 255 255
255 255 255
255 255 255
255 255 255
255 255 255
255 255 255
255 255 255
255 255 255
255 255 255
255 255 255
255 255 255
255 255 255
255 255 255
255 255 255
255 255 255
255 255 255
255 255 255
255 255 255
255 255 255
255 255 255
255 255 255
255 255 255
255 255 255
255 255 255
255 255 255
255 255 255
255 255 255
255 255 255
255 255 255
255 255 255
255 255 255
255 255 255
255 255 255
255 255 255
255 255 255
255 255 255
255 255 255
255 255 255
255 255 255
255 255 255
255 255 255
255 255 255
255 255 255
255 255 255
255 255 255
255 255 255
255 255 255
255 255 255
255 255 255
255 255 255
255 255 255
255 255 255
255 255 255
255 255 255
255 255 255
255 255 255
255 255 255
255 255 255
  0   0  69
  0   0  73
  0   0  77
  0   0  80
  0   0  82
  0   0  84
  0   0  86
  0   0  87
  0   0  87
  0   0  88
  0   0  87
  0   0  87
  0   0  87
  0   0  86
  0   0  85
  0   0  84
  0   0  83
  0   0  83
  0   0  82
  0   0  81
  0   0  81
  0   0  80
  0   0  80
  0   0  80
  0   0  80
  0   0  81
  0   0  81
  0   0  82
  0   0  83
  0   0  84
  0   0  85
  0   0  85
  0   0  86
  0   0  87
  0   0  87
  0   0  87
  0   0  87
  0   0  87
  0   0  86
  0   0  85
  0   0  83
  0   0  80
  0   0  77
  0   0  74
  0   0  69
  0   0  64
255 255 255
255 255 255
255 255 255
255 255 255
255 255 255
255 255 255
255 255 255
255 255 255
255 255 255
255 255 255
255 255 255
255 255 255
255 255 255
255 255 255
255 255 255
255 255 255
255 255 255
255 255 255
255 255 255
255 255 255
255 255 255
255 255 255
255 255 255
255 255 255
255 255 255
255 255 255
255 255 255
255 255 255
255 255 255
255 255 255
255 255 255
255 255 255
255 255 255
255 255 255
255 255 255
255 255 255
255 255 255
255 255 255
255 255 255
255 255 255
255 255 255
255 255 255
255 255 255
255 255 255
255 255 255
255 255 255
255 255 255
255 255 255
255 255 255
255 255 255
255 255 255
255 255 255
255 255 255
255 255 255
255 255 255
255 255 255
255 255 255
255 255 255
255 255 255
255 255 255
255 255 255
255 255 255
255 255 255
255 255 255
255 255 255
255 255 255
255 255 255
255 255 255
255 255 255
255 255 255
255 255 255
255 255 255
255 255 255
255 255 255
255 255 255
255 255 255
255 255 255
255 255 255
255 255 255
255 255 255
255 255 255
255 255 255
255 255 255
255 255 255
255 255 255
255 255 255
255 255 255
255 255 255
255 255 255
255 255 255
255 255 255
255 255 255
255 255 255
  0   0   0
  0   0   0
  0   0   0
  0   0   0
255 255 255
255 255 255
255 255 255
255 255 255
255 255 255
255 255 255
255 255 255
255 255 255
255 255 255
255 255 255
255 255 255
255 255 255
255 255 255
255 255 255
255 255 255
255 255 255
255 255 255
255 255 255
255 255 255
255 255 255
255 255 255
255 255 255
255 255 255
255 255 255
255 255 255
255 255 255
255 255 255
255 255 255
255 255 255
255 255 255
255 255 255
255 255 255
255 255 255
255 255 255
255 255 255
255 255 255
255 255 255
255 255 255
255 255 255
255 255 255
255 255 255
255 255 255
255 255 255
255 255 255
255 255 255
255 255 255
255 255 255
255 255 255
255 255 255
255 255 255
255 255 255
255 255 255
255 255 255
255 255 255
255 255 255
  0   0  69
  0   0  74
  0   0  78
  0   0  81
  0   0  84
  0   0  85
  0   0  86
  0   0  87
  0   0  86
  0   0  86
  0   0  84
  0   0  83
  0   0  80
  0   0  78
  0   0  75
  0   0  71
  0   0  68
255 255 255
255 255 255
255 255 255
255 255 255
255 255 255
255 255 255
255 255 255
255 255 255
255 255 255
255 255 255
255 255 255
255 255 255
255 255 255
255 255 255
255 255 255
255 255 255
255 255 255
255 255 255
  0   0  68
  0   0  72
  0   0  75
  0   0  78
  0   0  81
  0   0  83
  0   0  84
  0   0  85
  0   0  86
  0   0  85
  0   0  85
  0   0  83
  0   0  81
  0   0  78
  0   0  74
  0   0  69
255 255 255
255 255 255
255 255 255
255 255 255
255 255 255
255 255 255
255 255 255
255 255 255
255 255 255
255 255 255
255 255 255
255 255 255
255 255 255
255 255 255
255 255 255
255 255 255
255 255 255
255 255 255
255 255 255
255 255 255
255 255 255
255 255 255
255 255 255
255 255 255
255 255 255
255 255 255
255 255 255
255 255 255
255 255 255
255 255 255
255 255 255
255 255 255
255 255 255
255 255 255
255 255 255
255 255 255
255 255 255
255 255 255
255 255 255
255 255 255
255 255 255
255 255 255
255 255 255
255 255 255
255 255 255
255 255 255
255 255 255
255 255 255
255 255 255
255 255 255
255 255 255
255 255 255
255 255 255
255 255 255
255 255 255
255 255 255
255 255 255
255 255 255
255 255 255
255 255 255
255 255 255
255 255 255
255 255 255
255 255 255
255 255 255
255 255 255
255 255 255
255 255 255
255 255 255
255 255 255
255 255 255
255 255 255
255 255 255
255 255 255
255 255 255
255 255 255
255 255 255
255 255 255
255 255 255
255 255 255
255 255 255
255 255 255
255 255 255
255 255 255
255 255 255
255 255 255
255 255 255
255 255 255
255 255 255
255 255 255
255 255 255
  0   0   0
  0   0   0
  0   0   0
  0   0   0
255 255 255
255 255 255
255 255 255
255 255 255
255 255 255
255 255 255
255 255 255
255 255 255
255 255 255
255 255 255
255 255 255
255 255 255
255 255 255
255 255 255
255 255 255
255 255 255
255 255 255
255 255 255
255 255 255
255 255 255
255 255 255
255 255 255
255 255 255
255 255 255
255 255 255
255 255 255
255 255 255
255 255 255
255 255 255
255 255 255
255 255 255
255 255 255
255 255 255
255 255 255
255 255 255
255 255 255
255 255 255
255 255 255
255 255 255
255 255 255
255 255 255
255 255 255
255 255 255
255 255 255
255 255 255
255 255 255
255 255 255
255 255 255
255 255 255
255 255 255
255 255 255
255 255 255
  0   0  68
  0   0  73
  0   0  78
  0   0  81
  0   0  84
  0   0  85
  0   0  86
  0   0  85
  0   0  84
  0   0  82
  0   0  79
  0   0  75
  0   0  70
255 255 255
255 255 255
255 255 255
255 255 255
255 255 255
 64   0   0
 70   0   0
 75   0   0
 78   0   0
 81   0   0
 83   0   0
 85   0   0
 87   0   0
 88   0   0
 88   0   0
 89   0   0
 89   0   0
 89   0   0
 88   0   0
 87   0   0
 86   0   0
 84   0   0
 82   0   0
 79   0   0
 75   0   0
 71   0   0
 65   0   0
255 255 255
255 255 255
255 255 255
255 255 255
255 255 255
  0   0  71
  0   0  75
  0   0  79
  0   0  82
  0   0  83
  0   0  84
  0   0  83
  0   0  82
  0   0  79
  0   0  76
  0   0  71
  0   0  65
255 255 255
255 255 255
255 255 255
255 255 255
255 255 255
255 255 255
255 255 255
255 255 255
255 255 255
255 255 255
255 255 255
255 255 255
255 255 255
255 255 255
255 255 255
255 255 255
255 255 255
255 255 255
255 255 255
255 255 255
255 255 255
255 255 255
255 255 255
255 255 255
255 255 255
255 255 255
255 255 255
255 255 255
255 255 255
255 255 255
255 255 255
255 255 255
255 255 255
255 255 255
255 255 255
255 255 255
255 255 255
255 255 255
255 255 255
255 255 255
255 255 255
255 255 255
255 255 255
255 255 255
255 255 255
255 255 255
255 255 255
255 255 255
255 255 255
255 255 255
255 255 255
255 255 255
255 255 255
255 255 255
255 255 255
255 255 255
255 255 255
255 255 255
255 255 255
255 255 255
255 255 255
255 255 255
255 255 255
255 255 255
255 255 255
255 255 255
255 255 255
255 255 255
255 255 255
255 255 255
255 255 255
255 255 255
255 255 255
255 255 255
255 255 255
255 255 255
255 255 255
255 255 255
255 255 255
255 255 255
255 255 255
255 255 255
255 255 255
255 255 255
255 255 255
255 255 255
255 255 255
255 255 255
  0   0   0
  0   0   0
  0   0   0
  0   0   0
255 255 255
255 255 255
255 255 255
255 255 255
255 255 255
255 255 255
255 255 255
255 255 255
255 255 255
255 255 255
255 255 255
255 255 255
255 255 255
255 255 255
255 255 255
255 255 255
255 255 255
255 255 255
255 255 255
255 255 255
255 255 255
255 255 255
255 255 255
255 255 255
255 255 255
255 255 255
255 255 255
255 255 255
255 255 255
255 255 255
255 255 255
255 255 255
255 255 255
255 255 255
255 255 255
255 255 255
255 255 255
255 255 255
255 255 255
255 255 255
255 255 255
255 255 255
255 255 255
255 255 255
255 255 255
255 255 255
255 255 255
255 255 255
255 255 255
255 255 255
  0   0  70
  0   0  76
  0   0  80
  0   0  83
  0   0  84
  0   0  85
  0   0  84
  0   0  82
  0   0  79
  0   0  74
  0   0  67
255 255 255
255 255 255
255 255 255
 64   0   0
 73   0   0
 80   0   0
 85   0   0
 89   0   0
 92   0   0
 95   0   0
 98   0   0
100   0   0
101   0   0
102   0   0
104   0   0
104   0   0
105   0   0
106   0   0
106   0   0
106   0   0
106   0   0
106   0   0
106   0   0
106   0   0
105   0   0
104   0   0
103   0   0
102   0   0
101   0   0
 99   0   0
 96   0   0
 94   0   0
 90   0   0
 86   0   0
 80   0   0
 74   0   0
 64   0   0
255 255 255
255 255 255
255 255 255
  0   0  67
  0   0  73
  0   0  78
  0   0  80
  0   0  81
  0   0  81
  0   0  79
  0   0  76
  0   0  71
  0   0  66
255 255 255
255 255 255
255 255 255
255 255 255
255 255 255
255 255 255
255 255 255
255 255 255
255 255 255
255 255 255
255 255 255
255 255 255
255 255 255
255 255 255
255 255 255
255 255 255
255 255 255
255 255 255
255 255 255
255 255 255
255 255 255
255 255 255
255 255 255
255 255 255
255 255 255
255 255 255
255 255 255
255 255 255
255 255 255
255 255 255
255 255 255
255 255 255
255 255 255
255 255 255
255 255 255
255 255 255
255 255 255
255 255 255
255 255 255
255 255 255
255 255 255
255 255 255
255 255 255
255 255 255
255 255 255
255 255 255
255 255 255
255 255 255
255 255 255
255 255 255
255 255 255
255 255 255
255 255 255
255 255 255
255 255 255
255 255 255
255 255 255
255 255 255
255 255 255
255 255 255
255 255 255
255 255 255
255 255 255
255 255 255
255 255 255
255 255 255
255 255 255
255 255 255
255 255 255
255 255 255
255 255 255
255 255 255
255 255 255
255 255 255
255 255 255
255 255 255
255 255 255
255 255 255
255 255 255
255 255 255
255 255 255
255 255 255
255 255 255
255 255 255
255 255 255
255 255 255
  0   0   0
  0   0   0
  0   0   0
  0   0   0
255 255 255
255 255 255
255 255 255
255 255 255
255 255 255
255 255 255
255 255 255
255 255 255
255 255 255
255 255 255
255 255 255
255 255 255
255 255 255
255 255 255
255 255 255
255 255 255
255 255 255
255 255 255
255 255 255
255 255 255
255 255 255
255 255 255
255 255 255
255 255 255
255 255 255
255 255 255
255 255 255
255 255 255
255 255 255
255 255 255
255 255 255
255 255 255
255 255 255
255 255 255
255 255 255
255 255 255
255 255 255
255 255 255
255 255 255
255 255 255
255 255 255
255 255 255
255 255 255
255 255 255
255 255 255
255 255 255
255 255 255
  0   0  64
  0   0  71
  0   0  77
  0   0  81
  0   0  83
  0   0  84
  0   0  83
  0   0  81
  0   0  77
  0   0  71
255 255 255
255 255 255
255 255 255
 67   0   0
 77   0   0
 84   0   0
 90   0   0
 94   0   0
 98   0   0
101   0   0
103   0   0
105   0   0
106   0   0
108   0   0
108   0   0
109   0   0
109   0   0
110   0   0
110   0   0
110   0   0
110   0   0
111   0   0
111   0   0
111   0   0
111   0   0
111   0   0
111   0   0
111   0   0
111   0   0
111   0   0
111   0   0
111   0   0
111   0   0
110   0   0
109   0   0
108   0   0
107   0   0
105   0   0
103   0   0
 99   0   0
 96   0   0
 91   0   0
 85   0   0
 77   0   0
 67   0   0
255 255 255
255 255 255
255 255 255
  0   0  69
  0   0  75
  0   0  77
  0   0  78
  0   0  77
  0   0  75
  0   0  70
  0   0  64
255 255 255
255 255 255
255 255 255
255 255 255
255 255 255
255 255 255
255 255 255
255 255 255
255 255 255
255 255 255
255 255 255
255 255 255
255 255 255
255 255 255
255 255 255
255 255 255
255 255 255
255 255 255
255 255 255
255 255 255
255 255 255
255 255 255
255 255 255
255 255 255
255 255 255
255 255 255
255 255 255
255 255 255
255 255 255
255 255 255
255 255 255
255 255 255
255 255 255
255 255 255
255 255 255
255 255 255
255 255 255
255 255 255
255 255 255
255 255 255
255 255 255
255 255 255
255 255 255
255 255 255
255 255 255
255 255 255
255 255 255
255 255 255
255 255 255
255 255 255
255 255 255
255 255 255
255 255 255
255 255 255
255 255 255
255 255 255
255 255 255
255 255 255
255 255 255
255 255 255
255 255 255
255 255 255
255 255 255
255 255 255
255 255 255
255 255 255
255 255 255
255 255 255
255 255 255
255 255 255
255 255 255
255 255 255
255 255 255
255 255 255
255 255 255
255 255 255
255 255 255
255 255 255
255 255 255
255 255 255
255 255 255
255 255 255
255 255 255
255 255 255
  0   0   0
  0   0   0
  0   0   0
  0   0   0
255 255 255
255 255 255
255 255 255
255 255 255
255 255 255
255 255 255
255 255 255
255 255 255
255 255 255
255 255 255
255 255 255
255 255 255
255 255 255
255 255 255
255 255 255
255 255 255
255 255 255
255 255 255
255 255 255
255 255 255
255 255 255
255 255 255
255 255 255
255 255 255
255 255 255
255 255 255
255 255 255
255 255 255
255 255 255
255 255 255
255 255 255
255 255 255
255 255 255
255 255 255
255 255 255
255 255 255
255 255 255
255 255 255
255 255 255
255 255 255
255 255 255
255 255 255
255 255 255
255 255 255
255 255 255
255 255 255
  0   0  72
  0   0  77
  0   0  81
  0   0  83
  0   0  83
  0   0  81
  0   0  77
  0   0  71
255 255 255
255 255 255
255 255 255
 73   0   0
 82   0   0
 89   0   0
 95   0   0
 99   0   0
102   0   0
105   0   0
106   0   0
107   0   0
108   0   0
108   0   0
109   0   0
108   0   0
108   0   0
107   0   0
107   0   0
106   0   0
106   0   0
105   0   0
104   0   0
104   0   0
104   0   0
103   0   0
103   0   0
104   0   0
104   0   0
104   0   0
105   0   0
106   0   0
106   0   0
107   0   0
108   0   0
109   0   0
110   0   0
110   0   0
111   0   0
111   0   0
111   0   0
111   0   0
110   0   0
109   0   0
107   0   0
104   0   0
100   0   0
 96   0   0
 90   0   0
 82   0   0
 72   0   0
255 255 255
255 255 255
255 255 255
  0   0  68
  0   0  73
  0   0  75
  0   0  74
  0   0  72
  0   0  67
255 255 255
255 255 255
255 255 255
255 255 255
255 255 255
255 255 255
255 255 255
255 255 255
255 255 255
255 255 255
255 255 255
255 255 255
255 255 255
255 255 255
255 255 255
255 255 255
255 255 255
255 255 255
255 255 255
255 255 255
255 255 255
255 255 255
255 255 255
255 255 255
255 255 255
255 255 255
255 255 255
255 255 255
255 255 255
255 255 255
255 255 255
255 255 255
255 255 255
255 255 255
255 255 255
255 255 255
255 255 255
255 255 255
255 255 255
255 255 255
255 255 255
255 255 255
255 255 255
255 255 255
255 255 255
255 255 255
255 255 255
255 255 255
255 255 255
255 255 255
255 255 255
255 255 255
255 255 255
255 255 255
255 255 255
255 255 255
255 255 255
255 255 255
255 255 255
255 255 255
255 255 255
255 255 255
255 255 255
255 255 255
255 255 255
255 255 255
255 255 255
255 255 255
255 255 255
255 255 255
255 255 255
255 255 255
255 255 255
255 255 255
255 255 255
255 255 255
255 255 255
255 255 255
255 255 255
255 255 255
255 255 255
255 255 255
255 255 255
  0   0   0
  0   0   0
  0   0   0
  0   0   0
255 255 255
255 255 255
255 255 255
255 255 255
255 255 255
255 255 255
255 255 255
255 255 255
255 255 255
255 255 255
255 255 255
255 255 255
255 255 255
255 255 255
255 255 255
255 255 255
255 255 255
255 255 255
255 255 255
255 255 255
255 255 255
255 255 255
255 255 255
255 255 255
255 255 255
255 255 255
255 255 255
255 255 255
255 255 255
255 255 255
255 255 255
255 255 255
255 255 255
255 255 255
255 255 255
255 255 255
255 255 255
255 255 255
255 255 255
255 255 255
255 255 255
255 255 255
255 255 255
255 255 255
  0   0  70
  0   0  77
  0   0  81
  0   0  82
  0   0  82
  0   0  79
  0   0  74
255 255 255
255 255 255
255 255 255
 73   0   0
 83   0   0
 91   0   0
 96   0   0
101   0   0
104   0   0
106   0   0
107   0   0
107   0   0
107   0   0
106   0   0
105   0   0
104   0   0
102   0   0
100   0   0
 98   0   0
 96   0   0
 93   0   0
 91   0   0
 89   0   0
 86   0   0
 84   0   0
 82   0   0
 81   0   0
 80   0   0
 79   0   0
 78   0   0
 79   0   0
 79   0   0
 80   0   0
 82   0   0
 83   0   0
 86   0   0
 88   0   0
 90   0   0
 93   0   0
 96   0   0
 98   0   0
101   0   0
103   0   0
105   0   0
107   0   0
108   0   0
109   0   0
110   0   0
110   0   0
109   0   0
108   0   0
105   0   0
102   0   0
 97   0   0
 90   0   0
 82   0   0
 71   0   0
255 255 255
255 255 255
255 255 255
  0   0  68
  0   0  71
  0   0  70
  0   0  67
255 255 255
255 255 255
255 255 255
255 255 255
255 255 255
255 255 255
255 255 255
255 255 255
255 255 255
255 255 255
255 255 255
255 255 255
255 255 255
255 255 255
255 255 255
255 255 255
255 255 255
255 255 255
255 255 255
255 255 255
255 255 255
255 255 255
255 255 255
255 255 255
255 255 255
255 255 255
255 255 255
255 255 255
255 255 255
255 255 255
255 255 255
255 255 255
255 255 255
255 255 255
255 255 255
255 255 255
255 255 255
255 255 255
255 255 255
255 255 255
255 255 255
255 255 255
255 255 255
255 255 255
255 255 255
255 255 255
255 255 255
255 255 255
255 255 255
255 255 255
255 255 255
255 255 255
255 255 255
255 255 255
255 255 255
255 255 255
255 255 255
255 255 255
255 255 255
255 255 255
255 255 255
255 255 255
255 255 255
255 255 255
255 255 255
255 255 255
255 255 255
255 255 255
255 255 255
255 255 255
255 255 255
255 255 255
255 255 255
255 255 255
255 255 255
255 255 255
255 255 255
255 255 255
255 255 255
255 255 255
255 255 255
255 255 255
  0   0   0
  0   0   0
  0   0   0
  0   0   0
255 255 255
255 255 255
255 255 255
255 255 255
255 255 255
255 255 255
255 255 255
255 255 255
255 255 255
255 255 255
255 255 255
255 255 255
255 255 255
255 255 255
255 255 255
255 255 255
255 255 255
255 255 255
255 255 255
255 255 255
255 255 255
255 255 255
255 255 255
255 255 255
255 255 255
255 255 255
255 255 255
255 255 255
255 255 255
255 255 255
255 255 255
255 255 255
255 255 255
255 255 255
255 255 255
255 255 255
255 255 255
255 255 255
255 255 255
255 255 255
255 255 255
255 255 255
  0   0  68
  0   0  75
  0   0  79
  0   0  82
  0   0  81
  0   0  78
  0   0  71
255 255 255
255 255 255
 67   0   0
 80   0   0
 89   0   0
 96   0   0
100   0   0
103   0   0
105   0   0
106   0   0
106   0   0
105   0   0
103   0   0
101   0   0
 98   0   0
 94   0   0
 90   0   0
 85   0   0
 79   0   0
 73   0   0
 66   0   0
255 255 255
255 255 255
255 255 255
255 255 255
255 255 255
255 255 255
  0   0  67
  0   0  70
  0   0  72
  0   0  73
  0   0  74
  0   0  74
  0   0  73
  0   0  72
  0   0  71
  0   0  68
  0   0  64
255 255 255
255 255 255
255 255 255
255 255 255
255 255 255
 68   0   0
 76   0   0
 82   0   0
 88   0   0
 93   0   0
 97   0   0
101   0   0
104   0   0
106   0   0
108   0   0
109   0   0
108   0   0
107   0   0
104   0   0
100   0   0
 95   0   0
 87   0   0
 77   0   0
255 255 255
255 255 255
255 255 255
255 255 255
  0   0  66
  0   0  65
255 255 255
255 255 255
255 255 255
255 255 255
255 255 255
255 255 255
255 255 255
255 255 255
255 255 255
255 255 255
255 255 255
255 255 255
255 255 255
255 255 255
255 255 255
255 255 255
255 255 255
255 255 255
255 255 255
255 255 255
255 255 255
255 255 255
255 255 255
255 255 255
255 255 255
255 255 255
255 255 255
255 255 255
255 255 255
255 255 255
255 255 255
255 255 255
255 255 255
255 255 255
255 255 255
255 255 255
255 255 255
255 255 255
255 255 255
255 255 255
255 255 255
255 255 255
255 255 255
255 255 255
255 255 255
255 255 255
255 255 255
255 255 255
255 255 255
255 255 255
255 255 255
255 255 255
255 255 255
255 255 255
255 255 255
255 255 255
255 255 255
255 255 255
255 255 255
255 255 255
255 255 255
255 255 255
255 255 255
255 255 255
255 255 255
255 255 255
255 255 255
255 255 255
255 255 255
255 255 255
255 255 255
255 255 255
255 255 255
255 255 255
255 255 255
255 255 255
255 255 255
255 255 255
255 255 255
255 255 255
255 255 255
  0   0   0
  0   0   0
  0   0   0
  0   0   0
255 255 255
255 255 255
255 255 255
255 255 255
255 255 255
255 255 255
255 255 255
255 255 255
255 255 255
255 255 255
255 255 255
255 255 255
255 255 255
255 255 255
255 255 255
255 255 255
255 255 255
255 255 255
255 255 255
255 255 255
255 255 255
255 255 255
255 255 255
255 255 255
255 255 255
255 255 255
255 255 255
255 255 255
255 255 255
255 255 255
255 255 255
255 255 255
255 255 255
255 255 255
255 255 255
255 255 255
255 255 255
255 255 255
255 255 255
255 255 255
255 255 255
  0   0  72
  0   0  78
  0   0  81
  0   0  81
  0   0  77
  0   0  69
255 255 255
255 255 255
 72   0   0
 84   0   0
 93   0   0
 98   0   0
102   0   0
104   0   0
105   0   0
104   0   0
103   0   0
100   0   0
 96   0   0
 91   0   0
 85   0   0
 78   0   0
 68   0   0
255 255 255
255 255 255
255 255 255
  0   0  69
  0   0  76
  0   0  81
  0   0  85
  0   0  89
  0   0  92
  0   0  94
  0   0  96
  0   0  97
  0   0  98
  0   0  99
  0   0 100
  0   0 100
  0   0 101
  0   0 101
  0   0 101
  0   0 101
  0   0 100
  0   0 100
  0   0  99
  0   0  97
  0   0  96
  0   0  94
  0   0  91
  0   0  88
  0   0  84
  0   0  78
  0   0  71
255 255 255
255 255 255
255 255 255
 71   0   0
 81   0   0
 89   0   0
 95   0   0
 99   0   0
103   0   0
105   0   0
107   0   0
106   0   0
105   0   0
101   0   0
 96   0   0
 89   0   0
 80   0   0
 67   0   0
255 255 255
255 255 255
255 255 255
255 255 255
255 255 255
255 255 255
255 255 255
255 255 255
255 255 255
255 255 255
255 255 255
255 255 255
255 255 255
255 255 255
255 255 255
255 255 255
255 255 255
255 255 255
255 255 255
255 255 255
255 255 255
255 255 255
255 255 255
255 255 255
255 255 255
255 255 255
255 255 255
255 255 255
255 255 255
255 255 255
255 255 255
255 255 255
255 255 255
255 255 255
255 255 255
255 255 255
255 255 255
255 255 255
255 255 255
255 255 255
255 255 255
255 255 255
255 255 255
255 255 255
255 255 255
255 255 255
255 255 255
255 255 255
255 255 255
255 255 255
255 255 255
255 255 255
255 255 255
255 255 255
255 255 255
255 255 255
255 255 255
255 255 255
255 255 255
255 255 255
255 255 255
255 255 255
255 255 255
255 255 255
255 255 255
255 255 255
255 255 255
255 255 255
255 255 255
255 255 255
255 255 255
255 255 255
255 255 255
255 255 255
255 255 255
255 255 255
255 255 255
255 255 255
255 255 255
255 255 255
255 255 255
255 255 255
255 255 255
255 255 255
  0   0   0
  0   0   0
  0   0   0
  0   0   0
255 255 255
255 255 255
255 255 255
255 255 255
255 255 255
255 255 255
255 255 255
255 255 255
255 255 255
255 255 255
255 255 255
255 255 255
255 255 255
255 255 255
255 255 255
255 255 255
255 255 255
255 255 255
255 255 255
255 255 255
255 255 255
255 255 255
255 255 255
255 255 255
255 255 255
255 255 255
255 255 255
255 255 255
255 255 255
255 255 255
255 255 255
255 255 255
255 255 255
255 255 255
255 255 255
255 255 255
255 255 255
255 255 255
255 255 255
  0   0  68
  0   0  75
  0   0  79
  0   0  80
  0   0  77
  0   0  69
255 255 255
255 255 255
 74   0   0
 86   0   0
 94   0   0
100   0   0
103   0   0
104   0   0
104   0   0
102   0   0
 98   0   0
 93   0   0
 87   0   0
 78   0   0
 65   0   0
255 255 255
255 255 255
  0   0  69
  0   0  79
  0   0  85
  0   0  90
  0   0  94
  0   0  97
  0   0 100
  0   0 102
  0   0 103
  0   0 104
  0   0 105
  0   0 106
  0   0 107
  0   0 107
  0   0 108
  0   0 108
  0   0 109
  0   0 109
  0   0 109
  0   0 109
  0   0 109
  0   0 110
  0   0 110
  0   0 110
  0   0 110
  0   0 109
  0   0 109
  0   0 108
  0   0 108
  0   0 107
  0   0 105
  0   0 103
  0   0 101
  0   0  98
  0   0  94
  0   0  89
  0   0  82
  0   0  72
255 255 255
255 255 255
 69   0   0
 81   0   0
 90   0   0
 96   0   0
101   0   0
103   0   0
104   0   0
103   0   0
101   0   0
 96   0   0
 89   0   0
 80   0   0
 66   0   0
255 255 255
255 255 255
255 255 255
255 255 255
255 255 255
255 255 255
255 255 255
255 255 255
255 255 255
255 255 255
255 255 255
255 255 255
255 255 255
255 255 255
255 255 255
255 255 255
255 255 255
255 255 255
255 255 255
255 255 255
255 255 255
255 255 255
255 255 255
255 255 255
255 255 255
255 255 255
255 255 255
255 255 255
255 255 255
255 255 255
255 255 255
255 255 255
255 255 255
255 255 255
255 255 255
255 255 255
255 255 255
255 255 255
255 255 255
255 255 255
255 255 255
255 255 255
255 255 255
255 255 255
255 255 255
255 255 255
255 255 255
255 255 255
255 255 255
255 255 255
255 255 255
255 255 255
255 255 255
255 255 255
255 255 255
255 255 255
255 255 255
255 255 255
255 255 255
255 255 255
255 255 255
255 255 255
255 255 255
255 255 255
255 255 255
255 255 255
255 255 255
255 255 255
255 255 255
255 255 255
255 255 255
255 255 255
255 255 255
255 255 255
255 255 255
255 255 255
255 255 255
255 255 255
255 255 255
255 255 255
255 255 255
255 255 255
  0   0   0
  0   0   0
  0   0   0
  0   0   0
255 255 255
255 255 255
255 255 255
255 255 255
255 255 255
255 255 255
255 255 255
255 255 255
255 255 255
255 255 255
255 255 255
255 255 255
255 255 255
255 255 255
255 255 255
255 255 255
255 255 255
255 255 255
255 255 255
255 255 255
255 255 255
255 255 255
255 255 255
255 255 255
255 255 255
255 255 255
255 255 255
255 255 255
255 255 255
255 255 255
255 255 255
255 255 255
255 255 255
255 255 255
255 255 255
255 255 255
255 255 255
255 255 255
  0   0  71
  0   0  77
  0   0  79
  0   0  78
  0   0  71
255 255 255
255 255 255
 73   0   0
 86   0   0
 94   0   0
100   0   0
102   0   0
103   0   0
102   0   0
 98   0   0
 93   0   0
 85   0   0
 75   0   0
255 255 255
255 255 255
  0   0  67
  0   0  79
  0   0  87
  0   0  92
  0   0  96
  0   0 100
  0   0 102
  0   0 104
  0   0 105
  0   0 106
  0   0 107
  0   0 107
  0   0 107
  0   0 107
  0   0 107
  0   0 107
  0   0 107
  0   0 107
  0   0 107
  0   0 107
  0   0 107
  0   0 107
  0   0 107
  0   0 107
  0   0 108
  0   0 108
  0   0 108
  0   0 109
  0   0 109
  0   0 110
  0   0 110
  0   0 111
  0   0 111
  0   0 111
  0   0 111
  0   0 111
  0   0 111
  0   0 110
  0   0 109
  0   0 107
  0   0 105
  0   0 101
  0   0  97
  0   0  91
  0   0  82
  0   0  70
255 255 255
255 255 255
 77   0   0
 88   0   0
 95   0   0
 99   0   0
101   0   0
101   0   0
 99   0   0
 94   0   0
 86   0   0
 76   0   0
255 255 255
255 255 255
255 255 255
255 255 255
255 255 255
255 255 255
255 255 255
255 255 255
255 255 255
255 255 255
255 255 255
255 255 255
255 255 255
255 255 255
255 255 255
255 255 255
255 255 255
255 255 255
255 255 255
255 255 255
255 255 255
255 255 255
255 255 255
255 255 255
255 255 255
255 255 255
255 255 255
255 255 255
255 255 255
255 255 255
255 255 255
255 255 255
255 255 255
255 255 255
255 255 255
255 255 255
255 255 255
255 255 255
255 255 255
255 255 255
255 255 255
255 255 255
255 255 255
255 255 255
255 255 255
255 255 255
255 255 255
255 255 255
255 255 255
255 255 255
255 255 255
255 255 255
255 255 255
255 255 255
255 255 255
255 255 255
255 255 255
255 255 255
255 255 255
255 255 255
255 255 255
255 255 255
255 255 255
255 255 255
255 255 255
255 255 255
255 255 255
255 255 255
255 255 255
255 255 255
255 255 255
255 255 255
255 255 255
255 255 255
255 255 255
255 255 255
255 255 255
255 255 255
255 255 255
255 255 255
255 255 255
  0   0   0
  0   0   0
  0   0   0
  0   0   0
255 255 255
255 255 255
255 255 255
255 255 255
255 255 255
255 255 255
255 255 255
255 255 255
255 255 255
255 255 255
255 255 255
255 255 255
255 255 255
255 255 255
255 255 255
255 255 255
255 255 255
255 255 255
255 255 255
255 255 255
255 255 255
255 255 255
255 255 255
255 255 255
255 255 255
255 255 255
255 255 255
255 255 255
255 255 255
255 255 255
255 255 255
255 255 255
255 255 255
255 255 255
255 255 255
255 255 255
  0   0  65
  0   0  73
  0   0  78
  0   0  78
  0   0  74
255 255 255
255 255 255
 69   0   0
 84   0   0
 93   0   0
 99   0   0
102   0   0
102   0   0
100   0   0
 95   0   0
 88   0   0
 77   0   0
255 255 255
255 255 255
  0   0  70
  0   0  82
  0   0  90
  0   0  95
  0   0  99
  0   0 102
  0   0 104
  0   0 105
  0   0 105
  0   0 106
  0   0 105
  0   0 105
  0   0 104
  0   0 104
  0   0 103
  0   0 102
  0   0 101
  0   0 100
  0   0  99
  0   0  99
  0   0  98
  0   0  97
  0   0  97
  0   0  97
  0   0  96
  0   0  96
  0   0  97
  0   0  97
  0   0  98
  0   0  98
  0   0  99
  0   0 100
  0   0 101
  0   0 102
  0   0 104
  0   0 105
  0   0 106
  0   0 108
  0   0 109
  0   0 110
  0   0 111
  0   0 111
  0   0 112
  0   0 111
  0   0 111
  0   0 110
  0   0 108
  0   0 104
  0   0 100
  0   0  94
  0   0  85
  0   0  72
255 255 255
255 255 255
 79   0   0
 89   0   0
 95   0   0
 98   0   0
 98   0   0
 95   0   0
 89   0   0
 81   0   0
 69   0   0
255 255 255
255 255 255
255 255 255
255 255 255
255 255 255
255 255 255
 65   0   0
255 255 255
255 255 255
255 255 255
255 255 255
255 255 255
255 255 255
255 255 255
255 255 255
255 255 255
255 255 255
255 255 255
255 255 255
255 255 255
255 255 255
255 255 255
255 255 255
255 255 255
255 255 255
255 255 255
255 255 255
255 255 255
255 255 255
255 255 255
255 255 255
255 255 255
255 255 255
255 255 255
255 255 255
255 255 255
255 255 255
255 255 255
255 255 255
255 255 255
255 255 255
255 255 255
255 255 255
255 255 255
255 255 255
255 255 255
255 255 255
255 255 255
255 255 255
255 255 255
255 255 255
255 255 255
255 255 255
255 255 255
255 255 255
255 255 255
255 255 255
255 255 255
255 255 255
255 255 255
255 255 255
255 255 255
255 255 255
255 255 255
255 255 255
255 255 255
255 255 255
255 255 255
255 255 255
255 255 255
255 255 255
255 255 255
255 255 255
255 255 255
255 255 255
255 255 255
255 255 255
255 255 255
255 255 255
  0   0   0
  0   0   0
  0   0   0
  0   0   0
255 255 255
255 255 255
255 255 255
255 255 255
255 255 255
255 255 255
255 255 255
255 255 255
255 255 255
255 255 255
255 255 255
255 255 255
255 255 255
255 255 255
255 255 255
255 255 255
255 255 255
255 255 255
255 255 255
255 255 255
255 255 255
255 255 255
255 255 255
255 255 255
255 255 255
255 255 255
255 255 255
255 255 255
255 255 255
255 255 255
255 255 255
255 255 255
255 255 255
255 255 255
255 255 255
  0   0  67
  0   0  74
  0   0  78
  0   0  77
  0   0  69
255 255 255
255 255 255
 79   0   0
 91   0   0
 97   0   0
101   0   0
101   0   0
 98   0   0
 93   0   0
 83   0   0
 69   0   0
255 255 255
  0   0  65
  0   0  80
  0   0  89
  0   0  95
  0   0  99
  0   0 102
  0   0 104
  0   0 104
  0   0 104
  0   0 104
  0   0 103
  0   0 102
  0   0 100
  0   0  98
  0   0  96
  0   0  94
  0   0  92
  0   0  90
  0   0  88
  0   0  86
  0   0  83
  0   0  82
  0   0  80
  0   0  78
  0   0  77
  0   0  76
  0   0  75
  0   0  74
  0   0  74
  0   0  74
  0   0  75
  0   0  76
  0   0  77
  0   0  78
  0   0  80
  0   0  82
  0   0  84
  0   0  87
  0   0  89
  0   0  92
  0   0  94
  0   0  97
  0   0  99
  0   0 102
  0   0 104
  0   0 106
  0   0 108
  0   0 110
  0   0 111
  0   0 111
  0   0 111
  0   0 110
  0   0 108
  0   0 105
  0   0 100
  0   0  93
  0   0  83
  0   0  67
255 255 255
 70   0   0
 83   0   0
 90   0   0
 93   0   0
 93   0   0
 90   0   0
 83   0   0
 73   0   0
255 255 255
255 255 255
255 255 255
255 255 255
255 255 255
 65   0   0
 70   0   0
 70   0   0
255 255 255
255 255 255
255 255 255
255 255 255
255 255 255
255 255 255
255 255 255
255 255 255
255 255 255
255 255 255
255 255 255
255 255 255
255 255 255
255 255 255
255 255 255
255 255 255
255 255 255
255 255 255
255 255 255
255 255 255
255 255 255
255 255 255
255 255 255
255 255 255
255 255 255
255 255 255
255 255 255
255 255 255
255 255 255
255 255 255
255 255 255
255 255 255
255 255 255
255 255 255
255 255 255
255 255 255
255 255 255
255 255 255
255 255 255
255 255 255
255 255 255
 64   0   0
 64   0   0
 64   0   0
 65   0   0
 65   0   0
 65   0   0
 65   0   0
 65   0   0
 65   0   0
 64   0   0
 64   0   0
 64   0   0
 64   0   0
255 255 255
255 255 255
255 255 255
255 255 255
255 255 255
255 255 255
255 255 255
255 255 255
255 255 255
255 255 255
255 255 255
255 255 255
255 255 255
255 255 255
255 255 255
255 255 255
  0   0   0
  0   0   0
  0   0   0
  0   0   0
255 255 255
255 255 255
255 255 255
255 255 255
255 255 255
255 255 255
255 255 255
255 255 255
255 255 255
255 255 255
255 255 255
255 255 255
255 255 255
255 255 255
255 255 255
255 255 255
255 255 255
255 255 255
255 255 255
255 255 255
255 255 255
255 255 255
255 255 255
255 255 255
255 255 255
255 255 255
255 255 255
255 255 255
255 255 255
255 255 255
255 255 255
255 255 255
255 255 255
255 255 255
  0   0  68
  0   0  75
  0   0  77
  0   0  74
255 255 255
255 255 255
 71   0   0
 86   0   0
 95   0   0
 99   0   0
100   0   0
 98   0   0
 91   0   0
 81   0   0
255 255 255
255 255 255
  0   0  73
  0   0  85
  0   0  93
  0   0  98
  0   0 101
  0   0 103
  0   0 103
  0   0 103
  0   0 102
  0   0 100
  0   0  98
  0   0  95
  0   0  92
  0   0  89
  0   0  85
  0   0  81
  0   0  77
  0   0  72
  0   0  68
255 255 255
255 255 255
255 255 255
255 255 255
255 255 255
255 255 255
255 255 255
255 255 255
255 255 255
255 255 255
255 255 255
255 255 255
255 255 255
255 255 255
255 255 255
255 255 255
255 255 255
255 255 255
255 255 255
255 255 255
255 255 255
255 255 255
255 255 255
  0   0  66
  0   0  72
  0   0  77
  0   0  82
  0   0  87
  0   0  91
  0   0  95
  0   0  99
  0   0 102
  0   0 105
  0   0 108
  0   0 109
  0   0 110
  0   0 110
  0   0 109
  0   0 107
  0   0 103
  0   0  97
  0   0  88
  0   0  75
255 255 255
255 255 255
 78   0   0
 86   0   0
 89   0   0
 87   0   0
 82   0   0
 73   0   0
255 255 255
255 255 255
255 255 255
255 255 255
255 255 255
 70   0   0
 75   0   0
 74   0   0
 68   0   0
255 255 255
255 255 255
255 255 255
255 255 255
255 255 255
255 255 255
255 255 255
255 255 255
255 255 255
255 255 255
255 255 255
255 255 255
255 255 255
255 255 255
255 255 255
255 255 255
255 255 255
255 255 255
255 255 255
255 255 255
255 255 255
255 255 255
255 255 255
255 255 255
255 255 255
255 255 255
255 255 255
255 255 255
255 255 255
 64   0   0
 65   0   0
 66   0   0
 66   0   0
 67   0   0
 67   0   0
 67   0   0
 67   0   0
 67   0   0
 67   0   0
 67   0   0
 67   0   0
 67   0   0
 67   0   0
 67   0   0
 67   0   0
 67   0   0
 67   0   0
 67   0   0
 66   0   0
 66   0   0
 66   0   0
 66   0   0
 66   0   0
 66   0   0
 65   0   0
 65   0   0
 65   0   0
 65   0   0
 65   0   0
 64   0   0
 64   0   0
255 255 255
255 255 255
255 255 255
255 255 255
255 255 255
255 255 255
255 255 255
  0   0   0
  0   0   0
  0   0   0
  0   0   0
255 255 255
255 255 255
255 255 255
255 255 255
255 255 255
255 255 255
255 255 255
255 255 255
255 255 255
255 255 255
255 255 255
255 255 255
255 255 255
255 255 255
255 255 255
255 255 255
255 255 255
255 255 255
255 255 255
255 255 255
255 255 255
255 255 255
255 255 255
255 255 255
255 255 255
255 255 255
255 255 255
255 255 255
255 255 255
255 255 255
255 255 255
255 255 255
255 255 255
  0   0  69
  0   0  75
  0   0  76
  0   0  71
255 255 255
255 255 255
 79   0   0
 91   0   0
 97   0   0
 99   0   0
 97   0   0
 92   0   0
 81   0   0
255 255 255
255 255 255
  0   0  76
  0   0  88
  0   0  95
  0   0  99
  0   0 102
  0   0 102
  0   0 102
  0   0 100
  0   0  98
  0   0  95
  0   0  91
  0   0  87
  0   0  82
  0   0  76
  0   0  69
255 255 255
255 255 255
255 255 255
255 255 255
255 255 255
255 255 255
 65   0   0
 69   0   0
 72   0   0
 75   0   0
 77   0   0
 78   0   0
 79   0   0
 81   0   0
 81   0   0
 82   0   0
 83   0   0
 83   0   0
 83   0   0
 83   0   0
 83   0   0
 83   0   0
 82   0   0
 82   0   0
 81   0   0
 79   0   0
 77   0   0
 75   0   0
 72   0   0
 68   0   0
255 255 255
255 255 255
255 255 255
255 255 255
255 255 255
  0   0  67
  0   0  76
  0   0  83
  0   0  89
  0   0  94
  0   0  99
  0   0 103
  0   0 106
  0   0 108
  0   0 109
  0   0 109
  0   0 107
  0   0 104
  0   0  99
  0   0  90
  0   0  77
255 255 255
255 255 255
 75   0   0
 82   0   0
 83   0   0
 78   0   0
 69   0   0
255 255 255
255 255 255
255 255 255
255 255 255
255 255 255
 74   0   0
 80   0   0
 79   0   0
 72   0   0
255 255 255
255 255 255
255 255 255
  0   0  65
255 255 255
255 255 255
255 255 255
255 255 255
255 255 255
255 255 255
255 255 255
255 255 255
255 255 255
255 255 255
255 255 255
255 255 255
255 255 255
255 255 255
255 255 255
255 255 255
255 255 255
255 255 255
255 255 255
 65   0   0
 66   0   0
 68   0   0
 68   0   0
 69   0   0
 69   0   0
 69   0   0
 69   0   0
 69   0   0
 69   0   0
 69   0   0
 69   0   0
 69   0   0
 69   0   0
 69   0   0
 68   0   0
 68   0   0
 68   0   0
 67   0   0
 67   0   0
 67   0   0
 66   0   0
 66   0   0
 66   0   0
 66   0   0
 65   0   0
 65   0   0
 65   0   0
 65   0   0
 65   0   0
 64   0   0
 64   0   0
 64   0   0
 64   0   0
 64   0   0
 64   0   0
255 255 255
255 255 255
255 255 255
255 255 255
255 255 255
255 255 255
255 255 255
255 255 255
  0   0   0
  0   0   0
  0   0   0
  0   0   0
255 255 255
255 255 255
255 255 255
255 255 255
255 255 255
255 255 255
255 255 255
255 255 255
255 255 255
255 255 255
255 255 255
255 255 255
255 255 255
255 255 255
255 255 255
255 255 255
255 255 255
255 255 255
255 255 255
255 255 255
255 255 255
255 255 255
255 255 255
255 255 255
255 255 255
255 255 255
255 255 255
255 255 255
255 255 255
255 255 255
255 255 255
255 255 255
  0   0  69
  0   0  75
  0   0  75
  0   0  68
255 255 255
 65   0   0
 83   0   0
 93   0   0
 98   0   0
 98   0   0
 93   0   0
 83   0   0
 65   0   0
255 255 255
  0   0  76
  0   0  88
  0   0  95
  0   0 100
  0   0 101
  0   0 101
  0   0 100
  0   0  97
  0   0  94
  0   0  89
  0   0  83
  0   0  77
  0   0  68
255 255 255
255 255 255
255 255 255
255 255 255
 65   0   0
 70   0   0
 75   0   0
 78   0   0
 80   0   0
 83   0   0
 84   0   0
 86   0   0
 87   0   0
 88   0   0
 89   0   0
 90   0   0
 91   0   0
 91   0   0
 92   0   0
 92   0   0
 92   0   0
 93   0   0
 93   0   0
 93   0   0
 93   0   0
 93   0   0
 93   0   0
 93   0   0
 93   0   0
 92   0   0
 92   0   0
 91   0   0
 90   0   0
 89   0   0
 88   0   0
 86   0   0
 83   0   0
 80   0   0
 75   0   0
 69   0   0
255 255 255
255 255 255
255 255 255
  0   0  64
  0   0  75
  0   0  84
  0   0  91
  0   0  97
  0   0 101
  0   0 105
  0   0 107
  0   0 107
  0   0 107
  0   0 103
  0   0  98
  0   0  89
  0   0  75
255 255 255
255 255 255
 72   0   0
 75   0   0
 72   0   0
255 255 255
255 255 255
255 255 255
255 255 255
255 255 255
 65   0   0
 78   0   0
 84   0   0
 83   0   0
 75   0   0
255 255 255
255 255 255
255 255 255
  0   0  66
255 255 255
255 255 255
255 255 255
255 255 255
255 255 255
255 255 255
255 255 255
255 255 255
255 255 255
255 255 255
255 255 255
255 255 255
255 255 255
 65   0   0
 67   0   0
 68   0   0
 69   0   0
 69   0   0
 70   0   0
 70   0   0
 71   0   0
 71   0   0
 71   0   0
 71   0   0
 71   0   0
 70   0   0
 70   0   0
 69   0   0
 69   0   0
 68   0   0
 68   0   0
 67   0   0
 66   0   0
 66   0   0
 65   0   0
 64   0   0
255 255 255
255 255 255
255 255 255
255 255 255
255 255 255
255 255 255
255 255 255
255 255 255
255 255 255
255 255 255
255 255 255
255 255 255
255 255 255
255 255 255
255 255 255
255 255 255
255 255 255
255 255 255
255 255 255
255 255 255
255 255 255
255 255 255
255 255 255
255 255 255
255 255 255
255 255 255
  0   0   0
  0   0   0
  0   0   0
  0   0   0
255 255 255
255 255 255
255 255 255
255 255 255
255 255 255
255 255 255
255 255 255
255 255 255
255 255 255
255 255 255
255 255 255
255 255 255
255 255 255
255 255 255
255 255 255
255 255 255
255 255 255
255 255 255
255 255 255
255 255 255
255 255 255
255 255 255
255 255 255
255 255 255
255 255 255
255 255 255
255 255 255
255 255 255
255 255 255
255 255 255
255 255 255
  0   0  69
  0   0  74
  0   0  74
  0   0  65
255 255 255
 71   0   0
 86   0   0
 95   0   0
 97   0   0
 95   0   0
 87   0   0
 72   0   0
255 255 255
  0   0  73
  0   0  87
  0   0  95
  0   0  99
  0   0 101
  0   0 100
  0   0  98
  0   0  94
  0   0  89
  0   0  83
  0   0  75
  0   0  64
255 255 255
255 255 255
255 255 255
 66   0   0
 73   0   0
 77   0   0
 81   0   0
 83   0   0
 86   0   0
 87   0   0
 89   0   0
 90   0   0
 91   0   0
 91   0   0
 92   0   0
 92   0   0
 93   0   0
 93   0   0
 94   0   0
 94   0   0
 94   0   0
 94   0   0
 95   0   0
 95   0   0
 95   0   0
 96   0   0
 96   0   0
 96   0   0
 96   0   0
 97   0   0
 97   0   0
 97   0   0
 97   0   0
 97   0   0
 97   0   0
 97   0   0
 97   0   0
 97   0   0
 96   0   0
 95   0   0
 94   0   0
 92   0   0
 90   0   0
 88   0   0
 84   0   0
 79   0   0
 72   0   0
255 255 255
255 255 255
255 255 255
  0   0  71
  0   0  82
  0   0  90
  0   0  97
  0   0 101
  0   0 104
  0   0 105
  0   0 105
  0   0 101
  0   0  95
  0   0  85
  0   0  70
255 255 255
255 255 255
 66   0   0
255 255 255
255 255 255
255 255 255
255 255 255
255 255 255
255 255 255
 67   0   0
 82   0   0
 88   0   0
 86   0   0
 77   0   0
255 255 255
255 255 255
255 255 255
  0   0  66
255 255 255
255 255 255
255 255 255
255 255 255
255 255 255
255 255 255
255 255 255
255 255 255
 65   0   0
 67   0   0
 68   0   0
 70   0   0
 71   0   0
 72   0   0
 72   0   0
 72   0   0
 72   0   0
 72   0   0
 72   0   0
 71   0   0
 71   0   0
 70   0   0
 70   0   0
 68   0   0
 67   0   0
 66   0   0
 65   0   0
255 255 255
255 255 255
255 255 255
255 255 255
255 255 255
255 255 255
255 255 255
255 255 255
255 255 255
255 255 255
255 255 255
255 255 255
255 255 255
255 255 255
255 255 255
255 255 255
255 255 255
255 255 255
255 255 255
255 255 255
255 255 255
255 255 255
255 255 255
255 255 255
255 255 255
255 255 255
255 255 255
255 255 255
255 255 255
255 255 255
255 255 255
255 255 255
255 255 255
255 255 255
  0   0   0
  0   0   0
  0   0   0
  0   0   0
255 255 255
255 255 255
255 255 255
255 255 255
255 255 255
255 255 255
255 255 255
255 255 255
255 255 255
255 255 255
255 255 255
255 255 255
255 255 255
255 255 255
255 255 255
255 255 255
255 255 255
255 255 255
255 255 255
255 255 255
255 255 255
255 255 255
255 255 255
255 255 255
255 255 255
255 255 255
255 255 255
255 255 255
255 255 255
255 255 255
  0   0  67
  0   0  73
  0   0  73
255 255 255
255 255 255
 73   0   0
 88   0   0
 95   0   0
 96   0   0
 91   0   0
 80   0   0
255 255 255
255 255 255
  0   0  83
  0   0  93
  0   0  98
  0   0 100
  0   0  99
  0   0  96
  0   0  91
  0   0  85
  0   0  77
  0   0  66
255 255 255
255 255 255
255 255 255
 70   0   0
 76   0   0
 80   0   0
 84   0   0
 86   0   0
 88   0   0
 89   0   0
 90   0   0
 91   0   0
 91   0   0
 92   0   0
 92   0   0
 92   0   0
 92   0   0
 92   0   0
 92   0   0
 92   0   0
 92   0   0
 92   0   0
 92   0   0
 92   0   0
 92   0   0
 93   0   0
 93   0   0
 93   0   0
 93   0   0
 94   0   0
 94   0   0
 94   0   0
 95   0   0
 95   0   0
 96   0   0
 96   0   0
 97   0   0
 97   0   0
 98   0   0
 98   0   0
 99   0   0
 99   0   0
 99   0   0
 99   0   0
 99   0   0
 98   0   0
 98   0   0
 96   0   0
 94   0   0
 92   0   0
 88   0   0
 83   0   0
 77   0   0
 66   0   0
255 255 255
255 255 255
  0   0  73
  0   0  84
  0   0  92
  0   0  98
  0   0 101
  0   0 103
  0   0 101
  0   0  97
  0   0  90
  0   0  78
255 255 255
255 255 255
255 255 255
255 255 255
255 255 255
255 255 255
  0   0  69
  0   0  65
255 255 255
 69   0   0
 85   0   0
 91   0   0
 89   0   0
 79   0   0
255 255 255
255 255 255
255 255 255
255 255 255
255 255 255
255 255 255
255 255 255
255 255 255
 65   0   0
 68   0   0
 70   0   0
 71   0   0
 72   0   0
 73   0   0
 73   0   0
 74   0   0
 74   0   0
 73   0   0
 72   0   0
 71   0   0
 70   0   0
 69   0   0
 68   0   0
 66   0   0
 65   0   0
255 255 255
255 255 255
255 255 255
255 255 255
255 255 255
255 255 255
255 255 255
255 255 255
255 255 255
255 255 255
255 255 255
255 255 255
255 255 255
255 255 255
255 255 255
255 255 255
255 255 255
255 255 255
255 255 255
255 255 255
255 255 255
255 255 255
255 255 255
255 255 255
255 255 255
255 255 255
255 255 255
255 255 255
255 255 255
255 255 255
255 255 255
255 255 255
255 255 255
255 255 255
255 255 255
255 255 255
255 255 255
255 255 255
255 255 255
  0   0   0
  0   0   0
  0   0   0
  0   0   0
255 255 255
255 255 255
255 255 255
255 255 255
255 255 255
255 255 255
255 255 255
255 255 255
255 255 255
255 255 255
255 255 255
255 255 255
255 255 255
255 255 255
255 255 255
255 255 255
255 255 255
255 255 255
255 255 255
255 255 255
255 255 255
255 255 255
255 255 255
255 255 255
255 255 255
255 255 255
255 255 255
255 255 255
255 255 255
255 255 255
  0   0  72
  0   0  72
255 255 255
255 255 255
 75   0   0
 88   0   0
 94   0   0
 94   0   0
 87   0   0
 71   0   0
255 255 255
  0   0  76
  0   0  90
  0   0  96
  0   0  99
  0   0  98
  0   0  95
  0   0  90
  0   0  82
  0   0  72
255 255 255
255 255 255
255 255 255
 70   0   0
 76   0   0
 81   0   0
 84   0   0
 87   0   0
 88   0   0
 90   0   0
 90   0   0
 91   0   0
 91   0   0
 91   0   0
 91   0   0
 90   0   0
 90   0   0
 89   0   0
 89   0   0
 88   0   0
 88   0   0
 87   0   0
 87   0   0
 86   0   0
 86   0   0
 86   0   0
 86   0   0
 85   0   0
 85   0   0
 85   0   0
 86   0   0
 86   0   0
 86   0   0
 87   0   0
 87   0   0
 88   0   0
 89   0   0
 90   0   0
 91   0   0
 92   0   0
 93   0   0
 94   0   0
 95   0   0
 96   0   0
 97   0   0
 98   0   0
 99   0   0
 99   0   0
100   0   0
100   0   0
100   0   0
100   0   0
100   0   0
 98   0   0
 97   0   0
 94   0   0
 90   0   0
 84   0   0
 76   0   0
255 255 255
255 255 255
255 255 255
  0   0  79
  0   0  88
  0   0  95
  0   0  98
  0   0  99
  0   0  97
  0   0  91
  0   0  82
  0   0  68
255 255 255
255 255 255
255 255 255
255 255 255
  0   0  74
  0   0  79
  0   0  73
255 255 255
 72   0   0
 89   0   0
 95   0   0
 92   0   0
 81   0   0
255 255 255
255 255 255
255 255 255
255 255 255
255 255 255
255 255 255
 67   0   0
 71   0   0
 73   0   0
 74   0   0
 75   0   0
 75   0   0
 74   0   0
 74   0   0
 73   0   0
 72   0   0
 70   0   0
 68   0   0
 65   0   0
255 255 255
255 255 255
255 255 255
255 255 255
255 255 255
255 255 255
255 255 255
255 255 255
255 255 255
255 255 255
255 255 255
255 255 255
255 255 255
255 255 255
255 255 255
255 255 255
255 255 255
255 255 255
  0   0  64
  0   0  65
  0   0  66
  0   0  66
  0   0  67
  0   0  67
  0   0  67
  0   0  67
  0   0  67
  0   0  67
  0   0  67
  0   0  67
  0   0  66
  0   0  66
  0   0  65
  0   0  65
255 255 255
255 255 255
255 255 255
255 255 255
255 255 255
255 255 255
255 255 255
255 255 255
255 255 255
255 255 255
  0   0   0
  0   0   0
  0   0   0
  0   0   0
255 255 255
255 255 255
255 255 255
255 255 255
255 255 255
255 255 255
255 255 255
255 255 255
255 255 255
255 255 255
255 255 255
255 255 255
255 255 255
255 255 255
255 255 255
255 255 255
255 255 255
255 255 255
255 255 255
255 255 255
255 255 255
255 255 255
255 255 255
255 255 255
255 255 255
255 255 255
255 255 255
255 255 255
255 255 255
  0   0  67
  0   0  69
255 255 255
255 255 255
 75   0   0
 88   0   0
 94   0   0
 92   0   0
 83   0   0
255 255 255
255 255 255
  0   0  83
  0   0  93
  0   0  98
  0   0  98
  0   0  95
  0   0  90
  0   0  81
  0   0  70
255 255 255
255 255 255
 65   0   0
 74   0   0
 80   0   0
 84   0   0
 87   0   0
 88   0   0
 89   0   0
 90   0   0
 90   0   0
 90   0   0
 89   0   0
 89   0   0
 88   0   0
 87   0   0
 86   0   0
 84   0   0
 83   0   0
 82   0   0
 80   0   0
 79   0   0
 78   0   0
 77   0   0
 75   0   0
 74   0   0
 73   0   0
 72   0   0
 72   0   0
 71   0   0
 71   0   0
 71   0   0
 71   0   0
 71   0   0
 71   0   0
 72   0   0
 73   0   0
 74   0   0
 75   0   0
 77   0   0
 78   0   0
 80   0   0
 82   0   0
 84   0   0
 85   0   0
 87   0   0
 89   0   0
 91   0   0
 93   0   0
 95   0   0
 96   0   0
 98   0   0
 99   0   0
100   0   0
101   0   0
101   0   0
101   0   0
101   0   0
 99   0   0
 97   0   0
 94   0   0
 89   0   0
 81   0   0
 70   0   0
255 255 255
255 255 255
  0   0  75
  0   0  85
  0   0  92
  0   0  95
  0   0  94
  0   0  90
  0   0  82
  0   0  70
255 255 255
255 255 255
255 255 255
  0   0  73
  0   0  84
  0   0  87
  0   0  79
255 255 255
 77   0   0
 95   0   0
100   0   0
 96   0   0
 84   0   0
255 255 255
255 255 255
255 255 255
255 255 255
255 255 255
 70   0   0
 74   0   0
 76   0   0
 76   0   0
 75   0   0
 73   0   0
 71   0   0
 69   0   0
 66   0   0
255 255 255
255 255 255
255 255 255
255 255 255
255 255 255
255 255 255
255 255 255
255 255 255
255 255 255
255 255 255
255 255 255
  0   0  65
  0   0  68
  0   0  70
  0   0  71
  0   0  73
  0   0  74
  0   0  75
  0   0  76
  0   0  77
  0   0  77
  0   0  78
  0   0  78
  0   0  79
  0   0  79
  0   0  79
  0   0  79
  0   0  79
  0   0  79
  0   0  79
  0   0  79
  0   0  79
  0   0  79
  0   0  78
  0   0  78
  0   0  78
  0   0  77
  0   0  77
  0   0  76
  0   0  76
  0   0  75
  0   0  74
  0   0  73
  0   0  73
  0   0  72
  0   0  71
  0   0  69
  0   0  68
  0   0   0
  0   0   0
  0   0   0
  0   0   0
  0   0  74
  0   0  73
  0   0  71
  0   0  69
  0   0  67
  0   0  65
255 255 255
255 255 255
255 255 255
255 255 255
255 255 255
255 255 255
255 255 255
255 255 255
255 255 255
255 255 255
255 255 255
255 255 255
255 255 255
255 255 255
255 255 255
255 255 255
 64   0   0
 66   0   0
 65   0   0
255 255 255
255 255 255
255 255 255
255 255 255
  0   0  64
255 255 255
255 255 255
 76   0   0
 88   0   0
 93   0   0
 90   0   0
 79   0   0
255 255 255
  0   0  70
  0   0  87
  0   0  95
  0   0  97
  0   0  96
  0   0  91
  0   0  82
  0   0  70
255 255 255
255 255 255
 68   0   0
 77   0   0
 82   0   0
 86   0   0
 88   0   0
 89   0   0
 89   0   0
 89   0   0
 89   0   0
 88   0   0
 86   0   0
 85   0   0
 83   0   0
 81   0   0
 79   0   0
 77   0   0
 74   0   0
 72   0   0
 69   0   0
 66   0   0
255 255 255
255 255 255
255 255 255
255 255 255
255 255 255
255 255 255
255 255 255
255 255 255
255 255 255
255 255 255
255 255 255
255 255 255
255 255 255
255 255 255
255 255 255
255 255 255
255 255 255
255 255 255
255 255 255
255 255 255
255 255 255
255 255 255
255 255 255
255 255 255
 65   0   0
 69   0   0
 73   0   0
 76   0   0
 80   0   0
 83   0   0
 86   0   0
 89   0   0
 92   0   0
 94   0   0
 97   0   0
 98   0   0
100   0   0
101   0   0
102   0   0
101   0   0
100   0   0
 99   0   0
 96   0   0
 91   0   0
 84   0   0
 74   0   0
255 255 255
255 255 255
  0   0  73
  0   0  83
  0   0  89
  0   0  90
  0   0  86
  0   0  79
  0   0  68
255 255 255
255 255 255
  0   0  68
  0   0  82
  0   0  91
  0   0  93
  0   0  82
255 255 255
 86   0   0
101   0   0
105   0   0
 99   0   0
 87   0   0
 68   0   0
255 255 255
255 255 255
255 255 255
 68   0   0
 72   0   0
 74   0   0
 72   0   0
 69   0   0
 65   0   0
255 255 255
255 255 255
255 255 255
255 255 255
255 255 255
255 255 255
255 255 255
  0   0  64
  0   0  68
  0   0  72
  0   0  74
  0   0  76
  0   0  78
  0   0  80
  0   0  81
  0   0  83
  0   0  84
  0   0  85
  0   0  85
  0   0  86
  0   0  86
  0   0  87
  0   0  87
  0   0  88
  0   0  88
  0   0  88
  0   0  88
  0   0  88
  0   0  88
  0   0  88
  0   0  88
  0   0  88
  0   0  88
  0   0  87
  0   0  87
  0   0  87
  0   0  87
  0   0  86
  0   0  86
  0   0  86
  0   0  85
  0   0  85
  0   0  84
  0   0  84
  0   0  83
  0   0  82
  0   0  82
  0   0  81
  0   0  80
  0   0  79
  0   0  79
  0   0   0
  0   0   0
  0   0   0
  0   0   0
  0   0  82
  0   0  81
  0   0  80
  0   0  79
  0   0  78
  0   0  76
  0   0  75
  0   0  73
  0   0  71
  0   0  69
  0   0  66
255 255 255
255 255 255
255 255 255
255 255 255
255 255 255
255 255 255
255 255 255
255 255 255
255 255 255
255 255 255
255 255 255
255 255 255
 66   0   0
 65   0   0
255 255 255
255 255 255
255 255 255
255 255 255
255 255 255
255 255 255
 77   0   0
 89   0   0
 93   0   0
 90   0   0
 77   0   0
255 255 255
  0   0  75
  0   0  90
  0   0  96
  0   0  96
  0   0  93
  0   0  85
  0   0  73
255 255 255
255 255 255
 68   0   0
 77   0   0
 83   0   0
 86   0   0
 88   0   0
 89   0   0
 89   0   0
 88   0   0
 87   0   0
 85   0   0
 83   0   0
 80   0   0
 77   0   0
 74   0   0
 70   0   0
 66   0   0
255 255 255
255 255 255
255 255 255
255 255 255
255 255 255
255 255 255
255 255 255
255 255 255
255 255 255
  0   0  65
  0   0  68
  0   0  70
  0   0  71
  0   0  73
  0   0  74
  0   0  75
  0   0  76
  0   0  77
  0   0  77
  0   0  77
  0   0  77
  0   0  77
  0   0  77
  0   0  76
  0   0  75
  0   0  74
  0   0  73
  0   0  71
  0   0  68
  0   0  65
255 255 255
255 255 255
255 255 255
255 255 255
255 255 255
255 255 255
255 255 255
 70   0   0
 76   0   0
 81   0   0
 85   0   0
 89   0   0
 93   0   0
 96   0   0
 98   0   0
100   0   0
101   0   0
101   0   0
101   0   0
 99   0   0
 97   0   0
 92   0   0
 85   0   0
 73   0   0
255 255 255
255 255 255
  0   0  72
  0   0  81
  0   0  83
  0   0  81
  0   0  73
255 255 255
255 255 255
255 255 255
  0   0  74
  0   0  89
  0   0  97
  0   0  96
  0   0  80
255 255 255
 96   0   0
109   0   0
110   0   0
102   0   0
 87   0   0
 67   0   0
255 255 255
255 255 255
255 255 255
255 255 255
255 255 255
255 255 255
255 255 255
255 255 255
255 255 255
255 255 255
255 255 255
  0   0  69
  0   0  73
  0   0  77
  0   0  80
  0   0  82
  0   0  85
  0   0  87
  0   0  88
  0   0  89
  0   0  90
  0   0  91
  0   0  92
  0   0  93
  0   0  93
  0   0  93
  0   0  94
  0   0  94
  0   0  94
  0   0  94
  0   0  94
  0   0  94
  0   0  94
  0   0  94
  0   0  94
  0   0  94
  0   0  94
  0   0  94
  0   0  93
  0   0  93
  0   0  93
  0   0  93
  0   0  92
  0   0  92
  0   0  92
  0   0  92
  0   0  91
  0   0  91
  0   0  91
  0   0  90
  0   0  90
  0   0  89
  0   0  89
  0   0  88
  0   0  88
  0   0  87
  0   0  87
  0   0  86
  0   0  86
  0   0   0
  0   0   0
  0   0   0
  0   0   0
  0   0  88
  0   0  87
  0   0  87
  0   0  86
  0   0  85
  0   0  84
  0   0  83
  0   0  82
  0   0  80
  0   0  79
  0   0  77
  0   0  75
  0   0  73
  0   0  70
  0   0  67
255 255 255
255 255 255
255 255 255
255 255 255
255 255 255
255 255 255
255 255 255
255 255 255
255 255 255
255 255 255
255 255 255
255 255 255
255 255 255
255 255 255
255 255 255
 78   0   0
 90   0   0
 94   0   0
 91   0   0
 77   0   0
255 255 255
  0   0  77
  0   0  90
  0   0  95
  0   0  95
  0   0  89
  0   0  79
255 255 255
255 255 255
 66   0   0
 77   0   0
 83   0   0
 86   0   0
 88   0   0
 88   0   0
 88   0   0
 86   0   0
 84   0   0
 82   0   0
 78   0   0
 74   0   0
 70   0   0
255 255 255
255 255 255
255 255 255
255 255 255
255 255 255
255 255 255
255 255 255
  0   0  67
  0   0  71
  0   0  74
  0   0  77
  0   0  80
  0   0  82
  0   0  84
  0   0  85
  0   0  87
  0   0  88
  0   0  89
  0   0  90
  0   0  91
  0   0  91
  0   0  92
  0   0  93
  0   0  93
  0   0  93
  0   0  94
  0   0  94
  0   0  94
  0   0  94
  0   0  93
  0   0  93
  0   0  92
  0   0  92
  0   0  91
  0   0  90
  0   0  88
  0   0  86
  0   0  84
  0   0  81
  0   0  78
  0   0  73
  0   0  68
255 255 255
255 255 255
255 255 255
255 255 255
 68   0   0
 76   0   0
 82   0   0
 88   0   0
 92   0   0
 95   0   0
 98   0   0
100   0   0
101   0   0
101   0   0
 99   0   0
 96   0   0
 91   0   0
 82   0   0
 69   0   0
255 255 255
255 255 255
  0   0  71
  0   0  75
  0   0  72
255 255 255
255 255 255
255 255 255
255 255 255
  0   0  78
  0   0  94
  0   0 101
  0   0  96
  0   0  71
 80   0   0
106   0   0
114   0   0
111   0   0
 99   0   0
 79   0   0
255 255 255
255 255 255
255 255 255
255 255 255
255 255 255
255 255 255
255 255 255
  0   0  69
  0   0  75
  0   0  80
  0   0  84
  0   0  87
  0   0  89
  0   0  91
  0   0  93
  0   0  94
  0   0  96
  0   0  97
  0   0  97
  0   0  98
  0   0  98
  0   0  99
  0   0  99
  0   0  99
  0   0  99
  0   0  99
  0   0  99
  0   0  99
  0   0  99
  0   0  99
  0   0  99
  0   0  98
  0   0  98
  0   0  98
  0   0  98
  0   0  97
  0   0  97
  0   0  97
  0   0  97
  0   0  96
  0   0  96
  0   0  96
  0   0  95
  0   0  95
  0   0  95
  0   0  94
  0   0  94
  0   0  94
  0   0  94
  0   0  93
  0   0  93
  0   0  93
  0   0  92
  0   0  92
  0   0  92
  0   0  91
  0   0  91
  0   0  90
  0   0  90
  0   0   0
  0   0   0
  0   0   0
  0   0   0
  0   0  91
  0   0  91
  0   0  90
  0   0  90
  0   0  89
  0   0  89
  0   0  88
  0   0  87
  0   0  87
  0   0  86
  0   0  85
  0   0  83
  0   0  82
  0   0  80
  0   0  78
  0   0  76
  0   0  73
  0   0  70
  0   0  66
255 255 255
255 255 255
255 255 255
255 255 255
255 255 255
255 255 255
255 255 255
255 255 255
255 255 255
255 255 255
 76   0   0
 90   0   0
 96   0   0
 93   0   0
 81   0   0
255 255 255
  0   0  75
  0   0  89
  0   0  94
  0   0  92
  0   0  85
  0   0  72
255 255 255
255 255 255
 74   0   0
 81   0   0
 86   0   0
 87   0   0
 88   0   0
 87   0   0
 85   0   0
 82   0   0
 78   0   0
 74   0   0
 68   0   0
255 255 255
255 255 255
255 255 255
255 255 255
255 255 255
  0   0  67
  0   0  72
  0   0  77
  0   0  80
  0   0  83
  0   0  86
  0   0  88
  0   0  90
  0   0  91
  0   0  93
  0   0  94
  0   0  95
  0   0  96
  0   0  97
  0   0  98
  0   0  99
  0   0 100
  0   0 100
  0   0 101
  0   0 102
  0   0 102
  0   0 102
  0   0 103
  0   0 103
  0   0 103
  0   0 104
  0   0 104
  0   0 104
  0   0 104
  0   0 104
  0   0 104
  0   0 103
  0   0 103
  0   0 102
  0   0 102
  0   0 101
  0   0  99
  0   0  98
  0   0  96
  0   0  93
  0   0  90
  0   0  86
  0   0  82
  0   0  75
  0   0  66
255 255 255
255 255 255
255 255 255
 72   0   0
 81   0   0
 88   0   0
 93   0   0
 97   0   0
 99   0   0
100   0   0
100   0   0
 98   0   0
 94   0   0
 87   0   0
 77   0   0
255 255 255
255 255 255
255 255 255
  0   0  64
255 255 255
255 255 255
255 255 255
255 255 255
255 255 255
  0   0  80
  0   0  96
  0   0 102
  0   0  93
255 255 255
 93   0   0
111   0   0
114   0   0
106   0   0
 86   0   0
255 255 255
  0   0  71
  0   0  78
  0   0  79
  0   0  79
  0   0  81
  0   0  85
  0   0  88
  0   0  92
  0   0  95
  0   0  97
  0   0  99
  0   0 100
  0   0 101
  0   0 102
  0   0 102
  0   0 103
  0   0 103
  0   0 104
  0   0 104
  0   0 103
  0   0 103
  0   0 103
  0   0 103
  0   0 103
  0   0 102
  0   0 102
  0   0 102
  0   0 101
  0   0 101
  0   0 101
  0   0 100
  0   0 100
  0   0  99
  0   0  99
  0   0  99
  0   0  98
  0   0  98
  0   0  97
  0   0  97
  0   0  97
  0   0  96
  0   0  96
  0   0  96
  0   0  95
  0   0  95
  0   0  95
  0   0  95
  0   0  94
  0   0  94
  0   0  94
  0   0  94
  0   0  93
  0   0  93
  0   0  93
  0   0  93
  0   0  93
  0   0  92
  0   0  92
  0   0   0
  0   0   0
  0   0   0
  0   0   0
  0   0  92
  0   0  92
  0   0  91
  0   0  91
  0   0  91
  0   0  91
  0   0  91
  0   0  90
  0   0  90
  0   0  90
  0   0  89
  0   0  88
  0   0  88
  0   0  87
  0   0  86
  0   0  84
  0   0  83
  0   0  81
  0   0  78
  0   0  75
  0   0  70
  0   0  65
255 255 255
255 255 255
255 255 255
  0   0  65
255 255 255
255 255 255
 67   0   0
 86   0   0
 95   0   0
 95   0   0
 85   0   0
255 255 255
  0   0  68
  0   0  86
  0   0  91
  0   0  89
  0   0  81
  0   0  64
255 255 255
 67   0   0
 78   0   0
 84   0   0
 87   0   0
 87   0   0
 86   0   0
 84   0   0
 80   0   0
 75   0   0
 69   0   0
255 255 255
255 255 255
255 255 255
255 255 255
  0   0  66
  0   0  73
  0   0  78
  0   0  82
  0   0  86
  0   0  89
  0   0  91
  0   0  93
  0   0  95
  0   0  96
  0   0  98
  0   0  99
  0   0 100
  0   0 101
  0   0 102
  0   0 102
  0   0 103
  0   0 104
  0   0 104
  0   0 105
  0   0 105
  0   0 106
  0   0 106
  0   0 107
  0   0 107
  0   0 107
  0   0 108
  0   0 108
  0   0 109
  0   0 109
  0   0 109
  0   0 110
  0   0 110
  0   0 110
  0   0 111
  0   0 111
  0   0 111
  0   0 111
  0   0 111
  0   0 110
  0   0 110
  0   0 109
  0   0 109
  0   0 107
  0   0 106
  0   0 104
  0   0 102
  0   0  99
  0   0  95
  0   0  90
  0   0  84
  0   0  76
255 255 255
255 255 255
255 255 255
 74   0   0
 84   0   0
 90   0   0
 95   0   0
 98   0   0
 99   0   0
 98   0   0
 95   0   0
 90   0   0
 81   0   0
 68   0   0
255 255 255
255 255 255
255 255 255
255 255 255
255 255 255
 74   0   0
 72   0   0
255 255 255
  0   0  81
  0   0 100
  0   0 104
  0   0  91
255 255 255
 97   0   0
110   0   0
106   0   0
 88   0   0
255 255 255
  0   0  86
  0   0  96
  0   0  98
  0   0  98
  0   0  98
  0   0  99
  0   0 101
  0   0 103
  0   0 105
  0   0 106
  0   0 106
  0   0 107
  0   0 107
  0   0 107
  0   0 107
  0   0 107
  0   0 107
  0   0 107
  0   0 106
  0   0 106
  0   0 105
  0   0 105
  0   0 104
  0   0 104
  0   0 103
  0   0 102
  0   0 102
  0   0 101
  0   0 101
  0   0 100
  0   0  99
  0   0  99
  0   0  98
  0   0  98
  0   0  97
  0   0  97
  0   0  96
  0   0  96
  0   0  96
  0   0  95
  0   0  95
  0   0  94
  0   0  94
  0   0  94
  0   0  94
  0   0  93
  0   0  93
  0   0  93
  0   0  93
  0   0  93
  0   0  92
  0   0  92
  0   0  92
  0   0  92
  0   0  92
  0   0  92
  0   0  92
  0   0  92
  0   0   0
  0   0   0
  0   0   0
  0   0   0
  0   0  90
  0   0  90
  0   0  90
  0   0  90
  0   0  91
  0   0  91
  0   0  91
  0   0  91
  0   0  91
  0   0  91
  0   0  91
  0   0  91
  0   0  91
  0   0  90
  0   0  90
  0   0  89
  0   0  88
  0   0  87
  0   0  86
  0   0  84
  0   0  81
  0   0  78
  0   0  76
  0   0  76
  0   0  78
  0   0  78
  0   0  70
255 255 255
 73   0   0
 89   0   0
 93   0   0
 86   0   0
 66   0   0
255 255 255
  0   0  80
  0   0  86
  0   0  84
  0   0  74
255 255 255
255 255 255
 73   0   0
 81   0   0
 86   0   0
 87   0   0
 86   0   0
 84   0   0
 79   0   0
 73   0   0
 65   0   0
255 255 255
255 255 255
255 255 255
  0   0  68
  0   0  75
  0   0  81
  0   0  85
  0   0  89
  0   0  92
  0   0  94
  0   0  96
  0   0  98
  0   0  99
  0   0 100
  0   0 101
  0   0 102
  0   0 103
  0   0 103
  0   0 104
  0   0 104
  0   0 105
  0   0 105
  0   0 105
  0   0 106
  0   0 106
  0   0 106
  0   0 107
  0   0 107
  0   0 107
  0   0 108
  0   0 108
  0   0 109
  0   0 109
  0   0 110
  0   0 110
  0   0 111
  0   0 111
  0   0 112
  0   0 112
  0   0 113
  0   0 113
  0   0 114
  0   0 114
  0   0 115
  0   0 115
  0   0 116
  0   0 116
  0   0 116
  0   0 116
  0   0 116
  0   0 115
  0   0 115
  0   0 114
  0   0 112
  0   0 110
  0   0 108
  0   0 105
  0   0 101
  0   0  96
  0   0  88
  0   0  78
255 255 255
255 255 255
 67   0   0
 80   0   0
 88   0   0
 94   0   0
 96   0   0
 97   0   0
 95   0   0
 90   0   0
 82   0   0
 70   0   0
255 255 255
255 255 255
255 255 255
 70   0   0
 84   0   0
 89   0   0
 83   0   0
255 255 255
  0   0  89
  0   0 108
  0   0 110
  0   0  95
255 255 255
 92   0   0
 99   0   0
 83   0   0
255 255 255
  0   0  96
  0   0 108
  0   0 111
  0   0 111
  0   0 110
  0   0 109
  0   0 110
  0   0 110
  0   0 111
  0   0 111
  0   0 111
  0   0 111
  0   0 110
  0   0 110
  0   0 109
  0   0 108
  0   0 108
  0   0 107
  0   0 106
  0   0 105
  0   0 104
  0   0 104
  0   0 103
  0   0 102
  0   0 101
  0   0 100
  0   0  99
  0   0  99
  0   0  98
  0   0  97
  0   0  96
  0   0  96
  0   0  95
  0   0  95
  0   0  94
  0   0  93
  0   0  93
  0   0  92
  0   0  92
  0   0  92
  0   0  91
  0   0  91
  0   0  91
  0   0  90
  0   0  90
  0   0  90
  0   0  90
  0   0  89
  0   0  89
  0   0  89
  0   0  89
  0   0  89
  0   0  89
  0   0  89
  0   0  89
  0   0  89
  0   0  89
  0   0  89
  0   0   0
  0   0   0
  0   0   0
  0   0   0
  0   0  86
  0   0  86
  0   0  87
  0   0  87
  0   0  88
  0   0  88
  0   0  89
  0   0  89
  0   0  89
  0   0  90
  0   0  90
  0   0  91
  0   0  91
  0   0  91
  0   0  91
  0   0  91
  0   0  91
  0   0  91
  0   0  90
  0   0  89
  0   0  87
  0   0  86
  0   0  86
  0   0  88
  0   0  89
  0   0  87
  0   0  76
255 255 255
 72   0   0
 84   0   0
 82   0   0
 65   0   0
255 255 255
  0   0  77
  0   0  82
  0   0  78
  0   0  65
255 255 255
 67   0   0
 78   0   0
 84   0   0
 86   0   0
 86   0   0
 84   0   0
 80   0   0
 73   0   0
255 255 255
255 255 255
255 255 255
  0   0  65
  0   0  75
  0   0  82
  0   0  87
  0   0  91
  0   0  94
  0   0  96
  0   0  98
  0   0 100
  0   0 101
  0   0 102
  0   0 103
  0   0 103
  0   0 103
  0   0 104
  0   0 104
  0   0 104
  0   0 104
  0   0 104
  0   0 104
  0   0 104
  0   0 104
  0   0 104
  0   0 104
  0   0 105
  0   0 105
  0   0 105
  0   0 105
  0   0 105
  0   0 106
  0   0 106
  0   0 106
  0   0 107
  0   0 107
  0   0 108
  0   0 109
  0   0 109
  0   0 110
  0   0 111
  0   0 111
  0   0 112
  0   0 113
  0   0 114
  0   0 115
  0   0 116
  0   0 117
  0   0 117
  0   0 118
  0   0 119
  0   0 120
  0   0 120
  0   0 120
  0   0 120
  0   0 120
  0   0 120
  0   0 119
  0   0 118
  0   0 116
  0   0 113
  0   0 109
  0   0 104
  0   0  97
  0   0  88
  0   0  74
255 255 255
255 255 255
 78   0   0
 87   0   0
 92   0   0
 94   0   0
 92   0   0
 88   0   0
 80   0   0
 70   0   0
255 255 255
255 255 255
 74   0   0
 88   0   0
 98   0   0
 99   0   0
 84   0   0
  0   0  68
  0   0 107
  0   0 121
  0   0 120
  0   0 103
255 255 255
 73   0   0
 66   0   0
  0   0  73
  0   0 103
  0   0 115
  0   0 120
  0   0 119
  0   0 117
  0   0 116
  0   0 115
  0   0 114
  0   0 114
  0   0 113
  0   0 112
  0   0 111
  0   0 110
  0   0 109
  0   0 108
  0   0 107
  0   0 106
  0   0 105
  0   0 104
  0   0 102
  0   0 101
  0   0 100
  0   0  99
  0   0  98
  0   0  97
  0   0  96
  0   0  95
  0   0  94
  0   0  93
  0   0  92
  0   0  91
  0   0  90
  0   0  90
  0   0  89
  0   0  88
  0   0  88
  0   0  87
  0   0  87
  0   0  86
  0   0  86
  0   0  85
  0   0  85
  0   0  85
  0   0  84
  0   0  84
  0   0  84
  0   0  84
  0   0  84
  0   0  84
  0   0  84
  0   0  84
  0   0  84
  0   0  84
  0   0  84
  0   0  84
  0   0  84
  0   0  85
  0   0  85
  0   0   0
  0   0   0
  0   0   0
  0   0   0
  0   0  80
  0   0  80
  0   0  81
  0   0  82
  0   0  82
  0   0  83
  0   0  84
  0   0  85
  0   0  85
  0   0  86
  0   0  87
  0   0  88
  0   0  88
  0   0  89
  0   0  90
  0   0  90
  0   0  91
  0   0  91
  0   0  91
  0   0  91
  0   0  90
  0   0  91
  0   0  93
  0   0  95
  0   0  96
  0   0  92
  0   0  80
255 255 255
255 255 255
 66   0   0
255 255 255
  0   0  65
  0   0  81
  0   0  84
  0   0  78
255 255 255
255 255 255
 75   0   0
 84   0   0
 88   0   0
 88   0   0
 86   0   0
 81   0   0
 74   0   0
255 255 255
255 255 255
255 255 255
  0   0  70
  0   0  79
  0   0  86
  0   0  91
  0   0  95
  0   0  97
  0   0  99
  0   0 101
  0   0 102
  0   0 103
  0   0 103
  0   0 103
  0   0 103
  0   0 103
  0   0 103
  0   0 103
  0   0 102
  0   0 102
  0   0 101
  0   0 101
  0   0 101
  0   0 100
  0   0 100
  0   0 100
  0   0 100
  0   0 100
  0   0  99
  0   0  99
  0   0  99
  0   0  99
  0   0 100
  0   0 100
  0   0 100
  0   0 101
  0   0 101
  0   0 102
  0   0 102
  0   0 103
  0   0 104
  0   0 104
  0   0 105
  0   0 106
  0   0 107
  0   0 109
  0   0 110
  0   0 111
  0   0 112
  0   0 114
  0   0 115
  0   0 116
  0   0 118
  0   0 119
  0   0 120
  0   0 121
  0   0 122
  0   0 123
  0   0 124
  0   0 125
  0   0 125
  0   0 124
  0   0 123
  0   0 122
  0   0 119
  0   0 115
  0   0 110
  0   0 103
  0   0  94
  0   0  80
255 255 255
255 255 255
 78   0   0
 87   0   0
 90   0   0
 88   0   0
 84   0   0
 76   0   0
 69   0   0
 67   0   0
 76   0   0
 88   0   0
 99   0   0
104   0   0
 96   0   0
255 255 255
  0   0 103
  0   0 127
  0   0 135
  0   0 129
  0   0 111
  0   0  81
255 255 255
  0   0  82
  0   0 105
  0   0 119
  0   0 124
  0   0 124
  0   0 121
  0   0 118
  0   0 116
  0   0 114
  0   0 113
  0   0 112
  0   0 110
  0   0 109
  0   0 107
  0   0 106
  0   0 104
  0   0 102
  0   0 101
  0   0  99
  0   0  98
  0   0  97
  0   0  95
  0   0  94
  0   0  92
  0   0  91
  0   0  90
  0   0  89
  0   0  87
  0   0  86
  0   0  85
  0   0  84
  0   0  83
  0   0  82
  0   0  82
  0   0  81
  0   0  80
  0   0  79
  0   0  79
  0   0  78
  0   0  78
  0   0  77
  0   0  77
  0   0  77
  0   0  76
  0   0  76
  0   0  76
  0   0  76
  0   0  76
  0   0  76
  0   0  76
  0   0  76
  0   0  76
  0   0  76
  0   0  76
  0   0  76
  0   0  77
  0   0  77
  0   0  77
  0   0  78
  0   0   0
  0   0   0
  0   0   0
  0   0   0
  0   0  71
  0   0  72
  0   0  73
  0   0  74
  0   0  75
  0   0  76
  0   0  77
  0   0  78
  0   0  79
  0   0  80
  0   0  81
  0   0  82
  0   0  83
  0   0  85
  0   0  86
  0   0  87
  0   0  88
  0   0  89
  0   0  89
  0   0  90
  0   0  91
  0   0  93
  0   0  96
  0   0  99
  0   0  99
  0   0  93
  0   0  81
255 255 255
255 255 255
255 255 255
  0   0  79
  0   0  90
  0   0  93
  0   0  87
  0   0  69
255 255 255
 77   0   0
 88   0   0
 92   0   0
 91   0   0
 87   0   0
 80   0   0
 69   0   0
255 255 255
255 255 255
  0   0  72
  0   0  82
  0   0  89
  0   0  94
  0   0  97
  0   0 100
  0   0 102
  0   0 103
  0   0 103
  0   0 103
  0   0 103
  0   0 103
  0   0 102
  0   0 101
  0   0 101
  0   0 100
  0   0  99
  0   0  98
  0   0  97
  0   0  96
  0   0  95
  0   0  94
  0   0  94
  0   0  93
  0   0  92
  0   0  92
  0   0  91
  0   0  91
  0   0  90
  0   0  90
  0   0  90
  0   0  90
  0   0  90
  0   0  90
  0   0  90
  0   0  91
  0   0  91
  0   0  92
  0   0  92
  0   0  93
  0   0  94
  0   0  95
  0   0  96
  0   0  97
  0   0  99
  0   0 100
  0   0 101
  0   0 103
  0   0 105
  0   0 106
  0   0 108
  0   0 110
  0   0 112
  0   0 114
  0   0 116
  0   0 118
  0   0 120
  0   0 122
  0   0 123
  0   0 125
  0   0 126
  0   0 128
  0   0 128
  0   0 128
  0   0 128
  0   0 126
  0   0 124
  0   0 120
  0   0 115
  0   0 107
  0   0  96
  0   0  80
255 255 255
255 255 255
 78   0   0
 83   0   0
 82   0   0
 78   0   0
 73   0   0
 70   0   0
 73   0   0
 82   0   0
 93   0   0
 99   0   0
 96   0   0
255 255 255
  0   0  99
  0   0 130
  0   0 144
  0   0 145
  0   0 134
  0   0 112
  0   0  90
  0   0  87
  0   0 104
  0   0 118
  0   0 124
  0   0 125
  0   0 122
  0   0 118
  0   0 114
  0   0 111
  0   0 109
  0   0 107
  0   0 105
  0   0 103
  0   0 101
  0   0  99
  0   0  97
  0   0  95
  0   0  93
  0   0  91
  0   0  90
  0   0  88
  0   0  86
  0   0  84
  0   0  82
  0   0  81
  0   0  80
  0   0  78
  0   0  77
  0   0  76
  0   0  74
  0   0  73
  0   0  72
  0   0  71
  0   0  70
  0   0  69
  0   0  68
  0   0  68
  0   0  67
  0   0  66
  0   0  66
  0   0  65
  0   0  65
  0   0  65
  0   0  64
255 255 255
255 255 255
255 255 255
255 255 255
255 255 255
255 255 255
  0   0  64
  0   0  65
  0   0  65
  0   0  65
  0   0  66
  0   0  66
  0   0  67
  0   0  67
  0   0  68
  0   0   0
  0   0   0
  0   0   0
  0   0   0
255 255 255
255 255 255
255 255 255
255 255 255
255 255 255
  0   0  64
  0   0  66
  0   0  67
  0   0  69
  0   0  70
  0   0  72
  0   0  74
  0   0  75
  0   0  77
  0   0  79
  0   0  80
  0   0  82
  0   0  83
  0   0  84
  0   0  86
  0   0  88
  0   0  91
  0   0  96
  0   0  99
  0   0  98
  0   0  91
  0   0  80
  0   0  70
  0   0  74
  0   0  87
  0   0  98
  0   0 103
  0   0 100
  0   0  88
255 255 255
 66   0   0
 85   0   0
 92   0   0
 93   0   0
 90   0   0
 81   0   0
 66   0   0
255 255 255
  0   0  69
  0   0  82
  0   0  90
  0   0  96
  0   0 100
  0   0 102
  0   0 103
  0   0 104
  0   0 104
  0   0 103
  0   0 102
  0   0 101
  0   0 100
  0   0  98
  0   0  97
  0   0  95
  0   0  94
  0   0  92
  0   0  91
  0   0  89
  0   0  87
  0   0  86
  0   0  85
  0   0  83
  0   0  82
  0   0  81
  0   0  80
  0   0  79
  0   0  78
  0   0  77
  0   0  76
  0   0  76
  0   0  75
  0   0  75
  0   0  75
  0   0  75
  0   0  75
  0   0  75
  0   0  75
  0   0  76
  0   0  77
  0   0  78
  0   0  79
  0   0  80
  0   0  81
  0   0  83
  0   0  84
  0   0  86
  0   0  88
  0   0  90
  0   0  92
  0   0  94
  0   0  97
  0   0  99
  0   0 102
  0   0 104
  0   0 107
  0   0 109
  0   0 112
  0   0 115
  0   0 118
  0   0 121
  0   0 123
  0   0 126
  0   0 128
  0   0 130
  0   0 131
  0   0 132
  0   0 132
  0   0 131
  0   0 128
  0   0 124
  0   0 117
  0   0 108
  0   0  95
  0   0  77
255 255 255
255 255 255
 74   0   0
 76   0   0
 74   0   0
 69   0   0
255 255 255
255 255 255
 70   0   0
 78   0   0
 79   0   0
255 255 255
  0   0  98
  0   0 130
  0   0 148
  0   0 154
  0   0 148
  0   0 130
  0   0 106
  0   0  90
  0   0  97
  0   0 111
  0   0 120
  0   0 121
  0   0 118
  0   0 113
  0   0 109
  0   0 105
  0   0 102
  0   0  99
  0   0  96
  0   0  94
  0   0  91
  0   0  89
  0   0  86
  0   0  84
  0   0  81
  0   0  79
  0   0  77
  0   0  75
  0   0  73
  0   0  70
  0   0  68
  0   0  66
  0   0  64
255 255 255
255 255 255
255 255 255
255 255 255
255 255 255
255 255 255
255 255 255
255 255 255
255 255 255
255 255 255
255 255 255
255 255 255
255 255 255
255 255 255
255 255 255
255 255 255
255 255 255
255 255 255
255 255 255
255 255 255
255 255 255
255 255 255
255 255 255
255 255 255
255 255 255
255 255 255
255 255 255
255 255 255
255 255 255
255 255 255
255 255 255
255 255 255
255 255 255
  0   0   0
  0   0   0
  0   0   0
  0   0   0
255 255 255
255 255 255
255 255 255
255 255 255
255 255 255
255 255 255
255 255 255
255 255 255
255 255 255
255 255 255
255 255 255
255 255 255
255 255 255
  0   0  66
  0   0  68
  0   0  70
  0   0  72
  0   0  74
  0   0  76
  0   0  78
  0   0  82
  0   0  87
  0   0  92
  0   0  95
  0   0  93
  0   0  85
  0   0  76
  0   0  75
  0   0  87
  0   0 100
  0   0 108
  0   0 109
  0   0 103
  0   0  89
255 255 255
 65   0   0
 83   0   0
 90   0   0
 89   0   0
 82   0   0
 66   0   0
255 255 255
  0   0  76
  0   0  89
  0   0  97
  0   0 101
  0   0 104
  0   0 105
  0   0 105
  0   0 104
  0   0 103
  0   0 101
  0   0  99
  0   0  97
  0   0  95
  0   0  92
  0   0  90
  0   0  87
  0   0  84
  0   0  82
  0   0  79
  0   0  77
  0   0  74
  0   0  72
  0   0  69
  0   0  67
  0   0  64
255 255 255
255 255 255
255 255 255
255 255 255
255 255 255
255 255 255
255 255 255
255 255 255
255 255 255
255 255 255
255 255 255
255 255 255
255 255 255
255 255 255
255 255 255
255 255 255
255 255 255
255 255 255
255 255 255
255 255 255
255 255 255
255 255 255
255 255 255
255 255 255
255 255 255
  0   0  67
  0   0  70
  0   0  74
  0   0  77
  0   0  81
  0   0  84
  0   0  88
  0   0  91
  0   0  95
  0   0  99
  0   0 103
  0   0 107
  0   0 111
  0   0 115
  0   0 118
  0   0 122
  0   0 125
  0   0 129
  0   0 131
  0   0 133
  0   0 135
  0   0 135
  0   0 134
  0   0 131
  0   0 126
  0   0 118
  0   0 107
  0   0  92
  0   0  70
255 255 255
 66   0   0
 69   0   0
255 255 255
255 255 255
  0   0  69
  0   0  77
  0   0  76
  0   0  69
  0   0  75
  0   0  99
  0   0 126
  0   0 147
  0   0 157
  0   0 155
  0   0 140
  0   0 115
  0   0  88
  0   0  83
  0   0  98
  0   0 110
  0   0 114
  0   0 111
  0   0 106
  0   0  99
  0   0  94
  0   0  90
  0   0  86
  0   0  83
  0   0  80
  0   0  76
  0   0  73
  0   0  70
  0   0  66
255 255 255
255 255 255
255 255 255
255 255 255
255 255 255
255 255 255
255 255 255
255 255 255
255 255 255
255 255 255
255 255 255
255 255 255
255 255 255
255 255 255
255 255 255
255 255 255
255 255 255
255 255 255
255 255 255
255 255 255
255 255 255
255 255 255
255 255 255
255 255 255
255 255 255
255 255 255
255 255 255
255 255 255
255 255 255
255 255 255
255 255 255
255 255 255
255 255 255
255 255 255
255 255 255
255 255 255
255 255 255
255 255 255
255 255 255
255 255 255
255 255 255
255 255 255
  0   0   0
  0   0   0
  0   0   0
  0   0   0
255 255 255
255 255 255
255 255 255
255 255 255
255 255 255
255 255 255
255 255 255
255 255 255
255 255 255
255 255 255
255 255 255
255 255 255
255 255 255
255 255 255
255 255 255
255 255 255
255 255 255
255 255 255
255 255 255
  0   0  66
  0   0  72
  0   0  79
  0   0  85
  0   0  87
  0   0  82
  0   0  73
  0   0  68
  0   0  77
  0   0  93
  0   0 105
  0   0 111
  0   0 110
  0   0 103
  0   0  90
  0   0  69
255 255 255
 71   0   0
 78   0   0
 75   0   0
255 255 255
255 255 255
  0   0  79
  0   0  92
  0   0 100
  0   0 104
  0   0 106
  0   0 106
  0   0 104
  0   0 102
  0   0  99
  0   0  96
  0   0  93
  0   0  90
  0   0  86
  0   0  82
  0   0  78
  0   0  74
  0   0  70
  0   0  66
255 255 255
255 255 255
255 255 255
255 255 255
255 255 255
255 255 255
255 255 255
255 255 255
255 255 255
255 255 255
255 255 255
255 255 255
255 255 255
255 255 255
255 255 255
255 255 255
255 255 255
 64   0   0
 65   0   0
 65   0   0
 66   0   0
 66   0   0
 66   0   0
 66   0   0
 66   0   0
 66   0   0
 66   0   0
 65   0   0
 65   0   0
255 255 255
255 255 255
255 255 255
255 255 255
255 255 255
255 255 255
255 255 255
255 255 255
255 255 255
255 255 255
255 255 255
255 255 255
  0   0  69
  0   0  75
  0   0  82
  0   0  88
  0   0  93
  0   0  99
  0   0 104
  0   0 109
  0   0 115
  0   0 120
  0   0 125
  0   0 129
  0   0 133
  0   0 136
  0   0 138
  0   0 138
  0   0 136
  0   0 133
  0   0 126
  0   0 116
  0   0 102
  0   0  80
255 255 255
255 255 255
255 255 255
  0   0  80
  0   0 100
  0   0 110
  0   0 112
  0   0 107
  0   0  99
  0   0 102
  0   0 120
  0   0 140
  0   0 154
  0   0 155
  0   0 144
  0   0 120
  0   0  84
255 255 255
  0   0  72
  0   0  93
  0   0 101
  0   0 100
  0   0  94
  0   0  85
  0   0  78
  0   0  71
  0   0  66
255 255 255
255 255 255
255 255 255
255 255 255
255 255 255
255 255 255
255 255 255
255 255 255
255 255 255
255 255 255
255 255 255
255 255 255
255 255 255
255 255 255
255 255 255
255 255 255
255 255 255
255 255 255
255 255 255
255 255 255
255 255 255
255 255 255
255 255 255
255 255 255
255 255 255
255 255 255
255 255 255
255 255 255
255 255 255
255 255 255
255 255 255
255 255 255
255 255 255
255 255 255
255 255 255
255 255 255
255 255 255
255 255 255
255 255 255
255 255 255
255 255 255
255 255 255
255 255 255
255 255 255
255 255 255
255 255 255
255 255 255
255 255 255
  0   0   0
  0   0   0
  0   0   0
  0   0   0
255 255 255
255 255 255
255 255 255
255 255 255
255 255 255
255 255 255
255 255 255
255 255 255
255 255 255
255 255 255
255 255 255
255 255 255
255 255 255
255 255 255
255 255 255
255 255 255
255 255 255
255 255 255
255 255 255
255 255 255
255 255 255
  0   0  68
  0   0  74
  0   0  73
  0   0  65
255 255 255
255 255 255
  0   0  75
  0   0  94
  0   0 105
  0   0 109
  0   0 107
  0   0 100
  0   0  90
  0   0  78
255 255 255
255 255 255
255 255 255
255 255 255
  0   0  69
  0   0  83
  0   0  94
  0   0 101
  0   0 105
  0   0 106
  0   0 105
  0   0 102
  0   0  98
  0   0  94
  0   0  89
  0   0  84
  0   0  78
  0   0  72
  0   0  66
255 255 255
255 255 255
255 255 255
255 255 255
255 255 255
255 255 255
255 255 255
255 255 255
255 255 255
 66   0   0
 68   0   0
 69   0   0
 71   0   0
 72   0   0
 73   0   0
 74   0   0
 75   0   0
 76   0   0
 77   0   0
 77   0   0
 78   0   0
 79   0   0
 79   0   0
 80   0   0
 80   0   0
 80   0   0
 81   0   0
 81   0   0
 81   0   0
 82   0   0
 82   0   0
 82   0   0
 82   0   0
 82   0   0
 82   0   0
 82   0   0
 82   0   0
 81   0   0
 81   0   0
 80   0   0
 79   0   0
 78   0   0
 77   0   0
 75   0   0
 72   0   0
 69   0   0
 65   0   0
255 255 255
255 255 255
255 255 255
255 255 255
  0   0  68
  0   0  78
  0   0  87
  0   0  95
  0   0 103
  0   0 110
  0   0 117
  0   0 124
  0   0 130
  0   0 135
  0   0 139
  0   0 141
  0   0 142
  0   0 140
  0   0 134
  0   0 123
  0   0 105
  0   0  81
255 255 255
  0   0  77
  0   0 102
  0   0 120
  0   0 130
  0   0 132
  0   0 126
  0   0 114
  0   0 102
  0   0 107
  0   0 127
  0   0 144
  0   0 151
  0   0 143
  0   0 120
  0   0  75
 74   0   0
 70   0   0
255 255 255
  0   0  80
  0   0  83
  0   0  76
255 255 255
255 255 255
255 255 255
255 255 255
255 255 255
255 255 255
255 255 255
255 255 255
 66   0   0
 67   0   0
 68   0   0
 69   0   0
 70   0   0
 70   0   0
 71   0   0
 71   0   0
 72   0   0
 72   0   0
 72   0   0
 72   0   0
 72   0   0
 72   0   0
 72   0   0
 72   0   0
 72   0   0
 72   0   0
 72   0   0
 72   0   0
 72   0   0
 71   0   0
 71   0   0
 71   0   0
 71   0   0
 71   0   0
 70   0   0
 70   0   0
 70   0   0
 70   0   0
 70   0   0
 69   0   0
 69   0   0
 69   0   0
 69   0   0
 68   0   0
 68   0   0
 68   0   0
 67   0   0
 67   0   0
 67   0   0
 66   0   0
 66   0   0
 66   0   0
  0   0   0
  0   0   0
  0   0   0
  0   0   0
 69   0   0
 69   0   0
 69   0   0
 68   0   0
 68   0   0
 67   0   0
 67   0   0
 67   0   0
 66   0   0
 65   0   0
 65   0   0
255 255 255
255 255 255
255 255 255
255 255 255
255 255 255
255 255 255
255 255 255
255 255 255
255 255 255
255 255 255
255 255 255
255 255 255
255 255 255
255 255 255
255 255 255
255 255 255
  0   0  68
  0   0  89
  0   0 100
  0   0 102
  0   0  99
  0   0  93
  0   0  87
  0   0  83
  0   0  83
  0   0  86
  0   0  90
  0   0  94
  0   0  97
  0   0 101
  0   0 103
  0   0 104
  0   0 103
  0   0 101
  0   0  97
  0   0  91
  0   0  85
  0   0  77
  0   0  69
255 255 255
255 255 255
255 255 255
255 255 255
255 255 255
255 255 255
 67   0   0
 70   0   0
 72   0   0
 74   0   0
 76   0   0
 77   0   0
 78   0   0
 79   0   0
 80   0   0
 81   0   0
 81   0   0
 82   0   0
 83   0   0
 83   0   0
 84   0   0
 84   0   0
 85   0   0
 85   0   0
 86   0   0
 86   0   0
 87   0   0
 87   0   0
 87   0   0
 88   0   0
 88   0   0
 88   0   0
 89   0   0
 89   0   0
 90   0   0
 90   0   0
 90   0   0
 90   0   0
 91   0   0
 91   0   0
 91   0   0
 91   0   0
 92   0   0
 92   0   0
 92   0   0
 92   0   0
 91   0   0
 91   0   0
 91   0   0
 90   0   0
 89   0   0
 87   0   0
 85   0   0
 83   0   0
 79   0   0
 74   0   0
 67   0   0
255 255 255
255 255 255
  0   0  67
  0   0  83
  0   0  95
  0   0 105
  0   0 115
  0   0 124
  0   0 132
  0   0 139
  0   0 144
  0   0 147
  0   0 146
  0   0 138
  0   0 124
  0   0 103
  0   0  88
  0   0  97
  0   0 119
  0   0 136
  0   0 145
  0   0 145
  0   0 137
  0   0 121
  0   0  98
  0   0  85
  0   0 103
  0   0 127
  0   0 140
  0   0 137
  0   0 116
255 255 255
 93   0   0
 96   0   0
 81   0   0
255 255 255
255 255 255
255 255 255
255 255 255
 67   0   0
 72   0   0
 74   0   0
 76   0   0
 76   0   0
 77   0   0
 78   0   0
 78   0   0
 78   0   0
 79   0   0
 79   0   0
 79   0   0
 79   0   0
 78   0   0
 78   0   0
 78   0   0
 78   0   0
 78   0   0
 78   0   0
 78   0   0
 77   0   0
 77   0   0
 77   0   0
 77   0   0
 77   0   0
 76   0   0
 76   0   0
 76   0   0
 76   0   0
 75   0   0
 75   0   0
 75   0   0
 75   0   0
 74   0   0
 74   0   0
 74   0   0
 74   0   0
 73   0   0
 73   0   0
 73   0   0
 73   0   0
 72   0   0
 72   0   0
 72   0   0
 72   0   0
 71   0   0
 71   0   0
 71   0   0
 71   0   0
 70   0   0
 70   0   0
  0   0   0
  0   0   0
  0   0   0
  0   0   0
 72   0   0
 72   0   0
 71   0   0
 71   0   0
 71   0   0
 71   0   0
 71   0   0
 71   0   0
 70   0   0
 70   0   0
 70   0   0
 70   0   0
 69   0   0
 69   0   0
 68   0   0
 68   0   0
 68   0   0
 68   0   0
 67   0   0
 64   0   0
255 255 255
255 255 255
255 255 255
255 255 255
 70   0   0
 74   0   0
255 255 255
255 255 255
  0   0  80
  0   0  89
  0   0  88
  0   0  83
  0   0  78
  0   0  78
  0   0  84
  0   0  94
  0   0 104
  0   0 111
  0   0 115
  0   0 115
  0   0 111
  0   0 106
  0   0 100
  0   0  94
  0   0  88
  0   0  80
  0   0  69
255 255 255
255 255 255
255 255 255
255 255 255
 68   0   0
 72   0   0
 75   0   0
 77   0   0
 79   0   0
 80   0   0
 82   0   0
 83   0   0
 83   0   0
 84   0   0
 84   0   0
 85   0   0
 85   0   0
 86   0   0
 86   0   0
 87   0   0
 87   0   0
 87   0   0
 88   0   0
 88   0   0
 88   0   0
 89   0   0
 89   0   0
 89   0   0
 90   0   0
 90   0   0
 90   0   0
 91   0   0
 91   0   0
 92   0   0
 92   0   0
 92   0   0
 93   0   0
 93   0   0
 94   0   0
 94   0   0
 95   0   0
 95   0   0
 96   0   0
 96   0   0
 96   0   0
 97   0   0
 97   0   0
 98   0   0
 98   0   0
 99   0   0
 99   0   0
 99   0   0
100   0   0
100   0   0
100   0   0
 99   0   0
 99   0   0
 98   0   0
 97   0   0
 95   0   0
 93   0   0
 89   0   0
 83   0   0
 73   0   0
255 255 255
255 255 255
  0   0  84
  0   0 101
  0   0 115
  0   0 128
  0   0 139
  0   0 148
  0   0 151
  0   0 148
  0   0 137
  0   0 119
  0   0 106
  0   0 112
  0   0 131
  0   0 146
  0   0 153
  0   0 152
  0   0 142
  0   0 121
  0   0  85
255 255 255
255 255 255
  0   0  98
  0   0 123
  0   0 127
  0   0 109
255 255 255
102   0   0
109   0   0
100   0   0
 83   0   0
 70   0   0
 70   0   0
 76   0   0
 81   0   0
 84   0   0
 85   0   0
 85   0   0
 85   0   0
 85   0   0
 85   0   0
 84   0   0
 84   0   0
 84   0   0
 84   0   0
 83   0   0
 83   0   0
 82   0   0
 82   0   0
 82   0   0
 82   0   0
 81   0   0
 81   0   0
 80   0   0
 80   0   0
 80   0   0
 79   0   0
 79   0   0
 79   0   0
 78   0   0
 78   0   0
 78   0   0
 77   0   0
 77   0   0
 77   0   0
 77   0   0
 76   0   0
 76   0   0
 76   0   0
 75   0   0
 75   0   0
 75   0   0
 75   0   0
 74   0   0
 74   0   0
 74   0   0
 74   0   0
 74   0   0
 73   0   0
 73   0   0
 73   0   0
 73   0   0
 73   0   0
 73   0   0
 72   0   0
  0   0   0
  0   0   0
  0   0   0
  0   0   0
 72   0   0
 72   0   0
 72   0   0
 72   0   0
 72   0   0
 72   0   0
 72   0   0
 72   0   0
 72   0   0
 72   0   0
 72   0   0
 72   0   0
 72   0   0
 72   0   0
 72   0   0
 72   0   0
 72   0   0
 73   0   0
 72   0   0
 70   0   0
 66   0   0
255 255 255
255 255 255
 72   0   0
 80   0   0
 82   0   0
 72   0   0
255 255 255
255 255 255
  0   0  70
255 255 255
255 255 255
255 255 255
255 255 255
  0   0  78
  0   0  98
  0   0 115
  0   0 125
  0   0 129
  0   0 126
  0   0 116
  0   0 102
  0   0  86
  0   0  70
255 255 255
255 255 255
255 255 255
 69   0   0
 75   0   0
 78   0   0
 81   0   0
 83   0   0
 84   0   0
 85   0   0
 86   0   0
 86   0   0
 87   0   0
 87   0   0
 87   0   0
 87   0   0
 88   0   0
 88   0   0
 88   0   0
 88   0   0
 88   0   0
 88   0   0
 88   0   0
 89   0   0
 89   0   0
 89   0   0
 89   0   0
 89   0   0
 90   0   0
 90   0   0
 90   0   0
 90   0   0
 91   0   0
 91   0   0
 92   0   0
 92   0   0
 92   0   0
 93   0   0
 93   0   0
 94   0   0
 94   0   0
 95   0   0
 95   0   0
 96   0   0
 96   0   0
 97   0   0
 98   0   0
 98   0   0
 99   0   0
100   0   0
100   0   0
101   0   0
102   0   0
102   0   0
103   0   0
104   0   0
105   0   0
105   0   0
106   0   0
106   0   0
107   0   0
107   0   0
107   0   0
107   0   0
106   0   0
105   0   0
102   0   0
 99   0   0
 93   0   0
 82   0   0
255 255 255
  0   0  77
  0   0 105
  0   0 126
  0   0 141
  0   0 150
  0   0 152
  0   0 144
  0   0 130
  0   0 118
  0   0 122
  0   0 138
  0   0 151
  0   0 156
  0   0 152
  0   0 139
  0   0 114
255 255 255
 99   0   0
103   0   0
 68   0   0
  0   0  96
  0   0 111
  0   0  99
255 255 255
107   0   0
115   0   0
109   0   0
 97   0   0
 85   0   0
 82   0   0
 85   0   0
 88   0   0
 90   0   0
 90   0   0
 89   0   0
 89   0   0
 88   0   0
 88   0   0
 87   0   0
 87   0   0
 86   0   0
 85   0   0
 85   0   0
 84   0   0
 84   0   0
 83   0   0
 83   0   0
 82   0   0
 82   0   0
 81   0   0
 81   0   0
 81   0   0
 80   0   0
 80   0   0
 79   0   0
 79   0   0
 79   0   0
 78   0   0
 78   0   0
 77   0   0
 77   0   0
 77   0   0
 77   0   0
 76   0   0
 76   0   0
 76   0   0
 75   0   0
 75   0   0
 75   0   0
 75   0   0
 74   0   0
 74   0   0
 74   0   0
 74   0   0
 74   0   0
 74   0   0
 73   0   0
 73   0   0
 73   0   0
 73   0   0
 73   0   0
 73   0   0
  0   0   0
  0   0   0
  0   0   0
  0   0   0
 71   0   0
 71   0   0
 71   0   0
 71   0   0
 71   0   0
 72   0   0
 72   0   0
 72   0   0
 72   0   0
 72   0   0
 72   0   0
 72   0   0
 72   0   0
 72   0   0
 73   0   0
 73   0   0
 73   0   0
 74   0   0
 74   0   0
 73   0   0
 70   0   0
 68   0   0
 71   0   0
 79   0   0
 85   0   0
 85   0   0
 76   0   0
255 255 255
255 255 255
255 255 255
255 255 255
 71   0   0
 74   0   0
255 255 255
255 255 255
  0   0  98
  0   0 120
255 157   0
255 157   0
255 157   0
  0   0 116
  0   0  91
255 255 255
 68   0   0
 78   0   0
 82   0   0
 84   0   0
 86   0   0
 88   0   0
 88   0   0
 89   0   0
 89   0   0
 89   0   0
 89   0   0
 89   0   0
 89   0   0
 89   0   0
 88   0   0
 88   0   0
 88   0   0
 88   0   0
 88   0   0
 88   0   0
 88   0   0
 88   0   0
 88   0   0
 88   0   0
 88   0   0
 88   0   0
 88   0   0
 88   0   0
 88   0   0
 89   0   0
 89   0   0
 89   0   0
 89   0   0
 90   0   0
 90   0   0
 90   0   0
 91   0   0
 91   0   0
 91   0   0
 92   0   0
 92   0   0
 93   0   0
 93   0   0
 94   0   0
 95   0   0
 95   0   0
 96   0   0
 97   0   0
 97   0   0
 98   0   0
 99   0   0
100   0   0
101   0   0
102   0   0
103   0   0
104   0   0
105   0   0
106   0   0
107   0   0
108   0   0
109   0   0
110   0   0
111   0   0
112   0   0
113   0   0
114   0   0
114   0   0
115   0   0
114   0   0
113   0   0
111   0   0
105   0   0
 93   0   0
255 255 255
  0   0  97
  0   0 124
  0   0 140
  0   0 146
  0   0 143
  0   0 134
  0   0 125
  0   0 126
  0   0 138
  0   0 148
  0   0 152
  0   0 146
  0   0 130
  0   0  98
 83   0   0
116   0   0
121   0   0
107   0   0
255 255 255
  0   0  91
  0   0  85
 72   0   0
108   0   0
117   0   0
113   0   0
102   0   0
 92   0   0
 88   0   0
 89   0   0
 91   0   0
 91   0   0
 91   0   0
 90   0   0
 90   0   0
 89   0   0
 88   0   0
 87   0   0
 86   0   0
 86   0   0
 85   0   0
 84   0   0
 84   0   0
 83   0   0
 82   0   0
 82   0   0
 81   0   0
 81   0   0
 80   0   0
 80   0   0
 79   0   0
 79   0   0
 78   0   0
 78   0   0
 78   0   0
 77   0   0
 77   0   0
 76   0   0
 76   0   0
 76   0   0
 75   0   0
 75   0   0
 75   0   0
 74   0   0
 74   0   0
 74   0   0
 74   0   0
 73   0   0
 73   0   0
 73   0   0
 73   0   0
 73   0   0
 73   0   0
 72   0   0
 72   0   0
 72   0   0
 72   0   0
 72   0   0
 72   0   0
 72   0   0
 72   0   0
  0   0   0
  0   0   0
  0   0   0
  0   0   0
 69   0   0
 69   0   0
 69   0   0
 69   0   0
 69   0   0
 69   0   0
 70   0   0
 70   0   0
 70   0   0
 70   0   0
 70   0   0
 70   0   0
 71   0   0
 71   0   0
 71   0   0
 72   0   0
 72   0   0
 73   0   0
 73   0   0
 72   0   0
 70   0   0
 70   0   0
 73   0   0
 80   0   0
 85   0   0
 84   0   0
 77   0   0
 65   0   0
255 255 255
 67   0   0
 79   0   0
 86   0   0
 89   0   0
 82   0   0
255 255 255
  0   0  92
  0   0 119
255 157   0
255 157   0
255 157   0
  0   0 108
  0   0  66
 79   0   0
 93   0   0
 96   0   0
 95   0   0
 94   0   0
 93   0   0
 92   0   0
 92   0   0
 91   0   0
 90   0   0
 90   0   0
 89   0   0
 88   0   0
 88   0   0
 87   0   0
 87   0   0
 87   0   0
 86   0   0
 86   0   0
 86   0   0
 86   0   0
 85   0   0
 85   0   0
 85   0   0
 85   0   0
 85   0   0
 85   0   0
 85   0   0
 85   0   0
 85   0   0
 85   0   0
 86   0   0
 86   0   0
 86   0   0
 86   0   0
 87   0   0
 87   0   0
 87   0   0
 88   0   0
 88   0   0
 89   0   0
 89   0   0
 90   0   0
 90   0   0
 91   0   0
 91   0   0
 92   0   0
 93   0   0
 94   0   0
 94   0   0
 95   0   0
 96   0   0
 97   0   0
 98   0   0
 99   0   0
100   0   0
101   0   0
102   0   0
104   0   0
105   0   0
106   0   0
108   0   0
109   0   0
111   0   0
112   0   0
114   0   0
116   0   0
117   0   0
119   0   0
121   0   0
122   0   0
122   0   0
122   0   0
117   0   0
106   0   0
 77   0   0
  0   0  87
  0   0 115
  0   0 127
  0   0 130
  0   0 128
  0   0 124
  0   0 122
  0   0 126
  0   0 135
  0   0 138
  0   0 131
  0   0 112
255 255 255
101   0   0
123   0   0
129   0   0
120   0   0
 91   0   0
255 255 255
  0   0  67
 75   0   0
106   0   0
116   0   0
113   0   0
104   0   0
 94   0   0
 89   0   0
 89   0   0
 90   0   0
 90   0   0
 90   0   0
 89   0   0
 88   0   0
 87   0   0
 86   0   0
 85   0   0
 84   0   0
 84   0   0
 83   0   0
 82   0   0
 81   0   0
 81   0   0
 80   0   0
 79   0   0
 79   0   0
 78   0   0
 78   0   0
 77   0   0
 77   0   0
 76   0   0
 76   0   0
 75   0   0
 75   0   0
 74   0   0
 74   0   0
 74   0   0
 73   0   0
 73   0   0
 73   0   0
 72   0   0
 72   0   0
 72   0   0
 71   0   0
 71   0   0
 71   0   0
 71   0   0
 71   0   0
 70   0   0
 70   0   0
 70   0   0
 70   0   0
 70   0   0
 70   0   0
 69   0   0
 69   0   0
 69   0   0
 69   0   0
 69   0   0
 69   0   0
  0   0   0
  0   0   0
  0   0   0
  0   0   0
 65   0   0
 65   0   0
 65   0   0
 65   0   0
 66   0   0
 66   0   0
 66   0   0
 66   0   0
 66   0   0
 66   0   0
 67   0   0
 67   0   0
 67   0   0
 68   0   0
 68   0   0
 69   0   0
 69   0   0
 70   0   0
 70   0   0
 69   0   0
 68   0   0
 68   0   0
 72   0   0
 78   0   0
 82   0   0
 81   0   0
 75   0   0
 67   0   0
 66   0   0
 75   0   0
 84   0   0
 91   0   0
 94   0   0
 90   0   0
 71   0   0
  0   0  79
  0   0 112
255 157   0
255 157   0
255 157   0
  0   0  91
 66   0   0
 96   0   0
102   0   0
102   0   0
 99   0   0
 96   0   0
 94   0   0
 92   0   0
 90   0   0
 89   0   0
 88   0   0
 87   0   0
 86   0   0
 85   0   0
 84   0   0
 84   0   0
 83   0   0
 83   0   0
 82   0   0
 82   0   0
 81   0   0
 81   0   0
 81   0   0
 81   0   0
 81   0   0
 80   0   0
 80   0   0
 80   0   0
 80   0   0
 80   0   0
 81   0   0
 81   0   0
 81   0   0
 81   0   0
 81   0   0
 81   0   0
 82   0   0
 82   0   0
 82   0   0
 83   0   0
 83   0   0
 84   0   0
 84   0   0
 85   0   0
 85   0   0
 86   0   0
 86   0   0
 87   0   0
 88   0   0
 88   0   0
 89   0   0
 90   0   0
 91   0   0
 92   0   0
 93   0   0
 94   0   0
 95   0   0
 96   0   0
 97   0   0
 99   0   0
100   0   0
102   0   0
103   0   0
105   0   0
107   0   0
109   0   0
111   0   0
113   0   0
115   0   0
118   0   0
120   0   0
123   0   0
125   0   0
127   0   0
126   0   0
122   0   0
112   0   0
 95   0   0
 72   0   0
 30 180  60
 30 180  60
 30 180  60
 30 180  60
 30 180  60
 30 180  60
 30 180  60
  0   0 107
  0   0 105
  0   0  83
 74   0   0
109   0   0
125   0   0
130   0   0
123   0   0
102   0   0
255 255 255
255 255 255
 75   0   0
101   0   0
110   0   0
109   0   0
101   0   0
 92   0   0
 86   0   0
 86   0   0
 86   0   0
 86   0   0
 86   0   0
 85   0   0
 84   0   0
 83   0   0
 82   0   0
 81   0   0
 80   0   0
 79   0   0
 79   0   0
 78   0   0
 77   0   0
 76   0   0
 76   0   0
 75   0   0
 75   0   0
 74   0   0
 73   0   0
 73   0   0
 72   0   0
 72   0   0
 71   0   0
 71   0   0
 71   0   0
 70   0   0
 70   0   0
 69   0   0
 69   0   0
 69   0   0
 68   0   0
 68   0   0
 68   0   0
 68   0   0
 67   0   0
 67   0   0
 67   0   0
 67   0   0
 66   0   0
 66   0   0
 66   0   0
 66   0   0
 66   0   0
 66   0   0
 66   0   0
 65   0   0
 65   0   0
 65   0   0
 65   0   0
 65   0   0
 65   0   0
  0   0   0
  0   0   0
  0   0   0
  0   0   0
255 255 255
255 255 255
255 255 255
255 255 255
255 255 255
255 255 255
255 255 255
255 255 255
255 255 255
255 255 255
255 255 255
255 255 255
255 255 255
255 255 255
255 255 255
255 255 255
255 255 255
 65   0   0
 65   0   0
 64   0   0
255 255 255
255 255 255
 68   0   0
 73   0   0
 76   0   0
 75   0   0
 70   0   0
 65   0   0
 66   0   0
 74   0   0
 83   0   0
 89   0   0
 93   0   0
 91   0   0
 78   0   0
255 255 255
  0   0  95
255 157   0
255 157   0
255 157   0
255 255 255
 86   0   0
100   0   0
102   0   0
100   0   0
 96   0   0
 92   0   0
 89   0   0
 86   0   0
 85   0   0
 83   0   0
 82   0   0
 81   0   0
 79   0   0
 79   0   0
 78   0   0
 77   0   0
 76   0   0
 76   0   0
 75   0   0
 75   0   0
 75   0   0
 74   0   0
 74   0   0
 74   0   0
 74   0   0
 74   0   0
 74   0   0
 74   0   0
 74   0   0
 74   0   0
 74   0   0
 74   0   0
 74   0   0
 74   0   0
 74   0   0
 74   0   0
 75   0   0
 75   0   0
 75   0   0
 76   0   0
 76   0   0
 76   0   0
 77   0   0
 77   0   0
 78   0   0
 78   0   0
 79   0   0
 80   0   0
 80   0   0
 81   0   0
 82   0   0
 82   0   0
 83   0   0
 84   0   0
 85   0   0
 86   0   0
 87   0   0
 88   0   0
 90   0   0
 91   0   0
 92   0   0
 94   0   0
 95   0   0
 97   0   0
 99   0   0
101   0   0
103   0   0
105   0   0
108   0   0
111   0   0
114   0   0
117   0   0
120   0   0
123   0   0
125   0   0
124   0   0
122   0   0
120   0   0
125   0   0
 30 180  60
 30 180  60
 30 180  60
 30 180  60
 30 180  60
 30 180  60
 30 180  60
 81   0   0
255 255 255
255 255 255
 89   0   0
108   0   0
119   0   0
123   0   0
118   0   0
101   0   0
 72   0   0
255 255 255
 71   0   0
 93   0   0
102   0   0
101   0   0
 94   0   0
 86   0   0
 81   0   0
 79   0   0
 80   0   0
 80   0   0
 79   0   0
 78   0   0
 77   0   0
 76   0   0
 75   0   0
 74   0   0
 74   0   0
 73   0   0
 72   0   0
 71   0   0
 71   0   0
 70   0   0
 69   0   0
 69   0   0
 68   0   0
 68   0   0
 67   0   0
 67   0   0
 66   0   0
 66   0   0
 65   0   0
 65   0   0
 65   0   0
 64   0   0
255 255 255
255 255 255
255 255 255
255 255 255
255 255 255
255 255 255
255 255 255
255 255 255
255 255 255
255 255 255
255 255 255
255 255 255
255 255 255
255 255 255
255 255 255
255 255 255
255 255 255
255 255 255
255 255 255
255 255 255
255 255 255
255 255 255
255 255 255
255 255 255
255 255 255
  0   0   0
  0   0   0
  0   0   0
  0   0   0
255 255 255
255 255 255
255 255 255
255 255 255
255 255 255
255 255 255
255 255 255
255 255 255
255 255 255
255 255 255
255 255 255
255 255 255
255 255 255
255 255 255
255 255 255
255 255 255
255 255 255
255 255 255
255 255 255
255 255 255
255 255 255
255 255 255
255 255 255
255 255 255
 66   0   0
 65   0   0
255 255 255
255 255 255
255 255 255
 67   0   0
 75   0   0
 80   0   0
 83   0   0
255 157   0
255 157   0
255 157   0
255 157   0
255 157   0
255 157   0
255 157   0
255 157   0
255 157   0
255 157   0
255 157   0
 90   0   0
 86   0   0
 82   0   0
 78   0   0
 76   0   0
 74   0   0
 73   0   0
 71   0   0
 70   0   0
 69   0   0
 68   0   0
 67   0   0
 67   0   0
 66   0   0
 66   0   0
 65   0   0
 65   0   0
 65   0   0
 64   0   0
 64   0   0
255 255 255
255 255 255
255 255 255
255 255 255
255 255 255
255 255 255
255 255 255
255 255 255
255 255 255
255 255 255
255 255 255
 64   0   0
 64   0   0
 64   0   0
 65   0   0
 65   0   0
 65   0   0
 66   0   0
 66   0   0
 66   0   0
 67   0   0
 67   0   0
 68   0   0
 68   0   0
 69   0   0
 69   0   0
 70   0   0
 71   0   0
 71   0   0
 72   0   0
 73   0   0
 74   0   0
 75   0   0
 75   0   0
 77   0   0
 78   0   0
 79   0   0
 80   0   0
 81   0   0
 83   0   0
 84   0   0
 86   0   0
 88   0   0
 90   0   0
 92   0   0
 95   0   0
 97   0   0
100   0   0
103   0   0
107   0   0
110   0   0
113   0   0
114   0   0
116   0   0
121   0   0
136   0   0
 30 180  60
 30 180  60
 30 180  60
 30 180  60
 30 180  60
 30 180  60
 30 180  60
113   0   0
 81   0   0
 75   0   0
 86   0   0
 98   0   0
106   0   0
109   0   0
105   0   0
 91   0   0
 68   0   0
255 255 255
255 255 255
 80   0   0
 89   0   0
 88   0   0
 82   0   0
 75   0   0
 71   0   0
 69   0   0
 69   0   0
 69   0   0
 69   0   0
 68   0   0
 67   0   0
 66   0   0
 65   0   0
 65   0   0
255 255 255
255 255 255
255 255 255
255 255 255
255 255 255
255 255 255
255 255 255
255 255 255
255 255 255
255 255 255
255 255 255
255 255 255
255 255 255
255 255 255
255 255 255
255 255 255
255 255 255
255 255 255
255 255 255
255 255 255
255 255 255
255 255 255
255 255 255
255 255 255
255 255 255
255 255 255
255 255 255
255 255 255
255 255 255
255 255 255
255 255 255
255 255 255
255 255 255
255 255 255
255 255 255
255 255 255
255 255 255
255 255 255
255 255 255
255 255 255
255 255 255
255 255 255
255 255 255
  0   0   0
  0   0   0
  0   0   0
  0   0   0
255 255 255
255 255 255
255 255 255
255 255 255
255 255 255
255 255 255
255 255 255
255 255 255
255 255 255
255 255 255
255 255 255
255 255 255
255 255 255
255 255 255
255 255 255
255 255 255
255 255 255
255 255 255
255 255 255
255 255 255
255 255 255
255 255 255
255 255 255
255 255 255
255 255 255
255 255 255
255 255 255
255 255 255
255 255 255
255 255 255
255 255 255
255 255 255
255 255 255
255 157   0
255 157   0
255 157   0
255 157   0
255 157   0
255 157   0
255 157   0
255 157   0
255 157   0
255 157   0
255 157   0
 66   0   0
255 255 255
255 255 255
255 255 255
255 255 255
255 255 255
255 255 255
255 255 255
255 255 255
255 255 255
255 255 255
255 255 255
255 255 255
255 255 255
255 255 255
255 255 255
255 255 255
255 255 255
255 255 255
255 255 255
255 255 255
255 255 255
255 255 255
255 255 255
255 255 255
255 255 255
255 255 255
255 255 255
255 255 255
255 255 255
255 255 255
255 255 255
255 255 255
255 255 255
255 255 255
255 255 255
255 255 255
255 255 255
255 255 255
255 255 255
255 255 255
255 255 255
255 255 255
255 255 255
255 255 255
255 255 255
255 255 255
255 255 255
255 255 255
255 255 255
255 255 255
255 255 255
255 255 255
255 255 255
255 255 255
255 255 255
255 255 255
255 255 255
255 255 255
255 255 255
255 255 255
255 255 255
255 255 255
 65   0   0
 67   0   0
 69   0   0
 71   0   0
 73   0   0
 76   0   0
 78   0   0
 81   0   0
 83   0   0
 85   0   0
 87   0   0
 93   0   0
110   0   0
 30 180  60
 30 180  60
 30 180  60
 30 180  60
 30 180  60
 30 180  60
 30 180  60
 94   0   0
 69   0   0
255 255 255
 65   0   0
 72   0   0
 78   0   0
 80   0   0
 77   0   0
 67   0   0
255 255 255
255 255 255
255 255 255
255 255 255
255 255 255
255 255 255
255 255 255
255 255 255
255 255 255
255 255 255
255 255 255
255 255 255
255 255 255
255 255 255
255 255 255
255 255 255
255 255 255
255 255 255
255 255 255
255 255 255
255 255 255
255 255 255
255 255 255
255 255 255
255 255 255
255 255 255
255 255 255
255 255 255
255 255 255
255 255 255
255 255 255
255 255 255
255 255 255
255 255 255
255 255 255
255 255 255
255 255 255
255 255 255
255 255 255
255 255 255
255 255 255
255 255 255
255 255 255
255 255 255
255 255 255
255 255 255
255 255 255
255 255 255
255 255 255
255 255 255
255 255 255
255 255 255
255 255 255
255 255 255
255 255 255
255 255 255
255 255 255
255 255 255
255 255 255
255 255 255
255 255 255
  0   0   0
  0   0   0
  0   0   0
  0   0   0
255 255 255
255 255 255
255 255 255
255 255 255
255 255 255
255 255 255
255 255 255
255 255 255
255 255 255
255 255 255
255 255 255
255 255 255
255 255 255
255 255 255
255 255 255
255 255 255
255 255 255
255 255 255
255 255 255
255 255 255
255 255 255
255 255 255
255 255 255
255 255 255
255 255 255
255 255 255
255 255 255
255 255 255
255 255 255
255 255 255
255 255 255
255 255 255
255 255 255
255 157   0
255 157   0
255 157   0
255 157   0
255 157   0
255 157   0
255 157   0
255 157   0
255 157   0
255 157   0
255 157   0
  0   0  66
255 255 255
255 255 255
255 255 255
255 255 255
255 255 255
255 255 255
255 255 255
255 255 255
255 255 255
255 255 255
255 255 255
255 255 255
255 255 255
255 255 255
255 255 255
255 255 255
255 255 255
255 255 255
255 255 255
255 255 255
255 255 255
255 255 255
255 255 255
255 255 255
255 255 255
255 255 255
255 255 255
255 255 255
255 255 255
255 255 255
255 255 255
255 255 255
255 255 255
255 255 255
255 255 255
255 255 255
255 255 255
255 255 255
255 255 255
255 255 255
255 255 255
255 255 255
255 255 255
255 255 255
255 255 255
255 255 255
255 255 255
255 255 255
255 255 255
255 255 255
255 255 255
255 255 255
255 255 255
255 255 255
255 255 255
255 255 255
255 255 255
255 255 255
255 255 255
255 255 255
255 255 255
255 255 255
  0   0  65
  0   0  67
  0   0  69
  0   0  71
  0   0  73
  0   0  76
  0   0  78
  0   0  81
  0   0  83
  0   0  85
  0   0  87
  0   0  94
  0   0 110
 30 180  60
 30 180  60
 30 180  60
 30 180  60
 30 180  60
 30 180  60
 30 180  60
  0   0  94
  0   0  69
255 255 255
  0   0  65
  0   0  72
  0   0  78
  0   0  80
  0   0  77
  0   0  67
255 255 255
255 255 255
255 255 255
255 255 255
255 255 255
255 255 255
255 255 255
255 255 255
255 255 255
255 255 255
255 255 255
255 255 255
255 255 255
255 255 255
255 255 255
255 255 255
255 255 255
255 255 255
255 255 255
255 255 255
255 255 255
255 255 255
255 255 255
255 255 255
255 255 255
255 255 255
255 255 255
255 255 255
255 255 255
255 255 255
255 255 255
255 255 255
255 255 255
255 255 255
255 255 255
255 255 255
255 255 255
255 255 255
255 255 255
255 255 255
255 255 255
255 255 255
255 255 255
255 255 255
255 255 255
255 255 255
255 255 255
255 255 255
255 255 255
255 255 255
255 255 255
255 255 255
255 255 255
255 255 255
255 255 255
255 255 255
255 255 255
255 255 255
255 255 255
255 255 255
255 255 255
  0   0   0
  0   0   0
  0   0   0
  0   0   0
255 255 255
255 255 255
255 255 255
255 255 255
255 255 255
255 255 255
255 255 255
255 255 255
255 255 255
255 255 255
255 255 255
255 255 255
255 255 255
255 255 255
255 255 255
255 255 255
255 255 255
255 255 255
255 255 255
255 255 255
255 255 255
255 255 255
255 255 255
255 255 255
  0   0  67
  0   0  65
255 255 255
255 255 255
255 255 255
  0   0  67
  0   0  75
  0   0  80
  0   0  84
  0   0  83
  0   0  75
255 255 255
255 255 255
255 157   0
255 157   0
255 157   0
  0   0  85
  0   0  88
  0   0  93
  0   0  93
  0   0  90
  0   0  86
  0   0  82
  0   0  78
  0   0  76
  0   0  74
  0   0  73
  0   0  71
  0   0  70
  0   0  69
  0   0  68
  0   0  68
  0   0  67
  0   0  66
  0   0  66
  0   0  65
  0   0  65
  0   0  65
  0   0  64
  0   0  64
255 255 255
255 255 255
255 255 255
255 255 255
255 255 255
255 255 255
255 255 255
255 255 255
255 255 255
255 255 255
255 255 255
  0   0  64
  0   0  64
  0   0  64
  0   0  65
  0   0  65
  0   0  65
  0   0  66
  0   0  66
  0   0  66
  0   0  67
  0   0  67
  0   0  68
  0   0  68
  0   0  69
  0   0  69
  0   0  70
  0   0  71
  0   0  71
  0   0  72
  0   0  73
  0   0  74
  0   0  75
  0   0  76
  0   0  77
  0   0  78
  0   0  79
  0   0  80
  0   0  81
  0   0  83
  0   0  84
  0   0  86
  0   0  88
  0   0  90
  0   0  92
  0   0  95
  0   0  97
  0   0 100
  0   0 103
  0   0 107
  0   0 110
  0   0 113
  0   0 114
  0   0 116
  0   0 121
  0   0 136
 30 180  60
 30 180  60
 30 180  60
 30 180  60
 30 180  60
 30 180  60
 30 180  60
  0   0 113
  0   0  81
  0   0  75
  0   0  86
  0   0  98
  0   0 106
  0   0 109
  0   0 105
  0   0  91
  0   0  68
255 255 255
255 255 255
  0   0  80
  0   0  89
  0   0  88
  0   0  82
  0   0  75
  0   0  71
  0   0  69
  0   0  69
  0   0  69
  0   0  69
  0   0  68
  0   0  67
  0   0  66
  0   0  65
  0   0  65
255 255 255
255 255 255
255 255 255
255 255 255
255 255 255
255 255 255
255 255 255
255 255 255
255 255 255
255 255 255
255 255 255
255 255 255
255 255 255
255 255 255
255 255 255
255 255 255
255 255 255
255 255 255
255 255 255
255 255 255
255 255 255
255 255 255
255 255 255
255 255 255
255 255 255
255 255 255
255 255 255
255 255 255
255 255 255
255 255 255
255 255 255
255 255 255
255 255 255
255 255 255
255 255 255
255 255 255
255 255 255
255 255 255
255 255 255
255 255 255
255 255 255
255 255 255
255 255 255
  0   0   0
  0   0   0
  0   0   0
  0   0   0
255 255 255
255 255 255
255 255 255
255 255 255
255 255 255
255 255 255
255 255 255
255 255 255
255 255 255
255 255 255
255 255 255
255 255 255
255 255 255
255 255 255
255 255 255
255 255 255
255 255 255
  0   0  65
  0   0  65
  0   0  64
255 255 255
255 255 255
  0   0  68
  0   0  73
  0   0  76
  0   0  75
  0   0  70
  0   0  64
  0   0  66
  0   0  74
  0   0  83
  0   0  89
  0   0  92
  0   0  91
  0   0  78
255 255 255
 95   0   0
255 157   0
255 157   0
255 157   0
255 255 255
  0   0  86
  0   0  99
  0   0 102
  0   0 100
  0   0  96
  0   0  92
  0   0  89
  0   0  86
  0   0  85
  0   0  83
  0   0  82
  0   0  81
  0   0  79
  0   0  79
  0   0  78
  0   0  77
  0   0  76
  0   0  76
  0   0  75
  0   0  75
  0   0  75
  0   0  74
  0   0  74
  0   0  74
  0   0  74
  0   0  74
  0   0  74
  0   0  74
  0   0  74
  0   0  74
  0   0  74
  0   0  74
  0   0  74
  0   0  74
  0   0  74
  0   0  74
  0   0  75
  0   0  75
  0   0  75
  0   0  76
  0   0  76
  0   0  76
  0   0  77
  0   0  77
  0   0  78
  0   0  78
  0   0  79
  0   0  80
  0   0  80
  0   0  81
  0   0  82
  0   0  82
  0   0  83
  0   0  84
  0   0  85
  0   0  86
  0   0  87
  0   0  88
  0   0  90
  0   0  91
  0   0  92
  0   0  94
  0   0  95
  0   0  97
  0   0  99
  0   0 101
  0   0 103
  0   0 105
  0   0 108
  0   0 111
  0   0 114
  0   0 117
  0   0 120
  0   0 123
  0   0 125
  0   0 124
  0   0 122
  0   0 120
  0   0 125
 30 180  60
 30 180  60
 30 180  60
 30 180  60
 30 180  60
 30 180  60
 30 180  60
  0   0  81
255 255 255
255 255 255
  0   0  89
  0   0 108
  0   0 119
  0   0 123
  0   0 118
  0   0 101
  0   0  72
255 255 255
  0   0  71
  0   0  93
  0   0 102
  0   0 101
  0   0  94
  0   0  86
  0   0  81
  0   0  79
  0   0  80
  0   0  80
  0   0  79
  0   0  78
  0   0  77
  0   0  76
  0   0  75
  0   0  74
  0   0  74
  0   0  73
  0   0  72
  0   0  71
  0   0  71
  0   0  70
  0   0  69
  0   0  69
  0   0  68
  0   0  68
  0   0  67
  0   0  67
  0   0  66
  0   0  66
  0   0  65
  0   0  65
  0   0  65
  0   0  64
255 255 255
255 255 255
255 255 255
255 255 255
255 255 255
255 255 255
255 255 255
255 255 255
255 255 255
255 255 255
255 255 255
255 255 255
255 255 255
255 255 255
255 255 255
255 255 255
255 255 255
255 255 255
255 255 255
255 255 255
255 255 255
255 255 255
255 255 255
255 255 255
255 255 255
  0   0   0
  0   0   0
  0   0   0
  0   0   0
  0   0  65
  0   0  65
  0   0  65
  0   0  65
  0   0  66
  0   0  66
  0   0  66
  0   0  66
  0   0  66
  0   0  66
  0   0  67
  0   0  67
  0   0  67
  0   0  68
  0   0  68
  0   0  69
  0   0  69
  0   0  70
  0   0  70
  0   0  69
  0   0  68
  0   0  68
  0   0  72
  0   0  78
  0   0  82
  0   0  81
  0   0  75
  0   0  67
  0   0  66
  0   0  75
  0   0  84
  0   0  91
  0   0  94
  0   0  90
  0   0  71
 79   0   0
112   0   0
255 157   0
255 157   0
255 157   0
 91   0   0
  0   0  66
  0   0  95
  0   0 102
  0   0 102
  0   0  99
  0   0  96
  0   0  93
  0   0  92
  0   0  90
  0   0  89
  0   0  88
  0   0  87
  0   0  86
  0   0  85
  0   0  84
  0   0  84
  0   0  83
  0   0  83
  0   0  82
  0   0  82
  0   0  81
  0   0  81
  0   0  81
  0   0  81
  0   0  81
  0   0  80
  0   0  80
  0   0  80
  0   0  80
  0   0  80
  0   0  81
  0   0  81
  0   0  81
  0   0  81
  0   0  81
  0   0  81
  0   0  82
  0   0  82
  0   0  82
  0   0  83
  0   0  83
  0   0  84
  0   0  84
  0   0  85
  0   0  85
  0   0  86
  0   0  86
  0   0  87
  0   0  88
  0   0  88
  0   0  89
  0   0  90
  0   0  91
  0   0  92
  0   0  93
  0   0  94
  0   0  95
  0   0  96
  0   0  97
  0   0  99
  0   0 100
  0   0 102
  0   0 103
  0   0 105
  0   0 107
  0   0 109
  0   0 111
  0   0 113
  0   0 115
  0   0 118
  0   0 120
  0   0 123
  0   0 125
  0   0 127
  0   0 126
  0   0 122
  0   0 112
  0   0  95
  0   0  71
255 255 255
255 255 255
 94   0   0
108   0   0
 95   0   0
 74   0   0
 92   0   0
107   0   0
106   0   0
 83   0   0
  0   0  74
  0   0 109
  0   0 125
  0   0 130
  0   0 123
  0   0 102
255 255 255
255 255 255
  0   0  75
  0   0 101
  0   0 110
  0   0 109
  0   0 101
  0   0  92
  0   0  86
  0   0  86
  0   0  86
  0   0  86
  0   0  86
  0   0  85
  0   0  84
  0   0  83
  0   0  82
  0   0  81
  0   0  80
  0   0  79
  0   0  79
  0   0  78
  0   0  77
  0   0  76
  0   0  76
  0   0  75
  0   0  75
  0   0  74
  0   0  73
  0   0  73
  0   0  72
  0   0  72
  0   0  71
  0   0  71
  0   0  71
  0   0  70
  0   0  70
  0   0  69
  0   0  69
  0   0  69
  0   0  68
  0   0  68
  0   0  68
  0   0  68
  0   0  67
  0   0  67
  0   0  67
  0   0  67
  0   0  66
  0   0  66
  0   0  66
  0   0  66
  0   0  66
  0   0  66
  0   0  66
  0   0  65
  0   0  65
  0   0  65
  0   0  65
  0   0  65
  0   0  65
  0   0   0
  0   0   0
  0   0   0
  0   0   0
  0   0  69
  0   0  69
  0   0  69
  0   0  69
  0   0  69
  0   0  69
  0   0  70
  0   0  70
  0   0  70
  0   0  70
  0   0  70
  0   0  70
  0   0  71
  0   0  71
  0   0  71
  0   0  72
  0   0  72
  0   0  73
  0   0  73
  0   0  72
  0   0  70
  0   0  70
  0   0  73
  0   0  80
  0   0  85
  0   0  84
  0   0  77
  0   0  65
255 255 255
  0   0  67
  0   0  79
  0   0  86
  0   0  88
  0   0  82
255 255 255
 92   0   0
119   0   0
255 157   0
255 157   0
255 157   0
108   0   0
 66   0   0
  0   0  79
  0   0  93
  0   0  96
  0   0  95
  0   0  94
  0   0  93
  0   0  92
  0   0  92
  0   0  91
  0   0  90
  0   0  90
  0   0  89
  0   0  88
  0   0  88
  0   0  87
  0   0  87
  0   0  87
  0   0  86
  0   0  86
  0   0  86
  0   0  86
  0   0  85
  0   0  85
  0   0  85
  0   0  85
  0   0  85
  0   0  85
  0   0  85
  0   0  85
  0   0  85
  0   0  85
  0   0  86
  0   0  86
  0   0  86
  0   0  86
  0   0  87
  0   0  87
  0   0  87
  0   0  88
  0   0  88
  0   0  89
  0   0  89
  0   0  90
  0   0  90
  0   0  91
  0   0  91
  0   0  92
  0   0  93
  0   0  94
  0   0  94
  0   0  95
  0   0  96
  0   0  97
  0   0  98
  0   0  99
  0   0 100
  0   0 101
  0   0 102
  0   0 104
  0   0 105
  0   0 106
  0   0 108
  0   0 109
  0   0 111
  0   0 112
  0   0 114
  0   0 116
  0   0 117
  0   0 119
  0   0 121
  0   0 122
  0   0 122
  0   0 121
  0   0 117
  0   0 106
  0   0  77
 87   0   0
115   0   0
127   0   0
130   0   0
128   0   0
124   0   0
121   0   0
126   0   0
135   0   0
138   0   0
131   0   0
112   0   0
255 255 255
  0   0 101
  0   0 123
  0   0 129
  0   0 120
  0   0  91
255 255 255
 67   0   0
  0   0  75
  0   0 106
  0   0 116
  0   0 113
  0   0 103
  0   0  94
  0   0  89
  0   0  89
  0   0  90
  0   0  90
  0   0  90
  0   0  89
  0   0  88
  0   0  87
  0   0  86
  0   0  85
  0   0  84
  0   0  84
  0   0  83
  0   0  82
  0   0  81
  0   0  81
  0   0  80
  0   0  79
  0   0  79
  0   0  78
  0   0  78
  0   0  77
  0   0  77
  0   0  76
  0   0  76
  0   0  75
  0   0  75
  0   0  74
  0   0  74
  0   0  74
  0   0  73
  0   0  73
  0   0  73
  0   0  72
  0   0  72
  0   0  72
  0   0  71
  0   0  71
  0   0  71
  0   0  71
  0   0  71
  0   0  70
  0   0  70
  0   0  70
  0   0  70
  0   0  70
  0   0  70
  0   0  69
  0   0  69
  0   0  69
  0   0  69
  0   0  69
  0   0  69
  0   0   0
  0   0   0
  0   0   0
  0   0   0
  0   0  71
  0   0  71
  0   0  71
  0   0  71
  0   0  71
  0   0  72
  0   0  72
  0   0  72
  0   0  72
  0   0  72
  0   0  72
  0   0  72
  0   0  72
  0   0  72
  0   0  73
  0   0  73
  0   0  73
  0   0  74
  0   0  74
  0   0  73
  0   0  70
  0   0  68
  0   0  71
  0   0  79
  0   0  85
  0   0  85
  0   0  76
255 255 255
255 255 255
255 255 255
255 255 255
  0   0  71
  0   0  74
255 255 255
255 255 255
 98   0   0
120   0   0
133   0   0
137   0   0
131   0   0
116   0   0
 91   0   0
255 255 255
  0   0  68
  0   0  78
  0   0  82
  0   0  84
  0   0  86
  0   0  87
  0   0  88
  0   0  89
  0   0  89
  0   0  89
  0   0  89
  0   0  89
  0   0  89
  0   0  89
  0   0  88
  0   0  88
  0   0  88
  0   0  88
  0   0  88
  0   0  88
  0   0  88
  0   0  88
  0   0  88
  0   0  88
  0   0  88
  0   0  88
  0   0  88
  0   0  88
  0   0  88
  0   0  89
  0   0  89
  0   0  89
  0   0  89
  0   0  90
  0   0  90
  0   0  90
  0   0  91
  0   0  91
  0   0  91
  0   0  92
  0   0  92
  0   0  93
  0   0  93
  0   0  94
  0   0  95
  0   0  95
  0   0  96
  0   0  97
  0   0  97
  0   0  98
  0   0  99
  0   0 100
  0   0 101
  0   0 102
  0   0 103
  0   0 104
  0   0 105
  0   0 106
  0   0 107
  0   0 108
  0   0 109
  0   0 110
  0   0 111
  0   0 112
  0   0 113
  0   0 114
  0   0 114
  0   0 115
  0   0 114
  0   0 113
  0   0 111
  0   0 105
  0   0  92
255 255 255
 97   0   0
124   0   0
140   0   0
146   0   0
143   0   0
134   0   0
125   0   0
126   0   0
138   0   0
148   0   0
152   0   0
146   0   0
130   0   0
 98   0   0
  0   0  82
  0   0 116
  0   0 121
  0   0 107
255 255 255
 91   0   0
 85   0   0
  0   0  72
  0   0 108
  0   0 117
  0   0 113
  0   0 102
  0   0  92
  0   0  88
  0   0  89
  0   0  91
  0   0  91
  0   0  91
  0   0  90
  0   0  90
  0   0  89
  0   0  88
  0   0  87
  0   0  86
  0   0  86
  0   0  85
  0   0  84
  0   0  84
  0   0  83
  0   0  82
  0   0  82
  0   0  81
  0   0  81
  0   0  80
  0   0  80
  0   0  79
  0   0  79
  0   0  78
  0   0  78
  0   0  78
  0   0  77
  0   0  77
  0   0  76
  0   0  76
  0   0  76
  0   0  75
  0   0  75
  0   0  75
  0   0  74
  0   0  74
  0   0  74
  0   0  74
  0   0  73
  0   0  73
  0   0  73
  0   0  73
  0   0  73
  0   0  73
  0   0  72
  0   0  72
  0   0  72
  0   0  72
  0   0  72
  0   0  72
  0   0  72
  0   0  72
  0   0   0
  0   0   0
  0   0   0
  0   0   0
  0   0  72
  0   0  72
  0   0  72
  0   0  72
  0   0  72
  0   0  72
  0   0  72
  0   0  72
  0   0  72
  0   0  72
  0   0  72
  0   0  72
  0   0  72
  0   0  72
  0   0  72
  0   0  72
  0   0  72
  0   0  73
  0   0  72
  0   0  70
  0   0  66
255 255 255
255 255 255
  0   0  72
  0   0  80
  0   0  81
  0   0  72
255 255 255
255 255 255
 70   0   0
255 255 255
255 255 255
255 255 255
255 255 255
 78   0   0
 98   0   0
115   0   0
125   0   0
129   0   0
126   0   0
116   0   0
102   0   0
 86   0   0
 70   0   0
255 255 255
255 255 255
255 255 255
  0   0  69
  0   0  75
  0   0  78
  0   0  81
  0   0  83
  0   0  84
  0   0  85
  0   0  86
  0   0  86
  0   0  87
  0   0  87
  0   0  87
  0   0  87
  0   0  88
  0   0  88
  0   0  88
  0   0  88
  0   0  88
  0   0  88
  0   0  88
  0   0  89
  0   0  89
  0   0  89
  0   0  89
  0   0  89
  0   0  90
  0   0  90
  0   0  90
  0   0  90
  0   0  91
  0   0  91
  0   0  92
  0   0  92
  0   0  92
  0   0  93
  0   0  93
  0   0  94
  0   0  94
  0   0  95
  0   0  95
  0   0  96
  0   0  96
  0   0  97
  0   0  98
  0   0  98
  0   0  99
  0   0 100
  0   0 100
  0   0 101
  0   0 102
  0   0 102
  0   0 103
  0   0 104
  0   0 105
  0   0 105
  0   0 106
  0   0 106
  0   0 107
  0   0 107
  0   0 107
  0   0 107
  0   0 106
  0   0 105
  0   0 102
  0   0  99
  0   0  93
  0   0  82
255 255 255
 77   0   0
105   0   0
126   0   0
141   0   0
150   0   0
152   0   0
144   0   0
130   0   0
118   0   0
122   0   0
138   0   0
151   0   0
156   0   0
152   0   0
139   0   0
114   0   0
255 255 255
  0   0  99
  0   0 103
  0   0  68
 96   0   0
112   0   0
 99   0   0
255 255 255
  0   0 107
  0   0 115
  0   0 109
  0   0  97
  0   0  85
  0   0  82
  0   0  85
  0   0  88
  0   0  90
  0   0  90
  0   0  89
  0   0  89
  0   0  88
  0   0  88
  0   0  87
  0   0  87
  0   0  86
  0   0  85
  0   0  85
  0   0  84
  0   0  84
  0   0  83
  0   0  83
  0   0  82
  0   0  82
  0   0  81
  0   0  81
  0   0  81
  0   0  80
  0   0  80
  0   0  79
  0   0  79
  0   0  79
  0   0  78
  0   0  78
  0   0  77
  0   0  77
  0   0  77
  0   0  77
  0   0  76
  0   0  76
  0   0  76
  0   0  75
  0   0  75
  0   0  75
  0   0  75
  0   0  74
  0   0  74
  0   0  74
  0   0  74
  0   0  74
  0   0  74
  0   0  73
  0   0  73
  0   0  73
  0   0  73
  0   0  73
  0   0  73
  0   0   0
  0   0   0
  0   0   0
  0   0   0
  0   0  72
  0   0  72
  0   0  71
  0   0  71
  0   0  71
  0   0  71
  0   0  71
  0   0  71
  0   0  70
  0   0  70
  0   0  70
  0   0  70
  0   0  69
  0   0  69
  0   0  68
  0   0  68
  0   0  68
  0   0  68
  0   0  67
  0   0  64
255 255 255
255 255 255
255 255 255
255 255 255
  0   0  70
  0   0  74
255 255 255
255 255 255
 80   0   0
 89   0   0
 88   0   0
 83   0   0
 78   0   0
 78   0   0
 84   0   0
 94   0   0
104   0   0
111   0   0
115   0   0
115   0   0
111   0   0
106   0   0
100   0   0
 94   0   0
 87   0   0
 79   0   0
 69   0   0
255 255 255
255 255 255
255 255 255
255 255 255
  0   0  68
  0   0  72
  0   0  75
  0   0  77
  0   0  79
  0   0  80
  0   0  82
  0   0  82
  0   0  83
  0   0  84
  0   0  84
  0   0  85
  0   0  85
  0   0  86
  0   0  86
  0   0  87
  0   0  87
  0   0  87
  0   0  88
  0   0  88
  0   0  88
  0   0  89
  0   0  89
  0   0  89
  0   0  90
  0   0  90
  0   0  90
  0   0  91
  0   0  91
  0   0  92
  0   0  92
  0   0  92
  0   0  93
  0   0  93
  0   0  94
  0   0  94
  0   0  95
  0   0  95
  0   0  96
  0   0  96
  0   0  96
  0   0  97
  0   0  97
  0   0  98
  0   0  98
  0   0  99
  0   0  99
  0   0  99
  0   0 100
  0   0 100
  0   0 100
  0   0  99
  0   0  99
  0   0  98
  0   0  97
  0   0  95
  0   0  92
  0   0  89
  0   0  83
  0   0  73
255 255 255
255 255 255
 84   0   0
100   0   0
115   0   0
128   0   0
139   0   0
148   0   0
151   0   0
148   0   0
137   0   0
119   0   0
106   0   0
112   0   0
131   0   0
146   0   0
153   0   0
152   0   0
141   0   0
121   0   0
 85   0   0
255 255 255
255 255 255
 98   0   0
123   0   0
127   0   0
109   0   0
255 255 255
  0   0 102
  0   0 109
  0   0 100
  0   0  83
  0   0  70
  0   0  70
  0   0  76
  0   0  81
  0   0  84
  0   0  85
  0   0  85
  0   0  85
  0   0  85
  0   0  85
  0   0  84
  0   0  84
  0   0  84
  0   0  84
  0   0  83
  0   0  83
  0   0  82
  0   0  82
  0   0  82
  0   0  82
  0   0  81
  0   0  81
  0   0  80
  0   0  80
  0   0  80
  0   0  79
  0   0  79
  0   0  79
  0   0  78
  0   0  78
  0   0  78
  0   0  77
  0   0  77
  0   0  77
  0   0  76
  0   0  76
  0   0  76
  0   0  76
  0   0  75
  0   0  75
  0   0  75
  0   0  75
  0   0  74
  0   0  74
  0   0  74
  0   0  74
  0   0  74
  0   0  73
  0   0  73
  0   0  73
  0   0  73
  0   0  73
  0   0  73
  0   0  72
  0   0   0
  0   0   0
  0   0   0
  0   0   0
  0   0  69
  0   0  69
  0   0  69
  0   0  68
  0   0  68
  0   0  67
  0   0  67
  0   0  67
  0   0  66
  0   0  65
  0   0  65
255 255 255
255 255 255
255 255 255
255 255 255
255 255 255
255 255 255
255 255 255
255 255 255
255 255 255
255 255 255
255 255 255
255 255 255
255 255 255
255 255 255
255 255 255
255 255 255
 67   0   0
 89   0   0
100   0   0
102   0   0
 99   0   0
 92   0   0
 87   0   0
 83   0   0
 83   0   0
 86   0   0
 90   0   0
 94   0   0
 98   0   0
101   0   0
103   0   0
104   0   0
103   0   0
101   0   0
 97   0   0
 91   0   0
 85   0   0
 77   0   0
 68   0   0
255 255 255
255 255 255
255 255 255
255 255 255
255 255 255
255 255 255
  0   0  67
  0   0  70
  0   0  72
  0   0  74
  0   0  75
  0   0  77
  0   0  78
  0   0  79
  0   0  80
  0   0  81
  0   0  81
  0   0  82
  0   0  83
  0   0  83
  0   0  84
  0   0  84
  0   0  85
  0   0  85
  0   0  86
  0   0  86
  0   0  86
  0   0  87
  0   0  87
  0   0  88
  0   0  88
  0   0  88
  0   0  89
  0   0  89
  0   0  90
  0   0  90
  0   0  90
  0   0  90
  0   0  91
  0   0  91
  0   0  91
  0   0  91
  0   0  92
  0   0  92
  0   0  92
  0   0  92
  0   0  91
  0   0  91
  0   0  91
  0   0  90
  0   0  89
  0   0  87
  0   0  85
  0   0  83
  0   0  79
  0   0  74
  0   0  67
255 255 255
255 255 255
 67   0   0
 82   0   0
 95   0   0
105   0   0
115   0   0
124   0   0
132   0   0
139   0   0
144   0   0
147   0   0
146   0   0
138   0   0
124   0   0
103   0   0
 88   0   0
 97   0   0
119   0   0
136   0   0
145   0   0
145   0   0
137   0   0
121   0   0
 98   0   0
 84   0   0
103   0   0
127   0   0
140   0   0
137   0   0
116   0   0
255 255 255
  0   0  93
  0   0  96
  0   0  81
255 255 255
255 255 255
255 255 255
255 255 255
  0   0  67
  0   0  72
  0   0  74
  0   0  76
  0   0  76
  0   0  77
  0   0  78
  0   0  78
  0   0  78
  0   0  79
  0   0  79
  0   0  79
  0   0  79
  0   0  78
  0   0  78
  0   0  78
  0   0  78
  0   0  78
  0   0  78
  0   0  78
  0   0  77
  0   0  77
  0   0  77
  0   0  77
  0   0  77
  0   0  76
  0   0  76
  0   0  76
  0   0  76
  0   0  75
  0   0  75
  0   0  75
  0   0  75
  0   0  74
  0   0  74
  0   0  74
  0   0  74
  0   0  73
  0   0  73
  0   0  73
  0   0  73
  0   0  72
  0   0  72
  0   0  72
  0   0  72
  0   0  71
  0   0  71
  0   0  71
  0   0  71
  0   0  70
  0   0  70
  0   0   0
  0   0   0
  0   0   0
  0   0   0
255 255 255
255 255 255
255 255 255
255 255 255
255 255 255
255 255 255
255 255 255
255 255 255
255 255 255
255 255 255
255 255 255
255 255 255
255 255 255
255 255 255
255 255 255
255 255 255
255 255 255
255 255 255
255 255 255
255 255 255
255 255 255
 67   0   0
 74   0   0
 73   0   0
 65   0   0
255 255 255
255 255 255
 75   0   0
 94   0   0
105   0   0
109   0   0
107   0   0
100   0   0
 90   0   0
 78   0   0
255 255 255
255 255 255
255 255 255
255 255 255
 70   0   0
 84   0   0
 94   0   0
101   0   0
105   0   0
106   0   0
105   0   0
102   0   0
 98   0   0
 94   0   0
 89   0   0
 84   0   0
 78   0   0
 72   0   0
 66   0   0
255 255 255
255 255 255
255 255 255
255 255 255
255 255 255
255 255 255
255 255 255
255 255 255
255 255 255
  0   0  66
  0   0  68
  0   0  69
  0   0  71
  0   0  72
  0   0  73
  0   0  74
  0   0  75
  0   0  76
  0   0  77
  0   0  77
  0   0  78
  0   0  79
  0   0  79
  0   0  80
  0   0  80
  0   0  80
  0   0  81
  0   0  81
  0   0  81
  0   0  82
  0   0  82
  0   0  82
  0   0  82
  0   0  82
  0   0  82
  0   0  82
  0   0  82
  0   0  81
  0   0  81
  0   0  80
  0   0  79
  0   0  78
  0   0  77
  0   0  75
  0   0  72
  0   0  69
  0   0  65
255 255 255
255 255 255
255 255 255
255 255 255
 68   0   0
 78   0   0
 87   0   0
 95   0   0
103   0   0
110   0   0
117   0   0
124   0   0
130   0   0
135   0   0
138   0   0
141   0   0
142   0   0
140   0   0
134   0   0
123   0   0
105   0   0
 81   0   0
255 255 255
 77   0   0
102   0   0
120   0   0
130   0   0
132   0   0
126   0   0
114   0   0
102   0   0
107   0   0
127   0   0
144   0   0
151   0   0
143   0   0
120   0   0
 74   0   0
  0   0  74
  0   0  70
255 255 255
 80   0   0
 83   0   0
 76   0   0
255 255 255
255 255 255
255 255 255
255 255 255
255 255 255
255 255 255
255 255 255
255 255 255
  0   0  65
  0   0  67
  0   0  68
  0   0  69
  0   0  70
  0   0  70
  0   0  71
  0   0  71
  0   0  72
  0   0  72
  0   0  72
  0   0  72
  0   0  72
  0   0  72
  0   0  72
  0   0  72
  0   0  72
  0   0  72
  0   0  72
  0   0  72
  0   0  72
  0   0  71
  0   0  71
  0   0  71
  0   0  71
  0   0  71
  0   0  70
  0   0  70
  0   0  70
  0   0  70
  0   0  70
  0   0  69
  0   0  69
  0   0  69
  0   0  69
  0   0  68
  0   0  68
  0   0  68
  0   0  67
  0   0  67
  0   0  67
  0   0  66
  0   0  66
  0   0  66
  0   0   0
  0   0   0
  0   0   0
  0   0   0
255 255 255
255 255 255
255 255 255
255 255 255
255 255 255
255 255 255
255 255 255
255 255 255
255 255 255
255 255 255
255 255 255
255 255 255
255 255 255
255 255 255
255 255 255
255 255 255
255 255 255
255 255 255
255 255 255
 66   0   0
 72   0   0
 79   0   0
 85   0   0
 87   0   0
 82   0   0
 73   0   0
 68   0   0
 77   0   0
 93   0   0
105   0   0
111   0   0
110   0   0
103   0   0
 90   0   0
 69   0   0
255 255 255
  0   0  70
  0   0  77
  0   0  75
255 255 255
255 255 255
 79   0   0
 92   0   0
100   0   0
104   0   0
106   0   0
106   0   0
104   0   0
102   0   0
 99   0   0
 96   0   0
 93   0   0
 89   0   0
 86   0   0
 82   0   0
 78   0   0
 74   0   0
 70   0   0
 66   0   0
255 255 255
255 255 255
255 255 255
255 255 255
255 255 255
255 255 255
255 255 255
255 255 255
255 255 255
255 255 255
255 255 255
255 255 255
255 255 255
255 255 255
255 255 255
255 255 255
255 255 255
  0   0  64
  0   0  65
  0   0  65
  0   0  66
  0   0  66
  0   0  66
  0   0  66
  0   0  66
  0   0  66
  0   0  66
  0   0  65
  0   0  65
255 255 255
255 255 255
255 255 255
255 255 255
255 255 255
255 255 255
255 255 255
255 255 255
255 255 255
255 255 255
255 255 255
255 255 255
 69   0   0
 75   0   0
 82   0   0
 88   0   0
 93   0   0
 99   0   0
104   0   0
109   0   0
115   0   0
120   0   0
125   0   0
129   0   0
133   0   0
136   0   0
138   0   0
138   0   0
136   0   0
133   0   0
126   0   0
117   0   0
102   0   0
 80   0   0
255 255 255
255 255 255
255 255 255
 81   0   0
100   0   0
110   0   0
112   0   0
107   0   0
 99   0   0
102   0   0
119   0   0
140   0   0
154   0   0
155   0   0
144   0   0
120   0   0
 84   0   0
255 255 255
 72   0   0
 93   0   0
101   0   0
100   0   0
 94   0   0
 85   0   0
 78   0   0
 71   0   0
 66   0   0
255 255 255
255 255 255
255 255 255
255 255 255
255 255 255
255 255 255
255 255 255
255 255 255
255 255 255
255 255 255
255 255 255
255 255 255
255 255 255
255 255 255
255 255 255
255 255 255
255 255 255
255 255 255
255 255 255
255 255 255
255 255 255
255 255 255
255 255 255
255 255 255
255 255 255
255 255 255
255 255 255
255 255 255
255 255 255
255 255 255
255 255 255
255 255 255
255 255 255
255 255 255
255 255 255
255 255 255
255 255 255
255 255 255
255 255 255
255 255 255
255 255 255
255 255 255
255 255 255
255 255 255
255 255 255
255 255 255
255 255 255
255 255 255
  0   0   0
  0   0   0
  0   0   0
  0   0   0
255 255 255
255 255 255
255 255 255
255 255 255
255 255 255
255 255 255
255 255 255
255 255 255
255 255 255
255 255 255
255 255 255
255 255 255
255 255 255
 65   0   0
 68   0   0
 70   0   0
 72   0   0
 74   0   0
 76   0   0
 78   0   0
 82   0   0
 87   0   0
 92   0   0
 95   0   0
 92   0   0
 85   0   0
 76   0   0
 76   0   0
 87   0   0
100   0   0
108   0   0
109   0   0
103   0   0
 89   0   0
255 255 255
  0   0  64
  0   0  83
  0   0  90
  0   0  89
  0   0  82
  0   0  66
255 255 255
 76   0   0
 89   0   0
 97   0   0
101   0   0
104   0   0
105   0   0
105   0   0
104   0   0
103   0   0
101   0   0
 99   0   0
 97   0   0
 94   0   0
 92   0   0
 89   0   0
 87   0   0
 84   0   0
 82   0   0
 79   0   0
 77   0   0
 74   0   0
 72   0   0
 69   0   0
 67   0   0
 64   0   0
255 255 255
255 255 255
255 255 255
255 255 255
255 255 255
255 255 255
255 255 255
255 255 255
255 255 255
255 255 255
255 255 255
255 255 255
255 255 255
255 255 255
255 255 255
255 255 255
255 255 255
255 255 255
255 255 255
255 255 255
255 255 255
255 255 255
255 255 255
255 255 255
255 255 255
 67   0   0
 70   0   0
 74   0   0
 77   0   0
 81   0   0
 84   0   0
 88   0   0
 91   0   0
 95   0   0
 99   0   0
103   0   0
107   0   0
111   0   0
114   0   0
118   0   0
122   0   0
125   0   0
128   0   0
131   0   0
133   0   0
135   0   0
135   0   0
134   0   0
131   0   0
126   0   0
118   0   0
107   0   0
 92   0   0
 71   0   0
255 255 255
  0   0  66
  0   0  69
255 255 255
255 255 255
 69   0   0
 78   0   0
 76   0   0
 69   0   0
 74   0   0
 99   0   0
126   0   0
147   0   0
157   0   0
155   0   0
140   0   0
115   0   0
 88   0   0
 83   0   0
 98   0   0
110   0   0
114   0   0
111   0   0
106   0   0
 99   0   0
 94   0   0
 90   0   0
 86   0   0
 83   0   0
 80   0   0
 76   0   0
 73   0   0
 70   0   0
 66   0   0
255 255 255
255 255 255
255 255 255
255 255 255
255 255 255
255 255 255
255 255 255
255 255 255
255 255 255
255 255 255
255 255 255
255 255 255
255 255 255
255 255 255
255 255 255
255 255 255
255 255 255
255 255 255
255 255 255
255 255 255
255 255 255
255 255 255
255 255 255
255 255 255
255 255 255
255 255 255
255 255 255
255 255 255
255 255 255
255 255 255
255 255 255
255 255 255
255 255 255
255 255 255
255 255 255
255 255 255
255 255 255
255 255 255
255 255 255
255 255 255
255 255 255
255 255 255
  0   0   0
  0   0   0
  0   0   0
  0   0   0
255 255 255
255 255 255
255 255 255
255 255 255
255 255 255
 64   0   0
 66   0   0
 67   0   0
 69   0   0
 70   0   0
 72   0   0
 74   0   0
 75   0   0
 77   0   0
 79   0   0
 80   0   0
 82   0   0
 83   0   0
 84   0   0
 86   0   0
 88   0   0
 91   0   0
 96   0   0
 99   0   0
 98   0   0
 91   0   0
 80   0   0
 70   0   0
 74   0   0
 87   0   0
 98   0   0
103   0   0
100   0   0
 88   0   0
255 255 255
  0   0  65
  0   0  85
  0   0  92
  0   0  93
  0   0  90
  0   0  81
  0   0  65
255 255 255
 69   0   0
 82   0   0
 91   0   0
 96   0   0
100   0   0
102   0   0
103   0   0
104   0   0
104   0   0
103   0   0
102   0   0
101   0   0
100   0   0
 98   0   0
 97   0   0
 95   0   0
 94   0   0
 92   0   0
 91   0   0
 89   0   0
 87   0   0
 86   0   0
 85   0   0
 83   0   0
 82   0   0
 81   0   0
 80   0   0
 79   0   0
 78   0   0
 77   0   0
 76   0   0
 76   0   0
 75   0   0
 75   0   0
 75   0   0
 75   0   0
 75   0   0
 75   0   0
 75   0   0
 76   0   0
 77   0   0
 78   0   0
 79   0   0
 80   0   0
 81   0   0
 83   0   0
 84   0   0
 86   0   0
 88   0   0
 90   0   0
 92   0   0
 94   0   0
 96   0   0
 99   0   0
101   0   0
104   0   0
107   0   0
109   0   0
112   0   0
115   0   0
118   0   0
121   0   0
123   0   0
126   0   0
128   0   0
130   0   0
131   0   0
132   0   0
132   0   0
131   0   0
128   0   0
124   0   0
117   0   0
108   0   0
 96   0   0
 77   0   0
255 255 255
255 255 255
  0   0  74
  0   0  76
  0   0  74
  0   0  69
255 255 255
255 255 255
  0   0  70
  0   0  79
  0   0  79
255 255 255
 98   0   0
130   0   0
148   0   0
154   0   0
148   0   0
130   0   0
106   0   0
 89   0   0
 97   0   0
111   0   0
120   0   0
121   0   0
118   0   0
113   0   0
109   0   0
105   0   0
102   0   0
 99   0   0
 96   0   0
 94   0   0
 91   0   0
 89   0   0
 86   0   0
 84   0   0
 81   0   0
 79   0   0
 77   0   0
 75   0   0
 73   0   0
 70   0   0
 68   0   0
 66   0   0
 64   0   0
255 255 255
255 255 255
255 255 255
255 255 255
255 255 255
255 255 255
255 255 255
255 255 255
255 255 255
255 255 255
255 255 255
255 255 255
255 255 255
255 255 255
255 255 255
255 255 255
255 255 255
255 255 255
255 255 255
255 255 255
255 255 255
255 255 255
255 255 255
255 255 255
255 255 255
255 255 255
255 255 255
255 255 255
255 255 255
255 255 255
255 255 255
255 255 255
255 255 255
  0   0   0
  0   0   0
  0   0   0
  0   0   0
 71   0   0
 72   0   0
 73   0   0
 74   0   0
 75   0   0
 76   0   0
 77   0   0
 78   0   0
 79   0   0
 80   0   0
 81   0   0
 82   0   0
 83   0   0
 85   0   0
 86   0   0
 87   0   0
 88   0   0
 89   0   0
 89   0   0
 90   0   0
 90   0   0
 93   0   0
 96   0   0
 99   0   0
 99   0   0
 93   0   0
 81   0   0
255 255 255
255 255 255
255 255 255
 79   0   0
 90   0   0
 93   0   0
 87   0   0
 69   0   0
255 255 255
  0   0  77
  0   0  88
  0   0  92
  0   0  91
  0   0  87
  0   0  80
  0   0  68
255 255 255
255 255 255
 72   0   0
 82   0   0
 89   0   0
 94   0   0
 97   0   0
100   0   0
102   0   0
103   0   0
103   0   0
103   0   0
103   0   0
103   0   0
102   0   0
101   0   0
100   0   0
100   0   0
 99   0   0
 98   0   0
 97   0   0
 96   0   0
 95   0   0
 94   0   0
 94   0   0
 93   0   0
 92   0   0
 92   0   0
 91   0   0
 91   0   0
 90   0   0
 90   0   0
 90   0   0
 90   0   0
 90   0   0
 90   0   0
 90   0   0
 91   0   0
 91   0   0
 92   0   0
 92   0   0
 93   0   0
 94   0   0
 95   0   0
 96   0   0
 97   0   0
 98   0   0
100   0   0
101   0   0
103   0   0
105   0   0
106   0   0
108   0   0
110   0   0
112   0   0
114   0   0
116   0   0
118   0   0
120   0   0
122   0   0
123   0   0
125   0   0
126   0   0
127   0   0
128   0   0
128   0   0
128   0   0
126   0   0
124   0   0
120   0   0
115   0   0
107   0   0
 96   0   0
 81   0   0
255 255 255
255 255 255
  0   0  78
  0   0  83
  0   0  82
  0   0  78
  0   0  73
  0   0  70
  0   0  74
  0   0  83
  0   0  93
  0   0  99
  0   0  96
255 255 255
100   0   0
130   0   0
144   0   0
145   0   0
134   0   0
112   0   0
 90   0   0
 87   0   0
104   0   0
118   0   0
124   0   0
125   0   0
122   0   0
118   0   0
114   0   0
111   0   0
109   0   0
107   0   0
105   0   0
103   0   0
101   0   0
 99   0   0
 97   0   0
 95   0   0
 93   0   0
 91   0   0
 90   0   0
 88   0   0
 86   0   0
 84   0   0
 82   0   0
 81   0   0
 80   0   0
 78   0   0
 77   0   0
 76   0   0
 74   0   0
 73   0   0
 72   0   0
 71   0   0
 70   0   0
 69   0   0
 68   0   0
 68   0   0
 67   0   0
 66   0   0
 66   0   0
 65   0   0
 65   0   0
 65   0   0
 64   0   0
255 255 255
255 255 255
255 255 255
255 255 255
255 255 255
255 255 255
 64   0   0
 65   0   0
 65   0   0
 65   0   0
 66   0   0
 66   0   0
 67   0   0
 67   0   0
 68   0   0
  0   0   0
  0   0   0
  0   0   0
  0   0   0
 80   0   0
 80   0   0
 81   0   0
 82   0   0
 82   0   0
 83   0   0
 84   0   0
 85   0   0
 85   0   0
 86   0   0
 87   0   0
 88   0   0
 88   0   0
 89   0   0
 90   0   0
 90   0   0
 91   0   0
 91   0   0
 91   0   0
 91   0   0
 90   0   0
 91   0   0
 93   0   0
 95   0   0
 96   0   0
 92   0   0
 80   0   0
255 255 255
255 255 255
  0   0  65
255 255 255
 65   0   0
 80   0   0
 84   0   0
 77   0   0
255 255 255
255 255 255
  0   0  75
  0   0  84
  0   0  88
  0   0  88
  0   0  86
  0   0  81
  0   0  74
255 255 255
255 255 255
255 255 255
 70   0   0
 79   0   0
 86   0   0
 91   0   0
 95   0   0
 97   0   0
 99   0   0
101   0   0
102   0   0
103   0   0
103   0   0
103   0   0
103   0   0
103   0   0
103   0   0
102   0   0
102   0   0
102   0   0
101   0   0
101   0   0
101   0   0
100   0   0
100   0   0
100   0   0
100   0   0
 99   0   0
 99   0   0
 99   0   0
 99   0   0
 99   0   0
100   0   0
100   0   0
100   0   0
101   0   0
101   0   0
102   0   0
102   0   0
103   0   0
104   0   0
104   0   0
105   0   0
106   0   0
107   0   0
109   0   0
110   0   0
111   0   0
112   0   0
114   0   0
115   0   0
116   0   0
118   0   0
119   0   0
120   0   0
121   0   0
122   0   0
123   0   0
124   0   0
124   0   0
125   0   0
124   0   0
123   0   0
122   0   0
119   0   0
115   0   0
110   0   0
103   0   0
 94   0   0
 80   0   0
255 255 255
255 255 255
  0   0  78
  0   0  86
  0   0  89
  0   0  88
  0   0  83
  0   0  76
  0   0  69
  0   0  68
  0   0  76
  0   0  89
  0   0 100
  0   0 104
  0   0  96
255 255 255
103   0   0
127   0   0
135   0   0
129   0   0
111   0   0
 81   0   0
255 255 255
 82   0   0
105   0   0
119   0   0
124   0   0
124   0   0
121   0   0
118   0   0
116   0   0
114   0   0
113   0   0
112   0   0
110   0   0
109   0   0
107   0   0
106   0   0
104   0   0
102   0   0
101   0   0
 99   0   0
 98   0   0
 97   0   0
 95   0   0
 94   0   0
 92   0   0
 91   0   0
 90   0   0
 89   0   0
 87   0   0
 86   0   0
 85   0   0
 84   0   0
 83   0   0
 82   0   0
 82   0   0
 81   0   0
 80   0   0
 79   0   0
 79   0   0
 78   0   0
 78   0   0
 77   0   0
 77   0   0
 77   0   0
 76   0   0
 76   0   0
 76   0   0
 76   0   0
 76   0   0
 76   0   0
 76   0   0
 76   0   0
 76   0   0
 76   0   0
 76   0   0
 76   0   0
 77   0   0
 77   0   0
 77   0   0
 78   0   0
  0   0   0
  0   0   0
  0   0   0
  0   0   0
 86   0   0
 86   0   0
 87   0   0
 87   0   0
 88   0   0
 88   0   0
 89   0   0
 89   0   0
 89   0   0
 90   0   0
 90   0   0
 91   0   0
 91   0   0
 91   0   0
 91   0   0
 91   0   0
 91   0   0
 91   0   0
 90   0   0
 89   0   0
 87   0   0
 86   0   0
 86   0   0
 88   0   0
 89   0   0
 87   0   0
 76   0   0
255 255 255
  0   0  72
  0   0  83
  0   0  81
255 255 255
255 255 255
 76   0   0
 82   0   0
 78   0   0
255 255 255
255 255 255
  0   0  67
  0   0  78
  0   0  84
  0   0  86
  0   0  86
  0   0  84
  0   0  79
  0   0  73
255 255 255
255 255 255
255 255 255
 66   0   0
 75   0   0
 82   0   0
 87   0   0
 91   0   0
 94   0   0
 96   0   0
 98   0   0
100   0   0
101   0   0
102   0   0
102   0   0
103   0   0
103   0   0
104   0   0
104   0   0
104   0   0
104   0   0
104   0   0
104   0   0
104   0   0
104   0   0
104   0   0
104   0   0
104   0   0
105   0   0
105   0   0
105   0   0
105   0   0
106   0   0
106   0   0
106   0   0
107   0   0
107   0   0
108   0   0
109   0   0
109   0   0
110   0   0
111   0   0
111   0   0
112   0   0
113   0   0
114   0   0
115   0   0
116   0   0
117   0   0
117   0   0
118   0   0
119   0   0
120   0   0
120   0   0
120   0   0
120   0   0
120   0   0
120   0   0
119   0   0
118   0   0
116   0   0
113   0   0
109   0   0
104   0   0
 97   0   0
 88   0   0
 74   0   0
255 255 255
255 255 255
  0   0  78
  0   0  87
  0   0  92
  0   0  94
  0   0  92
  0   0  88
  0   0  80
  0   0  70
255 255 255
255 255 255
  0   0  75
  0   0  89
  0   0  98
  0   0  99
  0   0  83
 69   0   0
107   0   0
121   0   0
120   0   0
103   0   0
255 255 255
  0   0  73
  0   0  66
 74   0   0
103   0   0
115   0   0
120   0   0
119   0   0
117   0   0
116   0   0
115   0   0
114   0   0
114   0   0
113   0   0
112   0   0
111   0   0
110   0   0
109   0   0
108   0   0
107   0   0
106   0   0
105   0   0
103   0   0
102   0   0
101   0   0
100   0   0
 99   0   0
 98   0   0
 97   0   0
 96   0   0
 95   0   0
 94   0   0
 93   0   0
 92   0   0
 91   0   0
 90   0   0
 90   0   0
 89   0   0
 88   0   0
 88   0   0
 87   0   0
 87   0   0
 86   0   0
 86   0   0
 85   0   0
 85   0   0
 85   0   0
 84   0   0
 84   0   0
 84   0   0
 84   0   0
 84   0   0
 84   0   0
 84   0   0
 84   0   0
 84   0   0
 84   0   0
 84   0   0
 84   0   0
 84   0   0
 85   0   0
 85   0   0
  0   0   0
  0   0   0
  0   0   0
  0   0   0
 90   0   0
 90   0   0
 90   0   0
 90   0   0
 91   0   0
 91   0   0
 91   0   0
 91   0   0
 91   0   0
 91   0   0
 91   0   0
 91   0   0
 91   0   0
 90   0   0
 90   0   0
 89   0   0
 88   0   0
 87   0   0
 86   0   0
 84   0   0
 81   0   0
 78   0   0
 76   0   0
 76   0   0
 78   0   0
 78   0   0
 70   0   0
255 255 255
  0   0  73
  0   0  89
  0   0  92
  0   0  86
  0   0  65
255 255 255
 80   0   0
 86   0   0
 83   0   0
 73   0   0
255 255 255
255 255 255
  0   0  73
  0   0  81
  0   0  85
  0   0  87
  0   0  86
  0   0  83
  0   0  79
  0   0  73
  0   0  65
255 255 255
255 255 255
255 255 255
 68   0   0
 76   0   0
 81   0   0
 86   0   0
 89   0   0
 92   0   0
 94   0   0
 96   0   0
 98   0   0
 99   0   0
100   0   0
101   0   0
102   0   0
103   0   0
103   0   0
104   0   0
104   0   0
105   0   0
105   0   0
105   0   0
106   0   0
106   0   0
106   0   0
107   0   0
107   0   0
107   0   0
108   0   0
108   0   0
109   0   0
109   0   0
110   0   0
110   0   0
111   0   0
111   0   0
112   0   0
112   0   0
113   0   0
113   0   0
114   0   0
114   0   0
115   0   0
115   0   0
116   0   0
116   0   0
116   0   0
116   0   0
116   0   0
115   0   0
115   0   0
114   0   0
112   0   0
111   0   0
108   0   0
105   0   0
101   0   0
 96   0   0
 88   0   0
 78   0   0
255 255 255
255 255 255
  0   0  67
  0   0  80
  0   0  88
  0   0  93
  0   0  96
  0   0  96
  0   0  94
  0   0  90
  0   0  82
  0   0  70
255 255 255
255 255 255
255 255 255
  0   0  71
  0   0  84
  0   0  90
  0   0  83
255 255 255
 90   0   0
108   0   0
110   0   0
 95   0   0
255 255 255
  0   0  93
  0   0  99
  0   0  83
255 255 255
 96   0   0
108   0   0
111   0   0
111   0   0
110   0   0
109   0   0
110   0   0
110   0   0
111   0   0
111   0   0
111   0   0
111   0   0
110   0   0
110   0   0
109   0   0
108   0   0
108   0   0
107   0   0
106   0   0
105   0   0
104   0   0
103   0   0
103   0   0
102   0   0
101   0   0
100   0   0
 99   0   0
 99   0   0
 98   0   0
 97   0   0
 96   0   0
 96   0   0
 95   0   0
 95   0   0
 94   0   0
 93   0   0
 93   0   0
 92   0   0
 92   0   0
 92   0   0
 91   0   0
 91   0   0
 91   0   0
 90   0   0
 90   0   0
 90   0   0
 90   0   0
 89   0   0
 89   0   0
 89   0   0
 89   0   0
 89   0   0
 89   0   0
 89   0   0
 89   0   0
 89   0   0
 89   0   0
 89   0   0
  0   0   0
  0   0   0
  0   0   0
  0   0   0
 92   0   0
 91   0   0
 91   0   0
 91   0   0
 91   0   0
 91   0   0
 91   0   0
 90   0   0
 90   0   0
 90   0   0
 89   0   0
 88   0   0
 88   0   0
 87   0   0
 86   0   0
 84   0   0
 83   0   0
 81   0   0
 78   0   0
 75   0   0
 70   0   0
 65   0   0
255 255 255
255 255 255
255 255 255
 65   0   0
255 255 255
255 255 255
  0   0  67
  0   0  86
  0   0  95
  0   0  94
  0   0  84
255 255 255
 68   0   0
 86   0   0
 91   0   0
 88   0   0
 80   0   0
255 255 255
255 255 255
  0   0  67
  0   0  78
  0   0  84
  0   0  87
  0   0  87
  0   0  86
  0   0  84
  0   0  80
  0   0  75
  0   0  69
255 255 255
255 255 255
255 255 255
255 255 255
 66   0   0
 73   0   0
 78   0   0
 82   0   0
 86   0   0
 89   0   0
 91   0   0
 93   0   0
 95   0   0
 96   0   0
 98   0   0
 99   0   0
100   0   0
101   0   0
101   0   0
102   0   0
103   0   0
103   0   0
104   0   0
105   0   0
105   0   0
106   0   0
106   0   0
107   0   0
107   0   0
107   0   0
108   0   0
108   0   0
109   0   0
109   0   0
109   0   0
110   0   0
110   0   0
110   0   0
111   0   0
111   0   0
111   0   0
111   0   0
111   0   0
110   0   0
110   0   0
109   0   0
109   0   0
107   0   0
106   0   0
104   0   0
102   0   0
 99   0   0
 95   0   0
 90   0   0
 84   0   0
 76   0   0
255 255 255
255 255 255
255 255 255
  0   0  74
  0   0  84
  0   0  90
  0   0  95
  0   0  98
  0   0  99
  0   0  98
  0   0  95
  0   0  89
  0   0  81
  0   0  68
255 255 255
255 255 255
255 255 255
255 255 255
  0   0  64
  0   0  74
  0   0  71
255 255 255
 82   0   0
100   0   0
104   0   0
 91   0   0
255 255 255
  0   0  98
  0   0 110
  0   0 106
  0   0  88
255 255 255
 86   0   0
 96   0   0
 98   0   0
 98   0   0
 98   0   0
 99   0   0
101   0   0
103   0   0
105   0   0
106   0   0
106   0   0
107   0   0
107   0   0
107   0   0
107   0   0
107   0   0
107   0   0
107   0   0
106   0   0
106   0   0
105   0   0
105   0   0
104   0   0
104   0   0
103   0   0
102   0   0
102   0   0
101   0   0
101   0   0
100   0   0
 99   0   0
 99   0   0
 98   0   0
 98   0   0
 97   0   0
 97   0   0
 96   0   0
 96   0   0
 96   0   0
 95   0   0
 95   0   0
 94   0   0
 94   0   0
 94   0   0
 94   0   0
 93   0   0
 93   0   0
 93   0   0
 93   0   0
 93   0   0
 92   0   0
 92   0   0
 92   0   0
 92   0   0
 92   0   0
 92   0   0
 92   0   0
 92   0   0
  0   0   0
  0   0   0
  0   0   0
  0   0   0
 91   0   0
 91   0   0
 90   0   0
 90   0   0
 89   0   0
 89   0   0
 88   0   0
 87   0   0
 87   0   0
 86   0   0
 85   0   0
 83   0   0
 82   0   0
 80   0   0
 78   0   0
 76   0   0
 74   0   0
 70   0   0
 67   0   0
255 255 255
255 255 255
255 255 255
255 255 255
255 255 255
255 255 255
255 255 255
255 255 255
255 255 255
255 255 255
  0   0  77
  0   0  90
  0   0  95
  0   0  93
  0   0  80
255 255 255
 75   0   0
 89   0   0
 94   0   0
 92   0   0
 85   0   0
 71   0   0
255 255 255
255 255 255
  0   0  74
  0   0  81
  0   0  85
  0   0  87
  0   0  88
  0   0  87
  0   0  85
  0   0  82
  0   0  78
  0   0  73
  0   0  67
255 255 255
255 255 255
255 255 255
255 255 255
255 255 255
 67   0   0
 72   0   0
 77   0   0
 80   0   0
 83   0   0
 86   0   0
 88   0   0
 90   0   0
 91   0   0
 93   0   0
 94   0   0
 95   0   0
 96   0   0
 97   0   0
 98   0   0
 99   0   0
100   0   0
100   0   0
101   0   0
102   0   0
102   0   0
102   0   0
103   0   0
103   0   0
103   0   0
104   0   0
104   0   0
104   0   0
104   0   0
104   0   0
104   0   0
103   0   0
103   0   0
102   0   0
102   0   0
101   0   0
 99   0   0
 98   0   0
 96   0   0
 93   0   0
 90   0   0
 87   0   0
 82   0   0
 75   0   0
 66   0   0
255 255 255
255 255 255
255 255 255
  0   0  72
  0   0  81
  0   0  88
  0   0  93
  0   0  97
  0   0  99
  0   0 100
  0   0 100
  0   0  98
  0   0  94
  0   0  87
  0   0  77
255 255 255
255 255 255
255 255 255
255 255 255
255 255 255
255 255 255
255 255 255
255 255 255
255 255 255
 81   0   0
 97   0   0
102   0   0
 93   0   0
255 255 255
  0   0  93
  0   0 111
  0   0 114
  0   0 106
  0   0  86
255 255 255
 71   0   0
 78   0   0
 79   0   0
 80   0   0
 81   0   0
 85   0   0
 88   0   0
 92   0   0
 95   0   0
 97   0   0
 99   0   0
100   0   0
101   0   0
102   0   0
102   0   0
103   0   0
103   0   0
104   0   0
104   0   0
103   0   0
103   0   0
103   0   0
103   0   0
103   0   0
102   0   0
102   0   0
102   0   0
101   0   0
101   0   0
101   0   0
100   0   0
100   0   0
 99   0   0
 99   0   0
 99   0   0
 98   0   0
 98   0   0
 97   0   0
 97   0   0
 97   0   0
 96   0   0
 96   0   0
 96   0   0
 95   0   0
 95   0   0
 95   0   0
 95   0   0
 94   0   0
 94   0   0
 94   0   0
 94   0   0
 93   0   0
 93   0   0
 93   0   0
 93   0   0
 92   0   0
 92   0   0
 92   0   0
  0   0   0
  0   0   0
  0   0   0
  0   0   0
 88   0   0
 87   0   0
 87   0   0
 86   0   0
 85   0   0
 84   0   0
 83   0   0
 82   0   0
 80   0   0
 79   0   0
 77   0   0
 75   0   0
 73   0   0
 70   0   0
 67   0   0
255 255 255
255 255 255
255 255 255
255 255 255
255 255 255
255 255 255
255 255 255
255 255 255
255 255 255
255 255 255
255 255 255
255 255 255
255 255 255
255 255 255
255 255 255
  0   0  78
  0   0  90
  0   0  94
  0   0  90
  0   0  76
255 255 255
 77   0   0
 90   0   0
 95   0   0
 94   0   0
 88   0   0
 78   0   0
255 255 255
255 255 255
  0   0  66
  0   0  77
  0   0  83
  0   0  86
  0   0  88
  0   0  88
  0   0  88
  0   0  86
  0   0  84
  0   0  82
  0   0  78
  0   0  74
  0   0  69
255 255 255
255 255 255
255 255 255
255 255 255
255 255 255
255 255 255
255 255 255
 67   0   0
 71   0   0
 74   0   0
 77   0   0
 80   0   0
 82   0   0
 84   0   0
 85   0   0
 87   0   0
 88   0   0
 89   0   0
 90   0   0
 91   0   0
 91   0   0
 92   0   0
 93   0   0
 93   0   0
 93   0   0
 94   0   0
 94   0   0
 94   0   0
 94   0   0
 93   0   0
 93   0   0
 92   0   0
 92   0   0
 91   0   0
 90   0   0
 88   0   0
 86   0   0
 84   0   0
 81   0   0
 78   0   0
 74   0   0
 68   0   0
255 255 255
255 255 255
255 255 255
255 255 255
  0   0  68
  0   0  76
  0   0  82
  0   0  87
  0   0  92
  0   0  95
  0   0  98
  0   0 100
  0   0 101
  0   0 101
  0   0  99
  0   0  96
  0   0  90
  0   0  82
  0   0  70
255 255 255
255 255 255
 70   0   0
 74   0   0
 71   0   0
255 255 255
255 255 255
255 255 255
255 255 255
 79   0   0
 94   0   0
101   0   0
 96   0   0
 70   0   0
  0   0  81
  0   0 106
  0   0 114
  0   0 111
  0   0  99
  0   0  79
255 255 255
255 255 255
255 255 255
255 255 255
255 255 255
255 255 255
255 255 255
 69   0   0
 75   0   0
 80   0   0
 84   0   0
 87   0   0
 89   0   0
 91   0   0
 93   0   0
 94   0   0
 96   0   0
 97   0   0
 97   0   0
 98   0   0
 98   0   0
 99   0   0
 99   0   0
 99   0   0
 99   0   0
 99   0   0
 99   0   0
 99   0   0
 99   0   0
 99   0   0
 99   0   0
 98   0   0
 98   0   0
 98   0   0
 98   0   0
 97   0   0
 97   0   0
 97   0   0
 97   0   0
 96   0   0
 96   0   0
 96   0   0
 95   0   0
 95   0   0
 95   0   0
 94   0   0
 94   0   0
 94   0   0
 94   0   0
 93   0   0
 93   0   0
 93   0   0
 92   0   0
 92   0   0
 92   0   0
 91   0   0
 91   0   0
 90   0   0
 90   0   0
  0   0   0
  0   0   0
  0   0   0
  0   0   0
 82   0   0
 81   0   0
 80   0   0
 79   0   0
 78   0   0
 76   0   0
 75   0   0
 73   0   0
 71   0   0
 69   0   0
 66   0   0
255 255 255
255 255 255
255 255 255
255 255 255
255 255 255
255 255 255
255 255 255
255 255 255
255 255 255
255 255 255
255 255 255
255 255 255
  0   0  66
  0   0  65
255 255 255
255 255 255
255 255 255
255 255 255
255 255 255
255 255 255
  0   0  77
  0   0  89
  0   0  93
  0   0  89
  0   0  75
255 255 255
 76   0   0
 90   0   0
 95   0   0
 96   0   0
 92   0   0
 84   0   0
 73   0   0
255 255 255
255 255 255
  0   0  68
  0   0  77
  0   0  83
  0   0  86
  0   0  88
  0   0  89
  0   0  89
  0   0  88
  0   0  87
  0   0  85
  0   0  83
  0   0  80
  0   0  77
  0   0  74
  0   0  70
  0   0  65
255 255 255
255 255 255
255 255 255
255 255 255
255 255 255
255 255 255
255 255 255
255 255 255
255 255 255
 65   0   0
 68   0   0
 70   0   0
 72   0   0
 73   0   0
 74   0   0
 75   0   0
 76   0   0
 77   0   0
 77   0   0
 77   0   0
 77   0   0
 77   0   0
 77   0   0
 76   0   0
 76   0   0
 74   0   0
 73   0   0
 71   0   0
 69   0   0
 66   0   0
255 255 255
255 255 255
255 255 255
255 255 255
255 255 255
255 255 255
255 255 255
  0   0  70
  0   0  75
  0   0  81
  0   0  85
  0   0  89
  0   0  93
  0   0  96
  0   0  98
  0   0 100
  0   0 101
  0   0 101
  0   0 101
  0   0  99
  0   0  96
  0   0  92
  0   0  85
  0   0  73
255 255 255
255 255 255
 71   0   0
 80   0   0
 82   0   0
 80   0   0
 73   0   0
255 255 255
255 255 255
255 255 255
 76   0   0
 90   0   0
 97   0   0
 96   0   0
 79   0   0
255 255 255
  0   0  97
  0   0 109
  0   0 109
  0   0 101
  0   0  87
  0   0  67
255 255 255
255 255 255
255 255 255
255 255 255
255 255 255
255 255 255
255 255 255
255 255 255
255 255 255
255 255 255
255 255 255
 69   0   0
 73   0   0
 77   0   0
 80   0   0
 82   0   0
 85   0   0
 87   0   0
 88   0   0
 89   0   0
 90   0   0
 91   0   0
 92   0   0
 93   0   0
 93   0   0
 93   0   0
 94   0   0
 94   0   0
 94   0   0
 94   0   0
 94   0   0
 94   0   0
 94   0   0
 94   0   0
 94   0   0
 94   0   0
 94   0   0
 94   0   0
 93   0   0
 93   0   0
 93   0   0
 93   0   0
 92   0   0
 92   0   0
 92   0   0
 92   0   0
 91   0   0
 91   0   0
 91   0   0
 90   0   0
 90   0   0
 89   0   0
 89   0   0
 88   0   0
 88   0   0
 87   0   0
 87   0   0
 86   0   0
 86   0   0
  0   0   0
  0   0   0
  0   0   0
  0   0   0
 74   0   0
 73   0   0
 71   0   0
 69   0   0
 67   0   0
 65   0   0
255 255 255
255 255 255
255 255 255
255 255 255
255 255 255
255 255 255
255 255 255
255 255 255
255 255 255
255 255 255
255 255 255
255 255 255
255 255 255
255 255 255
255 255 255
255 255 255
  0   0  64
  0   0  66
  0   0  65
255 255 255
255 255 255
255 255 255
255 255 255
255 255 255
255 255 255
255 255 255
  0   0  76
  0   0  88
  0   0  93
  0   0  90
  0   0  78
255 255 255
 71   0   0
 87   0   0
 95   0   0
 97   0   0
 95   0   0
 90   0   0
 82   0   0
 69   0   0
255 255 255
255 255 255
  0   0  68
  0   0  77
  0   0  82
  0   0  85
  0   0  88
  0   0  89
  0   0  89
  0   0  89
  0   0  88
  0   0  88
  0   0  86
  0   0  85
  0   0  83
  0   0  81
  0   0  79
  0   0  77
  0   0  74
  0   0  71
  0   0  69
  0   0  66
255 255 255
255 255 255
255 255 255
255 255 255
255 255 255
255 255 255
255 255 255
255 255 255
255 255 255
255 255 255
255 255 255
255 255 255
255 255 255
255 255 255
255 255 255
255 255 255
255 255 255
255 255 255
255 255 255
255 255 255
255 255 255
255 255 255
255 255 255
255 255 255
  0   0  65
  0   0  69
  0   0  73
  0   0  76
  0   0  80
  0   0  83
  0   0  86
  0   0  89
  0   0  92
  0   0  94
  0   0  96
  0   0  98
  0   0 100
  0   0 101
  0   0 101
  0   0 101
  0   0 100
  0   0  98
  0   0  95
  0   0  91
  0   0  84
  0   0  74
255 255 255
255 255 255
 72   0   0
 82   0   0
 88   0   0
 89   0   0
 86   0   0
 79   0   0
 68   0   0
255 255 255
255 255 255
 70   0   0
 83   0   0
 92   0   0
 92   0   0
 81   0   0
255 255 255
  0   0  86
  0   0 101
  0   0 105
  0   0  99
  0   0  86
  0   0  68
255 255 255
255 255 255
255 255 255
  0   0  68
  0   0  72
  0   0  74
  0   0  72
  0   0  69
  0   0  65
255 255 255
255 255 255
255 255 255
255 255 255
255 255 255
255 255 255
255 255 255
 64   0   0
 68   0   0
 72   0   0
 74   0   0
 76   0   0
 78   0   0
 80   0   0
 81   0   0
 83   0   0
 84   0   0
 85   0   0
 85   0   0
 86   0   0
 86   0   0
 87   0   0
 87   0   0
 88   0   0
 88   0   0
 88   0   0
 88   0   0
 88   0   0
 88   0   0
 88   0   0
 88   0   0
 88   0   0
 88   0   0
 87   0   0
 87   0   0
 87   0   0
 87   0   0
 86   0   0
 86   0   0
 86   0   0
 85   0   0
 85   0   0
 84   0   0
 84   0   0
 83   0   0
 82   0   0
 82   0   0
 81   0   0
 80   0   0
 79   0   0
 79   0   0
  0   0   0
  0   0   0
  0   0   0
  0   0   0
255 255 255
255 255 255
255 255 255
255 255 255
255 255 255
255 255 255
255 255 255
255 255 255
255 255 255
255 255 255
255 255 255
255 255 255
255 255 255
255 255 255
255 255 255
255 255 255
255 255 255
255 255 255
255 255 255
255 255 255
255 255 255
255 255 255
255 255 255
255 255 255
255 255 255
255 255 255
255 255 255
255 255 255
255 255 255
 68   0   0
 69   0   0
255 255 255
255 255 255
  0   0  76
  0   0  89
  0   0  93
  0   0  91
  0   0  82
255 255 255
255 255 255
 83   0   0
 93   0   0
 97   0   0
 97   0   0
 95   0   0
 89   0   0
 81   0   0
 69   0   0
255 255 255
255 255 255
  0   0  65
  0   0  74
  0   0  80
  0   0  84
  0   0  86
  0   0  88
  0   0  89
  0   0  90
  0   0  90
  0   0  90
  0   0  89
  0   0  88
  0   0  88
  0   0  87
  0   0  85
  0   0  84
  0   0  83
  0   0  82
  0   0  80
  0   0  79
  0   0  78
  0   0  76
  0   0  75
  0   0  74
  0   0  73
  0   0  72
  0   0  72
  0   0  71
  0   0  71
  0   0  70
  0   0  70
  0   0  71
  0   0  71
  0   0  72
  0   0  73
  0   0  74
  0   0  75
  0   0  77
  0   0  78
  0   0  80
  0   0  82
  0   0  83
  0   0  85
  0   0  87
  0   0  89
  0   0  91
  0   0  93
  0   0  95
  0   0  96
  0   0  98
  0   0  99
  0   0 100
  0   0 101
  0   0 101
  0   0 101
  0   0 100
  0   0  99
  0   0  97
  0   0  93
  0   0  89
  0   0  81
  0   0  71
255 255 255
255 255 255
 74   0   0
 84   0   0
 91   0   0
 94   0   0
 94   0   0
 90   0   0
 82   0   0
 71   0   0
255 255 255
255 255 255
255 255 255
 75   0   0
 84   0   0
 86   0   0
 78   0   0
255 255 255
  0   0  78
  0   0  95
  0   0  99
  0   0  95
  0   0  83
255 255 255
255 255 255
255 255 255
255 255 255
255 255 255
  0   0  70
  0   0  74
  0   0  76
  0   0  76
  0   0  75
  0   0  73
  0   0  71
  0   0  69
  0   0  66
255 255 255
255 255 255
255 255 255
255 255 255
255 255 255
255 255 255
255 255 255
255 255 255
255 255 255
255 255 255
255 255 255
 65   0   0
 68   0   0
 70   0   0
 71   0   0
 73   0   0
 74   0   0
 75   0   0
 76   0   0
 77   0   0
 77   0   0
 78   0   0
 78   0   0
 79   0   0
 79   0   0
 79   0   0
 79   0   0
 79   0   0
 79   0   0
 79   0   0
 79   0   0
 79   0   0
 79   0   0
 79   0   0
 78   0   0
 78   0   0
 77   0   0
 77   0   0
 76   0   0
 76   0   0
 75   0   0
 74   0   0
 74   0   0
 73   0   0
 72   0   0
 71   0   0
 69   0   0
 68   0   0
  0   0   0
  0   0   0
  0   0   0
  0   0   0
255 255 255
255 255 255
255 255 255
255 255 255
255 255 255
255 255 255
255 255 255
255 255 255
255 255 255
255 255 255
255 255 255
255 255 255
255 255 255
255 255 255
255 255 255
255 255 255
255 255 255
255 255 255
255 255 255
255 255 255
255 255 255
255 255 255
255 255 255
255 255 255
255 255 255
255 255 255
255 255 255
255 255 255
255 255 255
 64   0   0
 72   0   0
 71   0   0
255 255 255
255 255 255
  0   0  76
  0   0  89
  0   0  94
  0   0  94
  0   0  86
  0   0  70
255 255 255
 77   0   0
 90   0   0
 96   0   0
 98   0   0
 98   0   0
 95   0   0
 89   0   0
 82   0   0
 71   0   0
255 255 255
255 255 255
255 255 255
  0   0  70
  0   0  76
  0   0  81
  0   0  84
  0   0  87
  0   0  88
  0   0  89
  0   0  90
  0   0  91
  0   0  91
  0   0  91
  0   0  90
  0   0  90
  0   0  90
  0   0  89
  0   0  89
  0   0  88
  0   0  88
  0   0  87
  0   0  87
  0   0  86
  0   0  86
  0   0  86
  0   0  85
  0   0  85
  0   0  85
  0   0  85
  0   0  86
  0   0  86
  0   0  86
  0   0  87
  0   0  87
  0   0  88
  0   0  89
  0   0  90
  0   0  91
  0   0  92
  0   0  93
  0   0  94
  0   0  95
  0   0  96
  0   0  97
  0   0  98
  0   0  99
  0   0  99
  0   0 100
  0   0 100
  0   0 100
  0   0 100
  0   0  99
  0   0  98
  0   0  96
  0   0  94
  0   0  90
  0   0  84
  0   0  76
255 255 255
255 255 255
255 255 255
 78   0   0
 87   0   0
 94   0   0
 97   0   0
 98   0   0
 96   0   0
 91   0   0
 82   0   0
 69   0   0
255 255 255
255 255 255
255 255 255
255 255 255
 74   0   0
 78   0   0
 72   0   0
255 255 255
  0   0  73
  0   0  89
  0   0  95
  0   0  92
  0   0  80
255 255 255
255 255 255
255 255 255
255 255 255
255 255 255
255 255 255
  0   0  67
  0   0  71
  0   0  74
  0   0  74
  0   0  75
  0   0  75
  0   0  74
  0   0  74
  0   0  73
  0   0  72
  0   0  70
  0   0  68
  0   0  65
255 255 255
255 255 255
255 255 255
255 255 255
255 255 255
255 255 255
255 255 255
255 255 255
255 255 255
255 255 255
255 255 255
255 255 255
255 255 255
255 255 255
255 255 255
255 255 255
255 255 255
255 255 255
 64   0   0
 65   0   0
 66   0   0
 66   0   0
 67   0   0
 67   0   0
 67   0   0
 67   0   0
 67   0   0
 67   0   0
 67   0   0
 67   0   0
 66   0   0
 66   0   0
 65   0   0
 65   0   0
255 255 255
255 255 255
255 255 255
255 255 255
255 255 255
255 255 255
255 255 255
255 255 255
255 255 255
255 255 255
  0   0   0
  0   0   0
  0   0   0
  0   0   0
255 255 255
255 255 255
255 255 255
255 255 255
255 255 255
255 255 255
255 255 255
255 255 255
255 255 255
255 255 255
255 255 255
255 255 255
255 255 255
255 255 255
255 255 255
255 255 255
255 255 255
255 255 255
255 255 255
255 255 255
255 255 255
255 255 255
255 255 255
255 255 255
255 255 255
255 255 255
255 255 255
255 255 255
255 255 255
255 255 255
 68   0   0
 74   0   0
 73   0   0
255 255 255
255 255 255
  0   0  75
  0   0  88
  0   0  95
  0   0  96
  0   0  90
  0   0  79
255 255 255
 66   0   0
 84   0   0
 93   0   0
 98   0   0
 99   0   0
 98   0   0
 96   0   0
 91   0   0
 84   0   0
 76   0   0
 65   0   0
255 255 255
255 255 255
255 255 255
  0   0  70
  0   0  76
  0   0  80
  0   0  83
  0   0  86
  0   0  88
  0   0  89
  0   0  90
  0   0  91
  0   0  91
  0   0  92
  0   0  92
  0   0  92
  0   0  92
  0   0  92
  0   0  92
  0   0  92
  0   0  92
  0   0  92
  0   0  92
  0   0  92
  0   0  92
  0   0  92
  0   0  93
  0   0  93
  0   0  93
  0   0  93
  0   0  94
  0   0  94
  0   0  95
  0   0  95
  0   0  96
  0   0  96
  0   0  97
  0   0  97
  0   0  98
  0   0  98
  0   0  99
  0   0  99
  0   0  99
  0   0  99
  0   0  99
  0   0  98
  0   0  97
  0   0  96
  0   0  94
  0   0  92
  0   0  88
  0   0  83
  0   0  77
  0   0  66
255 255 255
255 255 255
 72   0   0
 84   0   0
 92   0   0
 97   0   0
101   0   0
102   0   0
101   0   0
 97   0   0
 90   0   0
 79   0   0
255 255 255
255 255 255
255 255 255
255 255 255
255 255 255
255 255 255
 68   0   0
255 255 255
255 255 255
  0   0  70
  0   0  85
  0   0  91
  0   0  89
  0   0  78
255 255 255
255 255 255
255 255 255
255 255 255
255 255 255
255 255 255
255 255 255
255 255 255
  0   0  66
  0   0  68
  0   0  70
  0   0  71
  0   0  72
  0   0  73
  0   0  73
  0   0  74
  0   0  74
  0   0  73
  0   0  72
  0   0  71
  0   0  70
  0   0  69
  0   0  68
  0   0  66
  0   0  65
255 255 255
255 255 255
255 255 255
255 255 255
255 255 255
255 255 255
255 255 255
255 255 255
255 255 255
255 255 255
255 255 255
255 255 255
255 255 255
255 255 255
255 255 255
255 255 255
255 255 255
255 255 255
255 255 255
255 255 255
255 255 255
255 255 255
255 255 255
255 255 255
255 255 255
255 255 255
255 255 255
255 255 255
255 255 255
255 255 255
255 255 255
255 255 255
255 255 255
255 255 255
255 255 255
255 255 255
255 255 255
255 255 255
255 255 255
  0   0   0
  0   0   0
  0   0   0
  0   0   0
255 255 255
255 255 255
255 255 255
255 255 255
255 255 255
255 255 255
255 255 255
255 255 255
255 255 255
255 255 255
255 255 255
255 255 255
255 255 255
255 255 255
255 255 255
255 255 255
255 255 255
255 255 255
255 255 255
255 255 255
255 255 255
255 255 255
255 255 255
255 255 255
255 255 255
255 255 255
255 255 255
255 255 255
255 255 255
255 255 255
255 255 255
 69   0   0
 74   0   0
 74   0   0
255 255 255
255 255 255
  0   0  72
  0   0  87
  0   0  95
  0   0  97
  0   0  94
  0   0  86
  0   0  70
255 255 255
 74   0   0
 87   0   0
 95   0   0
 99   0   0
100   0   0
 99   0   0
 97   0   0
 93   0   0
 88   0   0
 82   0   0
 74   0   0
255 255 255
255 255 255
255 255 255
255 255 255
  0   0  67
  0   0  73
  0   0  77
  0   0  81
  0   0  83
  0   0  85
  0   0  87
  0   0  88
  0   0  90
  0   0  90
  0   0  91
  0   0  92
  0   0  92
  0   0  93
  0   0  93
  0   0  93
  0   0  94
  0   0  94
  0   0  94
  0   0  95
  0   0  95
  0   0  95
  0   0  95
  0   0  96
  0   0  96
  0   0  96
  0   0  96
  0   0  97
  0   0  97
  0   0  97
  0   0  97
  0   0  97
  0   0  97
  0   0  97
  0   0  96
  0   0  96
  0   0  95
  0   0  94
  0   0  92
  0   0  90
  0   0  87
  0   0  84
  0   0  79
  0   0  72
255 255 255
255 255 255
255 255 255
 70   0   0
 81   0   0
 90   0   0
 96   0   0
101   0   0
104   0   0
105   0   0
104   0   0
101   0   0
 95   0   0
 86   0   0
 72   0   0
255 255 255
255 255 255
255 255 255
255 255 255
255 255 255
255 255 255
255 255 255
255 255 255
255 255 255
  0   0  68
  0   0  82
  0   0  87
  0   0  86
  0   0  76
255 255 255
255 255 255
255 255 255
 66   0   0
255 255 255
255 255 255
255 255 255
255 255 255
255 255 255
255 255 255
255 255 255
255 255 255
  0   0  65
  0   0  67
  0   0  68
  0   0  70
  0   0  71
  0   0  72
  0   0  72
  0   0  72
  0   0  72
  0   0  72
  0   0  72
  0   0  71
  0   0  71
  0   0  70
  0   0  70
  0   0  68
  0   0  67
  0   0  66
  0   0  65
255 255 255
255 255 255
255 255 255
255 255 255
255 255 255
255 255 255
255 255 255
255 255 255
255 255 255
255 255 255
255 255 255
255 255 255
255 255 255
255 255 255
255 255 255
255 255 255
255 255 255
255 255 255
255 255 255
255 255 255
255 255 255
255 255 255
255 255 255
255 255 255
255 255 255
255 255 255
255 255 255
255 255 255
255 255 255
255 255 255
255 255 255
255 255 255
255 255 255
255 255 255
  0   0   0
  0   0   0
  0   0   0
  0   0   0
255 255 255
255 255 255
255 255 255
255 255 255
255 255 255
255 255 255
255 255 255
255 255 255
255 255 255
255 255 255
255 255 255
255 255 255
255 255 255
255 255 255
255 255 255
255 255 255
255 255 255
255 255 255
255 255 255
255 255 255
255 255 255
255 255 255
255 255 255
255 255 255
255 255 255
255 255 255
255 255 255
255 255 255
255 255 255
255 255 255
255 255 255
255 255 255
 70   0   0
 75   0   0
 75   0   0
 67   0   0
255 255 255
  0   0  67
  0   0  84
  0   0  94
  0   0  98
  0   0  97
  0   0  92
  0   0  82
255 255 255
255 255 255
 77   0   0
 89   0   0
 95   0   0
 99   0   0
101   0   0
101   0   0
 99   0   0
 97   0   0
 93   0   0
 88   0   0
 83   0   0
 76   0   0
 68   0   0
255 255 255
255 255 255
255 255 255
255 255 255
  0   0  65
  0   0  70
  0   0  74
  0   0  78
  0   0  80
  0   0  82
  0   0  84
  0   0  86
  0   0  87
  0   0  88
  0   0  89
  0   0  90
  0   0  90
  0   0  91
  0   0  91
  0   0  92
  0   0  92
  0   0  92
  0   0  93
  0   0  93
  0   0  93
  0   0  93
  0   0  93
  0   0  93
  0   0  93
  0   0  92
  0   0  92
  0   0  91
  0   0  90
  0   0  89
  0   0  87
  0   0  85
  0   0  83
  0   0  80
  0   0  75
  0   0  69
255 255 255
255 255 255
255 255 255
255 255 255
 75   0   0
 83   0   0
 90   0   0
 96   0   0
101   0   0
104   0   0
106   0   0
107   0   0
106   0   0
103   0   0
 98   0   0
 90   0   0
 77   0   0
255 255 255
255 255 255
  0   0  69
  0   0  73
  0   0  71
255 255 255
255 255 255
255 255 255
255 255 255
255 255 255
  0   0  67
  0   0  78
  0   0  83
  0   0  82
  0   0  74
255 255 255
255 255 255
255 255 255
 66   0   0
255 255 255
255 255 255
255 255 255
255 255 255
255 255 255
255 255 255
255 255 255
255 255 255
255 255 255
255 255 255
255 255 255
255 255 255
255 255 255
  0   0  65
  0   0  67
  0   0  68
  0   0  69
  0   0  69
  0   0  70
  0   0  70
  0   0  71
  0   0  71
  0   0  71
  0   0  71
  0   0  71
  0   0  70
  0   0  70
  0   0  69
  0   0  69
  0   0  68
  0   0  68
  0   0  67
  0   0  66
  0   0  66
  0   0  65
  0   0  64
255 255 255
255 255 255
255 255 255
255 255 255
255 255 255
255 255 255
255 255 255
255 255 255
255 255 255
255 255 255
255 255 255
255 255 255
255 255 255
255 255 255
255 255 255
255 255 255
255 255 255
255 255 255
255 255 255
255 255 255
255 255 255
255 255 255
255 255 255
255 255 255
255 255 255
255 255 255
  0   0   0
  0   0   0
  0   0   0
  0   0   0
255 255 255
255 255 255
255 255 255
255 255 255
255 255 255
255 255 255
255 255 255
255 255 255
255 255 255
255 255 255
255 255 255
255 255 255
255 255 255
255 255 255
255 255 255
255 255 255
255 255 255
255 255 255
255 255 255
255 255 255
255 255 255
255 255 255
255 255 255
255 255 255
255 255 255
255 255 255
255 255 255
255 255 255
255 255 255
255 255 255
255 255 255
255 255 255
255 255 255
 70   0   0
 75   0   0
 76   0   0
 70   0   0
255 255 255
255 255 255
  0   0  80
  0   0  91
  0   0  97
  0   0  99
  0   0  97
  0   0  91
  0   0  79
255 255 255
255 255 255
 77   0   0
 88   0   0
 95   0   0
 99   0   0
101   0   0
102   0   0
101   0   0
100   0   0
 97   0   0
 94   0   0
 90   0   0
 86   0   0
 81   0   0
 75   0   0
 69   0   0
255 255 255
255 255 255
255 255 255
255 255 255
255 255 255
255 255 255
  0   0  65
  0   0  69
  0   0  72
  0   0  75
  0   0  76
  0   0  78
  0   0  79
  0   0  80
  0   0  81
  0   0  82
  0   0  83
  0   0  83
  0   0  83
  0   0  83
  0   0  83
  0   0  83
  0   0  82
  0   0  81
  0   0  80
  0   0  79
  0   0  77
  0   0  75
  0   0  72
  0   0  68
255 255 255
255 255 255
255 255 255
255 255 255
255 255 255
 66   0   0
 75   0   0
 82   0   0
 88   0   0
 94   0   0
 98   0   0
102   0   0
105   0   0
107   0   0
108   0   0
108   0   0
107   0   0
104   0   0
 99   0   0
 91   0   0
 78   0   0
255 255 255
255 255 255
  0   0  72
  0   0  80
  0   0  81
  0   0  78
  0   0  70
255 255 255
255 255 255
255 255 255
255 255 255
  0   0  64
  0   0  74
  0   0  79
  0   0  78
  0   0  71
255 255 255
255 255 255
255 255 255
 65   0   0
255 255 255
255 255 255
255 255 255
255 255 255
255 255 255
255 255 255
255 255 255
255 255 255
255 255 255
255 255 255
255 255 255
255 255 255
255 255 255
255 255 255
255 255 255
255 255 255
255 255 255
255 255 255
255 255 255
  0   0  65
  0   0  67
  0   0  68
  0   0  68
  0   0  69
  0   0  69
  0   0  69
  0   0  69
  0   0  69
  0   0  69
  0   0  69
  0   0  69
  0   0  69
  0   0  69
  0   0  69
  0   0  68
  0   0  68
  0   0  68
  0   0  67
  0   0  67
  0   0  67
  0   0  66
  0   0  66
  0   0  66
  0   0  66
  0   0  65
  0   0  65
  0   0  65
  0   0  65
  0   0  65
  0   0  64
  0   0  64
  0   0  64
  0   0  64
  0   0  64
255 255 255
255 255 255
255 255 255
255 255 255
255 255 255
255 255 255
255 255 255
255 255 255
255 255 255
  0   0   0
  0   0   0
  0   0   0
  0   0   0
255 255 255
255 255 255
255 255 255
255 255 255
255 255 255
255 255 255
255 255 255
255 255 255
255 255 255
255 255 255
255 255 255
255 255 255
255 255 255
255 255 255
255 255 255
255 255 255
255 255 255
255 255 255
255 255 255
255 255 255
255 255 255
255 255 255
255 255 255
255 255 255
255 255 255
255 255 255
255 255 255
255 255 255
255 255 255
255 255 255
255 255 255
255 255 255
255 255 255
255 255 255
 69   0   0
 75   0   0
 77   0   0
 73   0   0
255 255 255
255 255 255
  0   0  73
  0   0  87
  0   0  95
  0   0  99
  0   0 100
  0   0  97
  0   0  90
  0   0  79
255 255 255
255 255 255
 74   0   0
 86   0   0
 93   0   0
 98   0   0
101   0   0
102   0   0
103   0   0
102   0   0
101   0   0
 99   0   0
 97   0   0
 94   0   0
 91   0   0
 88   0   0
 84   0   0
 81   0   0
 76   0   0
 72   0   0
 67   0   0
255 255 255
255 255 255
255 255 255
255 255 255
255 255 255
255 255 255
255 255 255
255 255 255
255 255 255
255 255 255
255 255 255
255 255 255
255 255 255
255 255 255
255 255 255
255 255 255
255 255 255
255 255 255
255 255 255
255 255 255
255 255 255
255 255 255
255 255 255
 66   0   0
 71   0   0
 77   0   0
 82   0   0
 86   0   0
 91   0   0
 95   0   0
 98   0   0
102   0   0
105   0   0
107   0   0
109   0   0
110   0   0
110   0   0
109   0   0
107   0   0
103   0   0
 97   0   0
 89   0   0
 76   0   0
255 255 255
255 255 255
  0   0  76
  0   0  84
  0   0  87
  0   0  87
  0   0  82
  0   0  74
255 255 255
255 255 255
255 255 255
255 255 255
255 255 255
  0   0  70
  0   0  74
  0   0  73
  0   0  67
255 255 255
255 255 255
255 255 255
255 255 255
255 255 255
255 255 255
255 255 255
255 255 255
255 255 255
255 255 255
255 255 255
255 255 255
255 255 255
255 255 255
255 255 255
255 255 255
255 255 255
255 255 255
255 255 255
255 255 255
255 255 255
255 255 255
255 255 255
255 255 255
255 255 255
255 255 255
255 255 255
255 255 255
255 255 255
  0   0  64
  0   0  65
  0   0  66
  0   0  66
  0   0  67
  0   0  67
  0   0  67
  0   0  67
  0   0  67
  0   0  67
  0   0  68
  0   0  67
  0   0  67
  0   0  67
  0   0  67
  0   0  67
  0   0  67
  0   0  67
  0   0  67
  0   0  66
  0   0  66
  0   0  66
  0   0  66
  0   0  66
  0   0  66
  0   0  65
  0   0  65
  0   0  65
  0   0  65
  0   0  65
  0   0  64
  0   0  64
255 255 255
255 255 255
255 255 255
255 255 255
255 255 255
255 255 255
255 255 255
  0   0   0
  0   0   0
  0   0   0
  0   0   0
255 255 255
255 255 255
255 255 255
255 255 255
255 255 255
255 255 255
255 255 255
255 255 255
255 255 255
255 255 255
255 255 255
255 255 255
255 255 255
255 255 255
255 255 255
255 255 255
255 255 255
255 255 255
255 255 255
255 255 255
255 255 255
255 255 255
255 255 255
255 255 255
255 255 255
255 255 255
255 255 255
255 255 255
255 255 255
255 255 255
255 255 255
255 255 255
255 255 255
255 255 255
255 255 255
 68   0   0
 75   0   0
 78   0   0
 76   0   0
 68   0   0
255 255 255
255 255 255
  0   0  81
  0   0  91
  0   0  98
  0   0 101
  0   0 100
  0   0  97
  0   0  91
  0   0  82
  0   0  66
255 255 255
 67   0   0
 81   0   0
 90   0   0
 95   0   0
 99   0   0
102   0   0
103   0   0
104   0   0
104   0   0
103   0   0
102   0   0
101   0   0
 99   0   0
 98   0   0
 96   0   0
 94   0   0
 91   0   0
 89   0   0
 87   0   0
 85   0   0
 83   0   0
 81   0   0
 79   0   0
 78   0   0
 76   0   0
 75   0   0
 74   0   0
 74   0   0
 74   0   0
 74   0   0
 74   0   0
 75   0   0
 76   0   0
 78   0   0
 80   0   0
 82   0   0
 84   0   0
 86   0   0
 89   0   0
 91   0   0
 94   0   0
 96   0   0
 99   0   0
101   0   0
104   0   0
106   0   0
108   0   0
109   0   0
110   0   0
111   0   0
111   0   0
110   0   0
108   0   0
105   0   0
100   0   0
 94   0   0
 84   0   0
 69   0   0
255 255 255
  0   0  67
  0   0  81
  0   0  88
  0   0  92
  0   0  92
  0   0  89
  0   0  83
  0   0  74
255 255 255
255 255 255
255 255 255
255 255 255
255 255 255
  0   0  65
  0   0  69
  0   0  68
255 255 255
255 255 255
255 255 255
255 255 255
255 255 255
255 255 255
255 255 255
255 255 255
255 255 255
255 255 255
255 255 255
255 255 255
255 255 255
255 255 255
255 255 255
255 255 255
255 255 255
255 255 255
255 255 255
255 255 255
255 255 255
255 255 255
255 255 255
255 255 255
255 255 255
255 255 255
255 255 255
255 255 255
255 255 255
255 255 255
255 255 255
255 255 255
255 255 255
255 255 255
255 255 255
255 255 255
255 255 255
255 255 255
255 255 255
255 255 255
255 255 255
  0   0  64
  0   0  64
  0   0  64
  0   0  65
  0   0  65
  0   0  65
  0   0  65
  0   0  65
  0   0  65
  0   0  64
  0   0  64
  0   0  64
  0   0  64
255 255 255
255 255 255
255 255 255
255 255 255
255 255 255
255 255 255
255 255 255
255 255 255
255 255 255
255 255 255
255 255 255
255 255 255
255 255 255
255 255 255
255 255 255
255 255 255
  0   0   0
  0   0   0
  0   0   0
  0   0   0
255 255 255
255 255 255
255 255 255
255 255 255
255 255 255
255 255 255
255 255 255
255 255 255
255 255 255
255 255 255
255 255 255
255 255 255
255 255 255
255 255 255
255 255 255
255 255 255
255 255 255
255 255 255
255 255 255
255 255 255
255 255 255
255 255 255
255 255 255
255 255 255
255 255 255
255 255 255
255 255 255
255 255 255
255 255 255
255 255 255
255 255 255
255 255 255
255 255 255
255 255 255
255 255 255
255 255 255
 66   0   0
 74   0   0
 78   0   0
 78   0   0
 73   0   0
255 255 255
255 255 255
  0   0  71
  0   0  85
  0   0  94
  0   0  99
  0   0 102
  0   0 101
  0   0  99
  0   0  94
  0   0  86
  0   0  75
255 255 255
255 255 255
 71   0   0
 82   0   0
 90   0   0
 95   0   0
 99   0   0
101   0   0
103   0   0
104   0   0
105   0   0
105   0   0
105   0   0
105   0   0
104   0   0
103   0   0
102   0   0
101   0   0
100   0   0
100   0   0
 99   0   0
 98   0   0
 97   0   0
 97   0   0
 96   0   0
 96   0   0
 96   0   0
 96   0   0
 96   0   0
 97   0   0
 97   0   0
 98   0   0
 99   0   0
100   0   0
101   0   0
102   0   0
103   0   0
104   0   0
106   0   0
107   0   0
108   0   0
109   0   0
110   0   0
111   0   0
111   0   0
111   0   0
110   0   0
109   0   0
107   0   0
104   0   0
100   0   0
 94   0   0
 86   0   0
 74   0   0
255 255 255
255 255 255
  0   0  76
  0   0  87
  0   0  93
  0   0  97
  0   0  97
  0   0  95
  0   0  90
  0   0  82
  0   0  72
255 255 255
255 255 255
255 255 255
255 255 255
255 255 255
255 255 255
255 255 255
255 255 255
255 255 255
255 255 255
255 255 255
255 255 255
255 255 255
255 255 255
255 255 255
255 255 255
255 255 255
255 255 255
255 255 255
255 255 255
255 255 255
255 255 255
255 255 255
255 255 255
255 255 255
255 255 255
255 255 255
255 255 255
255 255 255
255 255 255
255 255 255
255 255 255
255 255 255
255 255 255
255 255 255
255 255 255
255 255 255
255 255 255
255 255 255
255 255 255
255 255 255
255 255 255
255 255 255
255 255 255
255 255 255
255 255 255
255 255 255
255 255 255
255 255 255
255 255 255
255 255 255
255 255 255
255 255 255
255 255 255
255 255 255
255 255 255
255 255 255
255 255 255
255 255 255
255 255 255
255 255 255
255 255 255
255 255 255
255 255 255
255 255 255
255 255 255
255 255 255
255 255 255
255 255 255
255 255 255
255 255 255
255 255 255
255 255 255
255 255 255
255 255 255
255 255 255
255 255 255
255 255 255
255 255 255
  0   0   0
  0   0   0
  0   0   0
  0   0   0
255 255 255
255 255 255
255 255 255
255 255 255
255 255 255
255 255 255
255 255 255
255 255 255
255 255 255
255 255 255
255 255 255
255 255 255
255 255 255
255 255 255
255 255 255
255 255 255
255 255 255
255 255 255
255 255 255
255 255 255
255 255 255
255 255 255
255 255 255
255 255 255
255 255 255
255 255 255
255 255 255
255 255 255
255 255 255
255 255 255
255 255 255
255 255 255
255 255 255
255 255 255
255 255 255
255 255 255
255 255 255
255 255 255
 72   0   0
 78   0   0
 80   0   0
 77   0   0
 70   0   0
255 255 255
255 255 255
  0   0  75
  0   0  87
  0   0  95
  0   0 100
  0   0 102
  0   0 102
  0   0 101
  0   0  97
  0   0  92
  0   0  84
  0   0  72
255 255 255
255 255 255
 69   0   0
 80   0   0
 87   0   0
 92   0   0
 96   0   0
100   0   0
102   0   0
104   0   0
105   0   0
106   0   0
106   0   0
107   0   0
107   0   0
107   0   0
107   0   0
107   0   0
107   0   0
107   0   0
107   0   0
106   0   0
107   0   0
107   0   0
107   0   0
107   0   0
107   0   0
108   0   0
108   0   0
108   0   0
109   0   0
109   0   0
110   0   0
110   0   0
111   0   0
111   0   0
111   0   0
111   0   0
110   0   0
110   0   0
109   0   0
107   0   0
105   0   0
101   0   0
 97   0   0
 91   0   0
 83   0   0
 72   0   0
255 255 255
255 255 255
  0   0  75
  0   0  86
  0   0  93
  0   0  98
  0   0 100
  0   0 101
  0   0  99
  0   0  94
  0   0  87
  0   0  78
  0   0  65
255 255 255
255 255 255
255 255 255
255 255 255
255 255 255
255 255 255
255 255 255
255 255 255
255 255 255
255 255 255
255 255 255
255 255 255
255 255 255
255 255 255
255 255 255
255 255 255
255 255 255
255 255 255
255 255 255
255 255 255
255 255 255
255 255 255
255 255 255
255 255 255
255 255 255
255 255 255
255 255 255
255 255 255
255 255 255
255 255 255
255 255 255
255 255 255
255 255 255
255 255 255
255 255 255
255 255 255
255 255 255
255 255 255
255 255 255
255 255 255
255 255 255
255 255 255
255 255 255
255 255 255
255 255 255
255 255 255
255 255 255
255 255 255
255 255 255
255 255 255
255 255 255
255 255 255
255 255 255
255 255 255
255 255 255
255 255 255
255 255 255
255 255 255
255 255 255
255 255 255
255 255 255
255 255 255
255 255 255
255 255 255
255 255 255
255 255 255
255 255 255
255 255 255
255 255 255
255 255 255
255 255 255
255 255 255
255 255 255
255 255 255
255 255 255
255 255 255
255 255 255
255 255 255
255 255 255
255 255 255
  0   0   0
  0   0   0
  0   0   0
  0   0   0
255 255 255
255 255 255
255 255 255
255 255 255
255 255 255
255 255 255
255 255 255
255 255 255
255 255 255
255 255 255
255 255 255
255 255 255
255 255 255
255 255 255
255 255 255
255 255 255
255 255 255
255 255 255
255 255 255
255 255 255
255 255 255
255 255 255
255 255 255
255 255 255
255 255 255
255 255 255
255 255 255
255 255 255
255 255 255
255 255 255
255 255 255
255 255 255
255 255 255
255 255 255
255 255 255
255 255 255
255 255 255
255 255 255
255 255 255
 70   0   0
 76   0   0
 80   0   0
 80   0   0
 76   0   0
 68   0   0
255 255 255
255 255 255
  0   0  76
  0   0  87
  0   0  95
  0   0 100
  0   0 103
  0   0 104
  0   0 103
  0   0 101
  0   0  97
  0   0  92
  0   0  85
  0   0  76
255 255 255
255 255 255
255 255 255
 71   0   0
 79   0   0
 86   0   0
 91   0   0
 94   0   0
 97   0   0
100   0   0
101   0   0
103   0   0
104   0   0
105   0   0
106   0   0
107   0   0
107   0   0
108   0   0
108   0   0
108   0   0
109   0   0
109   0   0
109   0   0
109   0   0
109   0   0
109   0   0
109   0   0
109   0   0
109   0   0
109   0   0
108   0   0
107   0   0
106   0   0
105   0   0
103   0   0
101   0   0
 98   0   0
 94   0   0
 89   0   0
 83   0   0
 73   0   0
255 255 255
255 255 255
  0   0  66
  0   0  79
  0   0  88
  0   0  95
  0   0  99
  0   0 102
  0   0 104
  0   0 103
  0   0 101
  0   0  97
  0   0  90
  0   0  81
  0   0  70
255 255 255
255 255 255
255 255 255
255 255 255
255 255 255
255 255 255
255 255 255
255 255 255
255 255 255
255 255 255
255 255 255
255 255 255
255 255 255
255 255 255
255 255 255
255 255 255
255 255 255
255 255 255
255 255 255
255 255 255
255 255 255
255 255 255
255 255 255
255 255 255
255 255 255
255 255 255
255 255 255
255 255 255
255 255 255
255 255 255
255 255 255
255 255 255
255 255 255
255 255 255
255 255 255
255 255 255
255 255 255
255 255 255
255 255 255
255 255 255
255 255 255
255 255 255
255 255 255
255 255 255
255 255 255
255 255 255
255 255 255
255 255 255
255 255 255
255 255 255
255 255 255
255 255 255
255 255 255
255 255 255
255 255 255
255 255 255
255 255 255
255 255 255
255 255 255
255 255 255
255 255 255
255 255 255
255 255 255
255 255 255
255 255 255
255 255 255
255 255 255
255 255 255
255 255 255
255 255 255
255 255 255
255 255 255
255 255 255
255 255 255
255 255 255
255 255 255
255 255 255
255 255 255
255 255 255
255 255 255
255 255 255
255 255 255
  0   0   0
  0   0   0
  0   0   0
  0   0   0
255 255 255
255 255 255
255 255 255
255 255 255
255 255 255
255 255 255
255 255 255
255 255 255
255 255 255
255 255 255
255 255 255
255 255 255
255 255 255
255 255 255
255 255 255
255 255 255
255 255 255
255 255 255
255 255 255
255 255 255
255 255 255
255 255 255
255 255 255
255 255 255
255 255 255
255 255 255
255 255 255
255 255 255
255 255 255
255 255 255
255 255 255
255 255 255
255 255 255
255 255 255
255 255 255
255 255 255
255 255 255
255 255 255
255 255 255
255 255 255
 65   0   0
 73   0   0
 78   0   0
 81   0   0
 80   0   0
 76   0   0
 67   0   0
255 255 255
255 255 255
  0   0  74
  0   0  86
  0   0  94
  0   0  99
  0   0 102
  0   0 104
  0   0 105
  0   0 104
  0   0 102
  0   0  99
  0   0  95
  0   0  90
  0   0  83
  0   0  75
  0   0  65
255 255 255
255 255 255
255 255 255
 70   0   0
 77   0   0
 82   0   0
 86   0   0
 89   0   0
 92   0   0
 94   0   0
 96   0   0
 97   0   0
 98   0   0
 99   0   0
100   0   0
100   0   0
101   0   0
101   0   0
101   0   0
101   0   0
100   0   0
100   0   0
 99   0   0
 98   0   0
 96   0   0
 94   0   0
 92   0   0
 89   0   0
 85   0   0
 79   0   0
 72   0   0
255 255 255
255 255 255
255 255 255
  0   0  68
  0   0  79
  0   0  87
  0   0  93
  0   0  98
  0   0 102
  0   0 104
  0   0 106
  0   0 106
  0   0 105
  0   0 102
  0   0  97
  0   0  91
  0   0  82
  0   0  70
255 255 255
255 255 255
255 255 255
255 255 255
255 255 255
255 255 255
255 255 255
255 255 255
255 255 255
255 255 255
255 255 255
255 255 255
255 255 255
255 255 255
255 255 255
255 255 255
255 255 255
255 255 255
255 255 255
255 255 255
255 255 255
255 255 255
255 255 255
255 255 255
255 255 255
255 255 255
255 255 255
255 255 255
255 255 255
255 255 255
255 255 255
255 255 255
255 255 255
255 255 255
255 255 255
255 255 255
255 255 255
255 255 255
255 255 255
255 255 255
255 255 255
255 255 255
255 255 255
255 255 255
255 255 255
255 255 255
255 255 255
255 255 255
255 255 255
255 255 255
255 255 255
255 255 255
255 255 255
255 255 255
255 255 255
255 255 255
255 255 255
255 255 255
255 255 255
255 255 255
255 255 255
255 255 255
255 255 255
255 255 255
255 255 255
255 255 255
255 255 255
255 255 255
255 255 255
255 255 255
255 255 255
255 255 255
255 255 255
255 255 255
255 255 255
255 255 255
255 255 255
255 255 255
255 255 255
255 255 255
255 255 255
255 255 255
255 255 255
255 255 255
  0   0   0
  0   0   0
  0   0   0
  0   0   0
255 255 255
255 255 255
255 255 255
255 255 255
255 255 255
255 255 255
255 255 255
255 255 255
255 255 255
255 255 255
255 255 255
255 255 255
255 255 255
255 255 255
255 255 255
255 255 255
255 255 255
255 255 255
255 255 255
255 255 255
255 255 255
255 255 255
255 255 255
255 255 255
255 255 255
255 255 255
255 255 255
255 255 255
255 255 255
255 255 255
255 255 255
255 255 255
255 255 255
255 255 255
255 255 255
255 255 255
255 255 255
255 255 255
255 255 255
255 255 255
255 255 255
255 255 255
 69   0   0
 76   0   0
 80   0   0
 82   0   0
 81   0   0
 77   0   0
 69   0   0
255 255 255
255 255 255
  0   0  70
  0   0  82
  0   0  91
  0   0  97
  0   0 101
  0   0 104
  0   0 105
  0   0 106
  0   0 105
  0   0 104
  0   0 102
  0   0 100
  0   0  96
  0   0  93
  0   0  88
  0   0  83
  0   0  77
  0   0  71
255 255 255
255 255 255
255 255 255
255 255 255
255 255 255
255 255 255
 66   0   0
 69   0   0
 72   0   0
 73   0   0
 74   0   0
 75   0   0
 75   0   0
 75   0   0
 74   0   0
 72   0   0
 70   0   0
 66   0   0
255 255 255
255 255 255
255 255 255
255 255 255
255 255 255
  0   0  65
  0   0  74
  0   0  80
  0   0  86
  0   0  91
  0   0  96
  0   0 100
  0   0 103
  0   0 105
  0   0 107
  0   0 108
  0   0 108
  0   0 107
  0   0 104
  0   0 101
  0   0  96
  0   0  89
  0   0  80
  0   0  67
255 255 255
255 255 255
255 255 255
 64   0   0
 65   0   0
255 255 255
255 255 255
255 255 255
255 255 255
255 255 255
255 255 255
255 255 255
255 255 255
255 255 255
255 255 255
255 255 255
255 255 255
255 255 255
255 255 255
255 255 255
255 255 255
255 255 255
255 255 255
255 255 255
255 255 255
255 255 255
255 255 255
255 255 255
255 255 255
255 255 255
255 255 255
255 255 255
255 255 255
255 255 255
255 255 255
255 255 255
255 255 255
255 255 255
255 255 255
255 255 255
255 255 255
255 255 255
255 255 255
255 255 255
255 255 255
255 255 255
255 255 255
255 255 255
255 255 255
255 255 255
255 255 255
255 255 255
255 255 255
255 255 255
255 255 255
255 255 255
255 255 255
255 255 255
255 255 255
255 255 255
255 255 255
255 255 255
255 255 255
255 255 255
255 255 255
255 255 255
255 255 255
255 255 255
255 255 255
255 255 255
255 255 255
255 255 255
255 255 255
255 255 255
255 255 255
255 255 255
255 255 255
255 255 255
255 255 255
255 255 255
255 255 255
255 255 255
255 255 255
255 255 255
255 255 255
255 255 255
  0   0   0
  0   0   0
  0   0   0
  0   0   0
255 255 255
255 255 255
255 255 255
255 255 255
255 255 255
255 255 255
255 255 255
255 255 255
255 255 255
255 255 255
255 255 255
255 255 255
255 255 255
255 255 255
255 255 255
255 255 255
255 255 255
255 255 255
255 255 255
255 255 255
255 255 255
255 255 255
255 255 255
255 255 255
255 255 255
255 255 255
255 255 255
255 255 255
255 255 255
255 255 255
255 255 255
255 255 255
255 255 255
255 255 255
255 255 255
255 255 255
255 255 255
255 255 255
255 255 255
255 255 255
255 255 255
255 255 255
255 255 255
255 255 255
 72   0   0
 78   0   0
 81   0   0
 83   0   0
 82   0   0
 79   0   0
 72   0   0
255 255 255
255 255 255
255 255 255
  0   0  75
  0   0  85
  0   0  92
  0   0  97
  0   0 101
  0   0 104
  0   0 106
  0   0 107
  0   0 107
  0   0 107
  0   0 106
  0   0 105
  0   0 103
  0   0 101
  0   0  99
  0   0  97
  0   0  94
  0   0  92
  0   0  89
  0   0  87
  0   0  85
  0   0  83
  0   0  81
  0   0  79
  0   0  78
  0   0  77
  0   0  76
  0   0  77
  0   0  77
  0   0  78
  0   0  80
  0   0  82
  0   0  84
  0   0  86
  0   0  89
  0   0  92
  0   0  94
  0   0  97
  0   0  99
  0   0 102
  0   0 104
  0   0 106
  0   0 108
  0   0 109
  0   0 109
  0   0 110
  0   0 109
  0   0 108
  0   0 105
  0   0 102
  0   0  98
  0   0  92
  0   0  84
  0   0  74
255 255 255
255 255 255
255 255 255
 65   0   0
 70   0   0
 70   0   0
 68   0   0
255 255 255
255 255 255
255 255 255
255 255 255
255 255 255
255 255 255
255 255 255
255 255 255
255 255 255
255 255 255
255 255 255
255 255 255
255 255 255
255 255 255
255 255 255
255 255 255
255 255 255
255 255 255
255 255 255
255 255 255
255 255 255
255 255 255
255 255 255
255 255 255
255 255 255
255 255 255
255 255 255
255 255 255
255 255 255
255 255 255
255 255 255
255 255 255
255 255 255
255 255 255
255 255 255
255 255 255
255 255 255
255 255 255
255 255 255
255 255 255
255 255 255
255 255 255
255 255 255
255 255 255
255 255 255
255 255 255
255 255 255
255 255 255
255 255 255
255 255 255
255 255 255
255 255 255
255 255 255
255 255 255
255 255 255
255 255 255
255 255 255
255 255 255
255 255 255
255 255 255
255 255 255
255 255 255
255 255 255
255 255 255
255 255 255
255 255 255
255 255 255
255 255 255
255 255 255
255 255 255
255 255 255
255 255 255
255 255 255
255 255 255
255 255 255
255 255 255
255 255 255
255 255 255
255 255 255
255 255 255
255 255 255
255 255 255
  0   0   0
  0   0   0
  0   0   0
  0   0   0
255 255 255
255 255 255
255 255 255
255 255 255
255 255 255
255 255 255
255 255 255
255 255 255
255 255 255
255 255 255
255 255 255
255 255 255
255 255 255
255 255 255
255 255 255
255 255 255
255 255 255
255 255 255
255 255 255
255 255 255
255 255 255
255 255 255
255 255 255
255 255 255
255 255 255
255 255 255
255 255 255
255 255 255
255 255 255
255 255 255
255 255 255
255 255 255
255 255 255
255 255 255
255 255 255
255 255 255
255 255 255
255 255 255
255 255 255
255 255 255
255 255 255
255 255 255
255 255 255
255 255 255
255 255 255
 66   0   0
 73   0   0
 78   0   0
 82   0   0
 83   0   0
 83   0   0
 81   0   0
 76   0   0
 69   0   0
255 255 255
255 255 255
255 255 255
  0   0  75
  0   0  84
  0   0  91
  0   0  96
  0   0 100
  0   0 103
  0   0 105
  0   0 106
  0   0 107
  0   0 108
  0   0 108
  0   0 108
  0   0 108
  0   0 107
  0   0 107
  0   0 106
  0   0 105
  0   0 105
  0   0 104
  0   0 103
  0   0 103
  0   0 103
  0   0 102
  0   0 102
  0   0 102
  0   0 103
  0   0 103
  0   0 104
  0   0 105
  0   0 105
  0   0 106
  0   0 107
  0   0 108
  0   0 109
  0   0 110
  0   0 110
  0   0 111
  0   0 111
  0   0 110
  0   0 110
  0   0 109
  0   0 107
  0   0 104
  0   0 101
  0   0  97
  0   0  91
  0   0  84
  0   0  75
255 255 255
255 255 255
255 255 255
 65   0   0
 71   0   0
 74   0   0
 74   0   0
 72   0   0
 68   0   0
255 255 255
255 255 255
255 255 255
255 255 255
255 255 255
255 255 255
255 255 255
255 255 255
255 255 255
255 255 255
255 255 255
255 255 255
255 255 255
255 255 255
255 255 255
255 255 255
255 255 255
255 255 255
255 255 255
255 255 255
255 255 255
255 255 255
255 255 255
255 255 255
255 255 255
255 255 255
255 255 255
255 255 255
255 255 255
255 255 255
255 255 255
255 255 255
255 255 255
255 255 255
255 255 255
255 255 255
255 255 255
255 255 255
255 255 255
255 255 255
255 255 255
255 255 255
255 255 255
255 255 255
255 255 255
255 255 255
255 255 255
255 255 255
255 255 255
255 255 255
255 255 255
255 255 255
255 255 255
255 255 255
255 255 255
255 255 255
255 255 255
255 255 255
255 255 255
255 255 255
255 255 255
255 255 255
255 255 255
255 255 255
255 255 255
255 255 255
255 255 255
255 255 255
255 255 255
255 255 255
255 255 255
255 255 255
255 255 255
255 255 255
255 255 255
255 255 255
255 255 255
255 255 255
255 255 255
255 255 255
255 255 255
255 255 255
255 255 255
  0   0   0
  0   0   0
  0   0   0
  0   0   0
255 255 255
255 255 255
255 255 255
255 255 255
255 255 255
255 255 255
255 255 255
255 255 255
255 255 255
255 255 255
255 255 255
255 255 255
255 255 255
255 255 255
255 255 255
255 255 255
255 255 255
255 255 255
255 255 255
255 255 255
255 255 255
255 255 255
255 255 255
255 255 255
255 255 255
255 255 255
255 255 255
255 255 255
255 255 255
255 255 255
255 255 255
255 255 255
255 255 255
255 255 255
255 255 255
255 255 255
255 255 255
255 255 255
255 255 255
255 255 255
255 255 255
255 255 255
255 255 255
255 255 255
255 255 255
255 255 255
255 255 255
 66   0   0
 73   0   0
 78   0   0
 82   0   0
 84   0   0
 84   0   0
 83   0   0
 80   0   0
 76   0   0
 68   0   0
255 255 255
255 255 255
255 255 255
  0   0  70
  0   0  79
  0   0  86
  0   0  91
  0   0  95
  0   0  99
  0   0 101
  0   0 104
  0   0 105
  0   0 107
  0   0 108
  0   0 108
  0   0 109
  0   0 109
  0   0 110
  0   0 110
  0   0 110
  0   0 110
  0   0 110
  0   0 110
  0   0 110
  0   0 110
  0   0 111
  0   0 111
  0   0 111
  0   0 111
  0   0 111
  0   0 111
  0   0 111
  0   0 111
  0   0 110
  0   0 109
  0   0 108
  0   0 107
  0   0 105
  0   0 103
  0   0 100
  0   0  97
  0   0  92
  0   0  87
  0   0  80
  0   0  70
255 255 255
255 255 255
255 255 255
 67   0   0
 73   0   0
 77   0   0
 78   0   0
 78   0   0
 75   0   0
 72   0   0
 66   0   0
255 255 255
255 255 255
255 255 255
255 255 255
255 255 255
255 255 255
255 255 255
255 255 255
255 255 255
255 255 255
255 255 255
255 255 255
255 255 255
255 255 255
255 255 255
255 255 255
255 255 255
255 255 255
255 255 255
255 255 255
255 255 255
255 255 255
255 255 255
255 255 255
255 255 255
255 255 255
255 255 255
255 255 255
255 255 255
255 255 255
255 255 255
255 255 255
255 255 255
255 255 255
255 255 255
255 255 255
255 255 255
255 255 255
255 255 255
255 255 255
255 255 255
255 255 255
255 255 255
255 255 255
255 255 255
255 255 255
255 255 255
255 255 255
255 255 255
255 255 255
255 255 255
255 255 255
255 255 255
255 255 255
255 255 255
255 255 255
255 255 255
255 255 255
255 255 255
255 255 255
255 255 255
255 255 255
255 255 255
255 255 255
255 255 255
255 255 255
255 255 255
255 255 255
255 255 255
255 255 255
255 255 255
255 255 255
255 255 255
255 255 255
255 255 255
255 255 255
255 255 255
255 255 255
255 255 255
255 255 255
255 255 255
255 255 255
255 255 255
255 255 255
  0   0   0
  0   0   0
  0   0   0
  0   0   0
255 255 255
255 255 255
255 255 255
255 255 255
255 255 255
255 255 255
255 255 255
255 255 255
255 255 255
255 255 255
255 255 255
255 255 255
255 255 255
255 255 255
255 255 255
255 255 255
255 255 255
255 255 255
255 255 255
255 255 255
255 255 255
255 255 255
255 255 255
255 255 255
255 255 255
255 255 255
255 255 255
255 255 255
255 255 255
255 255 255
255 255 255
255 255 255
255 255 255
255 255 255
255 255 255
255 255 255
255 255 255
255 255 255
255 255 255
255 255 255
255 255 255
255 255 255
255 255 255
255 255 255
255 255 255
255 255 255
255 255 255
255 255 255
255 255 255
 65   0   0
 72   0   0
 77   0   0
 81   0   0
 84   0   0
 85   0   0
 85   0   0
 84   0   0
 81   0   0
 78   0   0
 72   0   0
 64   0   0
255 255 255
255 255 255
255 255 255
  0   0  68
  0   0  76
  0   0  82
  0   0  87
  0   0  90
  0   0  94
  0   0  96
  0   0  98
  0   0 100
  0   0 102
  0   0 103
  0   0 104
  0   0 105
  0   0 105
  0   0 106
  0   0 106
  0   0 107
  0   0 107
  0   0 107
  0   0 106
  0   0 106
  0   0 106
  0   0 105
  0   0 104
  0   0 103
  0   0 101
  0   0 100
  0   0  98
  0   0  95
  0   0  92
  0   0  88
  0   0  83
  0   0  76
  0   0  68
255 255 255
255 255 255
255 255 255
255 255 255
 71   0   0
 76   0   0
 79   0   0
 81   0   0
 81   0   0
 80   0   0
 77   0   0
 73   0   0
 68   0   0
255 255 255
255 255 255
255 255 255
255 255 255
255 255 255
255 255 255
255 255 255
255 255 255
255 255 255
255 255 255
255 255 255
255 255 255
255 255 255
255 255 255
255 255 255
255 255 255
255 255 255
255 255 255
255 255 255
255 255 255
255 255 255
255 255 255
255 255 255
255 255 255
255 255 255
255 255 255
255 255 255
255 255 255
255 255 255
255 255 255
255 255 255
255 255 255
255 255 255
255 255 255
255 255 255
255 255 255
255 255 255
255 255 255
255 255 255
255 255 255
255 255 255
255 255 255
255 255 255
255 255 255
255 255 255
255 255 255
255 255 255
255 255 255
255 255 255
255 255 255
255 255 255
255 255 255
255 255 255
255 255 255
255 255 255
255 255 255
255 255 255
255 255 255
255 255 255
255 255 255
255 255 255
255 255 255
255 255 255
255 255 255
255 255 255
255 255 255
255 255 255
255 255 255
255 255 255
255 255 255
255 255 255
255 255 255
255 255 255
255 255 255
255 255 255
255 255 255
255 255 255
255 255 255
255 255 255
255 255 255
255 255 255
255 255 255
255 255 255
255 255 255
255 255 255
255 255 255
  0   0   0
  0   0   0
  0   0   0
  0   0   0
255 255 255
255 255 255
255 255 255
255 255 255
255 255 255
255 255 255
255 255 255
255 255 255
255 255 255
255 255 255
255 255 255
255 255 255
255 255 255
255 255 255
255 255 255
255 255 255
255 255 255
255 255 255
255 255 255
255 255 255
255 255 255
255 255 255
255 255 255
255 255 255
255 255 255
255 255 255
255 255 255
255 255 255
255 255 255
255 255 255
255 255 255
255 255 255
255 255 255
255 255 255
255 255 255
255 255 255
255 255 255
255 255 255
255 255 255
255 255 255
255 255 255
255 255 255
255 255 255
255 255 255
255 255 255
255 255 255
255 255 255
255 255 255
255 255 255
255 255 255
255 255 255
255 255 255
 69   0   0
 75   0   0
 79   0   0
 82   0   0
 84   0   0
 86   0   0
 86   0   0
 85   0   0
 84   0   0
 81   0   0
 78   0   0
 73   0   0
 68   0   0
255 255 255
255 255 255
255 255 255
255 255 255
255 255 255
  0   0  68
  0   0  73
  0   0  77
  0   0  80
  0   0  83
  0   0  85
  0   0  87
  0   0  88
  0   0  89
  0   0  90
  0   0  90
  0   0  90
  0   0  90
  0   0  90
  0   0  89
  0   0  87
  0   0  86
  0   0  84
  0   0  81
  0   0  78
  0   0  74
  0   0  68
255 255 255
255 255 255
255 255 255
255 255 255
255 255 255
 68   0   0
 73   0   0
 78   0   0
 81   0   0
 82   0   0
 83   0   0
 83   0   0
 82   0   0
 80   0   0
 77   0   0
 73   0   0
 68   0   0
255 255 255
255 255 255
255 255 255
255 255 255
255 255 255
255 255 255
255 255 255
255 255 255
255 255 255
255 255 255
255 255 255
255 255 255
255 255 255
255 255 255
255 255 255
255 255 255
255 255 255
255 255 255
255 255 255
255 255 255
255 255 255
255 255 255
255 255 255
255 255 255
255 255 255
255 255 255
255 255 255
255 255 255
255 255 255
255 255 255
255 255 255
255 255 255
255 255 255
255 255 255
255 255 255
255 255 255
255 255 255
255 255 255
255 255 255
255 255 255
255 255 255
255 255 255
255 255 255
255 255 255
255 255 255
255 255 255
255 255 255
255 255 255
255 255 255
255 255 255
255 255 255
255 255 255
255 255 255
255 255 255
255 255 255
255 255 255
255 255 255
255 255 255
255 255 255
255 255 255
255 255 255
255 255 255
255 255 255
255 255 255
255 255 255
255 255 255
255 255 255
255 255 255
255 255 255
255 255 255
255 255 255
255 255 255
255 255 255
255 255 255
255 255 255
255 255 255
255 255 255
255 255 255
255 255 255
255 255 255
255 255 255
255 255 255
255 255 255
255 255 255
255 255 255
255 255 255
255 255 255
255 255 255
  0   0   0
  0   0   0
  0   0   0
  0   0   0
255 255 255
255 255 255
255 255 255
255 255 255
255 255 255
255 255 255
255 255 255
255 255 255
255 255 255
255 255 255
255 255 255
255 255 255
255 255 255
255 255 255
255 255 255
255 255 255
255 255 255
255 255 255
255 255 255
255 255 255
255 255 255
255 255 255
255 255 255
255 255 255
255 255 255
255 255 255
255 255 255
255 255 255
255 255 255
255 255 255
255 255 255
255 255 255
255 255 255
255 255 255
255 255 255
255 255 255
255 255 255
255 255 255
255 255 255
255 255 255
255 255 255
255 255 255
255 255 255
255 255 255
255 255 255
255 255 255
255 255 255
255 255 255
255 255 255
255 255 255
255 255 255
255 255 255
255 255 255
255 255 255
 65   0   0
 71   0   0
 76   0   0
 80   0   0
 82   0   0
 85   0   0
 86   0   0
 87   0   0
 87   0   0
 86   0   0
 85   0   0
 84   0   0
 82   0   0
 79   0   0
 76   0   0
 73   0   0
 69   0   0
 65   0   0
255 255 255
255 255 255
255 255 255
255 255 255
255 255 255
255 255 255
255 255 255
255 255 255
255 255 255
255 255 255
255 255 255
255 255 255
255 255 255
255 255 255
255 255 255
255 255 255
255 255 255
255 255 255
 65   0   0
 69   0   0
 73   0   0
 77   0   0
 79   0   0
 82   0   0
 83   0   0
 85   0   0
 85   0   0
 86   0   0
 85   0   0
 84   0   0
 82   0   0
 79   0   0
 75   0   0
 71   0   0
 65   0   0
255 255 255
255 255 255
255 255 255
255 255 255
255 255 255
255 255 255
255 255 255
255 255 255
255 255 255
255 255 255
255 255 255
255 255 255
255 255 255
255 255 255
255 255 255
255 255 255
255 255 255
255 255 255
255 255 255
255 255 255
255 255 255
255 255 255
255 255 255
255 255 255
255 255 255
255 255 255
255 255 255
255 255 255
255 255 255
255 255 255
255 255 255
255 255 255
255 255 255
255 255 255
255 255 255
255 255 255
255 255 255
255 255 255
255 255 255
255 255 255
255 255 255
255 255 255
255 255 255
255 255 255
255 255 255
255 255 255
255 255 255
255 255 255
255 255 255
255 255 255
255 255 255
255 255 255
255 255 255
255 255 255
255 255 255
255 255 255
255 255 255
255 255 255
255 255 255
255 255 255
255 255 255
255 255 255
255 255 255
255 255 255
255 255 255
255 255 255
255 255 255
255 255 255
255 255 255
255 255 255
255 255 255
255 255 255
255 255 255
255 255 255
255 255 255
255 255 255
255 255 255
255 255 255
255 255 255
255 255 255
255 255 255
255 255 255
255 255 255
255 255 255
255 255 255
255 255 255
255 255 255
255 255 255
255 255 255
255 255 255
  0   0   0
  0   0   0
  0   0   0
  0   0   0
255 255 255
255 255 255
255 255 255
255 255 255
255 255 255
255 255 255
255 255 255
255 255 255
255 255 255
255 255 255
255 255 255
255 255 255
255 255 255
255 255 255
255 255 255
255 255 255
255 255 255
255 255 255
255 255 255
255 255 255
255 255 255
255 255 255
255 255 255
255 255 255
255 255 255
255 255 255
255 255 255
255 255 255
255 255 255
255 255 255
255 255 255
255 255 255
255 255 255
255 255 255
255 255 255
255 255 255
255 255 255
255 255 255
255 255 255
255 255 255
255 255 255
255 255 255
255 255 255
255 255 255
255 255 255
255 255 255
255 255 255
255 255 255
255 255 255
255 255 255
255 255 255
255 255 255
255 255 255
255 255 255
255 255 255
255 255 255
255 255 255
 65   0   0
 70   0   0
 75   0   0
 78   0   0
 81   0   0
 84   0   0
 85   0   0
 86   0   0
 87   0   0
 88   0   0
 88   0   0
 87   0   0
 87   0   0
 86   0   0
 85   0   0
 84   0   0
 83   0   0
 82   0   0
 81   0   0
 81   0   0
 80   0   0
 79   0   0
 79   0   0
 79   0   0
 79   0   0
 79   0   0
 79   0   0
 80   0   0
 81   0   0
 82   0   0
 83   0   0
 84   0   0
 85   0   0
 86   0   0
 86   0   0
 87   0   0
 87   0   0
 87   0   0
 87   0   0
 86   0   0
 85   0   0
 84   0   0
 82   0   0
 79   0   0
 76   0   0
 71   0   0
 67   0   0
255 255 255
255 255 255
255 255 255
255 255 255
255 255 255
255 255 255
255 255 255
255 255 255
255 255 255
255 255 255
255 255 255
255 255 255
255 255 255
255 255 255
255 255 255
255 255 255
255 255 255
255 255 255
255 255 255
255 255 255
255 255 255
255 255 255
255 255 255
255 255 255
255 255 255
255 255 255
255 255 255
255 255 255
255 255 255
255 255 255
255 255 255
255 255 255
255 255 255
255 255 255
255 255 255
255 255 255
255 255 255
255 255 255
255 255 255
255 255 255
255 255 255
255 255 255
255 255 255
255 255 255
255 255 255
255 255 255
255 255 255
255 255 255
255 255 255
255 255 255
255 255 255
255 255 255
255 255 255
255 255 255
255 255 255
255 255 255
255 255 255
255 255 255
255 255 255
255 255 255
255 255 255
255 255 255
255 255 255
255 255 255
255 255 255
255 255 255
255 255 255
255 255 255
255 255 255
255 255 255
255 255 255
255 255 255
255 255 255
255 255 255
255 255 255
255 255 255
255 255 255
255 255 255
255 255 255
255 255 255
255 255 255
255 255 255
255 255 255
255 255 255
255 255 255
255 255 255
255 255 255
255 255 255
255 255 255
255 255 255
255 255 255
255 255 255
255 255 255
  0   0   0
  0   0   0
  0   0   0
  0   0   0
255 255 255
255 255 255
255 255 255
255 255 255
255 255 255
255 255 255
255 255 255
255 255 255
255 255 255
255 255 255
255 255 255
255 255 255
255 255 255
255 255 255
255 255 255
255 255 255
255 255 255
255 255 255
255 255 255
255 255 255
255 255 255
255 255 255
255 255 255
255 255 255
255 255 255
255 255 255
255 255 255
255 255 255
255 255 255
255 255 255
255 255 255
255 255 255
255 255 255
255 255 255
255 255 255
255 255 255
255 255 255
255 255 255
255 255 255
255 255 255
255 255 255
255 255 255
255 255 255
255 255 255
255 255 255
255 255 255
255 255 255
255 255 255
255 255 255
255 255 255
255 255 255
255 255 255
255 255 255
255 255 255
255 255 255
255 255 255
255 255 255
255 255 255
255 255 255
255 255 255
255 255 255
 67   0   0
 72   0   0
 75   0   0
 78   0   0
 81   0   0
 83   0   0
 84   0   0
 86   0   0
 87   0   0
 87   0   0
 88   0   0
 88   0   0
 88   0   0
 89   0   0
 89   0   0
 89   0   0
 89   0   0
 89   0   0
 89   0   0
 89   0   0
 89   0   0
 89   0   0
 89   0   0
 89   0   0
 89   0   0
 89   0   0
 89   0   0
 88   0   0
 88   0   0
 88   0   0
 87   0   0
 86   0   0
 85   0   0
 83   0   0
 82   0   0
 79   0   0
 76   0   0
 73   0   0
 69   0   0
 65   0   0
255 255 255
255 255 255
255 255 255
255 255 255
255 255 255
255 255 255
255 255 255
255 255 255
255 255 255
255 255 255
255 255 255
255 255 255
255 255 255
255 255 255
255 255 255
255 255 255
255 255 255
255 255 255
255 255 255
255 255 255
255 255 255
255 255 255
255 255 255
255 255 255
255 255 255
255 255 255
255 255 255
255 255 255
255 255 255
255 255 255
255 255 255
255 255 255
255 255 255
255 255 255
255 255 255
255 255 255
255 255 255
255 255 255
255 255 255
255 255 255
255 255 255
255 255 255
255 255 255
255 255 255
255 255 255
255 255 255
255 255 255
255 255 255
255 255 255
255 255 255
255 255 255
255 255 255
255 255 255
255 255 255
255 255 255
255 255 255
255 255 255
255 255 255
255 255 255
255 255 255
255 255 255
255 255 255
255 255 255
255 255 255
255 255 255
255 255 255
255 255 255
255 255 255
255 255 255
255 255 255
255 255 255
255 255 255
255 255 255
255 255 255
255 255 255
255 255 255
255 255 255
255 255 255
255 255 255
255 255 255
255 255 255
255 255 255
255 255 255
255 255 255
255 255 255
255 255 255
255 255 255
255 255 255
255 255 255
255 255 255
255 255 255
255 255 255
255 255 255
255 255 255
255 255 255
255 255 255
  0   0   0
  0   0   0
  0   0   0
  0   0   0
255 255 255
255 255 255
255 255 255
255 255 255
255 255 255
255 255 255
255 255 255
255 255 255
255 255 255
255 255 255
255 255 255
255 255 255
255 255 255
255 255 255
255 255 255
255 255 255
255 255 255
255 255 255
255 255 255
255 255 255
255 255 255
255 255 255
255 255 255
255 255 255
255 255 255
255 255 255
255 255 255
255 255 255
255 255 255
255 255 255
255 255 255
255 255 255
255 255 255
255 255 255
255 255 255
255 255 255
255 255 255
255 255 255
255 255 255
255 255 255
255 255 255
255 255 255
255 255 255
255 255 255
255 255 255
255 255 255
255 255 255
255 255 255
255 255 255
255 255 255
255 255 255
255 255 255
255 255 255
255 255 255
255 255 255
255 255 255
255 255 255
255 255 255
255 255 255
255 255 255
255 255 255
255 255 255
255 255 255
255 255 255
255 255 255
 65   0   0
 69   0   0
 72   0   0
 75   0   0
 77   0   0
 79   0   0
 80   0   0
 82   0   0
 83   0   0
 84   0   0
 84   0   0
 85   0   0
 85   0   0
 86   0   0
 86   0   0
 86   0   0
 86   0   0
 86   0   0
 86   0   0
 85   0   0
 85   0   0
 84   0   0
 83   0   0
 82   0   0
 81   0   0
 80   0   0
 78   0   0
 76   0   0
 74   0   0
 71   0   0
 67   0   0
255 255 255
255 255 255
255 255 255
255 255 255
255 255 255
255 255 255
255 255 255
255 255 255
255 255 255
255 255 255
255 255 255
255 255 255
255 255 255
255 255 255
255 255 255
255 255 255
255 255 255
255 255 255
255 255 255
255 255 255
255 255 255
255 255 255
255 255 255
255 255 255
255 255 255
255 255 255
255 255 255
255 255 255
255 255 255
255 255 255
255 255 255
255 255 255
255 255 255
255 255 255
255 255 255
255 255 255
255 255 255
255 255 255
255 255 255
255 255 255
255 255 255
255 255 255
255 255 255
255 255 255
255 255 255
255 255 255
255 255 255
255 255 255
255 255 255
255 255 255
255 255 255
255 255 255
255 255 255
255 255 255
255 255 255
255 255 255
255 255 255
255 255 255
255 255 255
255 255 255
255 255 255
255 255 255
255 255 255
255 255 255
255 255 255
255 255 255
255 255 255
255 255 255
255 255 255
255 255 255
255 255 255
255 255 255
255 255 255
255 255 255
255 255 255
255 255 255
255 255 255
255 255 255
255 255 255
255 255 255
255 255 255
255 255 255
255 255 255
255 255 255
255 255 255
255 255 255
255 255 255
255 255 255
255 255 255
255 255 255
255 255 255
255 255 255
255 255 255
255 255 255
255 255 255
255 255 255
255 255 255
255 255 255
255 255 255
255 255 255
255 255 255
  0   0   0
  0   0   0
  0   0   0
  0   0   0
255 255 255
255 255 255
255 255 255
255 255 255
255 255 255
255 255 255
255 255 255
255 255 255
255 255 255
255 255 255
255 255 255
255 255 255
255 255 255
255 255 255
255 255 255
255 255 255
255 255 255
255 255 255
255 255 255
255 255 255
255 255 255
255 255 255
255 255 255
255 255 255
255 255 255
255 255 255
255 255 255
255 255 255
255 255 255
255 255 255
255 255 255
255 255 255
255 255 255
255 255 255
255 255 255
255 255 255
255 255 255
255 255 255
255 255 255
255 255 255
255 255 255
255 255 255
255 255 255
255 255 255
255 255 255
255 255 255
255 255 255
255 255 255
255 255 255
255 255 255
255 255 255
255 255 255
255 255 255
255 255 255
255 255 255
255 255 255
255 255 255
255 255 255
255 255 255
255 255 255
255 255 255
255 255 255
255 255 255
255 255 255
255 255 255
255 255 255
255 255 255
255 255 255
255 255 255
255 255 255
255 255 255
255 255 255
 66   0   0
 68   0   0
 70   0   0
 71   0   0
 72   0   0
 73   0   0
 73   0   0
 74   0   0
 74   0   0
 74   0   0
 74   0   0
 73   0   0
 73   0   0
 72   0   0
 71   0   0
 69   0   0
 68   0   0
 65   0   0
255 255 255
255 255 255
255 255 255
255 255 255
255 255 255
255 255 255
255 255 255
255 255 255
255 255 255
255 255 255
255 255 255
255 255 255
255 255 255
255 255 255
255 255 255
255 255 255
255 255 255
255 255 255
255 255 255
255 255 255
255 255 255
255 255 255
255 255 255
255 255 255
255 255 255
255 255 255
255 255 255
255 255 255
255 255 255
255 255 255
255 255 255
255 255 255
255 255 255
255 255 255
255 255 255
255 255 255
255 255 255
255 255 255
255 255 255
255 255 255
255 255 255
255 255 255
255 255 255
255 255 255
255 255 255
255 255 255
255 255 255
255 255 255
255 255 255
255 255 255
255 255 255
255 255 255
255 255 255
255 255 255
255 255 255
255 255 255
255 255 255
255 255 255
255 255 255
255 255 255
255 255 255
255 255 255
255 255 255
255 255 255
255 255 255
255 255 255
255 255 255
255 255 255
255 255 255
255 255 255
255 255 255
255 255 255
255 255 255
255 255 255
255 255 255
255 255 255
255 255 255
255 255 255
255 255 255
255 255 255
255 255 255
255 255 255
255 255 255
255 255 255
255 255 255
255 255 255
255 255 255
255 255 255
255 255 255
255 255 255
255 255 255
255 255 255
255 255 255
255 255 255
255 255 255
255 255 255
255 255 255
255 255 255
255 255 255
255 255 255
255 255 255
255 255 255
255 255 255
255 255 255
255 255 255
255 255 255
255 255 255
  0   0   0
  0   0   0
  0   0   0
  0   0   0
255 255 255
255 255 255
255 255 255
255 255 255
255 255 255
255 255 255
255 255 255
255 255 255
255 255 255
255 255 255
255 255 255
255 255 255
255 255 255
255 255 255
255 255 255
255 255 255
255 255 255
255 255 255
255 255 255
255 255 255
255 255 255
255 255 255
255 255 255
255 255 255
255 255 255
255 255 255
255 255 255
255 255 255
255 255 255
255 255 255
255 255 255
255 255 255
255 255 255
255 255 255
255 255 255
255 255 255
255 255 255
255 255 255
255 255 255
255 255 255
255 255 255
255 255 255
255 255 255
255 255 255
255 255 255
255 255 255
255 255 255
255 255 255
255 255 255
255 255 255
255 255 255
255 255 255
255 255 255
255 255 255
255 255 255
255 255 255
255 255 255
255 255 255
255 255 255
255 255 255
255 255 255
255 255 255
255 255 255
255 255 255
255 255 255
255 255 255
255 255 255
255 255 255
255 255 255
255 255 255
255 255 255
255 255 255
255 255 255
255 255 255
255 255 255
255 255 255
255 255 255
255 255 255
255 255 255
255 255 255
255 255 255
255 255 255
255 255 255
255 255 255
255 255 255
255 255 255
255 255 255
255 255 255
255 255 255
255 255 255
255 255 255
255 255 255
255 255 255
255 255 255
255 255 255
255 255 255
255 255 255
255 255 255
255 255 255
255 255 255
255 255 255
255 255 255
255 255 255
255 255 255
255 255 255
255 255 255
255 255 255
255 255 255
255 255 255
255 255 255
255 255 255
255 255 255
255 255 255
255 255 255
255 255 255
255 255 255
255 255 255
255 255 255
255 255 255
255 255 255
255 255 255
255 255 255
255 255 255
255 255 255
255 255 255
255 255 255
255 255 255
255 255 255
255 255 255
255 255 255
255 255 255
255 255 255
255 255 255
255 255 255
255 255 255
255 255 255
255 255 255
255 255 255
255 255 255
255 255 255
255 255 255
255 255 255
255 255 255
255 255 255
255 255 255
255 255 255
255 255 255
255 255 255
255 255 255
255 255 255
255 255 255
255 255 255
255 255 255
255 255 255
255 255 255
255 255 255
255 255 255
255 255 255
255 255 255
255 255 255
255 255 255
255 255 255
255 255 255
255 255 255
255 255 255
255 255 255
255 255 255
255 255 255
255 255 255
255 255 255
255 255 255
255 255 255
255 255 255
255 255 255
255 255 255
255 255 255
255 255 255
255 255 255
255 255 255
255 255 255
255 255 255
255 255 255
255 255 255
255 255 255
255 255 255
255 255 255
255 255 255
255 255 255
255 255 255
255 255 255
255 255 255
255 255 255
255 255 255
255 255 255
255 255 255
255 255 255
255 255 255
  0   0   0
  0   0   0
  0   0   0
  0   0   0
255 255 255
255 255 255
255 255 255
255 255 255
255 255 255
255 255 255
255 255 255
255 255 255
255 255 255
255 255 255
255 255 255
255 255 255
255 255 255
255 255 255
255 255 255
255 255 255
255 255 255
255 255 255
255 255 255
255 255 255
255 255 255
255 255 255
255 255 255
255 255 255
255 255 255
255 255 255
255 255 255
255 255 255
255 255 255
255 255 255
255 255 255
255 255 255
255 255 255
255 255 255
255 255 255
255 255 255
255 255 255
255 255 255
255 255 255
255 255 255
255 255 255
255 255 255
255 255 255
255 255 255
255 255 255
255 255 255
255 255 255
255 255 255
255 255 255
255 255 255
255 255 255
255 255 255
255 255 255
255 255 255
255 255 255
255 255 255
255 255 255
255 255 255
255 255 255
255 255 255
255 255 255
255 255 255
255 255 255
255 255 255
255 255 255
255 255 255
255 255 255
255 255 255
255 255 255
255 255 255
255 255 255
255 255 255
255 255 255
255 255 255
255 255 255
255 255 255
255 255 255
255 255 255
255 255 255
255 255 255
255 255 255
255 255 255
255 255 255
255 255 255
255 255 255
255 255 255
255 255 255
255 255 255
255 255 255
255 255 255
255 255 255
255 255 255
255 255 255
255 255 255
255 255 255
255 255 255
255 255 255
255 255 255
255 255 255
255 255 255
255 255 255
255 255 255
255 255 255
255 255 255
255 255 255
255 255 255
255 255 255
255 255 255
255 255 255
255 255 255
255 255 255
255 255 255
255 255 255
255 255 255
255 255 255
255 255 255
255 255 255
255 255 255
255 255 255
255 255 255
255 255 255
255 255 255
255 255 255
255 255 255
255 255 255
255 255 255
255 255 255
255 255 255
255 255 255
255 255 255
255 255 255
255 255 255
255 255 255
255 255 255
255 255 255
255 255 255
255 255 255
255 255 255
255 255 255
255 255 255
255 255 255
255 255 255
255 255 255
255 255 255
255 255 255
255 255 255
255 255 255
255 255 255
255 255 255
255 255 255
255 255 255
255 255 255
255 255 255
255 255 255
255 255 255
255 255 255
255 255 255
255 255 255
255 255 255
255 255 255
255 255 255
255 255 255
255 255 255
255 255 255
255 255 255
255 255 255
255 255 255
255 255 255
255 255 255
255 255 255
255 255 255
255 255 255
255 255 255
255 255 255
255 255 255
255 255 255
255 255 255
255 255 255
255 255 255
255 255 255
255 255 255
255 255 255
255 255 255
255 255 255
255 255 255
255 255 255
255 255 255
255 255 255
255 255 255
255 255 255
255 255 255
255 255 255
255 255 255
255 255 255
255 255 255
255 255 255
255 255 255
  0   0   0
  0   0   0
  0   0   0
  0   0   0
255 255 255
255 255 255
255 255 255
255 255 255
255 255 255
255 255 255
255 255 255
255 255 255
255 255 255
255 255 255
255 255 255
255 255 255
255 255 255
255 255 255
255 255 255
255 255 255
255 255 255
255 255 255
255 255 255
255 255 255
255 255 255
255 255 255
255 255 255
255 255 255
255 255 255
255 255 255
255 255 255
255 255 255
255 255 255
255 255 255
255 255 255
255 255 255
255 255 255
255 255 255
255 255 255
255 255 255
255 255 255
255 255 255
255 255 255
255 255 255
255 255 255
255 255 255
255 255 255
255 255 255
255 255 255
255 255 255
255 255 255
255 255 255
255 255 255
255 255 255
255 255 255
255 255 255
255 255 255
255 255 255
255 255 255
255 255 255
255 255 255
255 255 255
255 255 255
255 255 255
255 255 255
255 255 255
255 255 255
255 255 255
255 255 255
255 255 255
255 255 255
255 255 255
255 255 255
255 255 255
255 255 255
255 255 255
255 255 255
255 255 255
255 255 255
255 255 255
255 255 255
255 255 255
255 255 255
255 255 255
255 255 255
255 255 255
255 255 255
255 255 255
255 255 255
255 255 255
255 255 255
255 255 255
255 255 255
255 255 255
255 255 255
255 255 255
255 255 255
255 255 255
255 255 255
255 255 255
255 255 255
255 255 255
255 255 255
255 255 255
255 255 255
255 255 255
255 255 255
255 255 255
255 255 255
255 255 255
255 255 255
255 255 255
255 255 255
255 255 255
255 255 255
255 255 255
255 255 255
255 255 255
255 255 255
255 255 255
255 255 255
255 255 255
255 255 255
255 255 255
255 255 255
255 255 255
255 255 255
255 255 255
255 255 255
255 255 255
255 255 255
255 255 255
255 255 255
255 255 255
255 255 255
255 255 255
255 255 255
255 255 255
255 255 255
255 255 255
255 255 255
255 255 255
255 255 255
255 255 255
255 255 255
255 255 255
255 255 255
255 255 255
255 255 255
255 255 255
255 255 255
255 255 255
255 255 255
255 255 255
255 255 255
255 255 255
255 255 255
255 255 255
255 255 255
255 255 255
255 255 255
255 255 255
255 255 255
255 255 255
255 255 255
255 255 255
255 255 255
255 255 255
255 255 255
255 255 255
255 255 255
255 255 255
255 255 255
255 255 255
255 255 255
255 255 255
255 255 255
255 255 255
255 255 255
255 255 255
255 255 255
255 255 255
255 255 255
255 255 255
255 255 255
255 255 255
255 255 255
255 255 255
255 255 255
255 255 255
255 255 255
255 255 255
255 255 255
255 255 255
255 255 255
255 255 255
255 255 255
255 255 255
255 255 255
255 255 255
255 255 255
  0   0   0
  0   0   0
  0   0   0
  0   0   0
255 255 255
255 255 255
255 255 255
255 255 255
255 255 255
255 255 255
255 255 255
255 255 255
255 255 255
255 255 255
255 255 255
255 255 255
255 255 255
255 255 255
255 255 255
255 255 255
255 255 255
255 255 255
255 255 255
255 255 255
255 255 255
255 255 255
255 255 255
255 255 255
255 255 255
255 255 255
255 255 255
255 255 255
255 255 255
255 255 255
255 255 255
255 255 255
255 255 255
255 255 255
255 255 255
255 255 255
255 255 255
255 255 255
255 255 255
255 255 255
255 255 255
255 255 255
255 255 255
255 255 255
255 255 255
255 255 255
255 255 255
255 255 255
255 255 255
255 255 255
255 255 255
255 255 255
255 255 255
255 255 255
255 255 255
255 255 255
255 255 255
255 255 255
255 255 255
255 255 255
255 255 255
255 255 255
255 255 255
255 255 255
255 255 255
255 255 255
255 255 255
255 255 255
255 255 255
255 255 255
255 255 255
255 255 255
255 255 255
255 255 255
255 255 255
255 255 255
255 255 255
255 255 255
255 255 255
255 255 255
255 255 255
255 255 255
255 255 255
255 255 255
255 255 255
255 255 255
255 255 255
255 255 255
255 255 255
255 255 255
255 255 255
255 255 255
255 255 255
255 255 255
255 255 255
255 255 255
255 255 255
255 255 255
255 255 255
255 255 255
255 255 255
255 255 255
255 255 255
255 255 255
255 255 255
255 255 255
255 255 255
255 255 255
255 255 255
255 255 255
255 255 255
255 255 255
255 255 255
255 255 255
255 255 255
255 255 255
255 255 255
255 255 255
255 255 255
255 255 255
255 255 255
255 255 255
255 255 255
255 255 255
255 255 255
255 255 255
255 255 255
255 255 255
255 255 255
255 255 255
255 255 255
255 255 255
255 255 255
255 255 255
255 255 255
255 255 255
255 255 255
255 255 255
255 255 255
255 255 255
255 255 255
255 255 255
255 255 255
255 255 255
255 255 255
255 255 255
255 255 255
255 255 255
255 255 255
255 255 255
255 255 255
255 255 255
255 255 255
255 255 255
255 255 255
255 255 255
255 255 255
255 255 255
255 255 255
255 255 255
255 255 255
255 255 255
255 255 255
255 255 255
255 255 255
255 255 255
255 255 255
255 255 255
255 255 255
255 255 255
255 255 255
255 255 255
255 255 255
255 255 255
255 255 255
255 255 255
255 255 255
255 255 255
255 255 255
255 255 255
255 255 255
255 255 255
255 255 255
255 255 255
255 255 255
255 255 255
255 255 255
255 255 255
255 255 255
255 255 255
255 255 255
255 255 255
255 255 255
255 255 255
255 255 255
255 255 255
255 255 255
  0   0   0
  0   0   0
  0   0   0
  0   0   0
255 255 255
255 255 255
255 255 255
255 255 255
255 255 255
255 255 255
255 255 255
255 255 255
255 255 255
255 255 255
255 255 255
255 255 255
255 255 255
255 255 255
255 255 255
255 255 255
255 255 255
255 255 255
255 255 255
255 255 255
255 255 255
255 255 255
255 255 255
255 255 255
255 255 255
255 255 255
255 255 255
255 255 255
255 255 255
255 255 255
255 255 255
255 255 255
255 255 255
255 255 255
255 255 255
255 255 255
255 255 255
255 255 255
255 255 255
255 255 255
255 255 255
255 255 255
255 255 255
255 255 255
255 255 255
255 255 255
255 255 255
255 255 255
255 255 255
255 255 255
255 255 255
255 255 255
255 255 255
255 255 255
255 255 255
255 255 255
255 255 255
255 255 255
255 255 255
255 255 255
255 255 255
255 255 255
255 255 255
255 255 255
255 255 255
255 255 255
255 255 255
255 255 255
255 255 255
255 255 255
255 255 255
255 255 255
255 255 255
255 255 255
255 255 255
255 255 255
255 255 255
255 255 255
255 255 255
255 255 255
255 255 255
255 255 255
255 255 255
255 255 255
255 255 255
255 255 255
255 255 255
255 255 255
255 255 255
255 255 255
255 255 255
255 255 255
255 255 255
255 255 255
255 255 255
255 255 255
255 255 255
255 255 255
255 255 255
255 255 255
255 255 255
255 255 255
255 255 255
255 255 255
255 255 255
255 255 255
255 255 255
255 255 255
255 255 255
255 255 255
255 255 255
255 255 255
255 255 255
255 255 255
255 255 255
255 255 255
255 255 255
255 255 255
255 255 255
255 255 255
255 255 255
255 255 255
255 255 255
255 255 255
255 255 255
255 255 255
255 255 255
255 255 255
255 255 255
255 255 255
255 255 255
255 255 255
255 255 255
255 255 255
255 255 255
255 255 255
255 255 255
255 255 255
255 255 255
255 255 255
255 255 255
255 255 255
255 255 255
255 255 255
255 255 255
255 255 255
255 255 255
255 255 255
255 255 255
255 255 255
255 255 255
255 255 255
255 255 255
255 255 255
255 255 255
255 255 255
255 255 255
255 255 255
255 255 255
255 255 255
255 255 255
255 255 255
255 255 255
255 255 255
255 255 255
255 255 255
255 255 255
255 255 255
255 255 255
255 255 255
255 255 255
255 255 255
255 255 255
255 255 255
255 255 255
255 255 255
255 255 255
255 255 255
255 255 255
255 255 255
255 255 255
255 255 255
255 255 255
255 255 255
255 255 255
255 255 255
255 255 255
255 255 255
255 255 255
255 255 255
255 255 255
255 255 255
255 255 255
255 255 255
255 255 255
255 255 255
255 255 255
  0   0   0
  0   0   0
  0   0   0
  0   0   0
255 255 255
255 255 255
255 255 255
255 255 255
255 255 255
255 255 255
255 255 255
255 255 255
255 255 255
255 255 255
255 255 255
255 255 255
255 255 255
255 255 255
255 255 255
255 255 255
255 255 255
255 255 255
255 255 255
255 255 255
255 255 255
255 255 255
255 255 255
255 255 255
255 255 255
255 255 255
255 255 255
255 255 255
255 255 255
255 255 255
255 255 255
255 255 255
255 255 255
255 255 255
255 255 255
255 255 255
255 255 255
255 255 255
255 255 255
255 255 255
255 255 255
255 255 255
255 255 255
255 255 255
255 255 255
255 255 255
255 255 255
255 255 255
255 255 255
255 255 255
255 255 255
255 255 255
255 255 255
255 255 255
255 255 255
255 255 255
255 255 255
255 255 255
255 255 255
255 255 255
255 255 255
255 255 255
255 255 255
255 255 255
255 255 255
255 255 255
255 255 255
255 255 255
255 255 255
255 255 255
255 255 255
255 255 255
255 255 255
255 255 255
255 255 255
255 255 255
255 255 255
255 255 255
255 255 255
255 255 255
255 255 255
255 255 255
255 255 255
255 255 255
255 255 255
255 255 255
255 255 255
255 255 255
255 255 255
255 255 255
255 255 255
255 255 255
255 255 255
255 255 255
255 255 255
255 255 255
255 255 255
255 255 255
255 255 255
255 255 255
255 255 255
255 255 255
255 255 255
255 255 255
255 255 255
255 255 255
255 255 255
255 255 255
255 255 255
255 255 255
255 255 255
255 255 255
255 255 255
255 255 255
255 255 255
255 255 255
255 255 255
255 255 255
255 255 255
255 255 255
255 255 255
255 255 255
255 255 255
255 255 255
255 255 255
255 255 255
255 255 255
255 255 255
255 255 255
255 255 255
255 255 255
255 255 255
255 255 255
255 255 255
255 255 255
255 255 255
255 255 255
255 255 255
255 255 255
255 255 255
255 255 255
255 255 255
255 255 255
255 255 255
255 255 255
255 255 255
255 255 255
255 255 255
255 255 255
255 255 255
255 255 255
255 255 255
255 255 255
255 255 255
255 255 255
255 255 255
255 255 255
255 255 255
255 255 255
255 255 255
255 255 255
255 255 255
255 255 255
255 255 255
255 255 255
255 255 255
255 255 255
255 255 255
255 255 255
255 255 255
255 255 255
255 255 255
255 255 255
255 255 255
255 255 255
255 255 255
255 255 255
255 255 255
255 255 255
255 255 255
255 255 255
255 255 255
255 255 255
255 255 255
255 255 255
255 255 255
255 255 255
255 255 255
255 255 255
255 255 255
255 255 255
255 255 255
255 255 255
255 255 255
255 255 255
255 255 255
255 255 255
  0   0   0
  0   0   0
  0   0   0
  0   0   0
255 255 255
255 255 255
255 255 255
255 255 255
255 255 255
255 255 255
255 255 255
255 255 255
255 255 255
255 255 255
255 255 255
255 255 255
255 255 255
255 255 255
255 255 255
255 255 255
255 255 255
255 255 255
255 255 255
255 255 255
255 255 255
255 255 255
255 255 255
255 255 255
255 255 255
255 255 255
255 255 255
255 255 255
255 255 255
255 255 255
255 255 255
255 255 255
255 255 255
255 255 255
255 255 255
255 255 255
255 255 255
255 255 255
255 255 255
255 255 255
255 255 255
255 255 255
255 255 255
255 255 255
255 255 255
255 255 255
255 255 255
255 255 255
255 255 255
255 255 255
255 255 255
255 255 255
255 255 255
255 255 255
255 255 255
255 255 255
255 255 255
255 255 255
255 255 255
255 255 255
255 255 255
255 255 255
255 255 255
255 255 255
255 255 255
255 255 255
255 255 255
255 255 255
255 255 255
255 255 255
255 255 255
255 255 255
255 255 255
255 255 255
255 255 255
255 255 255
255 255 255
255 255 255
255 255 255
255 255 255
255 255 255
255 255 255
255 255 255
255 255 255
255 255 255
255 255 255
255 255 255
255 255 255
255 255 255
255 255 255
255 255 255
255 255 255
255 255 255
255 255 255
255 255 255
255 255 255
255 255 255
255 255 255
255 255 255
255 255 255
255 255 255
255 255 255
255 255 255
255 255 255
255 255 255
255 255 255
255 255 255
255 255 255
255 255 255
255 255 255
255 255 255
255 255 255
255 255 255
255 255 255
255 255 255
255 255 255
255 255 255
255 255 255
255 255 255
255 255 255
255 255 255
255 255 255
255 255 255
255 255 255
255 255 255
255 255 255
255 255 255
255 255 255
255 255 255
255 255 255
255 255 255
255 255 255
255 255 255
255 255 255
255 255 255
255 255 255
255 255 255
255 255 255
255 255 255
255 255 255
255 255 255
255 255 255
255 255 255
255 255 255
255 255 255
255 255 255
255 255 255
255 255 255
255 255 255
255 255 255
255 255 255
255 255 255
255 255 255
255 255 255
255 255 255
255 255 255
255 255 255
255 255 255
255 255 255
255 255 255
255 255 255
255 255 255
255 255 255
255 255 255
255 255 255
255 255 255
255 255 255
255 255 255
255 255 255
255 255 255
255 255 255
255 255 255
255 255 255
255 255 255
255 255 255
255 255 255
255 255 255
255 255 255
255 255 255
255 255 255
255 255 255
255 255 255
255 255 255
255 255 255
255 255 255
255 255 255
255 255 255
255 255 255
255 255 255
255 255 255
255 255 255
255 255 255
255 255 255
255 255 255
255 255 255
255 255 255
255 255 255
  0   0   0
  0   0   0
  0   0   0
  0   0   0
255 255 255
255 255 255
255 255 255
255 255 255
255 255 255
255 255 255
255 255 255
255 255 255
255 255 255
255 255 255
255 255 255
255 255 255
255 255 255
255 255 255
255 255 255
255 255 255
255 255 255
255 255 255
255 255 255
255 255 255
255 255 255
255 255 255
255 255 255
255 255 255
255 255 255
255 255 255
255 255 255
255 255 255
255 255 255
255 255 255
255 255 255
255 255 255
255 255 255
255 255 255
255 255 255
255 255 255
255 255 255
255 255 255
255 255 255
255 255 255
255 255 255
255 255 255
255 255 255
255 255 255
255 255 255
255 255 255
255 255 255
255 255 255
255 255 255
255 255 255
255 255 255
255 255 255
255 255 255
255 255 255
255 255 255
255 255 255
255 255 255
255 255 255
255 255 255
255 255 255
255 255 255
255 255 255
255 255 255
255 255 255
255 255 255
255 255 255
255 255 255
255 255 255
255 255 255
255 255 255
255 255 255
255 255 255
255 255 255
255 255 255
255 255 255
255 255 255
255 255 255
255 255 255
255 255 255
255 255 255
255 255 255
255 255 255
255 255 255
255 255 255
255 255 255
255 255 255
255 255 255
255 255 255
255 255 255
255 255 255
255 255 255
255 255 255
255 255 255
255 255 255
255 255 255
255 255 255
255 255 255
255 255 255
255 255 255
255 255 255
255 255 255
255 255 255
255 255 255
255 255 255
255 255 255
255 255 255
255 255 255
255 255 255
255 255 255
255 255 255
255 255 255
255 255 255
255 255 255
255 255 255
255 255 255
255 255 255
255 255 255
255 255 255
255 255 255
255 255 255
255 255 255
255 255 255
255 255 255
255 255 255
255 255 255
255 255 255
255 255 255
255 255 255
255 255 255
255 255 255
255 255 255
255 255 255
255 255 255
255 255 255
255 255 255
255 255 255
255 255 255
255 255 255
255 255 255
255 255 255
255 255 255
255 255 255
255 255 255
255 255 255
255 255 255
255 255 255
255 255 255
255 255 255
255 255 255
255 255 255
255 255 255
255 255 255
255 255 255
255 255 255
255 255 255
255 255 255
255 255 255
255 255 255
255 255 255
255 255 255
255 255 255
255 255 255
255 255 255
255 255 255
255 255 255
255 255 255
255 255 255
255 255 255
255 255 255
255 255 255
255 255 255
255 255 255
255 255 255
255 255 255
255 255 255
255 255 255
255 255 255
255 255 255
255 255 255
255 255 255
255 255 255
255 255 255
255 255 255
255 255 255
255 255 255
255 255 255
255 255 255
255 255 255
255 255 255
255 255 255
255 255 255
255 255 255
255 255 255
255 255 255
255 255 255
255 255 255
255 255 255
  0   0   0
  0   0   0
  0   0   0
  0   0   0
255 255 255
255 255 255
255 255 255
255 255 255
255 255 255
255 255 255
255 255 255
255 255 255
255 255 255
255 255 255
255 255 255
255 255 255
255 255 255
255 255 255
255 255 255
255 255 255
255 255 255
255 255 255
255 255 255
255 255 255
255 255 255
255 255 255
255 255 255
255 255 255
255 255 255
255 255 255
255 255 255
255 255 255
255 255 255
255 255 255
255 255 255
255 255 255
255 255 255
255 255 255
255 255 255
255 255 255
255 255 255
255 255 255
255 255 255
255 255 255
255 255 255
255 255 255
255 255 255
255 255 255
255 255 255
255 255 255
255 255 255
255 255 255
255 255 255
255 255 255
255 255 255
255 255 255
255 255 255
255 255 255
255 255 255
255 255 255
255 255 255
255 255 255
255 255 255
255 255 255
255 255 255
255 255 255
255 255 255
255 255 255
255 255 255
255 255 255
255 255 255
255 255 255
255 255 255
255 255 255
255 255 255
255 255 255
255 255 255
255 255 255
255 255 255
255 255 255
255 255 255
255 255 255
255 255 255
255 255 255
255 255 255
255 255 255
255 255 255
255 255 255
255 255 255
255 255 255
255 255 255
255 255 255
255 255 255
255 255 255
255 255 255
255 255 255
255 255 255
255 255 255
255 255 255
255 255 255
255 255 255
255 255 255
255 255 255
255 255 255
255 255 255
255 255 255
255 255 255
255 255 255
255 255 255
255 255 255
255 255 255
255 255 255
255 255 255
255 255 255
255 255 255
255 255 255
255 255 255
255 255 255
255 255 255
255 255 255
255 255 255
255 255 255
255 255 255
255 255 255
255 255 255
255 255 255
255 255 255
255 255 255
255 255 255
255 255 255
255 255 255
255 255 255
255 255 255
255 255 255
255 255 255
255 255 255
255 255 255
255 255 255
255 255 255
255 255 255
255 255 255
255 255 255
255 255 255
255 255 255
255 255 255
255 255 255
255 255 255
255 255 255
255 255 255
255 255 255
255 255 255
255 255 255
255 255 255
255 255 255
255 255 255
255 255 255
255 255 255
255 255 255
255 255 255
255 255 255
255 255 255
255 255 255
255 255 255
255 255 255
255 255 255
255 255 255
255 255 255
255 255 255
255 255 255
255 255 255
255 255 255
255 255 255
255 255 255
255 255 255
255 255 255
255 255 255
255 255 255
255 255 255
255 255 255
255 255 255
255 255 255
255 255 255
255 255 255
255 255 255
255 255 255
255 255 255
255 255 255
255 255 255
255 255 255
255 255 255
255 255 255
255 255 255
255 255 255
255 255 255
255 255 255
255 255 255
255 255 255
255 255 255
255 255 255
255 255 255
255 255 255
  0   0   0
  0   0   0
  0   0   0
  0   0   0
255 255 255
255 255 255
255 255 255
255 255 255
255 255 255
255 255 255
255 255 255
255 255 255
255 255 255
255 255 255
255 255 255
255 255 255
255 255 255
255 255 255
255 255 255
255 255 255
255 255 255
255 255 255
255 255 255
255 255 255
255 255 255
255 255 255
255 255 255
255 255 255
255 255 255
255 255 255
255 255 255
255 255 255
255 255 255
255 255 255
255 255 255
255 255 255
255 255 255
255 255 255
255 255 255
255 255 255
255 255 255
255 255 255
255 255 255
255 255 255
255 255 255
255 255 255
255 255 255
255 255 255
255 255 255
255 255 255
255 255 255
255 255 255
255 255 255
255 255 255
255 255 255
255 255 255
255 255 255
255 255 255
255 255 255
255 255 255
255 255 255
255 255 255
255 255 255
255 255 255
255 255 255
255 255 255
255 255 255
255 255 255
255 255 255
255 255 255
255 255 255
255 255 255
255 255 255
255 255 255
255 255 255
255 255 255
255 255 255
255 255 255
255 255 255
255 255 255
255 255 255
255 255 255
255 255 255
255 255 255
255 255 255
255 255 255
255 255 255
255 255 255
255 255 255
255 255 255
255 255 255
255 255 255
255 255 255
255 255 255
255 255 255
255 255 255
255 255 255
255 255 255
255 255 255
255 255 255
255 255 255
255 255 255
255 255 255
255 255 255
255 255 255
255 255 255
255 255 255
255 255 255
255 255 255
255 255 255
255 255 255
255 255 255
255 255 255
255 255 255
255 255 255
255 255 255
255 255 255
255 255 255
255 255 255
255 255 255
255 255 255
255 255 255
255 255 255
255 255 255
255 255 255
255 255 255
255 255 255
255 255 255
255 255 255
255 255 255
255 255 255
255 255 255
255 255 255
255 255 255
255 255 255
255 255 255
255 255 255
255 255 255
255 255 255
255 255 255
255 255 255
255 255 255
255 255 255
255 255 255
255 255 255
255 255 255
255 255 255
255 255 255
255 255 255
255 255 255
255 255 255
255 255 255
255 255 255
255 255 255
255 255 255
255 255 255
255 255 255
255 255 255
255 255 255
255 255 255
255 255 255
255 255 255
255 255 255
255 255 255
255 255 255
255 255 255
255 255 255
255 255 255
255 255 255
255 255 255
255 255 255
255 255 255
255 255 255
255 255 255
255 255 255
255 255 255
255 255 255
255 255 255
255 255 255
255 255 255
255 255 255
255 255 255
255 255 255
255 255 255
255 255 255
255 255 255
255 255 255
255 255 255
255 255 255
255 255 255
255 255 255
255 255 255
255 255 255
255 255 255
255 255 255
255 255 255
255 255 255
255 255 255
255 255 255
255 255 255
255 255 255
  0   0   0
  0   0   0
  0   0   0
  0   0   0
255 255 255
255 255 255
255 255 255
255 255 255
255 255 255
255 255 255
255 255 255
255 255 255
255 255 255
255 255 255
255 255 255
255 255 255
255 255 255
255 255 255
255 255 255
255 255 255
255 255 255
255 255 255
255 255 255
255 255 255
255 255 255
255 255 255
255 255 255
255 255 255
255 255 255
255 255 255
255 255 255
255 255 255
255 255 255
255 255 255
255 255 255
255 255 255
255 255 255
255 255 255
255 255 255
255 255 255
255 255 255
255 255 255
255 255 255
255 255 255
255 255 255
255 255 255
255 255 255
255 255 255
255 255 255
255 255 255
255 255 255
255 255 255
255 255 255
255 255 255
255 255 255
255 255 255
255 255 255
255 255 255
255 255 255
255 255 255
255 255 255
255 255 255
255 255 255
255 255 255
255 255 255
255 255 255
255 255 255
255 255 255
255 255 255
255 255 255
255 255 255
255 255 255
255 255 255
255 255 255
255 255 255
255 255 255
255 255 255
255 255 255
255 255 255
255 255 255
255 255 255
255 255 255
255 255 255
255 255 255
255 255 255
255 255 255
255 255 255
255 255 255
255 255 255
255 255 255
255 255 255
255 255 255
255 255 255
255 255 255
255 255 255
255 255 255
255 255 255
255 255 255
255 255 255
255 255 255
255 255 255
255 255 255
255 255 255
255 255 255
255 255 255
255 255 255
255 255 255
255 255 255
255 255 255
255 255 255
255 255 255
255 255 255
255 255 255
255 255 255
255 255 255
255 255 255
255 255 255
255 255 255
255 255 255
255 255 255
255 255 255
255 255 255
255 255 255
255 255 255
255 255 255
255 255 255
255 255 255
255 255 255
255 255 255
255 255 255
255 255 255
255 255 255
255 255 255
255 255 255
255 255 255
255 255 255
255 255 255
255 255 255
255 255 255
255 255 255
255 255 255
255 255 255
255 255 255
255 255 255
255 255 255
255 255 255
255 255 255
255 255 255
255 255 255
255 255 255
255 255 255
255 255 255
255 255 255
255 255 255
255 255 255
255 255 255
255 255 255
255 255 255
255 255 255
255 255 255
255 255 255
255 255 255
255 255 255
255 255 255
255 255 255
255 255 255
255 255 255
255 255 255
255 255 255
255 255 255
255 255 255
255 255 255
255 255 255
255 255 255
255 255 255
255 255 255
255 255 255
255 255 255
255 255 255
255 255 255
255 255 255
255 255 255
255 255 255
255 255 255
255 255 255
255 255 255
255 255 255
255 255 255
255 255 255
255 255 255
255 255 255
255 255 255
255 255 255
255 255 255
255 255 255
255 255 255
255 255 255
255 255 255
255 255 255
255 255 255
255 255 255
  0   0   0
  0   0   0
  0   0   0
  0   0   0
255 255 255
255 255 255
255 255 255
255 255 255
255 255 255
255 255 255
255 255 255
255 255 255
255 255 255
255 255 255
255 255 255
255 255 255
255 255 255
255 255 255
255 255 255
255 255 255
255 255 255
255 255 255
255 255 255
255 255 255
255 255 255
255 255 255
255 255 255
255 255 255
255 255 255
255 255 255
255 255 255
255 255 255
255 255 255
255 255 255
255 255 255
255 255 255
255 255 255
255 255 255
255 255 255
255 255 255
255 255 255
255 255 255
255 255 255
255 255 255
255 255 255
255 255 255
255 255 255
255 255 255
255 255 255
255 255 255
255 255 255
255 255 255
255 255 255
255 255 255
255 255 255
255 255 255
255 255 255
255 255 255
255 255 255
255 255 255
255 255 255
255 255 255
255 255 255
255 255 255
255 255 255
255 255 255
255 255 255
255 255 255
255 255 255
255 255 255
255 255 255
255 255 255
255 255 255
255 255 255
255 255 255
255 255 255
255 255 255
255 255 255
255 255 255
255 255 255
255 255 255
255 255 255
255 255 255
255 255 255
255 255 255
255 255 255
255 255 255
255 255 255
255 255 255
255 255 255
255 255 255
255 255 255
255 255 255
255 255 255
255 255 255
255 255 255
255 255 255
255 255 255
255 255 255
255 255 255
255 255 255
255 255 255
255 255 255
255 255 255
255 255 255
255 255 255
255 255 255
255 255 255
255 255 255
255 255 255
255 255 255
255 255 255
255 255 255
255 255 255
255 255 255
255 255 255
255 255 255
255 255 255
255 255 255
255 255 255
255 255 255
255 255 255
255 255 255
255 255 255
255 255 255
255 255 255
255 255 255
255 255 255
255 255 255
255 255 255
255 255 255
255 255 255
255 255 255
255 255 255
255 255 255
255 255 255
255 255 255
255 255 255
255 255 255
255 255 255
255 255 255
255 255 255
255 255 255
255 255 255
255 255 255
255 255 255
255 255 255
255 255 255
255 255 255
255 255 255
255 255 255
255 255 255
255 255 255
255 255 255
255 255 255
255 255 255
255 255 255
255 255 255
255 255 255
255 255 255
255 255 255
255 255 255
255 255 255
255 255 255
255 255 255
255 255 255
255 255 255
255 255 255
255 255 255
255 255 255
255 255 255
255 255 255
255 255 255
255 255 255
255 255 255
255 255 255
255 255 255
255 255 255
255 255 255
255 255 255
255 255 255
255 255 255
255 255 255
255 255 255
255 255 255
255 255 255
255 255 255
255 255 255
255 255 255
255 255 255
255 255 255
255 255 255
255 255 255
255 255 255
255 255 255
255 255 255
255 255 255
255 255 255
255 255 255
255 255 255
255 255 255
  0   0   0
  0   0   0
  0   0   0
  0   0   0
255 255 255
255 255 255
255 255 255
255 255 255
255 255 255
255 255 255
255 255 255
255 255 255
255 255 255
255 255 255
255 255 255
255 255 255
255 255 255
255 255 255
255 255 255
255 255 255
255 255 255
255 255 255
255 255 255
255 255 255
255 255 255
255 255 255
255 255 255
255 255 255
255 255 255
255 255 255
255 255 255
255 255 255
255 255 255
255 255 255
255 255 255
255 255 255
255 255 255
255 255 255
255 255 255
255 255 255
255 255 255
255 255 255
255 255 255
255 255 255
255 255 255
255 255 255
255 255 255
255 255 255
255 255 255
255 255 255
255 255 255
255 255 255
255 255 255
255 255 255
255 255 255
255 255 255
255 255 255
255 255 255
255 255 255
255 255 255
255 255 255
255 255 255
255 255 255
255 255 255
255 255 255
255 255 255
255 255 255
255 255 255
255 255 255
255 255 255
255 255 255
255 255 255
255 255 255
255 255 255
255 255 255
255 255 255
255 255 255
255 255 255
255 255 255
255 255 255
255 255 255
255 255 255
255 255 255
255 255 255
255 255 255
255 255 255
255 255 255
255 255 255
255 255 255
255 255 255
255 255 255
255 255 255
255 255 255
255 255 255
255 255 255
255 255 255
255 255 255
255 255 255
255 255 255
255 255 255
255 255 255
255 255 255
255 255 255
255 255 255
255 255 255
255 255 255
255 255 255
255 255 255
255 255 255
255 255 255
255 255 255
255 255 255
255 255 255
255 255 255
255 255 255
255 255 255
255 255 255
255 255 255
255 255 255
255 255 255
255 255 255
255 255 255
255 255 255
255 255 255
255 255 255
255 255 255
255 255 255
255 255 255
255 255 255
255 255 255
255 255 255
255 255 255
255 255 255
255 255 255
255 255 255
255 255 255
255 255 255
255 255 255
255 255 255
255 255 255
255 255 255
255 255 255
255 255 255
255 255 255
255 255 255
255 255 255
255 255 255
255 255 255
255 255 255
255 255 255
255 255 255
255 255 255
255 255 255
255 255 255
255 255 255
255 255 255
255 255 255
255 255 255
255 255 255
255 255 255
255 255 255
255 255 255
255 255 255
255 255 255
255 255 255
255 255 255
255 255 255
255 255 255
255 255 255
255 255 255
255 255 255
255 255 255
255 255 255
255 255 255
255 255 255
255 255 255
255 255 255
255 255 255
255 255 255
255 255 255
255 255 255
255 255 255
255 255 255
255 255 255
255 255 255
255 255 255
255 255 255
255 255 255
255 255 255
255 255 255
255 255 255
255 255 255
255 255 255
255 255 255
255 255 255
255 255 255
255 255 255
255 255 255
255 255 255
255 255 255
255 255 255
  0   0   0
  0   0   0
  0   0   0
  0   0   0
255 255 255
255 255 255
255 255 255
255 255 255
255 255 255
255 255 255
255 255 255
255 255 255
255 255 255
255 255 255
255 255 255
255 255 255
255 255 255
255 255 255
255 255 255
255 255 255
255 255 255
255 255 255
255 255 255
255 255 255
255 255 255
255 255 255
255 255 255
255 255 255
255 255 255
255 255 255
255 255 255
255 255 255
255 255 255
255 255 255
255 255 255
255 255 255
255 255 255
255 255 255
255 255 255
255 255 255
255 255 255
255 255 255
255 255 255
255 255 255
255 255 255
255 255 255
255 255 255
255 255 255
255 255 255
255 255 255
255 255 255
255 255 255
255 255 255
255 255 255
255 255 255
255 255 255
255 255 255
255 255 255
255 255 255
255 255 255
255 255 255
255 255 255
255 255 255
255 255 255
255 255 255
255 255 255
255 255 255
255 255 255
255 255 255
255 255 255
255 255 255
255 255 255
255 255 255
255 255 255
255 255 255
255 255 255
255 255 255
255 255 255
255 255 255
255 255 255
255 255 255
255 255 255
255 255 255
255 255 255
255 255 255
255 255 255
255 255 255
255 255 255
255 255 255
255 255 255
255 255 255
255 255 255
255 255 255
255 255 255
255 255 255
255 255 255
255 255 255
255 255 255
255 255 255
255 255 255
255 255 255
255 255 255
255 255 255
255 255 255
255 255 255
255 255 255
255 255 255
255 255 255
255 255 255
255 255 255
255 255 255
255 255 255
255 255 255
255 255 255
255 255 255
255 255 255
255 255 255
255 255 255
255 255 255
255 255 255
255 255 255
255 255 255
255 255 255
255 255 255
255 255 255
255 255 255
255 255 255
255 255 255
255 255 255
255 255 255
255 255 255
255 255 255
255 255 255
255 255 255
255 255 255
255 255 255
255 255 255
255 255 255
255 255 255
255 255 255
255 255 255
255 255 255
255 255 255
255 255 255
255 255 255
255 255 255
255 255 255
255 255 255
255 255 255
255 255 255
255 255 255
255 255 255
255 255 255
255 255 255
255 255 255
255 255 255
255 255 255
255 255 255
255 255 255
255 255 255
255 255 255
255 255 255
255 255 255
255 255 255
255 255 255
255 255 255
255 255 255
255 255 255
255 255 255
255 255 255
255 255 255
255 255 255
255 255 255
255 255 255
255 255 255
255 255 255
255 255 255
255 255 255
255 255 255
255 255 255
255 255 255
255 255 255
255 255 255
255 255 255
255 255 255
255 255 255
255 255 255
255 255 255
255 255 255
255 255 255
255 255 255
255 255 255
255 255 255
255 255 255
255 255 255
255 255 255
255 255 255
255 255 255
255 255 255
255 255 255
255 255 255
  0   0   0
  0   0   0
  0   0   0
  0   0   0
255 255 255
255 255 255
255 255 255
255 255 255
255 255 255
255 255 255
255 255 255
255 255 255
255 255 255
255 255 255
255 255 255
255 255 255
255 255 255
255 255 255
255 255 255
255 255 255
255 255 255
255 255 255
255 255 255
255 255 255
255 255 255
255 255 255
255 255 255
255 255 255
255 255 255
255 255 255
255 255 255
255 255 255
255 255 255
255 255 255
255 255 255
255 255 255
255 255 255
255 255 255
255 255 255
255 255 255
255 255 255
255 255 255
255 255 255
255 255 255
255 255 255
255 255 255
255 255 255
255 255 255
255 255 255
255 255 255
255 255 255
255 255 255
255 255 255
255 255 255
255 255 255
255 255 255
255 255 255
255 255 255
255 255 255
255 255 255
255 255 255
255 255 255
255 255 255
255 255 255
255 255 255
255 255 255
255 255 255
255 255 255
255 255 255
255 255 255
255 255 255
255 255 255
255 255 255
255 255 255
255 255 255
255 255 255
255 255 255
255 255 255
255 255 255
255 255 255
255 255 255
255 255 255
255 255 255
255 255 255
255 255 255
255 255 255
255 255 255
255 255 255
255 255 255
255 255 255
255 255 255
255 255 255
255 255 255
255 255 255
255 255 255
255 255 255
255 255 255
255 255 255
255 255 255
255 255 255
255 255 255
255 255 255
255 255 255
255 255 255
255 255 255
255 255 255
255 255 255
255 255 255
255 255 255
255 255 255
255 255 255
255 255 255
255 255 255
255 255 255
255 255 255
255 255 255
255 255 255
255 255 255
255 255 255
255 255 255
255 255 255
255 255 255
255 255 255
255 255 255
255 255 255
255 255 255
255 255 255
255 255 255
255 255 255
255 255 255
255 255 255
255 255 255
255 255 255
255 255 255
255 255 255
255 255 255
255 255 255
255 255 255
255 255 255
255 255 255
255 255 255
255 255 255
255 255 255
255 255 255
255 255 255
255 255 255
255 255 255
255 255 255
255 255 255
255 255 255
255 255 255
255 255 255
255 255 255
255 255 255
255 255 255
255 255 255
255 255 255
255 255 255
255 255 255
255 255 255
255 255 255
255 255 255
255 255 255
255 255 255
255 255 255
255 255 255
255 255 255
255 255 255
255 255 255
255 255 255
255 255 255
255 255 255
255 255 255
255 255 255
255 255 255
255 255 255
255 255 255
255 255 255
255 255 255
255 255 255
255 255 255
255 255 255
255 255 255
255 255 255
255 255 255
255 255 255
255 255 255
255 255 255
255 255 255
255 255 255
255 255 255
255 255 255
255 255 255
255 255 255
255 255 255
255 255 255
255 255 255
255 255 255
255 255 255
255 255 255
255 255 255
  0   0   0
  0   0   0
  0   0   0
  0   0   0
255 255 255
255 255 255
255 255 255
255 255 255
255 255 255
255 255 255
255 255 255
255 255 255
255 255 255
255 255 255
255 255 255
255 255 255
255 255 255
255 255 255
255 255 255
255 255 255
255 255 255
255 255 255
255 255 255
255 255 255
255 255 255
255 255 255
255 255 255
255 255 255
255 255 255
255 255 255
255 255 255
255 255 255
255 255 255
255 255 255
255 255 255
255 255 255
255 255 255
255 255 255
255 255 255
255 255 255
255 255 255
255 255 255
255 255 255
255 255 255
255 255 255
255 255 255
255 255 255
255 255 255
255 255 255
255 255 255
255 255 255
255 255 255
255 255 255
255 255 255
255 255 255
255 255 255
255 255 255
255 255 255
255 255 255
255 255 255
255 255 255
255 255 255
255 255 255
255 255 255
255 255 255
255 255 255
255 255 255
255 255 255
255 255 255
255 255 255
255 255 255
255 255 255
255 255 255
255 255 255
255 255 255
255 255 255
255 255 255
255 255 255
255 255 255
255 255 255
255 255 255
255 255 255
255 255 255
255 255 255
255 255 255
255 255 255
255 255 255
255 255 255
255 255 255
255 255 255
255 255 255
255 255 255
255 255 255
255 255 255
255 255 255
255 255 255
255 255 255
255 255 255
255 255 255
255 255 255
255 255 255
255 255 255
255 255 255
255 255 255
255 255 255
255 255 255
255 255 255
255 255 255
255 255 255
255 255 255
255 255 255
255 255 255
255 255 255
255 255 255
255 255 255
255 255 255
255 255 255
255 255 255
255 255 255
255 255 255
255 255 255
255 255 255
255 255 255
255 255 255
255 255 255
255 255 255
255 255 255
255 255 255
255 255 255
255 255 255
255 255 255
255 255 255
255 255 255
255 255 255
255 255 255
255 255 255
255 255 255
255 255 255
255 255 255
255 255 255
255 255 255
255 255 255
255 255 255
255 255 255
255 255 255
255 255 255
255 255 255
255 255 255
255 255 255
255 255 255
255 255 255
255 255 255
255 255 255
255 255 255
255 255 255
255 255 255
255 255 255
255 255 255
255 255 255
255 255 255
255 255 255
255 255 255
255 255 255
255 255 255
255 255 255
255 255 255
255 255 255
255 255 255
255 255 255
255 255 255
255 255 255
255 255 255
255 255 255
255 255 255
255 255 255
255 255 255
255 255 255
255 255 255
255 255 255
255 255 255
255 255 255
255 255 255
255 255 255
255 255 255
255 255 255
255 255 255
255 255 255
255 255 255
255 255 255
255 255 255
255 255 255
255 255 255
255 255 255
255 255 255
255 255 255
255 255 255
255 255 255
255 255 255
255 255 255
255 255 255
255 255 255
  0   0   0
  0   0   0
  0   0   0
  0   0   0
255 255 255
255 255 255
255 255 255
255 255 255
255 255 255
255 255 255
255 255 255
255 255 255
255 255 255
255 255 255
255 255 255
255 255 255
255 255 255
255 255 255
255 255 255
255 255 255
255 255 255
255 255 255
255 255 255
255 255 255
255 255 255
255 255 255
255 255 255
255 255 255
255 255 255
255 255 255
255 255 255
255 255 255
255 255 255
255 255 255
255 255 255
255 255 255
255 255 255
255 255 255
255 255 255
255 255 255
255 255 255
255 255 255
255 255 255
255 255 255
255 255 255
255 255 255
255 255 255
255 255 255
255 255 255
255 255 255
255 255 255
255 255 255
255 255 255
255 255 255
255 255 255
255 255 255
255 255 255
255 255 255
255 255 255
255 255 255
255 255 255
255 255 255
255 255 255
255 255 255
255 255 255
255 255 255
255 255 255
255 255 255
255 255 255
255 255 255
255 255 255
255 255 255
255 255 255
255 255 255
255 255 255
255 255 255
255 255 255
255 255 255
255 255 255
255 255 255
255 255 255
255 255 255
255 255 255
255 255 255
255 255 255
255 255 255
255 255 255
255 255 255
255 255 255
255 255 255
255 255 255
255 255 255
255 255 255
255 255 255
255 255 255
255 255 255
255 255 255
255 255 255
255 255 255
255 255 255
255 255 255
255 255 255
255 255 255
255 255 255
255 255 255
255 255 255
255 255 255
255 255 255
255 255 255
255 255 255
255 255 255
255 255 255
255 255 255
255 255 255
255 255 255
255 255 255
255 255 255
255 255 255
255 255 255
255 255 255
255 255 255
255 255 255
255 255 255
255 255 255
255 255 255
255 255 255
255 255 255
255 255 255
255 255 255
255 255 255
255 255 255
255 255 255
255 255 255
255 255 255
255 255 255
255 255 255
255 255 255
255 255 255
255 255 255
255 255 255
255 255 255
255 255 255
255 255 255
255 255 255
255 255 255
255 255 255
255 255 255
255 255 255
255 255 255
255 255 255
255 255 255
255 255 255
255 255 255
255 255 255
255 255 255
255 255 255
255 255 255
255 255 255
255 255 255
255 255 255
255 255 255
255 255 255
255 255 255
255 255 255
255 255 255
255 255 255
255 255 255
255 255 255
255 255 255
255 255 255
255 255 255
255 255 255
255 255 255
255 255 255
255 255 255
255 255 255
255 255 255
255 255 255
255 255 255
255 255 255
255 255 255
255 255 255
255 255 255
255 255 255
255 255 255
255 255 255
255 255 255
255 255 255
255 255 255
255 255 255
255 255 255
255 255 255
255 255 255
255 255 255
255 255 255
255 255 255
255 255 255
255 255 255
255 255 255
255 255 255
255 255 255
  0   0   0
  0   0   0
  0   0   0
  0   0   0
255 255 255
255 255 255
255 255 255
255 255 255
255 255 255
255 255 255
255 255 255
255 255 255
255 255 255
255 255 255
255 255 255
255 255 255
255 255 255
255 255 255
255 255 255
255 255 255
255 255 255
255 255 255
255 255 255
255 255 255
255 255 255
255 255 255
255 255 255
255 255 255
255 255 255
255 255 255
255 255 255
255 255 255
255 255 255
255 255 255
255 255 255
255 255 255
255 255 255
255 255 255
255 255 255
255 255 255
255 255 255
255 255 255
255 255 255
255 255 255
255 255 255
255 255 255
255 255 255
255 255 255
255 255 255
255 255 255
255 255 255
255 255 255
255 255 255
255 255 255
255 255 255
255 255 255
255 255 255
255 255 255
255 255 255
255 255 255
255 255 255
255 255 255
255 255 255
255 255 255
255 255 255
255 255 255
255 255 255
255 255 255
255 255 255
255 255 255
255 255 255
255 255 255
255 255 255
255 255 255
255 255 255
255 255 255
255 255 255
255 255 255
255 255 255
255 255 255
255 255 255
255 255 255
255 255 255
255 255 255
255 255 255
255 255 255
255 255 255
255 255 255
255 255 255
255 255 255
255 255 255
255 255 255
255 255 255
255 255 255
255 255 255
255 255 255
255 255 255
255 255 255
255 255 255
255 255 255
255 255 255
255 255 255
255 255 255
255 255 255
255 255 255
255 255 255
255 255 255
255 255 255
255 255 255
255 255 255
255 255 255
255 255 255
255 255 255
255 255 255
255 255 255
255 255 255
255 255 255
255 255 255
255 255 255
255 255 255
255 255 255
255 255 255
255 255 255
255 255 255
255 255 255
255 255 255
255 255 255
255 255 255
255 255 255
255 255 255
255 255 255
255 255 255
255 255 255
255 255 255
255 255 255
255 255 255
255 255 255
255 255 255
255 255 255
255 255 255
255 255 255
255 255 255
255 255 255
255 255 255
255 255 255
255 255 255
255 255 255
255 255 255
255 255 255
255 255 255
255 255 255
255 255 255
255 255 255
255 255 255
255 255 255
255 255 255
255 255 255
255 255 255
255 255 255
255 255 255
255 255 255
255 255 255
255 255 255
255 255 255
255 255 255
255 255 255
255 255 255
255 255 255
255 255 255
255 255 255
255 255 255
255 255 255
255 255 255
255 255 255
255 255 255
255 255 255
255 255 255
255 255 255
255 255 255
255 255 255
255 255 255
255 255 255
255 255 255
255 255 255
255 255 255
255 255 255
255 255 255
255 255 255
255 255 255
255 255 255
255 255 255
255 255 255
255 255 255
255 255 255
255 255 255
255 255 255
255 255 255
255 255 255
255 255 255
255 255 255
255 255 255
  0   0   0
  0   0   0
  0   0   0
  0   0   0
255 255 255
255 255 255
255 255 255
255 255 255
255 255 255
255 255 255
255 255 255
255 255 255
255 255 255
255 255 255
255 255 255
255 255 255
255 255 255
255 255 255
255 255 255
255 255 255
255 255 255
255 255 255
255 255 255
255 255 255
255 255 255
255 255 255
255 255 255
255 255 255
255 255 255
255 255 255
255 255 255
255 255 255
255 255 255
255 255 255
255 255 255
255 255 255
255 255 255
255 255 255
255 255 255
255 255 255
255 255 255
255 255 255
255 255 255
255 255 255
255 255 255
255 255 255
255 255 255
255 255 255
255 255 255
255 255 255
255 255 255
255 255 255
255 255 255
255 255 255
255 255 255
255 255 255
255 255 255
255 255 255
255 255 255
255 255 255
255 255 255
255 255 255
255 255 255
255 255 255
255 255 255
255 255 255
255 255 255
255 255 255
255 255 255
255 255 255
255 255 255
255 255 255
255 255 255
255 255 255
255 255 255
255 255 255
255 255 255
255 255 255
255 255 255
255 255 255
255 255 255
255 255 255
255 255 255
255 255 255
255 255 255
255 255 255
255 255 255
255 255 255
255 255 255
255 255 255
255 255 255
255 255 255
255 255 255
255 255 255
255 255 255
255 255 255
255 255 255
255 255 255
255 255 255
255 255 255
255 255 255
255 255 255
255 255 255
255 255 255
255 255 255
255 255 255
255 255 255
255 255 255
255 255 255
255 255 255
255 255 255
255 255 255
255 255 255
255 255 255
255 255 255
255 255 255
255 255 255
255 255 255
255 255 255
255 255 255
255 255 255
255 255 255
255 255 255
255 255 255
255 255 255
255 255 255
255 255 255
255 255 255
255 255 255
255 255 255
255 255 255
255 255 255
255 255 255
255 255 255
255 255 255
255 255 255
255 255 255
255 255 255
255 255 255
255 255 255
255 255 255
255 255 255
255 255 255
255 255 255
255 255 255
255 255 255
255 255 255
255 255 255
255 255 255
255 255 255
255 255 255
255 255 255
255 255 255
255 255 255
255 255 255
255 255 255
255 255 255
255 255 255
255 255 255
255 255 255
255 255 255
255 255 255
255 255 255
255 255 255
255 255 255
255 255 255
255 255 255
255 255 255
255 255 255
255 255 255
255 255 255
255 255 255
255 255 255
255 255 255
255 255 255
255 255 255
255 255 255
255 255 255
255 255 255
255 255 255
255 255 255
255 255 255
255 255 255
255 255 255
255 255 255
255 255 255
255 255 255
255 255 255
255 255 255
255 255 255
255 255 255
255 255 255
255 255 255
255 255 255
255 255 255
255 255 255
255 255 255
255 255 255
255 255 255
255 255 255
255 255 255
  0   0   0
  0   0   0
  0   0   0
  0   0   0
255 255 255
255 255 255
255 255 255
255 255 255
255 255 255
255 255 255
255 255 255
255 255 255
255 255 255
255 255 255
255 255 255
255 255 255
255 255 255
255 255 255
255 255 255
255 255 255
255 255 255
255 255 255
255 255 255
255 255 255
255 255 255
255 255 255
255 255 255
255 255 255
255 255 255
255 255 255
255 255 255
255 255 255
255 255 255
255 255 255
255 255 255
255 255 255
255 255 255
255 255 255
255 255 255
255 255 255
255 255 255
255 255 255
255 255 255
255 255 255
255 255 255
255 255 255
255 255 255
255 255 255
255 255 255
255 255 255
255 255 255
255 255 255
255 255 255
255 255 255
255 255 255
255 255 255
255 255 255
255 255 255
255 255 255
255 255 255
255 255 255
255 255 255
255 255 255
255 255 255
255 255 255
255 255 255
255 255 255
255 255 255
255 255 255
255 255 255
255 255 255
255 255 255
255 255 255
255 255 255
255 255 255
255 255 255
255 255 255
255 255 255
255 255 255
255 255 255
255 255 255
255 255 255
255 255 255
255 255 255
255 255 255
255 255 255
255 255 255
255 255 255
255 255 255
255 255 255
255 255 255
255 255 255
255 255 255
255 255 255
255 255 255
255 255 255
255 255 255
255 255 255
255 255 255
255 255 255
255 255 255
255 255 255
255 255 255
255 255 255
255 255 255
255 255 255
255 255 255
255 255 255
255 255 255
255 255 255
255 255 255
255 255 255
255 255 255
255 255 255
255 255 255
255 255 255
255 255 255
255 255 255
255 255 255
255 255 255
255 255 255
255 255 255
255 255 255
255 255 255
255 255 255
255 255 255
255 255 255
255 255 255
255 255 255
255 255 255
255 255 255
255 255 255
255 255 255
255 255 255
255 255 255
255 255 255
255 255 255
255 255 255
255 255 255
255 255 255
255 255 255
255 255 255
255 255 255
255 255 255
255 255 255
255 255 255
255 255 255
255 255 255
255 255 255
255 255 255
255 255 255
255 255 255
255 255 255
255 255 255
255 255 255
255 255 255
255 255 255
255 255 255
255 255 255
255 255 255
255 255 255
255 255 255
255 255 255
255 255 255
255 255 255
255 255 255
255 255 255
255 255 255
255 255 255
255 255 255
255 255 255
255 255 255
255 255 255
255 255 255
255 255 255
255 255 255
255 255 255
255 255 255
255 255 255
255 255 255
255 255 255
255 255 255
255 255 255
255 255 255
255 255 255
255 255 255
255 255 255
255 255 255
255 255 255
255 255 255
255 255 255
255 255 255
255 255 255
255 255 255
255 255 255
255 255 255
255 255 255
255 255 255
255 255 255
255 255 255
255 255 255
  0   0   0
  0   0   0
  0   0   0
  0   0   0
255 255 255
255 255 255
255 255 255
255 255 255
255 255 255
255 255 255
255 255 255
255 255 255
255 255 255
255 255 255
255 255 255
255 255 255
255 255 255
255 255 255
255 255 255
255 255 255
255 255 255
255 255 255
255 255 255
255 255 255
255 255 255
255 255 255
255 255 255
255 255 255
255 255 255
255 255 255
255 255 255
255 255 255
255 255 255
255 255 255
255 255 255
255 255 255
255 255 255
255 255 255
255 255 255
255 255 255
255 255 255
255 255 255
255 255 255
255 255 255
255 255 255
255 255 255
255 255 255
255 255 255
255 255 255
255 255 255
255 255 255
255 255 255
255 255 255
255 255 255
255 255 255
255 255 255
255 255 255
255 255 255
255 255 255
255 255 255
255 255 255
255 255 255
255 255 255
255 255 255
255 255 255
255 255 255
255 255 255
255 255 255
255 255 255
255 255 255
255 255 255
255 255 255
255 255 255
255 255 255
255 255 255
255 255 255
255 255 255
255 255 255
255 255 255
255 255 255
255 255 255
255 255 255
255 255 255
255 255 255
255 255 255
255 255 255
255 255 255
255 255 255
255 255 255
255 255 255
255 255 255
255 255 255
255 255 255
255 255 255
255 255 255
255 255 255
255 255 255
255 255 255
255 255 255
255 255 255
255 255 255
255 255 255
255 255 255
255 255 255
255 255 255
255 255 255
255 255 255
255 255 255
255 255 255
255 255 255
255 255 255
255 255 255
255 255 255
255 255 255
255 255 255
255 255 255
255 255 255
255 255 255
255 255 255
255 255 255
255 255 255
255 255 255
255 255 255
255 255 255
255 255 255
255 255 255
255 255 255
255 255 255
255 255 255
255 255 255
255 255 255
255 255 255
255 255 255
255 255 255
255 255 255
255 255 255
255 255 255
255 255 255
255 255 255
255 255 255
255 255 255
255 255 255
255 255 255
255 255 255
255 255 255
255 255 255
255 255 255
255 255 255
255 255 255
255 255 255
255 255 255
255 255 255
255 255 255
255 255 255
255 255 255
255 255 255
255 255 255
255 255 255
255 255 255
255 255 255
255 255 255
255 255 255
255 255 255
255 255 255
255 255 255
255 255 255
255 255 255
255 255 255
255 255 255
255 255 255
255 255 255
255 255 255
255 255 255
255 255 255
255 255 255
255 255 255
255 255 255
255 255 255
255 255 255
255 255 255
255 255 255
255 255 255
255 255 255
255 255 255
255 255 255
255 255 255
255 255 255
255 255 255
255 255 255
255 255 255
255 255 255
255 255 255
255 255 255
255 255 255
255 255 255
255 255 255
255 255 255
255 255 255
255 255 255
255 255 255
255 255 255
  0   0   0
  0   0   0
  0   0   0
  0   0   0
255 255 255
255 255 255
255 255 255
255 255 255
255 255 255
255 255 255
255 255 255
255 255 255
255 255 255
255 255 255
255 255 255
255 255 255
255 255 255
255 255 255
255 255 255
255 255 255
255 255 255
255 255 255
255 255 255
255 255 255
255 255 255
255 255 255
255 255 255
255 255 255
255 255 255
255 255 255
255 255 255
255 255 255
255 255 255
255 255 255
255 255 255
255 255 255
255 255 255
255 255 255
255 255 255
255 255 255
255 255 255
255 255 255
255 255 255
255 255 255
255 255 255
255 255 255
255 255 255
255 255 255
255 255 255
255 255 255
255 255 255
255 255 255
255 255 255
255 255 255
255 255 255
255 255 255
255 255 255
255 255 255
255 255 255
255 255 255
255 255 255
255 255 255
255 255 255
255 255 255
255 255 255
255 255 255
255 255 255
255 255 255
255 255 255
255 255 255
255 255 255
255 255 255
255 255 255
255 255 255
255 255 255
255 255 255
255 255 255
255 255 255
255 255 255
255 255 255
255 255 255
255 255 255
255 255 255
255 255 255
255 255 255
255 255 255
255 255 255
255 255 255
255 255 255
255 255 255
255 255 255
255 255 255
255 255 255
255 255 255
255 255 255
255 255 255
255 255 255
255 255 255
255 255 255
255 255 255
255 255 255
255 255 255
255 255 255
255 255 255
255 255 255
255 255 255
255 255 255
255 255 255
255 255 255
255 255 255
255 255 255
255 255 255
255 255 255
255 255 255
255 255 255
255 255 255
255 255 255
255 255 255
255 255 255
255 255 255
255 255 255
255 255 255
255 255 255
255 255 255
255 255 255
255 255 255
255 255 255
255 255 255
255 255 255
255 255 255
255 255 255
255 255 255
255 255 255
255 255 255
255 255 255
255 255 255
255 255 255
255 255 255
255 255 255
255 255 255
255 255 255
255 255 255
255 255 255
255 255 255
255 255 255
255 255 255
255 255 255
255 255 255
255 255 255
255 255 255
255 255 255
255 255 255
255 255 255
255 255 255
255 255 255
255 255 255
255 255 255
255 255 255
255 255 255
255 255 255
255 255 255
255 255 255
255 255 255
255 255 255
255 255 255
255 255 255
255 255 255
255 255 255
255 255 255
255 255 255
255 255 255
255 255 255
255 255 255
255 255 255
255 255 255
255 255 255
255 255 255
255 255 255
255 255 255
255 255 255
255 255 255
255 255 255
255 255 255
255 255 255
255 255 255
255 255 255
255 255 255
255 255 255
255 255 255
255 255 255
255 255 255
255 255 255
255 255 255
255 255 255
255 255 255
255 255 255
255 255 255
255 255 255
255 255 255
255 255 255
255 255 255
  0   0   0
  0   0   0
  0   0   0
  0   0   0
255 255 255
255 255 255
255 255 255
255 255 255
255 255 255
255 255 255
255 255 255
255 255 255
255 255 255
255 255 255
255 255 255
255 255 255
255 255 255
255 255 255
255 255 255
255 255 255
255 255 255
255 255 255
255 255 255
255 255 255
255 255 255
255 255 255
255 255 255
255 255 255
255 255 255
255 255 255
255 255 255
255 255 255
255 255 255
255 255 255
255 255 255
255 255 255
255 255 255
255 255 255
255 255 255
255 255 255
255 255 255
255 255 255
255 255 255
255 255 255
255 255 255
255 255 255
255 255 255
255 255 255
255 255 255
255 255 255
255 255 255
255 255 255
255 255 255
255 255 255
255 255 255
255 255 255
255 255 255
255 255 255
255 255 255
255 255 255
255 255 255
255 255 255
255 255 255
255 255 255
255 255 255
255 255 255
255 255 255
255 255 255
255 255 255
255 255 255
255 255 255
255 255 255
255 255 255
255 255 255
255 255 255
255 255 255
255 255 255
255 255 255
255 255 255
255 255 255
255 255 255
255 255 255
255 255 255
255 255 255
255 255 255
255 255 255
255 255 255
255 255 255
255 255 255
255 255 255
255 255 255
255 255 255
255 255 255
255 255 255
255 255 255
255 255 255
255 255 255
255 255 255
255 255 255
255 255 255
255 255 255
255 255 255
255 255 255
255 255 255
255 255 255
255 255 255
255 255 255
255 255 255
255 255 255
255 255 255
255 255 255
255 255 255
255 255 255
255 255 255
255 255 255
255 255 255
255 255 255
255 255 255
255 255 255
255 255 255
255 255 255
255 255 255
255 255 255
255 255 255
255 255 255
255 255 255
255 255 255
255 255 255
255 255 255
255 255 255
255 255 255
255 255 255
255 255 255
255 255 255
255 255 255
255 255 255
255 255 255
255 255 255
255 255 255
255 255 255
255 255 255
255 255 255
255 255 255
255 255 255
255 255 255
255 255 255
255 255 255
255 255 255
255 255 255
255 255 255
255 255 255
255 255 255
255 255 255
255 255 255
255 255 255
255 255 255
255 255 255
255 255 255
255 255 255
255 255 255
255 255 255
255 255 255
255 255 255
255 255 255
255 255 255
255 255 255
255 255 255
255 255 255
255 255 255
255 255 255
255 255 255
255 255 255
255 255 255
255 255 255
255 255 255
255 255 255
255 255 255
255 255 255
255 255 255
255 255 255
255 255 255
255 255 255
255 255 255
255 255 255
255 255 255
255 255 255
255 255 255
255 255 255
255 255 255
255 255 255
255 255 255
255 255 255
255 255 255
255 255 255
255 255 255
255 255 255
255 255 255
255 255 255
255 255 255
255 255 255
255 255 255
  0   0   0
  0   0   0
  0   0   0
  0   0   0
255 255 255
255 255 255
255 255 255
255 255 255
255 255 255
255 255 255
255 255 255
255 255 255
255 255 255
255 255 255
255 255 255
255 255 255
255 255 255
255 255 255
255 255 255
255 255 255
255 255 255
255 255 255
255 255 255
255 255 255
255 255 255
255 255 255
255 255 255
255 255 255
255 255 255
255 255 255
255 255 255
255 255 255
255 255 255
255 255 255
255 255 255
255 255 255
255 255 255
255 255 255
255 255 255
255 255 255
255 255 255
255 255 255
255 255 255
255 255 255
255 255 255
255 255 255
255 255 255
255 255 255
255 255 255
255 255 255
255 255 255
255 255 255
255 255 255
255 255 255
255 255 255
255 255 255
255 255 255
255 255 255
255 255 255
255 255 255
255 255 255
255 255 255
255 255 255
255 255 255
255 255 255
255 255 255
255 255 255
255 255 255
255 255 255
255 255 255
255 255 255
255 255 255
255 255 255
255 255 255
255 255 255
255 255 255
255 255 255
255 255 255
255 255 255
255 255 255
255 255 255
255 255 255
255 255 255
255 255 255
255 255 255
255 255 255
255 255 255
255 255 255
255 255 255
255 255 255
255 255 255
255 255 255
255 255 255
255 255 255
255 255 255
255 255 255
255 255 255
255 255 255
255 255 255
255 255 255
255 255 255
255 255 255
255 255 255
255 255 255
255 255 255
255 255 255
255 255 255
255 255 255
255 255 255
255 255 255
255 255 255
255 255 255
255 255 255
255 255 255
255 255 255
255 255 255
255 255 255
255 255 255
255 255 255
255 255 255
255 255 255
255 255 255
255 255 255
255 255 255
255 255 255
255 255 255
255 255 255
255 255 255
255 255 255
255 255 255
255 255 255
255 255 255
255 255 255
255 255 255
255 255 255
255 255 255
255 255 255
255 255 255
255 255 255
255 255 255
255 255 255
255 255 255
255 255 255
255 255 255
255 255 255
255 255 255
255 255 255
255 255 255
255 255 255
255 255 255
255 255 255
255 255 255
255 255 255
255 255 255
255 255 255
255 255 255
255 255 255
255 255 255
255 255 255
255 255 255
255 255 255
255 255 255
255 255 255
255 255 255
255 255 255
255 255 255
255 255 255
255 255 255
255 255 255
255 255 255
255 255 255
255 255 255
255 255 255
255 255 255
255 255 255
255 255 255
255 255 255
255 255 255
255 255 255
255 255 255
255 255 255
255 255 255
255 255 255
255 255 255
255 255 255
255 255 255
255 255 255
255 255 255
255 255 255
255 255 255
255 255 255
255 255 255
255 255 255
255 255 255
255 255 255
255 255 255
255 255 255
255 255 255
255 255 255
255 255 255
255 255 255
  0   0   0
  0   0   0
  0   0   0
  0   0   0
255 255 255
255 255 255
255 255 255
255 255 255
255 255 255
255 255 255
255 255 255
255 255 255
255 255 255
255 255 255
255 255 255
255 255 255
255 255 255
255 255 255
255 255 255
255 255 255
255 255 255
255 255 255
255 255 255
255 255 255
255 255 255
255 255 255
255 255 255
255 255 255
255 255 255
255 255 255
255 255 255
255 255 255
255 255 255
255 255 255
255 255 255
255 255 255
255 255 255
255 255 255
255 255 255
255 255 255
255 255 255
255 255 255
255 255 255
255 255 255
255 255 255
255 255 255
255 255 255
255 255 255
255 255 255
255 255 255
255 255 255
255 255 255
255 255 255
255 255 255
255 255 255
255 255 255
255 255 255
255 255 255
255 255 255
255 255 255
255 255 255
255 255 255
255 255 255
255 255 255
255 255 255
255 255 255
255 255 255
255 255 255
255 255 255
255 255 255
255 255 255
255 255 255
255 255 255
255 255 255
255 255 255
255 255 255
255 255 255
255 255 255
255 255 255
255 255 255
255 255 255
255 255 255
255 255 255
255 255 255
255 255 255
255 255 255
255 255 255
255 255 255
255 255 255
255 255 255
255 255 255
255 255 255
255 255 255
255 255 255
255 255 255
255 255 255
255 255 255
255 255 255
255 255 255
255 255 255
255 255 255
255 255 255
255 255 255
255 255 255
255 255 255
255 255 255
255 255 255
255 255 255
255 255 255
255 255 255
255 255 255
255 255 255
255 255 255
255 255 255
255 255 255
255 255 255
255 255 255
255 255 255
255 255 255
255 255 255
255 255 255
255 255 255
255 255 255
255 255 255
255 255 255
255 255 255
255 255 255
255 255 255
255 255 255
255 255 255
255 255 255
255 255 255
255 255 255
255 255 255
255 255 255
255 255 255
255 255 255
255 255 255
255 255 255
255 255 255
255 255 255
255 255 255
255 255 255
255 255 255
255 255 255
255 255 255
255 255 255
255 255 255
255 255 255
255 255 255
255 255 255
255 255 255
255 255 255
255 255 255
255 255 255
255 255 255
255 255 255
255 255 255
255 255 255
255 255 255
255 255 255
255 255 255
255 255 255
255 255 255
255 255 255
255 255 255
255 255 255
255 255 255
255 255 255
255 255 255
255 255 255
255 255 255
255 255 255
255 255 255
255 255 255
255 255 255
255 255 255
255 255 255
255 255 255
255 255 255
255 255 255
255 255 255
255 255 255
255 255 255
255 255 255
255 255 255
255 255 255
255 255 255
255 255 255
255 255 255
255 255 255
255 255 255
255 255 255
255 255 255
255 255 255
255 255 255
255 255 255
255 255 255
255 255 255
255 255 255
255 255 255
  0   0   0
  0   0   0
  0   0   0
  0   0   0
255 255 255
255 255 255
255 255 255
255 255 255
255 255 255
255 255 255
255 255 255
255 255 255
255 255 255
255 255 255
255 255 255
255 255 255
255 255 255
255 255 255
255 255 255
255 255 255
255 255 255
255 255 255
255 255 255
255 255 255
255 255 255
255 255 255
255 255 255
255 255 255
255 255 255
255 255 255
255 255 255
255 255 255
255 255 255
255 255 255
255 255 255
255 255 255
255 255 255
255 255 255
255 255 255
255 255 255
255 255 255
255 255 255
255 255 255
255 255 255
255 255 255
255 255 255
255 255 255
255 255 255
255 255 255
255 255 255
255 255 255
255 255 255
255 255 255
255 255 255
255 255 255
255 255 255
255 255 255
255 255 255
255 255 255
255 255 255
255 255 255
255 255 255
255 255 255
255 255 255
255 255 255
255 255 255
255 255 255
255 255 255
255 255 255
255 255 255
255 255 255
255 255 255
255 255 255
255 255 255
255 255 255
255 255 255
255 255 255
255 255 255
255 255 255
255 255 255
255 255 255
255 255 255
255 255 255
255 255 255
255 255 255
255 255 255
255 255 255
255 255 255
255 255 255
255 255 255
255 255 255
255 255 255
255 255 255
255 255 255
255 255 255
255 255 255
255 255 255
255 255 255
255 255 255
255 255 255
255 255 255
255 255 255
255 255 255
255 255 255
255 255 255
255 255 255
255 255 255
255 255 255
255 255 255
255 255 255
255 255 255
255 255 255
255 255 255
255 255 255
255 255 255
255 255 255
255 255 255
255 255 255
255 255 255
255 255 255
255 255 255
255 255 255
255 255 255
255 255 255
255 255 255
255 255 255
255 255 255
255 255 255
255 255 255
255 255 255
255 255 255
255 255 255
255 255 255
255 255 255
255 255 255
255 255 255
255 255 255
255 255 255
255 255 255
255 255 255
255 255 255
255 255 255
255 255 255
255 255 255
255 255 255
255 255 255
255 255 255
255 255 255
255 255 255
255 255 255
255 255 255
255 255 255
255 255 255
255 255 255
255 255 255
255 255 255
255 255 255
255 255 255
255 255 255
255 255 255
255 255 255
255 255 255
255 255 255
255 255 255
255 255 255
255 255 255
255 255 255
255 255 255
255 255 255
255 255 255
255 255 255
255 255 255
255 255 255
255 255 255
255 255 255
255 255 255
255 255 255
255 255 255
255 255 255
255 255 255
255 255 255
255 255 255
255 255 255
255 255 255
255 255 255
255 255 255
255 255 255
255 255 255
255 255 255
255 255 255
255 255 255
255 255 255
255 255 255
255 255 255
255 255 255
255 255 255
255 255 255
255 255 255
255 255 255
255 255 255
255 255 255
  0   0   0
  0   0   0
  0   0   0
  0   0   0
255 255 255
255 255 255
255 255 255
255 255 255
255 255 255
255 255 255
255 255 255
255 255 255
255 255 255
255 255 255
255 255 255
255 255 255
255 255 255
255 255 255
255 255 255
255 255 255
255 255 255
255 255 255
255 255 255
255 255 255
255 255 255
255 255 255
255 255 255
255 255 255
255 255 255
255 255 255
255 255 255
255 255 255
255 255 255
255 255 255
255 255 255
255 255 255
255 255 255
255 255 255
255 255 255
255 255 255
255 255 255
255 255 255
255 255 255
255 255 255
255 255 255
255 255 255
255 255 255
255 255 255
255 255 255
255 255 255
255 255 255
255 255 255
255 255 255
255 255 255
255 255 255
255 255 255
255 255 255
255 255 255
255 255 255
255 255 255
255 255 255
255 255 255
255 255 255
255 255 255
255 255 255
255 255 255
255 255 255
255 255 255
255 255 255
255 255 255
255 255 255
255 255 255
255 255 255
255 255 255
255 255 255
255 255 255
255 255 255
255 255 255
255 255 255
255 255 255
255 255 255
255 255 255
255 255 255
255 255 255
255 255 255
255 255 255
255 255 255
255 255 255
255 255 255
255 255 255
255 255 255
255 255 255
255 255 255
255 255 255
255 255 255
255 255 255
255 255 255
255 255 255
255 255 255
255 255 255
255 255 255
255 255 255
255 255 255
255 255 255
255 255 255
255 255 255
255 255 255
255 255 255
255 255 255
255 255 255
255 255 255
255 255 255
255 255 255
255 255 255
255 255 255
255 255 255
255 255 255
255 255 255
255 255 255
255 255 255
255 255 255
255 255 255
255 255 255
255 255 255
255 255 255
255 255 255
255 255 255
255 255 255
255 255 255
255 255 255
255 255 255
255 255 255
255 255 255
255 255 255
255 255 255
255 255 255
255 255 255
255 255 255
255 255 255
255 255 255
255 255 255
255 255 255
255 255 255
255 255 255
255 255 255
255 255 255
255 255 255
255 255 255
255 255 255
255 255 255
255 255 255
255 255 255
255 255 255
255 255 255
255 255 255
255 255 255
255 255 255
255 255 255
255 255 255
255 255 255
255 255 255
255 255 255
255 255 255
255 255 255
255 255 255
255 255 255
255 255 255
255 255 255
255 255 255
255 255 255
255 255 255
255 255 255
255 255 255
255 255 255
255 255 255
255 255 255
255 255 255
255 255 255
255 255 255
255 255 255
255 255 255
255 255 255
255 255 255
255 255 255
255 255 255
255 255 255
255 255 255
255 255 255
255 255 255
255 255 255
255 255 255
255 255 255
255 255 255
255 255 255
255 255 255
255 255 255
255 255 255
255 255 255
255 255 255
255 255 255
255 255 255
  0   0   0
  0   0   0
  0   0   0
  0   0   0
255 255 255
255 255 255
255 255 255
255 255 255
255 255 255
255 255 255
255 255 255
255 255 255
255 255 255
255 255 255
255 255 255
255 255 255
255 255 255
255 255 255
255 255 255
255 255 255
255 255 255
255 255 255
255 255 255
255 255 255
255 255 255
255 255 255
255 255 255
255 255 255
255 255 255
255 255 255
255 255 255
255 255 255
255 255 255
255 255 255
255 255 255
255 255 255
255 255 255
255 255 255
255 255 255
255 255 255
255 255 255
255 255 255
255 255 255
255 255 255
255 255 255
255 255 255
255 255 255
255 255 255
255 255 255
255 255 255
255 255 255
255 255 255
255 255 255
255 255 255
255 255 255
255 255 255
255 255 255
255 255 255
255 255 255
255 255 255
255 255 255
255 255 255
255 255 255
255 255 255
255 255 255
255 255 255
255 255 255
255 255 255
255 255 255
255 255 255
255 255 255
255 255 255
255 255 255
255 255 255
255 255 255
255 255 255
255 255 255
255 255 255
255 255 255
255 255 255
255 255 255
255 255 255
255 255 255
255 255 255
255 255 255
255 255 255
255 255 255
255 255 255
255 255 255
255 255 255
255 255 255
255 255 255
255 255 255
255 255 255
255 255 255
255 255 255
255 255 255
255 255 255
255 255 255
255 255 255
255 255 255
255 255 255
255 255 255
255 255 255
255 255 255
255 255 255
255 255 255
255 255 255
255 255 255
255 255 255
255 255 255
255 255 255
255 255 255
255 255 255
255 255 255
255 255 255
255 255 255
255 255 255
255 255 255
255 255 255
255 255 255
255 255 255
255 255 255
255 255 255
255 255 255
255 255 255
255 255 255
255 255 255
255 255 255
255 255 255
255 255 255
255 255 255
255 255 255
255 255 255
255 255 255
255 255 255
255 255 255
255 255 255
255 255 255
255 255 255
255 255 255
255 255 255
255 255 255
255 255 255
255 255 255
255 255 255
255 255 255
255 255 255
255 255 255
255 255 255
255 255 255
255 255 255
255 255 255
255 255 255
255 255 255
255 255 255
255 255 255
255 255 255
255 255 255
255 255 255
255 255 255
255 255 255
255 255 255
255 255 255
255 255 255
255 255 255
255 255 255
255 255 255
255 255 255
255 255 255
255 255 255
255 255 255
255 255 255
255 255 255
255 255 255
255 255 255
255 255 255
255 255 255
255 255 255
255 255 255
255 255 255
255 255 255
255 255 255
255 255 255
255 255 255
255 255 255
255 255 255
255 255 255
255 255 255
255 255 255
255 255 255
255 255 255
255 255 255
255 255 255
255 255 255
255 255 255
255 255 255
255 255 255
255 255 255
255 255 255
255 255 255
  0   0   0
  0   0   0
  0   0   0
  0   0   0
255 255 255
255 255 255
255 255 255
255 255 255
255 255 255
255 255 255
255 255 255
255 255 255
255 255 255
255 255 255
255 255 255
255 255 255
255 255 255
255 255 255
255 255 255
255 255 255
255 255 255
255 255 255
255 255 255
255 255 255
255 255 255
255 255 255
255 255 255
255 255 255
255 255 255
255 255 255
255 255 255
255 255 255
255 255 255
255 255 255
255 255 255
255 255 255
255 255 255
255 255 255
255 255 255
255 255 255
255 255 255
255 255 255
255 255 255
255 255 255
255 255 255
255 255 255
255 255 255
255 255 255
255 255 255
255 255 255
255 255 255
255 255 255
255 255 255
255 255 255
255 255 255
255 255 255
255 255 255
255 255 255
255 255 255
255 255 255
255 255 255
255 255 255
255 255 255
255 255 255
255 255 255
255 255 255
255 255 255
255 255 255
255 255 255
255 255 255
255 255 255
255 255 255
255 255 255
255 255 255
255 255 255
255 255 255
255 255 255
255 255 255
255 255 255
255 255 255
255 255 255
255 255 255
255 255 255
255 255 255
255 255 255
255 255 255
255 255 255
255 255 255
255 255 255
255 255 255
255 255 255
255 255 255
255 255 255
255 255 255
255 255 255
255 255 255
255 255 255
255 255 255
255 255 255
255 255 255
255 255 255
255 255 255
255 255 255
255 255 255
255 255 255
255 255 255
255 255 255
255 255 255
255 255 255
255 255 255
255 255 255
255 255 255
255 255 255
255 255 255
255 255 255
255 255 255
255 255 255
255 255 255
255 255 255
255 255 255
255 255 255
255 255 255
255 255 255
255 255 255
255 255 255
255 255 255
255 255 255
255 255 255
255 255 255
255 255 255
255 255 255
255 255 255
255 255 255
255 255 255
255 255 255
255 255 255
255 255 255
255 255 255
255 255 255
255 255 255
255 255 255
255 255 255
255 255 255
255 255 255
255 255 255
255 255 255
255 255 255
255 255 255
255 255 255
255 255 255
255 255 255
255 255 255
255 255 255
255 255 255
255 255 255
255 255 255
255 255 255
255 255 255
255 255 255
255 255 255
255 255 255
255 255 255
255 255 255
255 255 255
255 255 255
255 255 255
255 255 255
255 255 255
255 255 255
255 255 255
255 255 255
255 255 255
255 255 255
255 255 255
255 255 255
255 255 255
255 255 255
255 255 255
255 255 255
255 255 255
255 255 255
255 255 255
255 255 255
255 255 255
255 255 255
255 255 255
255 255 255
255 255 255
255 255 255
255 255 255
255 255 255
255 255 255
255 255 255
255 255 255
255 255 255
255 255 255
255 255 255
255 255 255
255 255 255
255 255 255
255 255 255
  0   0   0
  0   0   0
  0   0   0
  0   0   0
255 255 255
255 255 255
255 255 255
255 255 255
255 255 255
255 255 255
255 255 255
255 255 255
255 255 255
255 255 255
255 255 255
255 255 255
255 255 255
255 255 255
255 255 255
255 255 255
255 255 255
255 255 255
255 255 255
255 255 255
255 255 255
255 255 255
255 255 255
255 255 255
255 255 255
255 255 255
255 255 255
255 255 255
255 255 255
255 255 255
255 255 255
255 255 255
255 255 255
255 255 255
255 255 255
255 255 255
255 255 255
255 255 255
255 255 255
255 255 255
255 255 255
255 255 255
255 255 255
255 255 255
255 255 255
255 255 255
255 255 255
255 255 255
255 255 255
255 255 255
255 255 255
255 255 255
255 255 255
255 255 255
255 255 255
255 255 255
255 255 255
255 255 255
255 255 255
255 255 255
255 255 255
255 255 255
255 255 255
255 255 255
255 255 255
255 255 255
255 255 255
255 255 255
255 255 255
255 255 255
255 255 255
255 255 255
255 255 255
255 255 255
255 255 255
255 255 255
255 255 255
255 255 255
255 255 255
255 255 255
255 255 255
255 255 255
255 255 255
255 255 255
255 255 255
255 255 255
255 255 255
255 255 255
255 255 255
255 255 255
255 255 255
255 255 255
255 255 255
255 255 255
255 255 255
255 255 255
255 255 255
255 255 255
255 255 255
255 255 255
255 255 255
255 255 255
255 255 255
255 255 255
255 255 255
255 255 255
255 255 255
255 255 255
255 255 255
255 255 255
255 255 255
255 255 255
255 255 255
255 255 255
255 255 255
255 255 255
255 255 255
255 255 255
255 255 255
255 255 255
255 255 255
255 255 255
255 255 255
255 255 255
255 255 255
255 255 255
255 255 255
255 255 255
255 255 255
255 255 255
255 255 255
255 255 255
255 255 255
255 255 255
255 255 255
255 255 255
255 255 255
255 255 255
255 255 255
255 255 255
255 255 255
255 255 255
255 255 255
255 255 255
255 255 255
255 255 255
255 255 255
255 255 255
255 255 255
255 255 255
255 255 255
255 255 255
255 255 255
255 255 255
255 255 255
255 255 255
255 255 255
255 255 255
255 255 255
255 255 255
255 255 255
255 255 255
255 255 255
255 255 255
255 255 255
255 255 255
255 255 255
255 255 255
255 255 255
255 255 255
255 255 255
255 255 255
255 255 255
255 255 255
255 255 255
255 255 255
255 255 255
255 255 255
255 255 255
255 255 255
255 255 255
255 255 255
255 255 255
255 255 255
255 255 255
255 255 255
255 255 255
255 255 255
255 255 255
255 255 255
255 255 255
255 255 255
255 255 255
255 255 255
255 255 255
255 255 255
255 255 255
  0   0   0
  0   0   0
  0   0   0
  0   0   0
255 255 255
255 255 255
255 255 255
255 255 255
255 255 255
255 255 255
255 255 255
255 255 255
255 255 255
255 255 255
255 255 255
255 255 255
255 255 255
255 255 255
255 255 255
255 255 255
255 255 255
255 255 255
255 255 255
255 255 255
255 255 255
255 255 255
255 255 255
255 255 255
255 255 255
255 255 255
255 255 255
255 255 255
255 255 255
255 255 255
255 255 255
255 255 255
255 255 255
255 255 255
255 255 255
255 255 255
255 255 255
255 255 255
255 255 255
255 255 255
255 255 255
255 255 255
255 255 255
255 255 255
255 255 255
255 255 255
255 255 255
255 255 255
255 255 255
255 255 255
255 255 255
255 255 255
255 255 255
255 255 255
255 255 255
255 255 255
255 255 255
255 255 255
255 255 255
255 255 255
255 255 255
255 255 255
255 255 255
255 255 255
255 255 255
255 255 255
255 255 255
255 255 255
255 255 255
255 255 255
255 255 255
255 255 255
255 255 255
255 255 255
255 255 255
255 255 255
255 255 255
255 255 255
255 255 255
255 255 255
255 255 255
255 255 255
255 255 255
255 255 255
255 255 255
255 255 255
255 255 255
255 255 255
255 255 255
255 255 255
255 255 255
255 255 255
255 255 255
255 255 255
255 255 255
255 255 255
255 255 255
255 255 255
255 255 255
255 255 255
255 255 255
255 255 255
255 255 255
255 255 255
255 255 255
255 255 255
255 255 255
255 255 255
255 255 255
255 255 255
255 255 255
255 255 255
255 255 255
255 255 255
255 255 255
255 255 255
255 255 255
255 255 255
255 255 255
255 255 255
255 255 255
255 255 255
255 255 255
255 255 255
255 255 255
255 255 255
255 255 255
255 255 255
255 255 255
255 255 255
255 255 255
255 255 255
255 255 255
255 255 255
255 255 255
255 255 255
255 255 255
255 255 255
255 255 255
255 255 255
255 255 255
255 255 255
255 255 255
255 255 255
255 255 255
255 255 255
255 255 255
255 255 255
255 255 255
255 255 255
255 255 255
255 255 255
255 255 255
255 255 255
255 255 255
255 255 255
255 255 255
255 255 255
255 255 255
255 255 255
255 255 255
255 255 255
255 255 255
255 255 255
255 255 255
255 255 255
255 255 255
255 255 255
255 255 255
255 255 255
255 255 255
255 255 255
255 255 255
255 255 255
255 255 255
255 255 255
255 255 255
255 255 255
255 255 255
255 255 255
255 255 255
255 255 255
255 255 255
255 255 255
255 255 255
255 255 255
255 255 255
255 255 255
255 255 255
255 255 255
255 255 255
255 255 255
255 255 255
255 255 255
255 255 255
255 255 255
255 255 255
  0   0   0
  0   0   0
  0   0   0
  0   0   0
255 255 255
255 255 255
255 255 255
255 255 255
255 255 255
255 255 255
255 255 255
255 255 255
255 255 255
255 255 255
255 255 255
255 255 255
255 255 255
255 255 255
255 255 255
255 255 255
255 255 255
255 255 255
255 255 255
255 255 255
255 255 255
255 255 255
255 255 255
255 255 255
255 255 255
255 255 255
255 255 255
255 255 255
255 255 255
255 255 255
255 255 255
255 255 255
255 255 255
255 255 255
255 255 255
255 255 255
255 255 255
255 255 255
255 255 255
255 255 255
255 255 255
255 255 255
255 255 255
255 255 255
255 255 255
255 255 255
255 255 255
255 255 255
255 255 255
255 255 255
255 255 255
255 255 255
255 255 255
255 255 255
255 255 255
255 255 255
255 255 255
255 255 255
255 255 255
255 255 255
255 255 255
255 255 255
255 255 255
255 255 255
255 255 255
255 255 255
255 255 255
255 255 255
255 255 255
255 255 255
255 255 255
255 255 255
255 255 255
255 255 255
255 255 255
255 255 255
255 255 255
255 255 255
255 255 255
255 255 255
255 255 255
255 255 255
255 255 255
255 255 255
255 255 255
255 255 255
255 255 255
255 255 255
255 255 255
255 255 255
255 255 255
255 255 255
255 255 255
255 255 255
255 255 255
255 255 255
255 255 255
255 255 255
255 255 255
255 255 255
255 255 255
255 255 255
255 255 255
255 255 255
255 255 255
255 255 255
255 255 255
255 255 255
255 255 255
255 255 255
255 255 255
255 255 255
255 255 255
255 255 255
255 255 255
255 255 255
255 255 255
255 255 255
255 255 255
255 255 255
255 255 255
255 255 255
255 255 255
255 255 255
255 255 255
255 255 255
255 255 255
255 255 255
255 255 255
255 255 255
255 255 255
255 255 255
255 255 255
255 255 255
255 255 255
255 255 255
255 255 255
255 255 255
255 255 255
255 255 255
255 255 255
255 255 255
255 255 255
255 255 255
255 255 255
255 255 255
255 255 255
255 255 255
255 255 255
255 255 255
255 255 255
255 255 255
255 255 255
255 255 255
255 255 255
255 255 255
255 255 255
255 255 255
255 255 255
255 255 255
255 255 255
255 255 255
255 255 255
255 255 255
255 255 255
255 255 255
255 255 255
255 255 255
255 255 255
255 255 255
255 255 255
255 255 255
255 255 255
255 255 255
255 255 255
255 255 255
255 255 255
255 255 255
255 255 255
255 255 255
255 255 255
255 255 255
255 255 255
255 255 255
255 255 255
255 255 255
255 255 255
255 255 255
255 255 255
255 255 255
255 255 255
255 255 255
255 255 255
255 255 255
255 255 255
255 255 255
255 255 255
  0   0   0
  0   0   0
  0   0   0
  0   0   0
255 255 255
255 255 255
255 255 255
255 255 255
255 255 255
255 255 255
255 255 255
255 255 255
255 255 255
255 255 255
255 255 255
255 255 255
255 255 255
255 255 255
255 255 255
255 255 255
255 255 255
255 255 255
255 255 255
255 255 255
255 255 255
255 255 255
255 255 255
255 255 255
255 255 255
255 255 255
255 255 255
255 255 255
255 255 255
255 255 255
255 255 255
255 255 255
255 255 255
255 255 255
255 255 255
255 255 255
255 255 255
255 255 255
255 255 255
255 255 255
255 255 255
255 255 255
255 255 255
255 255 255
255 255 255
255 255 255
255 255 255
255 255 255
255 255 255
255 255 255
255 255 255
255 255 255
255 255 255
255 255 255
255 255 255
255 255 255
255 255 255
255 255 255
255 255 255
255 255 255
255 255 255
255 255 255
255 255 255
255 255 255
255 255 255
255 255 255
255 255 255
255 255 255
255 255 255
255 255 255
255 255 255
255 255 255
255 255 255
255 255 255
255 255 255
255 255 255
255 255 255
255 255 255
255 255 255
255 255 255
255 255 255
255 255 255
255 255 255
255 255 255
255 255 255
255 255 255
255 255 255
255 255 255
255 255 255
255 255 255
255 255 255
255 255 255
255 255 255
255 255 255
255 255 255
255 255 255
255 255 255
255 255 255
255 255 255
255 255 255
255 255 255
255 255 255
255 255 255
255 255 255
255 255 255
255 255 255
255 255 255
255 255 255
255 255 255
255 255 255
255 255 255
255 255 255
255 255 255
255 255 255
255 255 255
255 255 255
255 255 255
255 255 255
255 255 255
255 255 255
255 255 255
255 255 255
255 255 255
255 255 255
255 255 255
255 255 255
255 255 255
255 255 255
255 255 255
255 255 255
255 255 255
255 255 255
255 255 255
255 255 255
255 255 255
255 255 255
255 255 255
255 255 255
255 255 255
255 255 255
255 255 255
255 255 255
255 255 255
255 255 255
255 255 255
255 255 255
255 255 255
255 255 255
255 255 255
255 255 255
255 255 255
255 255 255
255 255 255
255 255 255
255 255 255
255 255 255
255 255 255
255 255 255
255 255 255
255 255 255
255 255 255
255 255 255
255 255 255
255 255 255
255 255 255
255 255 255
255 255 255
255 255 255
255 255 255
255 255 255
255 255 255
255 255 255
255 255 255
255 255 255
255 255 255
255 255 255
255 255 255
255 255 255
255 255 255
255 255 255
255 255 255
255 255 255
255 255 255
255 255 255
255 255 255
255 255 255
255 255 255
255 255 255
255 255 255
255 255 255
255 255 255
255 255 255
255 255 255
255 255 255
255 255 255
255 255 255
255 255 255
  0   0   0
  0   0   0
  0   0   0
  0   0   0
255 255 255
255 255 255
255 255 255
255 255 255
255 255 255
255 255 255
255 255 255
255 255 255
255 255 255
255 255 255
255 255 255
255 255 255
255 255 255
255 255 255
255 255 255
255 255 255
255 255 255
255 255 255
255 255 255
255 255 255
255 255 255
255 255 255
255 255 255
255 255 255
255 255 255
255 255 255
255 255 255
255 255 255
255 255 255
255 255 255
255 255 255
255 255 255
255 255 255
255 255 255
255 255 255
255 255 255
255 255 255
255 255 255
255 255 255
255 255 255
255 255 255
255 255 255
255 255 255
255 255 255
255 255 255
255 255 255
255 255 255
255 255 255
255 255 255
255 255 255
255 255 255
255 255 255
255 255 255
255 255 255
255 255 255
255 255 255
255 255 255
255 255 255
255 255 255
255 255 255
255 255 255
255 255 255
255 255 255
255 255 255
255 255 255
255 255 255
255 255 255
255 255 255
255 255 255
255 255 255
255 255 255
255 255 255
255 255 255
255 255 255
255 255 255
255 255 255
255 255 255
255 255 255
255 255 255
255 255 255
255 255 255
255 255 255
255 255 255
255 255 255
255 255 255
255 255 255
255 255 255
255 255 255
255 255 255
255 255 255
255 255 255
255 255 255
255 255 255
255 255 255
255 255 255
255 255 255
255 255 255
255 255 255
255 255 255
255 255 255
255 255 255
255 255 255
255 255 255
255 255 255
255 255 255
255 255 255
255 255 255
255 255 255
255 255 255
255 255 255
255 255 255
255 255 255
255 255 255
255 255 255
255 255 255
255 255 255
255 255 255
255 255 255
255 255 255
255 255 255
255 255 255
255 255 255
255 255 255
255 255 255
255 255 255
255 255 255
255 255 255
255 255 255
255 255 255
255 255 255
255 255 255
255 255 255
255 255 255
255 255 255
255 255 255
255 255 255
255 255 255
255 255 255
255 255 255
255 255 255
255 255 255
255 255 255
255 255 255
255 255 255
255 255 255
255 255 255
255 255 255
255 255 255
255 255 255
255 255 255
255 255 255
255 255 255
255 255 255
255 255 255
255 255 255
255 255 255
255 255 255
255 255 255
255 255 255
255 255 255
255 255 255
255 255 255
255 255 255
255 255 255
255 255 255
255 255 255
255 255 255
255 255 255
255 255 255
255 255 255
255 255 255
255 255 255
255 255 255
255 255 255
255 255 255
255 255 255
255 255 255
255 255 255
255 255 255
255 255 255
255 255 255
255 255 255
255 255 255
255 255 255
255 255 255
255 255 255
255 255 255
255 255 255
255 255 255
255 255 255
255 255 255
255 255 255
255 255 255
255 255 255
255 255 255
255 255 255
255 255 255
  0   0   0
  0   0   0
  0   0   0
  0   0   0
255 255 255
255 255 255
255 255 255
255 255 255
255 255 255
255 255 255
255 255 255
255 255 255
255 255 255
255 255 255
255 255 255
255 255 255
255 255 255
255 255 255
255 255 255
255 255 255
255 255 255
255 255 255
255 255 255
255 255 255
255 255 255
255 255 255
255 255 255
255 255 255
255 255 255
255 255 255
255 255 255
255 255 255
255 255 255
255 255 255
255 255 255
255 255 255
255 255 255
255 255 255
255 255 255
255 255 255
255 255 255
255 255 255
255 255 255
255 255 255
255 255 255
255 255 255
255 255 255
255 255 255
255 255 255
255 255 255
255 255 255
255 255 255
255 255 255
255 255 255
255 255 255
255 255 255
255 255 255
255 255 255
255 255 255
255 255 255
255 255 255
255 255 255
255 255 255
255 255 255
255 255 255
255 255 255
255 255 255
255 255 255
255 255 255
255 255 255
255 255 255
255 255 255
255 255 255
255 255 255
255 255 255
255 255 255
255 255 255
255 255 255
255 255 255
255 255 255
255 255 255
255 255 255
255 255 255
255 255 255
255 255 255
255 255 255
255 255 255
255 255 255
255 255 255
255 255 255
255 255 255
255 255 255
255 255 255
255 255 255
255 255 255
255 255 255
255 255 255
255 255 255
255 255 255
255 255 255
255 255 255
255 255 255
255 255 255
255 255 255
255 255 255
255 255 255
255 255 255
255 255 255
255 255 255
255 255 255
255 255 255
255 255 255
255 255 255
255 255 255
255 255 255
255 255 255
255 255 255
255 255 255
255 255 255
255 255 255
255 255 255
255 255 255
255 255 255
255 255 255
255 255 255
255 255 255
255 255 255
255 255 255
255 255 255
255 255 255
255 255 255
255 255 255
255 255 255
255 255 255
255 255 255
255 255 255
255 255 255
255 255 255
255 255 255
255 255 255
255 255 255
255 255 255
255 255 255
255 255 255
255 255 255
255 255 255
255 255 255
255 255 255
255 255 255
255 255 255
255 255 255
255 255 255
255 255 255
255 255 255
255 255 255
255 255 255
255 255 255
255 255 255
255 255 255
255 255 255
255 255 255
255 255 255
255 255 255
255 255 255
255 255 255
255 255 255
255 255 255
255 255 255
255 255 255
255 255 255
255 255 255
255 255 255
255 255 255
255 255 255
255 255 255
255 255 255
255 255 255
255 255 255
255 255 255
255 255 255
255 255 255
255 255 255
255 255 255
255 255 255
255 255 255
255 255 255
255 255 255
255 255 255
255 255 255
255 255 255
255 255 255
255 255 255
255 255 255
255 255 255
255 255 255
255 255 255
255 255 255
255 255 255
255 255 255
255 255 255
255 255 255
  0   0   0
  0   0   0
  0   0   0
  0   0   0
255 255 255
255 255 255
255 255 255
255 255 255
255 255 255
255 255 255
255 255 255
255 255 255
255 255 255
255 255 255
255 255 255
255 255 255
255 255 255
255 255 255
255 255 255
255 255 255
255 255 255
255 255 255
255 255 255
255 255 255
255 255 255
255 255 255
255 255 255
255 255 255
255 255 255
255 255 255
255 255 255
255 255 255
255 255 255
255 255 255
255 255 255
255 255 255
255 255 255
255 255 255
255 255 255
255 255 255
255 255 255
255 255 255
255 255 255
255 255 255
255 255 255
255 255 255
255 255 255
255 255 255
255 255 255
255 255 255
255 255 255
255 255 255
255 255 255
255 255 255
255 255 255
255 255 255
255 255 255
255 255 255
255 255 255
255 255 255
255 255 255
255 255 255
255 255 255
255 255 255
255 255 255
255 255 255
255 255 255
255 255 255
255 255 255
255 255 255
255 255 255
255 255 255
255 255 255
255 255 255
255 255 255
255 255 255
255 255 255
255 255 255
255 255 255
255 255 255
255 255 255
255 255 255
255 255 255
255 255 255
255 255 255
255 255 255
255 255 255
255 255 255
255 255 255
255 255 255
255 255 255
255 255 255
255 255 255
255 255 255
255 255 255
255 255 255
255 255 255
255 255 255
255 255 255
255 255 255
255 255 255
255 255 255
255 255 255
255 255 255
255 255 255
255 255 255
255 255 255
255 255 255
255 255 255
255 255 255
255 255 255
255 255 255
255 255 255
255 255 255
255 255 255
255 255 255
255 255 255
255 255 255
255 255 255
255 255 255
255 255 255
255 255 255
255 255 255
255 255 255
255 255 255
255 255 255
255 255 255
255 255 255
255 255 255
255 255 255
255 255 255
255 255 255
255 255 255
255 255 255
255 255 255
255 255 255
255 255 255
255 255 255
255 255 255
255 255 255
255 255 255
255 255 255
255 255 255
255 255 255
255 255 255
255 255 255
255 255 255
255 255 255
255 255 255
255 255 255
255 255 255
255 255 255
255 255 255
255 255 255
255 255 255
255 255 255
255 255 255
255 255 255
255 255 255
255 255 255
255 255 255
255 255 255
255 255 255
255 255 255
255 255 255
255 255 255
255 255 255
255 255 255
255 255 255
255 255 255
255 255 255
255 255 255
255 255 255
255 255 255
255 255 255
255 255 255
255 255 255
255 255 255
255 255 255
255 255 255
255 255 255
255 255 255
255 255 255
255 255 255
255 255 255
255 255 255
255 255 255
255 255 255
255 255 255
255 255 255
255 255 255
255 255 255
255 255 255
255 255 255
255 255 255
255 255 255
255 255 255
255 255 255
255 255 255
255 255 255
255 255 255
  0   0   0
  0   0   0
  0   0   0
  0   0   0
255 255 255
255 255 255
255 255 255
255 255 255
255 255 255
255 255 255
255 255 255
255 255 255
255 255 255
255 255 255
255 255 255
255 255 255
255 255 255
255 255 255
255 255 255
255 255 255
255 255 255
255 255 255
255 255 255
255 255 255
255 255 255
255 255 255
255 255 255
255 255 255
255 255 255
255 255 255
255 255 255
255 255 255
255 255 255
255 255 255
255 255 255
255 255 255
255 255 255
255 255 255
255 255 255
255 255 255
255 255 255
255 255 255
255 255 255
255 255 255
255 255 255
255 255 255
255 255 255
255 255 255
255 255 255
255 255 255
255 255 255
255 255 255
255 255 255
255 255 255
255 255 255
255 255 255
255 255 255
255 255 255
255 255 255
255 255 255
255 255 255
255 255 255
255 255 255
255 255 255
255 255 255
255 255 255
255 255 255
255 255 255
255 255 255
255 255 255
255 255 255
255 255 255
255 255 255
255 255 255
255 255 255
255 255 255
255 255 255
255 255 255
255 255 255
255 255 255
255 255 255
255 255 255
255 255 255
255 255 255
255 255 255
255 255 255
255 255 255
255 255 255
255 255 255
255 255 255
255 255 255
255 255 255
255 255 255
255 255 255
255 255 255
255 255 255
255 255 255
255 255 255
255 255 255
255 255 255
255 255 255
255 255 255
255 255 255
255 255 255
255 255 255
255 255 255
255 255 255
255 255 255
255 255 255
255 255 255
255 255 255
255 255 255
255 255 255
255 255 255
255 255 255
255 255 255
255 255 255
255 255 255
255 255 255
255 255 255
255 255 255
255 255 255
255 255 255
255 255 255
255 255 255
255 255 255
255 255 255
255 255 255
255 255 255
255 255 255
255 255 255
255 255 255
255 255 255
255 255 255
255 255 255
255 255 255
255 255 255
255 255 255
255 255 255
255 255 255
255 255 255
255 255 255
255 255 255
255 255 255
255 255 255
255 255 255
255 255 255
255 255 255
255 255 255
255 255 255
255 255 255
255 255 255
255 255 255
255 255 255
255 255 255
255 255 255
255 255 255
255 255 255
255 255 255
255 255 255
255 255 255
255 255 255
255 255 255
255 255 255
255 255 255
255 255 255
255 255 255
255 255 255
255 255 255
255 255 255
255 255 255
255 255 255
255 255 255
255 255 255
255 255 255
255 255 255
255 255 255
255 255 255
255 255 255
255 255 255
255 255 255
255 255 255
255 255 255
255 255 255
255 255 255
255 255 255
255 255 255
255 255 255
255 255 255
255 255 255
255 255 255
255 255 255
255 255 255
255 255 255
255 255 255
255 255 255
255 255 255
255 255 255
255 255 255
255 255 255
255 255 255
  0   0   0
  0   0   0
  0   0   0
  0   0   0
255 255 255
255 255 255
255 255 255
255 255 255
255 255 255
255 255 255
255 255 255
255 255 255
255 255 255
255 255 255
255 255 255
255 255 255
255 255 255
255 255 255
255 255 255
255 255 255
255 255 255
255 255 255
255 255 255
255 255 255
255 255 255
255 255 255
255 255 255
255 255 255
255 255 255
255 255 255
255 255 255
255 255 255
255 255 255
255 255 255
255 255 255
255 255 255
255 255 255
255 255 255
255 255 255
255 255 255
255 255 255
255 255 255
255 255 255
255 255 255
255 255 255
255 255 255
255 255 255
255 255 255
255 255 255
255 255 255
255 255 255
255 255 255
255 255 255
255 255 255
255 255 255
255 255 255
255 255 255
255 255 255
255 255 255
255 255 255
255 255 255
255 255 255
255 255 255
255 255 255
255 255 255
255 255 255
255 255 255
255 255 255
255 255 255
255 255 255
255 255 255
255 255 255
255 255 255
255 255 255
255 255 255
255 255 255
255 255 255
255 255 255
255 255 255
255 255 255
255 255 255
255 255 255
255 255 255
255 255 255
255 255 255
255 255 255
255 255 255
255 255 255
255 255 255
255 255 255
255 255 255
255 255 255
255 255 255
255 255 255
255 255 255
255 255 255
255 255 255
255 255 255
255 255 255
255 255 255
255 255 255
255 255 255
255 255 255
255 255 255
255 255 255
255 255 255
255 255 255
255 255 255
255 255 255
255 255 255
255 255 255
255 255 255
255 255 255
255 255 255
255 255 255
255 255 255
255 255 255
255 255 255
255 255 255
255 255 255
255 255 255
255 255 255
255 255 255
255 255 255
255 255 255
255 255 255
255 255 255
255 255 255
255 255 255
255 255 255
255 255 255
255 255 255
255 255 255
255 255 255
255 255 255
255 255 255
255 255 255
255 255 255
255 255 255
255 255 255
255 255 255
255 255 255
255 255 255
255 255 255
255 255 255
255 255 255
255 255 255
255 255 255
255 255 255
255 255 255
255 255 255
255 255 255
255 255 255
255 255 255
255 255 255
255 255 255
255 255 255
255 255 255
255 255 255
255 255 255
255 255 255
255 255 255
255 255 255
255 255 255
255 255 255
255 255 255
255 255 255
255 255 255
255 255 255
255 255 255
255 255 255
255 255 255
255 255 255
255 255 255
255 255 255
255 255 255
255 255 255
255 255 255
255 255 255
255 255 255
255 255 255
255 255 255
255 255 255
255 255 255
255 255 255
255 255 255
255 255 255
255 255 255
255 255 255
255 255 255
255 255 255
255 255 255
255 255 255
255 255 255
255 255 255
255 255 255
255 255 255
255 255 255
255 255 255
255 255 255
255 255 255
  0   0   0
  0   0   0
  0   0   0
  0   0   0
255 255 255
255 255 255
255 255 255
255 255 255
255 255 255
255 255 255
255 255 255
255 255 255
255 255 255
255 255 255
255 255 255
255 255 255
255 255 255
255 255 255
255 255 255
255 255 255
255 255 255
255 255 255
255 255 255
255 255 255
255 255 255
255 255 255
255 255 255
255 255 255
255 255 255
255 255 255
255 255 255
255 255 255
255 255 255
255 255 255
255 255 255
255 255 255
255 255 255
255 255 255
255 255 255
255 255 255
255 255 255
255 255 255
255 255 255
255 255 255
255 255 255
255 255 255
255 255 255
255 255 255
255 255 255
255 255 255
255 255 255
255 255 255
255 255 255
255 255 255
255 255 255
255 255 255
255 255 255
255 255 255
255 255 255
255 255 255
255 255 255
255 255 255
255 255 255
255 255 255
255 255 255
255 255 255
255 255 255
255 255 255
255 255 255
255 255 255
255 255 255
255 255 255
255 255 255
255 255 255
255 255 255
255 255 255
255 255 255
255 255 255
255 255 255
255 255 255
255 255 255
255 255 255
255 255 255
255 255 255
255 255 255
255 255 255
255 255 255
255 255 255
255 255 255
255 255 255
255 255 255
255 255 255
255 255 255
255 255 255
255 255 255
255 255 255
255 255 255
255 255 255
255 255 255
255 255 255
255 255 255
255 255 255
255 255 255
255 255 255
255 255 255
255 255 255
255 255 255
255 255 255
255 255 255
255 255 255
255 255 255
255 255 255
255 255 255
255 255 255
255 255 255
255 255 255
255 255 255
255 255 255
255 255 255
255 255 255
255 255 255
255 255 255
255 255 255
255 255 255
255 255 255
255 255 255
255 255 255
255 255 255
255 255 255
255 255 255
255 255 255
255 255 255
255 255 255
255 255 255
255 255 255
255 255 255
255 255 255
255 255 255
255 255 255
255 255 255
255 255 255
255 255 255
255 255 255
255 255 255
255 255 255
255 255 255
255 255 255
255 255 255
255 255 255
255 255 255
255 255 255
255 255 255
255 255 255
255 255 255
255 255 255
255 255 255
255 255 255
255 255 255
255 255 255
255 255 255
255 255 255
255 255 255
255 255 255
255 255 255
255 255 255
255 255 255
255 255 255
255 255 255
255 255 255
255 255 255
255 255 255
255 255 255
255 255 255
255 255 255
255 255 255
255 255 255
255 255 255
255 255 255
255 255 255
255 255 255
255 255 255
255 255 255
255 255 255
255 255 255
255 255 255
255 255 255
255 255 255
255 255 255
255 255 255
255 255 255
255 255 255
255 255 255
255 255 255
255 255 255
255 255 255
255 255 255
255 255 255
255 255 255
255 255 255
255 255 255
255 255 255
  0   0   0
  0   0   0
  0   0   0
  0   0   0
255 255 255
255 255 255
255 255 255
255 255 255
255 255 255
255 255 255
255 255 255
255 255 255
255 255 255
255 255 255
255 255 255
255 255 255
255 255 255
255 255 255
255 255 255
255 255 255
255 255 255
255 255 255
255 255 255
255 255 255
255 255 255
255 255 255
255 255 255
255 255 255
255 255 255
255 255 255
255 255 255
255 255 255
255 255 255
255 255 255
255 255 255
255 255 255
255 255 255
255 255 255
255 255 255
255 255 255
255 255 255
255 255 255
255 255 255
255 255 255
255 255 255
255 255 255
255 255 255
255 255 255
255 255 255
255 255 255
255 255 255
255 255 255
255 255 255
255 255 255
255 255 255
255 255 255
255 255 255
255 255 255
255 255 255
255 255 255
255 255 255
255 255 255
255 255 255
255 255 255
255 255 255
255 255 255
255 255 255
255 255 255
255 255 255
255 255 255
255 255 255
255 255 255
255 255 255
255 255 255
255 255 255
255 255 255
255 255 255
255 255 255
255 255 255
255 255 255
255 255 255
255 255 255
255 255 255
255 255 255
255 255 255
255 255 255
255 255 255
255 255 255
255 255 255
255 255 255
255 255 255
255 255 255
255 255 255
255 255 255
255 255 255
255 255 255
255 255 255
255 255 255
255 255 255
255 255 255
255 255 255
255 255 255
255 255 255
255 255 255
255 255 255
255 255 255
255 255 255
255 255 255
255 255 255
255 255 255
255 255 255
255 255 255
255 255 255
255 255 255
255 255 255
255 255 255
255 255 255
255 255 255
255 255 255
255 255 255
255 255 255
255 255 255
255 255 255
255 255 255
255 255 255
255 255 255
255 255 255
255 255 255
255 255 255
255 255 255
255 255 255
255 255 255
255 255 255
255 255 255
255 255 255
255 255 255
255 255 255
255 255 255
255 255 255
255 255 255
255 255 255
255 255 255
255 255 255
255 255 255
255 255 255
255 255 255
255 255 255
255 255 255
255 255 255
255 255 255
255 255 255
255 255 255
255 255 255
255 255 255
255 255 255
255 255 255
255 255 255
255 255 255
255 255 255
255 255 255
255 255 255
255 255 255
255 255 255
255 255 255
255 255 255
255 255 255
255 255 255
255 255 255
255 255 255
255 255 255
255 255 255
255 255 255
255 255 255
255 255 255
255 255 255
255 255 255
255 255 255
255 255 255
255 255 255
255 255 255
255 255 255
255 255 255
255 255 255
255 255 255
255 255 255
255 255 255
255 255 255
255 255 255
255 255 255
255 255 255
255 255 255
255 255 255
255 255 255
255 255 255
255 255 255
255 255 255
255 255 255
255 255 255
255 255 255
255 255 255
255 255 255
  0   0   0
  0   0   0
  0   0   0
  0   0   0
255 255 255
255 255 255
255 255 255
255 255 255
255 255 255
255 255 255
255 255 255
255 255 255
255 255 255
255 255 255
255 255 255
255 255 255
255 255 255
255 255 255
255 255 255
255 255 255
255 255 255
255 255 255
255 255 255
255 255 255
255 255 255
255 255 255
255 255 255
255 255 255
255 255 255
255 255 255
255 255 255
255 255 255
255 255 255
255 255 255
255 255 255
255 255 255
255 255 255
255 255 255
255 255 255
255 255 255
255 255 255
255 255 255
255 255 255
255 255 255
255 255 255
255 255 255
255 255 255
255 255 255
255 255 255
255 255 255
255 255 255
255 255 255
255 255 255
255 255 255
255 255 255
255 255 255
255 255 255
255 255 255
255 255 255
255 255 255
255 255 255
255 255 255
255 255 255
255 255 255
255 255 255
255 255 255
255 255 255
255 255 255
255 255 255
255 255 255
255 255 255
255 255 255
255 255 255
255 255 255
255 255 255
255 255 255
255 255 255
255 255 255
255 255 255
255 255 255
255 255 255
255 255 255
255 255 255
255 255 255
255 255 255
255 255 255
255 255 255
255 255 255
255 255 255
255 255 255
255 255 255
255 255 255
255 255 255
255 255 255
255 255 255
255 255 255
255 255 255
255 255 255
255 255 255
255 255 255
255 255 255
255 255 255
255 255 255
255 255 255
255 255 255
255 255 255
255 255 255
255 255 255
255 255 255
255 255 255
255 255 255
255 255 255
255 255 255
255 255 255
255 255 255
255 255 255
255 255 255
255 255 255
255 255 255
255 255 255
255 255 255
255 255 255
255 255 255
255 255 255
255 255 255
255 255 255
255 255 255
255 255 255
255 255 255
255 255 255
255 255 255
255 255 255
255 255 255
255 255 255
255 255 255
255 255 255
255 255 255
255 255 255
255 255 255
255 255 255
255 255 255
255 255 255
255 255 255
255 255 255
255 255 255
255 255 255
255 255 255
255 255 255
255 255 255
255 255 255
255 255 255
255 255 255
255 255 255
255 255 255
255 255 255
255 255 255
255 255 255
255 255 255
255 255 255
255 255 255
255 255 255
255 255 255
255 255 255
255 255 255
255 255 255
255 255 255
255 255 255
255 255 255
255 255 255
255 255 255
255 255 255
255 255 255
255 255 255
255 255 255
255 255 255
255 255 255
255 255 255
255 255 255
255 255 255
255 255 255
255 255 255
255 255 255
255 255 255
255 255 255
255 255 255
255 255 255
255 255 255
255 255 255
255 255 255
255 255 255
255 255 255
255 255 255
255 255 255
255 255 255
255 255 255
255 255 255
255 255 255
255 255 255
255 255 255
255 255 255
255 255 255
  0   0   0
  0   0   0
  0   0   0
  0   0   0
255 255 255
255 255 255
255 255 255
255 255 255
255 255 255
255 255 255
255 255 255
255 255 255
255 255 255
255 255 255
255 255 255
255 255 255
255 255 255
255 255 255
255 255 255
255 255 255
255 255 255
255 255 255
255 255 255
255 255 255
255 255 255
255 255 255
255 255 255
255 255 255
255 255 255
255 255 255
255 255 255
255 255 255
255 255 255
255 255 255
255 255 255
255 255 255
255 255 255
255 255 255
255 255 255
255 255 255
255 255 255
255 255 255
255 255 255
255 255 255
255 255 255
255 255 255
255 255 255
255 255 255
255 255 255
255 255 255
255 255 255
255 255 255
255 255 255
255 255 255
255 255 255
255 255 255
255 255 255
255 255 255
255 255 255
255 255 255
255 255 255
255 255 255
255 255 255
255 255 255
255 255 255
255 255 255
255 255 255
255 255 255
255 255 255
255 255 255
255 255 255
255 255 255
255 255 255
255 255 255
255 255 255
255 255 255
255 255 255
255 255 255
255 255 255
255 255 255
255 255 255
255 255 255
255 255 255
255 255 255
255 255 255
255 255 255
255 255 255
255 255 255
255 255 255
255 255 255
255 255 255
255 255 255
255 255 255
255 255 255
255 255 255
255 255 255
255 255 255
255 255 255
255 255 255
255 255 255
255 255 255
255 255 255
255 255 255
255 255 255
255 255 255
255 255 255
255 255 255
255 255 255
255 255 255
255 255 255
255 255 255
255 255 255
255 255 255
255 255 255
255 255 255
255 255 255
255 255 255
255 255 255
255 255 255
255 255 255
255 255 255
255 255 255
255 255 255
255 255 255
255 255 255
255 255 255
255 255 255
255 255 255
255 255 255
255 255 255
255 255 255
255 255 255
255 255 255
255 255 255
255 255 255
255 255 255
255 255 255
255 255 255
255 255 255
255 255 255
255 255 255
255 255 255
255 255 255
255 255 255
255 255 255
255 255 255
255 255 255
255 255 255
255 255 255
255 255 255
255 255 255
255 255 255
255 255 255
255 255 255
255 255 255
255 255 255
255 255 255
255 255 255
255 255 255
255 255 255
255 255 255
255 255 255
255 255 255
255 255 255
255 255 255
255 255 255
255 255 255
255 255 255
255 255 255
255 255 255
255 255 255
255 255 255
255 255 255
255 255 255
255 255 255
255 255 255
255 255 255
255 255 255
255 255 255
255 255 255
255 255 255
255 255 255
255 255 255
255 255 255
255 255 255
255 255 255
255 255 255
255 255 255
255 255 255
255 255 255
255 255 255
255 255 255
255 255 255
255 255 255
255 255 255
255 255 255
255 255 255
255 255 255
255 255 255
255 255 255
255 255 255
  0   0   0
  0   0   0
  0   0   0
  0   0   0
255 255 255
255 255 255
255 255 255
255 255 255
255 255 255
255 255 255
255 255 255
255 255 255
255 255 255
255 255 255
255 255 255
255 255 255
255 255 255
255 255 255
255 255 255
255 255 255
255 255 255
255 255 255
255 255 255
255 255 255
255 255 255
255 255 255
255 255 255
255 255 255
255 255 255
255 255 255
255 255 255
255 255 255
255 255 255
255 255 255
255 255 255
255 255 255
255 255 255
255 255 255
255 255 255
255 255 255
255 255 255
255 255 255
255 255 255
255 255 255
255 255 255
255 255 255
255 255 255
255 255 255
255 255 255
255 255 255
255 255 255
255 255 255
255 255 255
255 255 255
255 255 255
255 255 255
255 255 255
255 255 255
255 255 255
255 255 255
255 255 255
255 255 255
255 255 255
255 255 255
255 255 255
255 255 255
255 255 255
255 255 255
255 255 255
255 255 255
255 255 255
255 255 255
255 255 255
255 255 255
255 255 255
255 255 255
255 255 255
255 255 255
255 255 255
255 255 255
255 255 255
255 255 255
255 255 255
255 255 255
255 255 255
255 255 255
255 255 255
255 255 255
255 255 255
255 255 255
255 255 255
255 255 255
255 255 255
255 255 255
255 255 255
255 255 255
255 255 255
255 255 255
255 255 255
255 255 255
255 255 255
255 255 255
255 255 255
255 255 255
255 255 255
255 255 255
255 255 255
255 255 255
255 255 255
255 255 255
255 255 255
255 255 255
255 255 255
255 255 255
255 255 255
255 255 255
255 255 255
255 255 255
255 255 255
255 255 255
255 255 255
255 255 255
255 255 255
255 255 255
255 255 255
255 255 255
255 255 255
255 255 255
255 255 255
255 255 255
255 255 255
255 255 255
255 255 255
255 255 255
255 255 255
255 255 255
255 255 255
255 255 255
255 255 255
255 255 255
255 255 255
255 255 255
255 255 255
255 255 255
255 255 255
255 255 255
255 255 255
255 255 255
255 255 255
255 255 255
255 255 255
255 255 255
255 255 255
255 255 255
255 255 255
255 255 255
255 255 255
255 255 255
255 255 255
255 255 255
255 255 255
255 255 255
255 255 255
255 255 255
255 255 255
255 255 255
255 255 255
255 255 255
255 255 255
255 255 255
255 255 255
255 255 255
255 255 255
255 255 255
255 255 255
255 255 255
255 255 255
255 255 255
255 255 255
255 255 255
255 255 255
255 255 255
255 255 255
255 255 255
255 255 255
255 255 255
255 255 255
255 255 255
255 255 255
255 255 255
255 255 255
255 255 255
255 255 255
255 255 255
255 255 255
255 255 255
255 255 255
255 255 255
255 255 255
255 255 255
255 255 255
  0   0   0
  0   0   0
  0   0   0
  0   0   0
255 255 255
255 255 255
255 255 255
255 255 255
255 255 255
255 255 255
255 255 255
255 255 255
255 255 255
255 255 255
255 255 255
255 255 255
255 255 255
255 255 255
255 255 255
255 255 255
255 255 255
255 255 255
255 255 255
255 255 255
255 255 255
255 255 255
255 255 255
255 255 255
255 255 255
255 255 255
255 255 255
255 255 255
255 255 255
255 255 255
255 255 255
255 255 255
255 255 255
255 255 255
255 255 255
255 255 255
255 255 255
255 255 255
255 255 255
255 255 255
255 255 255
255 255 255
255 255 255
255 255 255
255 255 255
255 255 255
255 255 255
255 255 255
255 255 255
255 255 255
255 255 255
255 255 255
255 255 255
255 255 255
255 255 255
255 255 255
255 255 255
255 255 255
255 255 255
255 255 255
255 255 255
255 255 255
255 255 255
255 255 255
255 255 255
255 255 255
255 255 255
255 255 255
255 255 255
255 255 255
255 255 255
255 255 255
255 255 255
255 255 255
255 255 255
255 255 255
255 255 255
255 255 255
255 255 255
255 255 255
255 255 255
255 255 255
255 255 255
255 255 255
255 255 255
255 255 255
255 255 255
255 255 255
255 255 255
255 255 255
255 255 255
255 255 255
255 255 255
255 255 255
255 255 255
255 255 255
255 255 255
255 255 255
255 255 255
255 255 255
255 255 255
255 255 255
255 255 255
255 255 255
255 255 255
255 255 255
255 255 255
255 255 255
255 255 255
255 255 255
255 255 255
255 255 255
255 255 255
255 255 255
255 255 255
255 255 255
255 255 255
255 255 255
255 255 255
255 255 255
255 255 255
255 255 255
255 255 255
255 255 255
255 255 255
255 255 255
255 255 255
255 255 255
255 255 255
255 255 255
255 255 255
255 255 255
255 255 255
255 255 255
255 255 255
255 255 255
255 255 255
255 255 255
255 255 255
255 255 255
255 255 255
255 255 255
255 255 255
255 255 255
255 255 255
255 255 255
255 255 255
255 255 255
255 255 255
255 255 255
255 255 255
255 255 255
255 255 255
255 255 255
255 255 255
255 255 255
255 255 255
255 255 255
255 255 255
255 255 255
255 255 255
255 255 255
255 255 255
255 255 255
255 255 255
255 255 255
255 255 255
255 255 255
255 255 255
255 255 255
255 255 255
255 255 255
255 255 255
255 255 255
255 255 255
255 255 255
255 255 255
255 255 255
255 255 255
255 255 255
255 255 255
255 255 255
255 255 255
255 255 255
255 255 255
255 255 255
255 255 255
255 255 255
255 255 255
255 255 255
255 255 255
255 255 255
255 255 255
255 255 255
255 255 255
255 255 255
255 255 255
  0   0   0
  0   0   0
  0   0   0
  0   0   0
255 255 255
255 255 255
255 255 255
255 255 255
255 255 255
255 255 255
255 255 255
255 255 255
255 255 255
255 255 255
255 255 255
255 255 255
255 255 255
255 255 255
255 255 255
255 255 255
255 255 255
255 255 255
255 255 255
255 255 255
255 255 255
255 255 255
255 255 255
255 255 255
255 255 255
255 255 255
255 255 255
255 255 255
255 255 255
255 255 255
255 255 255
255 255 255
255 255 255
255 255 255
255 255 255
255 255 255
255 255 255
255 255 255
255 255 255
255 255 255
255 255 255
255 255 255
255 255 255
255 255 255
255 255 255
255 255 255
255 255 255
255 255 255
255 255 255
255 255 255
255 255 255
255 255 255
255 255 255
255 255 255
255 255 255
255 255 255
255 255 255
255 255 255
255 255 255
255 255 255
255 255 255
255 255 255
255 255 255
255 255 255
255 255 255
255 255 255
255 255 255
255 255 255
255 255 255
255 255 255
255 255 255
255 255 255
255 255 255
255 255 255
255 255 255
255 255 255
255 255 255
255 255 255
255 255 255
255 255 255
255 255 255
255 255 255
255 255 255
255 255 255
255 255 255
255 255 255
255 255 255
255 255 255
255 255 255
255 255 255
255 255 255
255 255 255
255 255 255
255 255 255
255 255 255
255 255 255
255 255 255
255 255 255
255 255 255
255 255 255
255 255 255
255 255 255
255 255 255
255 255 255
255 255 255
255 255 255
255 255 255
255 255 255
255 255 255
255 255 255
255 255 255
255 255 255
255 255 255
255 255 255
255 255 255
255 255 255
255 255 255
255 255 255
255 255 255
255 255 255
255 255 255
255 255 255
255 255 255
255 255 255
255 255 255
255 255 255
255 255 255
255 255 255
255 255 255
255 255 255
255 255 255
255 255 255
255 255 255
255 255 255
255 255 255
255 255 255
255 255 255
255 255 255
255 255 255
255 255 255
255 255 255
255 255 255
255 255 255
255 255 255
255 255 255
255 255 255
255 255 255
255 255 255
255 255 255
255 255 255
255 255 255
255 255 255
255 255 255
255 255 255
255 255 255
255 255 255
255 255 255
255 255 255
255 255 255
255 255 255
255 255 255
255 255 255
255 255 255
255 255 255
255 255 255
255 255 255
255 255 255
255 255 255
255 255 255
255 255 255
255 255 255
255 255 255
255 255 255
255 255 255
255 255 255
255 255 255
255 255 255
255 255 255
255 255 255
255 255 255
255 255 255
255 255 255
255 255 255
255 255 255
255 255 255
255 255 255
255 255 255
255 255 255
255 255 255
255 255 255
255 255 255
255 255 255
255 255 255
255 255 255
255 255 255
255 255 255
255 255 255
  0   0   0
  0   0   0
  0   0   0
  0   0   0
255 255 255
255 255 255
255 255 255
255 255 255
255 255 255
255 255 255
255 255 255
255 255 255
255 255 255
255 255 255
255 255 255
255 255 255
255 255 255
255 255 255
255 255 255
255 255 255
255 255 255
255 255 255
255 255 255
255 255 255
255 255 255
255 255 255
255 255 255
255 255 255
255 255 255
255 255 255
255 255 255
255 255 255
255 255 255
255 255 255
255 255 255
255 255 255
255 255 255
255 255 255
255 255 255
255 255 255
255 255 255
255 255 255
255 255 255
255 255 255
255 255 255
255 255 255
255 255 255
255 255 255
255 255 255
255 255 255
255 255 255
255 255 255
255 255 255
255 255 255
255 255 255
255 255 255
255 255 255
255 255 255
255 255 255
255 255 255
255 255 255
255 255 255
255 255 255
255 255 255
255 255 255
255 255 255
255 255 255
255 255 255
255 255 255
255 255 255
255 255 255
255 255 255
255 255 255
255 255 255
255 255 255
255 255 255
255 255 255
255 255 255
255 255 255
255 255 255
255 255 255
255 255 255
255 255 255
255 255 255
255 255 255
255 255 255
255 255 255
255 255 255
255 255 255
255 255 255
255 255 255
255 255 255
255 255 255
255 255 255
255 255 255
255 255 255
255 255 255
255 255 255
255 255 255
255 255 255
255 255 255
255 255 255
255 255 255
255 255 255
255 255 255
255 255 255
255 255 255
255 255 255
255 255 255
255 255 255
255 255 255
255 255 255
255 255 255
255 255 255
255 255 255
255 255 255
255 255 255
255 255 255
255 255 255
255 255 255
255 255 255
255 255 255
255 255 255
255 255 255
255 255 255
255 255 255
255 255 255
255 255 255
255 255 255
255 255 255
255 255 255
255 255 255
255 255 255
255 255 255
255 255 255
255 255 255
255 255 255
255 255 255
255 255 255
255 255 255
255 255 255
255 255 255
255 255 255
255 255 255
255 255 255
255 255 255
255 255 255
255 255 255
255 255 255
255 255 255
255 255 255
255 255 255
255 255 255
255 255 255
255 255 255
255 255 255
255 255 255
255 255 255
255 255 255
255 255 255
255 255 255
255 255 255
255 255 255
255 255 255
255 255 255
255 255 255
255 255 255
255 255 255
255 255 255
255 255 255
255 255 255
255 255 255
255 255 255
255 255 255
255 255 255
255 255 255
255 255 255
255 255 255
255 255 255
255 255 255
255 255 255
255 255 255
255 255 255
255 255 255
255 255 255
255 255 255
255 255 255
255 255 255
255 255 255
255 255 255
255 255 255
255 255 255
255 255 255
255 255 255
255 255 255
255 255 255
255 255 255
255 255 255
255 255 255
255 255 255
255 255 255
  0   0   0
  0   0   0
  0   0   0
  0   0   0
255 255 255
255 255 255
255 255 255
255 255 255
255 255 255
255 255 255
255 255 255
255 255 255
255 255 255
255 255 255
255 255 255
255 255 255
255 255 255
255 255 255
255 255 255
255 255 255
255 255 255
255 255 255
255 255 255
255 255 255
255 255 255
255 255 255
255 255 255
255 255 255
255 255 255
255 255 255
255 255 255
255 255 255
255 255 255
255 255 255
255 255 255
255 255 255
255 255 255
255 255 255
255 255 255
255 255 255
255 255 255
255 255 255
255 255 255
255 255 255
255 255 255
255 255 255
255 255 255
255 255 255
255 255 255
255 255 255
255 255 255
255 255 255
255 255 255
255 255 255
255 255 255
255 255 255
255 255 255
255 255 255
255 255 255
255 255 255
255 255 255
255 255 255
255 255 255
255 255 255
255 255 255
255 255 255
255 255 255
255 255 255
255 255 255
255 255 255
255 255 255
255 255 255
255 255 255
255 255 255
255 255 255
255 255 255
255 255 255
255 255 255
255 255 255
255 255 255
255 255 255
255 255 255
255 255 255
255 255 255
255 255 255
255 255 255
255 255 255
255 255 255
255 255 255
255 255 255
255 255 255
255 255 255
255 255 255
255 255 255
255 255 255
255 255 255
255 255 255
255 255 255
255 255 255
255 255 255
255 255 255
255 255 255
255 255 255
255 255 255
255 255 255
255 255 255
255 255 255
255 255 255
255 255 255
255 255 255
255 255 255
255 255 255
255 255 255
255 255 255
255 255 255
255 255 255
255 255 255
255 255 255
255 255 255
255 255 255
255 255 255
255 255 255
255 255 255
255 255 255
255 255 255
255 255 255
255 255 255
255 255 255
255 255 255
255 255 255
255 255 255
255 255 255
255 255 255
255 255 255
255 255 255
255 255 255
255 255 255
255 255 255
255 255 255
255 255 255
255 255 255
255 255 255
255 255 255
255 255 255
255 255 255
255 255 255
255 255 255
255 255 255
255 255 255
255 255 255
255 255 255
255 255 255
255 255 255
255 255 255
255 255 255
255 255 255
255 255 255
255 255 255
255 255 255
255 255 255
255 255 255
255 255 255
255 255 255
255 255 255
255 255 255
255 255 255
255 255 255
255 255 255
255 255 255
255 255 255
255 255 255
255 255 255
255 255 255
255 255 255
255 255 255
255 255 255
255 255 255
255 255 255
255 255 255
255 255 255
255 255 255
255 255 255
255 255 255
255 255 255
255 255 255
255 255 255
255 255 255
255 255 255
255 255 255
255 255 255
255 255 255
255 255 255
255 255 255
255 255 255
255 255 255
255 255 255
255 255 255
255 255 255
255 255 255
255 255 255
255 255 255
  0   0   0
  0   0   0
  0   0   0
  0   0   0
255 255 255
255 255 255
255 255 255
255 255 255
255 255 255
255 255 255
255 255 255
255 255 255
255 255 255
255 255 255
255 255 255
255 255 255
255 255 255
255 255 255
255 255 255
255 255 255
255 255 255
255 255 255
255 255 255
255 255 255
255 255 255
255 255 255
255 255 255
255 255 255
255 255 255
255 255 255
255 255 255
255 255 255
255 255 255
255 255 255
255 255 255
255 255 255
255 255 255
255 255 255
255 255 255
255 255 255
255 255 255
255 255 255
255 255 255
255 255 255
255 255 255
255 255 255
255 255 255
255 255 255
255 255 255
255 255 255
255 255 255
255 255 255
255 255 255
255 255 255
255 255 255
255 255 255
255 255 255
255 255 255
255 255 255
255 255 255
255 255 255
255 255 255
255 255 255
255 255 255
255 255 255
255 255 255
255 255 255
255 255 255
255 255 255
255 255 255
255 255 255
255 255 255
255 255 255
255 255 255
255 255 255
255 255 255
255 255 255
255 255 255
255 255 255
255 255 255
255 255 255
255 255 255
255 255 255
255 255 255
255 255 255
255 255 255
255 255 255
255 255 255
255 255 255
255 255 255
255 255 255
255 255 255
255 255 255
255 255 255
255 255 255
255 255 255
255 255 255
255 255 255
255 255 255
255 255 255
255 255 255
255 255 255
255 255 255
255 255 255
255 255 255
255 255 255
255 255 255
255 255 255
255 255 255
255 255 255
255 255 255
255 255 255
255 255 255
255 255 255
255 255 255
255 255 255
255 255 255
255 255 255
255 255 255
255 255 255
255 255 255
255 255 255
255 255 255
255 255 255
255 255 255
255 255 255
255 255 255
255 255 255
255 255 255
255 255 255
255 255 255
255 255 255
255 255 255
255 255 255
255 255 255
255 255 255
255 255 255
255 255 255
255 255 255
255 255 255
255 255 255
255 255 255
255 255 255
255 255 255
255 255 255
255 255 255
255 255 255
255 255 255
255 255 255
255 255 255
255 255 255
255 255 255
255 255 255
255 255 255
255 255 255
255 255 255
255 255 255
255 255 255
255 255 255
255 255 255
255 255 255
255 255 255
255 255 255
255 255 255
255 255 255
255 255 255
255 255 255
255 255 255
255 255 255
255 255 255
255 255 255
255 255 255
255 255 255
255 255 255
255 255 255
255 255 255
255 255 255
255 255 255
255 255 255
255 255 255
255 255 255
255 255 255
255 255 255
255 255 255
255 255 255
255 255 255
255 255 255
255 255 255
255 255 255
255 255 255
255 255 255
255 255 255
255 255 255
255 255 255
255 255 255
255 255 255
255 255 255
255 255 255
255 255 255
255 255 255
255 255 255
  0   0   0
  0   0   0
  0   0   0
  0   0   0
255 255 255
255 255 255
255 255 255
255 255 255
255 255 255
255 255 255
255 255 255
255 255 255
255 255 255
255 255 255
255 255 255
255 255 255
255 255 255
255 255 255
255 255 255
255 255 255
255 255 255
255 255 255
255 255 255
255 255 255
255 255 255
255 255 255
255 255 255
255 255 255
255 255 255
255 255 255
255 255 255
255 255 255
255 255 255
255 255 255
255 255 255
255 255 255
255 255 255
255 255 255
255 255 255
255 255 255
255 255 255
255 255 255
255 255 255
255 255 255
255 255 255
255 255 255
255 255 255
255 255 255
255 255 255
255 255 255
255 255 255
255 255 255
255 255 255
255 255 255
255 255 255
255 255 255
255 255 255
255 255 255
255 255 255
255 255 255
255 255 255
255 255 255
255 255 255
255 255 255
255 255 255
255 255 255
255 255 255
255 255 255
255 255 255
255 255 255
255 255 255
255 255 255
255 255 255
255 255 255
255 255 255
255 255 255
255 255 255
255 255 255
255 255 255
255 255 255
255 255 255
255 255 255
255 255 255
255 255 255
255 255 255
255 255 255
255 255 255
255 255 255
255 255 255
255 255 255
255 255 255
255 255 255
255 255 255
255 255 255
255 255 255
255 255 255
255 255 255
255 255 255
255 255 255
255 255 255
255 255 255
255 255 255
255 255 255
255 255 255
255 255 255
255 255 255
255 255 255
255 255 255
255 255 255
255 255 255
255 255 255
255 255 255
255 255 255
255 255 255
255 255 255
255 255 255
255 255 255
255 255 255
255 255 255
255 255 255
255 255 255
255 255 255
255 255 255
255 255 255
255 255 255
255 255 255
255 255 255
255 255 255
255 255 255
255 255 255
255 255 255
255 255 255
255 255 255
255 255 255
255 255 255
255 255 255
255 255 255
255 255 255
255 255 255
255 255 255
255 255 255
255 255 255
255 255 255
255 255 255
255 255 255
255 255 255
255 255 255
255 255 255
255 255 255
255 255 255
255 255 255
255 255 255
255 255 255
255 255 255
255 255 255
255 255 255
255 255 255
255 255 255
255 255 255
255 255 255
255 255 255
255 255 255
255 255 255
255 255 255
255 255 255
255 255 255
255 255 255
255 255 255
255 255 255
255 255 255
255 255 255
255 255 255
255 255 255
255 255 255
255 255 255
255 255 255
255 255 255
255 255 255
255 255 255
255 255 255
255 255 255
255 255 255
255 255 255
255 255 255
255 255 255
255 255 255
255 255 255
255 255 255
255 255 255
255 255 255
255 255 255
255 255 255
255 255 255
255 255 255
255 255 255
255 255 255
255 255 255
255 255 255
255 255 255
255 255 255
255 255 255
  0   0   0
  0   0   0
  0   0   0
  0   0   0
255 255 255
255 255 255
255 255 255
255 255 255
255 255 255
255 255 255
255 255 255
255 255 255
255 255 255
255 255 255
255 255 255
255 255 255
255 255 255
255 255 255
255 255 255
255 255 255
255 255 255
255 255 255
255 255 255
255 255 255
255 255 255
255 255 255
255 255 255
255 255 255
255 255 255
255 255 255
255 255 255
255 255 255
255 255 255
255 255 255
255 255 255
255 255 255
255 255 255
255 255 255
255 255 255
255 255 255
255 255 255
255 255 255
255 255 255
255 255 255
255 255 255
255 255 255
255 255 255
255 255 255
255 255 255
255 255 255
255 255 255
255 255 255
255 255 255
255 255 255
255 255 255
255 255 255
255 255 255
255 255 255
255 255 255
255 255 255
255 255 255
255 255 255
255 255 255
255 255 255
255 255 255
255 255 255
255 255 255
255 255 255
255 255 255
255 255 255
255 255 255
255 255 255
255 255 255
255 255 255
255 255 255
255 255 255
255 255 255
255 255 255
255 255 255
255 255 255
255 255 255
255 255 255
255 255 255
255 255 255
255 255 255
255 255 255
255 255 255
255 255 255
255 255 255
255 255 255
255 255 255
255 255 255
255 255 255
255 255 255
255 255 255
255 255 255
255 255 255
255 255 255
255 255 255
255 255 255
255 255 255
255 255 255
255 255 255
255 255 255
255 255 255
255 255 255
255 255 255
255 255 255
255 255 255
255 255 255
255 255 255
255 255 255
255 255 255
255 255 255
255 255 255
255 255 255
255 255 255
255 255 255
255 255 255
255 255 255
255 255 255
255 255 255
255 255 255
255 255 255
255 255 255
255 255 255
255 255 255
255 255 255
255 255 255
255 255 255
255 255 255
255 255 255
255 255 255
255 255 255
255 255 255
255 255 255
255 255 255
255 255 255
255 255 255
255 255 255
255 255 255
255 255 255
255 255 255
255 255 255
255 255 255
255 255 255
255 255 255
255 255 255
255 255 255
255 255 255
255 255 255
255 255 255
255 255 255
255 255 255
255 255 255
255 255 255
255 255 255
255 255 255
255 255 255
255 255 255
255 255 255
255 255 255
255 255 255
255 255 255
255 255 255
255 255 255
255 255 255
255 255 255
255 255 255
255 255 255
255 255 255
255 255 255
255 255 255
255 255 255
255 255 255
255 255 255
255 255 255
255 255 255
255 255 255
255 255 255
255 255 255
255 255 255
255 255 255
255 255 255
255 255 255
255 255 255
255 255 255
255 255 255
255 255 255
255 255 255
255 255 255
255 255 255
255 255 255
255 255 255
255 255 255
255 255 255
255 255 255
255 255 255
255 255 255
255 255 255
255 255 255
  0   0   0
  0   0   0
  0   0   0
  0   0   0
255 255 255
255 255 255
255 255 255
255 255 255
255 255 255
255 255 255
255 255 255
255 255 255
255 255 255
255 255 255
255 255 255
255 255 255
255 255 255
255 255 255
255 255 255
255 255 255
255 255 255
255 255 255
255 255 255
255 255 255
255 255 255
255 255 255
255 255 255
255 255 255
255 255 255
255 255 255
255 255 255
255 255 255
255 255 255
255 255 255
255 255 255
255 255 255
255 255 255
255 255 255
255 255 255
255 255 255
255 255 255
255 255 255
255 255 255
255 255 255
255 255 255
255 255 255
255 255 255
255 255 255
255 255 255
255 255 255
255 255 255
255 255 255
255 255 255
255 255 255
255 255 255
255 255 255
255 255 255
255 255 255
255 255 255
255 255 255
255 255 255
255 255 255
255 255 255
255 255 255
255 255 255
255 255 255
255 255 255
255 255 255
255 255 255
255 255 255
255 255 255
255 255 255
255 255 255
255 255 255
255 255 255
255 255 255
255 255 255
255 255 255
255 255 255
255 255 255
255 255 255
255 255 255
255 255 255
255 255 255
255 255 255
255 255 255
255 255 255
255 255 255
255 255 255
255 255 255
255 255 255
255 255 255
255 255 255
255 255 255
255 255 255
255 255 255
255 255 255
255 255 255
255 255 255
255 255 255
255 255 255
255 255 255
255 255 255
255 255 255
255 255 255
255 255 255
255 255 255
255 255 255
255 255 255
255 255 255
255 255 255
255 255 255
255 255 255
255 255 255
255 255 255
255 255 255
255 255 255
255 255 255
255 255 255
255 255 255
255 255 255
255 255 255
255 255 255
255 255 255
255 255 255
255 255 255
255 255 255
255 255 255
255 255 255
255 255 255
255 255 255
255 255 255
255 255 255
255 255 255
255 255 255
255 255 255
255 255 255
255 255 255
255 255 255
255 255 255
255 255 255
255 255 255
255 255 255
255 255 255
255 255 255
255 255 255
255 255 255
255 255 255
255 255 255
255 255 255
255 255 255
255 255 255
255 255 255
255 255 255
255 255 255
255 255 255
255 255 255
255 255 255
255 255 255
255 255 255
255 255 255
255 255 255
255 255 255
255 255 255
255 255 255
255 255 255
255 255 255
255 255 255
255 255 255
255 255 255
255 255 255
255 255 255
255 255 255
255 255 255
255 255 255
255 255 255
255 255 255
255 255 255
255 255 255
255 255 255
255 255 255
255 255 255
255 255 255
255 255 255
255 255 255
255 255 255
255 255 255
255 255 255
255 255 255
255 255 255
255 255 255
255 255 255
255 255 255
255 255 255
255 255 255
255 255 255
255 255 255
255 255 255
255 255 255
255 255 255
255 255 255
  0   0   0
  0   0   0
  0   0   0
  0   0   0
255 255 255
255 255 255
255 255 255
255 255 255
255 255 255
255 255 255
255 255 255
255 255 255
255 255 255
255 255 255
255 255 255
255 255 255
255 255 255
255 255 255
255 255 255
255 255 255
255 255 255
255 255 255
255 255 255
255 255 255
255 255 255
255 255 255
255 255 255
255 255 255
255 255 255
255 255 255
255 255 255
255 255 255
255 255 255
255 255 255
255 255 255
255 255 255
255 255 255
255 255 255
255 255 255
255 255 255
255 255 255
255 255 255
255 255 255
255 255 255
255 255 255
255 255 255
255 255 255
255 255 255
255 255 255
255 255 255
255 255 255
255 255 255
255 255 255
255 255 255
255 255 255
255 255 255
255 255 255
255 255 255
255 255 255
255 255 255
255 255 255
255 255 255
255 255 255
255 255 255
255 255 255
255 255 255
255 255 255
255 255 255
255 255 255
255 255 255
255 255 255
255 255 255
255 255 255
255 255 255
255 255 255
255 255 255
255 255 255
255 255 255
255 255 255
255 255 255
255 255 255
255 255 255
255 255 255
255 255 255
255 255 255
255 255 255
255 255 255
255 255 255
255 255 255
255 255 255
255 255 255
255 255 255
255 255 255
255 255 255
255 255 255
255 255 255
255 255 255
255 255 255
255 255 255
255 255 255
255 255 255
255 255 255
255 255 255
255 255 255
255 255 255
255 255 255
255 255 255
255 255 255
255 255 255
255 255 255
255 255 255
255 255 255
255 255 255
255 255 255
255 255 255
255 255 255
255 255 255
255 255 255
255 255 255
255 255 255
255 255 255
255 255 255
255 255 255
255 255 255
255 255 255
255 255 255
255 255 255
255 255 255
255 255 255
255 255 255
255 255 255
255 255 255
255 255 255
255 255 255
255 255 255
255 255 255
255 255 255
255 255 255
255 255 255
255 255 255
255 255 255
255 255 255
255 255 255
255 255 255
255 255 255
255 255 255
255 255 255
255 255 255
255 255 255
255 255 255
255 255 255
255 255 255
255 255 255
255 255 255
255 255 255
255 255 255
255 255 255
255 255 255
255 255 255
255 255 255
255 255 255
255 255 255
255 255 255
255 255 255
255 255 255
255 255 255
255 255 255
255 255 255
255 255 255
255 255 255
255 255 255
255 255 255
255 255 255
255 255 255
255 255 255
255 255 255
255 255 255
255 255 255
255 255 255
255 255 255
255 255 255
255 255 255
255 255 255
255 255 255
255 255 255
255 255 255
255 255 255
255 255 255
255 255 255
255 255 255
255 255 255
255 255 255
255 255 255
255 255 255
255 255 255
255 255 255
255 255 255
255 255 255
255 255 255
255 255 255
255 255 255
  0   0   0
  0   0   0
  0   0   0
  0   0   0
255 255 255
255 255 255
255 255 255
255 255 255
255 255 255
255 255 255
255 255 255
255 255 255
255 255 255
255 255 255
255 255 255
255 255 255
255 255 255
255 255 255
255 255 255
255 255 255
255 255 255
255 255 255
255 255 255
255 255 255
255 255 255
255 255 255
255 255 255
255 255 255
255 255 255
255 255 255
255 255 255
255 255 255
255 255 255
255 255 255
255 255 255
255 255 255
255 255 255
255 255 255
255 255 255
255 255 255
255 255 255
255 255 255
255 255 255
255 255 255
255 255 255
255 255 255
255 255 255
255 255 255
255 255 255
255 255 255
255 255 255
255 255 255
255 255 255
255 255 255
255 255 255
255 255 255
255 255 255
255 255 255
255 255 255
255 255 255
255 255 255
255 255 255
255 255 255
255 255 255
255 255 255
255 255 255
255 255 255
255 255 255
255 255 255
255 255 255
255 255 255
255 255 255
255 255 255
255 255 255
255 255 255
255 255 255
255 255 255
255 255 255
255 255 255
255 255 255
255 255 255
255 255 255
255 255 255
255 255 255
255 255 255
255 255 255
255 255 255
255 255 255
255 255 255
255 255 255
255 255 255
255 255 255
255 255 255
255 255 255
255 255 255
255 255 255
255 255 255
255 255 255
255 255 255
255 255 255
255 255 255
255 255 255
255 255 255
255 255 255
255 255 255
255 255 255
255 255 255
255 255 255
255 255 255
255 255 255
255 255 255
255 255 255
255 255 255
255 255 255
255 255 255
255 255 255
255 255 255
255 255 255
255 255 255
255 255 255
255 255 255
255 255 255
255 255 255
255 255 255
255 255 255
255 255 255
255 255 255
255 255 255
255 255 255
255 255 255
255 255 255
255 255 255
255 255 255
255 255 255
255 255 255
255 255 255
255 255 255
255 255 255
255 255 255
255 255 255
255 255 255
255 255 255
255 255 255
255 255 255
255 255 255
255 255 255
255 255 255
255 255 255
255 255 255
255 255 255
255 255 255
255 255 255
255 255 255
255 255 255
255 255 255
255 255 255
255 255 255
255 255 255
255 255 255
255 255 255
255 255 255
255 255 255
255 255 255
255 255 255
255 255 255
255 255 255
255 255 255
255 255 255
255 255 255
255 255 255
255 255 255
255 255 255
255 255 255
255 255 255
255 255 255
255 255 255
255 255 255
255 255 255
255 255 255
255 255 255
255 255 255
255 255 255
255 255 255
255 255 255
255 255 255
255 255 255
255 255 255
255 255 255
255 255 255
255 255 255
255 255 255
255 255 255
255 255 255
255 255 255
255 255 255
255 255 255
255 255 255
255 255 255
255 255 255
255 255 255
255 255 255
  0   0   0
  0   0   0
  0   0   0
  0   0   0
  0   0   0
  0   0   0
  0   0   0
  0   0   0
  0   0   0
  0   0   0
  0   0   0
  0   0   0
  0   0   0
  0   0   0
  0   0   0
  0   0   0
  0   0   0
  0   0   0
  0   0   0
  0   0   0
  0   0   0
  0   0   0
  0   0   0
  0   0   0
  0   0   0
  0   0   0
  0   0   0
  0   0   0
  0   0   0
  0   0   0
  0   0   0
  0   0   0
  0   0   0
  0   0   0
  0   0   0
  0   0   0
  0   0   0
  0   0   0
  0   0   0
  0   0   0
  0   0   0
  0   0   0
  0   0   0
  0   0   0
  0   0   0
  0   0   0
  0   0   0
  0   0   0
  0   0   0
  0   0   0
  0   0   0
  0   0   0
  0   0   0
  0   0   0
  0   0   0
  0   0   0
  0   0   0
  0   0   0
  0   0   0
  0   0   0
  0   0   0
  0   0   0
  0   0   0
  0   0   0
  0   0   0
  0   0   0
  0   0   0
  0   0   0
  0   0   0
  0   0   0
  0   0   0
  0   0   0
  0   0   0
  0   0   0
  0   0   0
  0   0   0
  0   0   0
  0   0   0
  0   0   0
  0   0   0
  0   0   0
  0   0   0
  0   0   0
  0   0   0
  0   0   0
  0   0   0
  0   0   0
  0   0   0
  0   0   0
  0   0   0
  0   0   0
  0   0   0
  0   0   0
  0   0   0
  0   0   0
  0   0   0
  0   0   0
  0   0   0
  0   0   0
  0   0   0
  0   0   0
  0   0   0
  0   0   0
  0   0   0
  0   0   0
  0   0   0
  0   0   0
  0   0   0
  0   0   0
  0   0   0
  0   0   0
  0   0   0
  0   0   0
  0   0   0
  0   0   0
  0   0   0
  0   0   0
  0   0   0
  0   0   0
  0   0   0
  0   0   0
  0   0   0
  0   0   0
  0   0   0
  0   0   0
  0   0   0
  0   0   0
  0   0   0
  0   0   0
  0   0   0
  0   0   0
  0   0   0
  0   0   0
  0   0   0
  0   0   0
  0   0   0
  0   0   0
  0   0   0
  0   0   0
  0   0   0
  0   0   0
  0   0   0
  0   0   0
  0   0   0
  0   0   0
  0   0   0
  0   0   0
  0   0   0
  0   0   0
  0   0   0
  0   0   0
  0   0   0
  0   0   0
  0   0   0
  0   0   0
  0   0   0
  0   0   0
  0   0   0
  0   0   0
  0   0   0
  0   0   0
  0   0   0
  0   0   0
  0   0   0
  0   0   0
  0   0   0
  0   0   0
  0   0   0
  0   0   0
  0   0   0
  0   0   0
  0   0   0
  0   0   0
  0   0   0
  0   0   0
  0   0   0
  0   0   0
  0   0   0
  0   0   0
  0   0   0
  0   0   0
  0   0   0
  0   0   0
  0   0   0
  0   0   0
  0   0   0
  0   0   0
  0   0   0
  0   0   0
  0   0   0
  0   0   0
  0   0   0
  0   0   0
  0   0   0
  0   0   0
  0   0   0
  0   0   0
  0   0   0
  0   0   0
  0   0   0
  0   0   0
  0   0   0
  0   0   0
  0   0   0
  0   0   0
  0   0   0
  0   0   0
  0   0   0
  0   0   0
  0   0   0
  0   0   0
  0   0   0
  0   0   0
  0   0   0
  0   0   0
  0   0   0
  0   0   0
  0   0   0
  0   0   0
  0   0   0
  0   0   0
  0   0   0
  0   0   0
  0   0   0
  0   0   0
  0   0   0
  0   0   0
  0   0   0
  0   0   0
  0   0   0
  0   0   0
  0   0   0
  0   0   0
  0   0   0
  0   0   0
  0   0   0
  0   0   0
  0   0   0
  0   0   0
  0   0   0
  0   0   0
  0   0   0
  0   0   0
  0   0   0
  0   0   0
  0   0   0
  0   0   0
  0   0   0
  0   0   0
  0   0   0
  0   0   0
  0   0   0
  0   0   0
  0   0   0
  0   0   0
  0   0   0
  0   0   0
  0   0   0
  0   0   0
  0   0   0
  0   0   0
  0   0   0
  0   0   0
  0   0   0
  0   0   0
  0   0   0
  0   0   0
  0   0   0
  0   0   0
  0   0   0
  0   0   0
  0   0   0
  0   0   0
  0   0   0
  0   0   0
  0   0   0
  0   0   0
  0   0   0
  0   0   0
  0   0   0
  0   0   0
  0   0   0
  0   0   0
  0   0   0
  0   0   0
  0   0   0
  0   0   0
  0   0   0
  0   0   0
  0   0   0
  0   0   0
  0   0   0
  0   0   0
  0   0   0
  0   0   0
  0   0   0
  0   0   0
  0   0   0
  0   0   0
  0   0   0
  0   0   0
  0   0   0
  0   0   0
  0   0   0
  0   0   0
  0   0   0
  0   0   0
  0   0   0
  0   0   0
  0   0   0
  0   0   0
  0   0   0
  0   0   0
  0   0   0
  0   0   0
  0   0   0
  0   0   0
  0   0   0
  0   0   0
  0   0   0
  0   0   0
  0   0   0
  0   0   0
  0   0   0
  0   0   0
  0   0   0
  0   0   0
  0   0   0
  0   0   0
  0   0   0
  0   0   0
  0   0   0
  0   0   0
  0   0   0
  0   0   0
  0   0   0
  0   0   0
  0   0   0
  0   0   0
  0   0   0
  0   0   0
  0   0   0
  0   0   0
  0   0   0
  0   0   0
  0   0   0
  0   0   0
  0   0   0
  0   0   0
  0   0   0
  0   0   0
  0   0   0
  0   0   0
  0   0   0
  0   0   0
  0   0   0
  0   0   0
  0   0   0
  0   0   0
  0   0   0
  0   0   0
  0   0   0
  0   0   0
  0   0   0
  0   0   0
  0   0   0
  0   0   0
  0   0   0
  0   0   0
  0   0   0
  0   0   0
  0   0   0
  0   0   0
  0   0   0
  0   0   0
  0   0   0
  0   0   0
  0   0   0
  0   0   0
  0   0   0
  0   0   0
  0   0   0
  0   0   0
  0   0   0
  0   0   0
  0   0   0
  0   0   0
  0   0   0
  0   0   0
  0   0   0
  0   0   0
  0   0   0
  0   0   0
  0   0   0
  0   0   0
  0   0   0
  0   0   0
  0   0   0
  0   0   0
  0   0   0
  0   0   0
  0   0   0
  0   0   0
  0   0   0
