P3
         201         201
 255
  0   0   0
  0   0   0
  0   0   0
  0   0   0
  0   0   0
  0   0   0
  0   0   0
  0   0   0
  0   0   0
  0   0   0
  0   0   0
  0   0   0
  0   0   0
  0   0   0
  0   0   0
  0   0   0
  0   0   0
  0   0   0
  0   0   0
  0   0   0
  0   0   0
  0   0   0
  0   0   0
  0   0   0
  0   0   0
  0   0   0
  0   0   0
  0   0   0
  0   0   0
  0   0   0
  0   0   0
  0   0   0
  0   0   0
  0   0   0
  0   0   0
  0   0   0
  0   0   0
  0   0   0
  0   0   0
  0   0   0
  0   0   0
  0   0   0
  0   0   0
  0   0   0
  0   0   0
  0   0   0
  0   0   0
  0   0   0
  0   0   0
  0   0   0
  0   0   0
  0   0   0
  0   0   0
  0   0   0
  0   0   0
  0   0   0
  0   0   0
  0   0   0
  0   0   0
  0   0   0
  0   0   0
  0   0   0
  0   0   0
  0   0   0
  0   0   0
  0   0   0
  0   0   0
  0   0   0
  0   0   0
  0   0   0
  0   0   0
  0   0   0
  0   0   0
  0   0   0
  0   0   0
  0   0   0
  0   0   0
  0   0   0
  0   0   0
  0   0   0
  0   0   0
  0   0   0
  0   0   0
  0   0   0
  0   0   0
  0   0   0
  0   0   0
  0   0   0
  0   0   0
  0   0   0
  0   0   0
  0   0   0
  0   0   0
  0   0   0
  0   0   0
  0   0   0
  0   0   0
  0   0   0
  0   0   0
  0   0   0
  0   0   0
  0   0   0
  0   0   0
  0   0   0
  0   0   0
  0   0   0
  0   0   0
  0   0   0
  0   0   0
  0   0   0
  0   0   0
  0   0   0
  0   0   0
  0   0   0
  0   0   0
  0   0   0
  0   0   0
  0   0   0
  0   0   0
  0   0   0
  0   0   0
  0   0   0
  0   0   0
  0   0   0
  0   0   0
  0   0   0
  0   0   0
  0   0   0
  0   0   0
  0   0   0
  0   0   0
  0   0   0
  0   0   0
  0   0   0
  0   0   0
  0   0   0
  0   0   0
  0   0   0
  0   0   0
  0   0   0
  0   0   0
  0   0   0
  0   0   0
  0   0   0
  0   0   0
  0   0   0
  0   0   0
  0   0   0
  0   0   0
  0   0   0
  0   0   0
  0   0   0
  0   0   0
  0   0   0
  0   0   0
  0   0   0
  0   0   0
  0   0   0
  0   0   0
  0   0   0
  0   0   0
  0   0   0
  0   0   0
  0   0   0
  0   0   0
  0   0   0
  0   0   0
  0   0   0
  0   0   0
  0   0   0
  0   0   0
  0   0   0
  0   0   0
  0   0   0
  0   0   0
  0   0   0
  0   0   0
  0   0   0
  0   0   0
  0   0   0
  0   0   0
  0   0   0
  0   0   0
  0   0   0
  0   0   0
  0   0   0
  0   0   0
  0   0   0
  0   0   0
  0   0   0
  0   0   0
  0   0   0
  0   0   0
  0   0   0
  0   0   0
  0   0   0
  0   0   0
  0   0   0
  0   0   0
  0   0   0
  0   0   0
  0   0   0
  0   0   0
  0   0   0
  0   0   0
  0   0   0
  0   0   0
  0   0   0
  0   0   0
  0   0   0
  0   0   0
  0   0   0
  0   0   0
  0   0   0
  0   0   0
  0   0   0
  0   0   0
  0   0   0
  0   0   0
  0   0   0
  0   0   0
  0   0   0
  0   0   0
  0   0   0
  0   0   0
  0   0   0
  0   0   0
  0   0   0
  0   0   0
  0   0   0
  0   0   0
  0   0   0
  0   0   0
  0   0   0
  0   0   0
  0   0   0
  0   0   0
  0   0   0
  0   0   0
  0   0   0
  0   0   0
  0   0   0
  0   0   0
  0   0   0
  0   0   0
  0   0   0
  0   0   0
  0   0   0
  0   0   0
  0   0   0
  0   0   0
  0   0   0
  0   0   0
  0   0   0
  0   0   0
  0   0   0
  0   0   0
  0   0   0
  0   0   0
  0   0   0
  0   0   0
  0   0   0
  0   0   0
  0   0   0
  0   0   0
  0   0   0
  0   0   0
  0   0   0
  0   0   0
  0   0   0
  0   0   0
  0   0   0
  0   0   0
  0   0   0
  0   0   0
  0   0   0
  0   0   0
  0   0   0
  0   0   0
  0   0   0
  0   0   0
  0   0   0
  0   0   0
  0   0   0
  0   0   0
  0   0   0
  0   0   0
  0   0   0
  0   0   0
  0   0   0
  0   0   0
  0   0   0
  0   0   0
  0   0   0
  0   0   0
  0   0   0
  0   0   0
  0   0   0
  0   0   0
  0   0   0
  0   0   0
  0   0   0
  0   0   0
  0   0   0
  0   0   0
  0   0   0
  0   0   0
  0   0   0
  0   0   0
  0   0   0
  0   0   0
  0   0   0
  0   0   0
  0   0   0
  0   0   0
  0   0   0
  0   0   0
  0   0   0
  0   0   0
  0   0   0
  0   0   0
  0   0   0
  0   0   0
  0   0   0
  0   0   0
  0   0   0
  0   0   0
  0   0   0
  0   0   0
  0   0   0
  0   0   0
  0   0   0
  0   0   0
  0   0   0
  0   0   0
  0   0   0
  0   0   0
  0   0   0
  0   0   0
  0   0   0
  0   0   0
  0   0   0
  0   0   0
  0   0   0
  0   0   0
  0   0   0
  0   0   0
  0   0   0
  0   0   0
  0   0   0
  0   0   0
  0   0   0
  0   0   0
  0   0   0
  0   0   0
  0   0   0
  0   0   0
  0   0   0
  0   0   0
  0   0   0
  0   0   0
  0   0   0
  0   0   0
  0   0   0
  0   0   0
  0   0   0
  0   0   0
  0   0   0
  0   0   0
  0   0   0
  0   0   0
  0   0   0
  0   0   0
  0   0   0
  0   0   0
  0   0   0
  0   0   0
  0   0   0
  0   0   0
  0   0   0
  0   0   0
  0   0   0
  0   0   0
  0   0   0
  0   0   0
  0   0   0
  0   0   0
  0   0   0
  0   0   0
  0   0   0
  0   0   0
  0   0   0
  0   0   0
  0   0   0
  0   0   0
  0   0   0
  0   0   0
  0   0   0
  0   0   0
  0   0   0
  0   0   0
  0   0   0
  0   0   0
  0   0   0
  0   0 199
  0   0 207
  0   0 215
  0   0 219
  0   0 220
  0   0 215
  0   0 203
  0   0 182
  0   0 144
 96   0   0
161   0   0
188   0   0
202   0   0
208   0   0
208   0   0
202   0   0
192   0   0
176   0   0
156   0   0
129   0   0
 85   0   0
  0   0  92
  0   0 115
  0   0 120
  0   0 115
  0   0  92
 85   0   0
129   0   0
156   0   0
176   0   0
192   0   0
202   0   0
208   0   0
208   0   0
202   0   0
188   0   0
161   0   0
 96   0   0
  0   0 144
  0   0 182
  0   0 203
  0   0 215
  0   0 220
  0   0 219
  0   0 215
  0   0 207
  0   0 199
  0   0 190
  0   0 184
  0   0 179
  0   0 175
  0   0 170
  0   0 162
  0   0 147
  0   0 120
 67   0   0
131   0   0
158   0   0
174   0   0
185   0   0
190   0   0
192   0   0
190   0   0
186   0   0
179   0   0
170   0   0
160   0   0
148   0   0
134   0   0
118   0   0
 99   0   0
 74   0   0
255 255 255
  0   0  80
  0   0  91
  0   0  96
  0   0  99
  0   0 100
  0   0 100
  0   0  99
  0   0  97
  0   0  95
  0   0  92
  0   0  90
  0   0  87
  0   0  84
  0   0  82
  0   0  80
  0   0  78
  0   0  77
  0   0  76
  0   0  75
  0   0  74
  0   0  73
  0   0  72
  0   0  69
  0   0  66
255 255 255
255 255 255
255 255 255
255 255 255
255 255 255
255 255 255
255 255 255
255 255 255
255 255 255
255 255 255
255 255 255
255 255 255
255 255 255
255 255 255
255 255 255
255 255 255
255 255 255
255 255 255
255 255 255
255 255 255
255 255 255
255 255 255
255 255 255
255 255 255
255 255 255
255 255 255
255 255 255
255 255 255
255 255 255
255 255 255
255 255 255
255 255 255
255 255 255
255 255 255
255 255 255
255 255 255
255 255 255
255 255 255
255 255 255
255 255 255
255 255 255
255 255 255
255 255 255
255 255 255
255 255 255
255 255 255
255 255 255
255 255 255
255 255 255
255 255 255
255 255 255
255 255 255
255 255 255
  0   0  66
  0   0  69
  0   0  72
  0   0  73
  0   0  74
  0   0  75
  0   0  76
  0   0  77
  0   0  78
  0   0  80
  0   0  82
  0   0  84
  0   0  87
  0   0  90
  0   0  92
  0   0  95
  0   0  97
  0   0  99
  0   0 100
  0   0 100
  0   0  99
  0   0  96
  0   0  91
  0   0  80
255 255 255
 74   0   0
 99   0   0
118   0   0
134   0   0
148   0   0
160   0   0
170   0   0
179   0   0
186   0   0
190   0   0
192   0   0
190   0   0
185   0   0
174   0   0
158   0   0
131   0   0
 67   0   0
  0   0 120
  0   0 147
  0   0 162
  0   0 170
  0   0 175
  0   0   0
  0   0   0
  0   0   0
  0   0   0
  0   0 181
  0   0 198
  0   0 211
  0   0 218
  0   0 220
  0   0 216
  0   0 205
  0   0 187
  0   0 157
  0   0  90
137   0   0
170   0   0
187   0   0
195   0   0
197   0   0
195   0   0
187   0   0
176   0   0
162   0   0
143   0   0
119   0   0
 85   0   0
255 255 255
  0   0  77
255 255 255
 85   0   0
119   0   0
143   0   0
162   0   0
176   0   0
187   0   0
195   0   0
197   0   0
195   0   0
187   0   0
170   0   0
137   0   0
  0   0  90
  0   0 157
  0   0 187
  0   0 205
  0   0 216
  0   0 220
  0   0 218
  0   0 211
  0   0 198
  0   0 181
  0   0 161
  0   0 140
  0   0 121
  0   0 111
  0   0 113
  0   0 121
  0   0 128
  0   0 130
  0   0 124
  0   0 107
255 255 255
110   0   0
137   0   0
154   0   0
165   0   0
171   0   0
174   0   0
175   0   0
172   0   0
167   0   0
161   0   0
152   0   0
143   0   0
131   0   0
118   0   0
103   0   0
 84   0   0
255 255 255
255 255 255
  0   0  80
  0   0  88
  0   0  92
  0   0  94
  0   0  95
  0   0  94
  0   0  93
  0   0  92
  0   0  90
  0   0  88
  0   0  86
  0   0  84
  0   0  83
  0   0  81
  0   0  80
  0   0  79
  0   0  77
  0   0  76
  0   0  74
  0   0  72
  0   0  69
  0   0  66
255 255 255
255 255 255
255 255 255
255 255 255
255 255 255
255 255 255
255 255 255
255 255 255
255 255 255
255 255 255
255 255 255
255 255 255
255 255 255
255 255 255
255 255 255
255 255 255
255 255 255
255 255 255
255 255 255
255 255 255
255 255 255
255 255 255
255 255 255
255 255 255
255 255 255
255 255 255
255 255 255
255 255 255
255 255 255
255 255 255
255 255 255
255 255 255
255 255 255
255 255 255
255 255 255
255 255 255
255 255 255
255 255 255
255 255 255
255 255 255
255 255 255
255 255 255
255 255 255
255 255 255
255 255 255
255 255 255
255 255 255
255 255 255
255 255 255
255 255 255
255 255 255
  0   0  66
  0   0  69
  0   0  72
  0   0  74
  0   0  76
  0   0  77
  0   0  79
  0   0  80
  0   0  81
  0   0  83
  0   0  84
  0   0  86
  0   0  88
  0   0  90
  0   0  92
  0   0  93
  0   0  94
  0   0  95
  0   0  94
  0   0  92
  0   0  88
  0   0  80
255 255 255
255 255 255
 84   0   0
103   0   0
118   0   0
131   0   0
143   0   0
152   0   0
161   0   0
167   0   0
172   0   0
175   0   0
174   0   0
171   0   0
165   0   0
154   0   0
137   0   0
110   0   0
255 255 255
  0   0 107
  0   0 124
  0   0 130
  0   0 128
  0   0 121
  0   0 113
  0   0 111
  0   0   0
  0   0   0
  0   0   0
  0   0   0
  0   0 158
  0   0 186
  0   0 203
  0   0 213
  0   0 217
  0   0 214
  0   0 205
  0   0 190
  0   0 169
  0   0 134
255 255 255
135   0   0
160   0   0
173   0   0
180   0   0
182   0   0
180   0   0
175   0   0
167   0   0
156   0   0
143   0   0
129   0   0
118   0   0
113   0   0
118   0   0
129   0   0
143   0   0
156   0   0
167   0   0
175   0   0
180   0   0
182   0   0
180   0   0
173   0   0
160   0   0
135   0   0
255 255 255
  0   0 134
  0   0 169
  0   0 190
  0   0 205
  0   0 214
  0   0 217
  0   0 213
  0   0 203
  0   0 186
  0   0 158
  0   0 106
114   0   0
144   0   0
151   0   0
144   0   0
120   0   0
255 255 255
  0   0 126
  0   0 148
  0   0 158
  0   0 159
  0   0 151
  0   0 134
  0   0 100
 93   0   0
131   0   0
150   0   0
161   0   0
167   0   0
170   0   0
169   0   0
166   0   0
160   0   0
153   0   0
145   0   0
135   0   0
123   0   0
110   0   0
 95   0   0
 75   0   0
255 255 255
  0   0  66
  0   0  79
  0   0  86
  0   0  89
  0   0  91
  0   0  92
  0   0  92
  0   0  91
  0   0  90
  0   0  89
  0   0  87
  0   0  86
  0   0  84
  0   0  83
  0   0  82
  0   0  80
  0   0  78
  0   0  76
  0   0  74
  0   0  71
  0   0  67
255 255 255
255 255 255
255 255 255
255 255 255
255 255 255
255 255 255
255 255 255
255 255 255
255 255 255
255 255 255
255 255 255
255 255 255
255 255 255
255 255 255
255 255 255
255 255 255
255 255 255
255 255 255
255 255 255
255 255 255
255 255 255
255 255 255
255 255 255
255 255 255
255 255 255
255 255 255
255 255 255
255 255 255
255 255 255
255 255 255
255 255 255
255 255 255
255 255 255
255 255 255
255 255 255
255 255 255
255 255 255
255 255 255
255 255 255
255 255 255
255 255 255
255 255 255
255 255 255
255 255 255
255 255 255
255 255 255
255 255 255
255 255 255
255 255 255
  0   0  67
  0   0  71
  0   0  74
  0   0  76
  0   0  78
  0   0  80
  0   0  82
  0   0  83
  0   0  84
  0   0  86
  0   0  87
  0   0  89
  0   0  90
  0   0  91
  0   0  92
  0   0  92
  0   0  91
  0   0  89
  0   0  86
  0   0  79
  0   0  66
255 255 255
 75   0   0
 95   0   0
110   0   0
123   0   0
135   0   0
145   0   0
153   0   0
160   0   0
166   0   0
169   0   0
170   0   0
167   0   0
161   0   0
150   0   0
131   0   0
 93   0   0
  0   0 100
  0   0 134
  0   0 151
  0   0 159
  0   0 158
  0   0 148
  0   0 126
255 255 255
120   0   0
144   0   0
151   0   0
  0   0   0
  0   0   0
  0   0   0
  0   0   0
  0   0 125
  0   0 169
  0   0 191
  0   0 202
  0   0 207
  0   0 206
  0   0 200
  0   0 191
  0   0 178
  0   0 161
  0   0 137
  0   0  97
 99   0   0
134   0   0
152   0   0
163   0   0
169   0   0
171   0   0
170   0   0
167   0   0
162   0   0
156   0   0
152   0   0
151   0   0
152   0   0
156   0   0
162   0   0
167   0   0
170   0   0
171   0   0
169   0   0
163   0   0
152   0   0
134   0   0
 99   0   0
  0   0  97
  0   0 137
  0   0 161
  0   0 178
  0   0 191
  0   0 200
  0   0 206
  0   0 207
  0   0 202
  0   0 191
  0   0 169
  0   0 125
116   0   0
162   0   0
182   0   0
189   0   0
184   0   0
168   0   0
134   0   0
  0   0  93
  0   0 152
  0   0 175
  0   0 187
  0   0 189
  0   0 184
  0   0 173
  0   0 154
  0   0 122
 68   0   0
127   0   0
150   0   0
162   0   0
169   0   0
171   0   0
171   0   0
168   0   0
163   0   0
156   0   0
148   0   0
139   0   0
128   0   0
116   0   0
103   0   0
 86   0   0
 64   0   0
255 255 255
  0   0  70
  0   0  80
  0   0  85
  0   0  88
  0   0  90
  0   0  91
  0   0  91
  0   0  91
  0   0  90
  0   0  89
  0   0  88
  0   0  86
  0   0  84
  0   0  82
  0   0  80
  0   0  78
  0   0  76
  0   0  73
  0   0  70
  0   0  69
  0   0  67
  0   0  66
255 255 255
255 255 255
255 255 255
255 255 255
255 255 255
255 255 255
255 255 255
255 255 255
255 255 255
255 255 255
255 255 255
255 255 255
255 255 255
255 255 255
255 255 255
255 255 255
255 255 255
255 255 255
255 255 255
255 255 255
255 255 255
255 255 255
255 255 255
255 255 255
255 255 255
255 255 255
255 255 255
255 255 255
255 255 255
255 255 255
255 255 255
255 255 255
255 255 255
255 255 255
255 255 255
255 255 255
255 255 255
255 255 255
255 255 255
255 255 255
255 255 255
  0   0  66
  0   0  67
  0   0  69
  0   0  70
  0   0  73
  0   0  76
  0   0  78
  0   0  80
  0   0  82
  0   0  84
  0   0  86
  0   0  88
  0   0  89
  0   0  90
  0   0  91
  0   0  91
  0   0  91
  0   0  90
  0   0  88
  0   0  85
  0   0  80
  0   0  70
255 255 255
 64   0   0
 86   0   0
103   0   0
116   0   0
128   0   0
139   0   0
148   0   0
156   0   0
163   0   0
168   0   0
171   0   0
171   0   0
169   0   0
162   0   0
150   0   0
127   0   0
 68   0   0
  0   0 122
  0   0 154
  0   0 173
  0   0 184
  0   0 189
  0   0 187
  0   0 175
  0   0 152
  0   0  93
134   0   0
168   0   0
184   0   0
189   0   0
  0   0   0
  0   0   0
  0   0   0
  0   0   0
  0   0  73
  0   0 145
  0   0 170
  0   0 182
  0   0 188
  0   0 189
  0   0 188
  0   0 186
  0   0 183
  0   0 178
  0   0 171
  0   0 159
  0   0 141
  0   0 109
 84   0   0
130   0   0
151   0   0
164   0   0
171   0   0
175   0   0
176   0   0
176   0   0
176   0   0
176   0   0
176   0   0
176   0   0
176   0   0
175   0   0
171   0   0
164   0   0
151   0   0
130   0   0
 84   0   0
  0   0 109
  0   0 141
  0   0 159
  0   0 171
  0   0 178
  0   0 183
  0   0 186
  0   0 188
  0   0 189
  0   0 188
  0   0 182
  0   0 170
  0   0 145
  0   0  73
141   0   0
176   0   0
195   0   0
204   0   0
203   0   0
192   0   0
168   0   0
117   0   0
  0   0 132
  0   0 173
  0   0 194
  0   0 204
  0   0 206
  0   0 202
  0   0 192
  0   0 176
  0   0 152
  0   0 114
 92   0   0
135   0   0
155   0   0
166   0   0
172   0   0
174   0   0
173   0   0
170   0   0
165   0   0
159   0   0
151   0   0
142   0   0
132   0   0
121   0   0
109   0   0
 95   0   0
 79   0   0
255 255 255
255 255 255
  0   0  73
  0   0  81
  0   0  86
  0   0  89
  0   0  90
  0   0  91
  0   0  91
  0   0  91
  0   0  89
  0   0  88
  0   0  86
  0   0  85
  0   0  83
  0   0  81
  0   0  79
  0   0  78
  0   0  76
  0   0  75
  0   0  73
  0   0  71
  0   0  68
  0   0  67
  0   0  67
  0   0  67
  0   0  67
  0   0  66
  0   0  66
  0   0  65
  0   0  64
255 255 255
255 255 255
255 255 255
255 255 255
255 255 255
255 255 255
255 255 255
255 255 255
255 255 255
255 255 255
255 255 255
255 255 255
255 255 255
255 255 255
255 255 255
255 255 255
255 255 255
255 255 255
255 255 255
255 255 255
255 255 255
  0   0  64
  0   0  65
  0   0  66
  0   0  66
  0   0  67
  0   0  67
  0   0  67
  0   0  67
  0   0  68
  0   0  71
  0   0  73
  0   0  75
  0   0  76
  0   0  78
  0   0  79
  0   0  81
  0   0  83
  0   0  85
  0   0  86
  0   0  88
  0   0  89
  0   0  91
  0   0  91
  0   0  91
  0   0  90
  0   0  89
  0   0  86
  0   0  81
  0   0  73
255 255 255
255 255 255
 79   0   0
 95   0   0
109   0   0
121   0   0
132   0   0
142   0   0
151   0   0
159   0   0
165   0   0
170   0   0
173   0   0
174   0   0
172   0   0
166   0   0
155   0   0
135   0   0
 92   0   0
  0   0 114
  0   0 152
  0   0 176
  0   0 192
  0   0 202
  0   0 206
  0   0 204
  0   0 194
  0   0 173
  0   0 132
117   0   0
168   0   0
192   0   0
203   0   0
204   0   0
  0   0   0
  0   0   0
  0   0   0
  0   0   0
 89   0   0
  0   0 108
  0   0 133
  0   0 144
  0   0 151
  0   0 158
  0   0 166
  0   0 175
  0   0 183
  0   0 189
  0   0 191
  0   0 189
  0   0 180
  0   0 165
  0   0 141
  0   0  88
119   0   0
151   0   0
169   0   0
180   0   0
187   0   0
192   0   0
194   0   0
195   0   0
194   0   0
192   0   0
187   0   0
180   0   0
169   0   0
151   0   0
119   0   0
  0   0  88
  0   0 141
  0   0 165
  0   0 180
  0   0 189
  0   0 191
  0   0 189
  0   0 183
  0   0 175
  0   0 166
  0   0 158
  0   0 151
  0   0 144
  0   0 133
  0   0 108
 89   0   0
142   0   0
172   0   0
192   0   0
204   0   0
208   0   0
203   0   0
189   0   0
160   0   0
 81   0   0
  0   0 150
  0   0 184
  0   0 203
  0   0 212
  0   0 215
  0   0 212
  0   0 203
  0   0 190
  0   0 171
  0   0 144
  0   0  95
110   0   0
142   0   0
159   0   0
168   0   0
173   0   0
175   0   0
175   0   0
172   0   0
167   0   0
161   0   0
154   0   0
146   0   0
137   0   0
127   0   0
116   0   0
104   0   0
 90   0   0
 72   0   0
255 255 255
255 255 255
  0   0  74
  0   0  82
  0   0  86
  0   0  89
  0   0  90
  0   0  90
  0   0  90
  0   0  89
  0   0  88
  0   0  87
  0   0  86
  0   0  85
  0   0  84
  0   0  83
  0   0  81
  0   0  79
  0   0  77
  0   0  75
  0   0  74
  0   0  73
  0   0  73
  0   0  73
  0   0  72
  0   0  72
  0   0  71
  0   0  70
  0   0  69
  0   0  69
  0   0  68
  0   0  68
  0   0  67
  0   0  67
  0   0  67
  0   0  67
  0   0  66
  0   0  66
  0   0  66
  0   0  66
  0   0  66
  0   0  67
  0   0  67
  0   0  67
  0   0  67
  0   0  68
  0   0  68
  0   0  69
  0   0  69
  0   0  70
  0   0  71
  0   0  72
  0   0  72
  0   0  73
  0   0  73
  0   0  73
  0   0  74
  0   0  75
  0   0  77
  0   0  79
  0   0  81
  0   0  83
  0   0  84
  0   0  85
  0   0  86
  0   0  87
  0   0  88
  0   0  89
  0   0  90
  0   0  90
  0   0  90
  0   0  89
  0   0  86
  0   0  82
  0   0  74
255 255 255
255 255 255
 72   0   0
 90   0   0
104   0   0
116   0   0
127   0   0
137   0   0
146   0   0
154   0   0
161   0   0
167   0   0
172   0   0
175   0   0
175   0   0
173   0   0
168   0   0
159   0   0
142   0   0
110   0   0
  0   0  95
  0   0 144
  0   0 171
  0   0 190
  0   0 203
  0   0 212
  0   0 215
  0   0 212
  0   0 203
  0   0 184
  0   0 150
 81   0   0
160   0   0
189   0   0
203   0   0
208   0   0
204   0   0
  0   0   0
  0   0   0
  0   0   0
  0   0   0
101   0   0
 89   0   0
 94   0   0
 99   0   0
 92   0   0
255 255 255
  0   0 121
  0   0 154
  0   0 177
  0   0 193
  0   0 203
  0   0 206
  0   0 203
  0   0 194
  0   0 177
  0   0 149
  0   0  88
130   0   0
163   0   0
182   0   0
195   0   0
202   0   0
206   0   0
208   0   0
206   0   0
202   0   0
195   0   0
182   0   0
163   0   0
130   0   0
  0   0  88
  0   0 149
  0   0 177
  0   0 194
  0   0 203
  0   0 206
  0   0 203
  0   0 193
  0   0 177
  0   0 154
  0   0 121
255 255 255
 92   0   0
 99   0   0
 94   0   0
 89   0   0
101   0   0
126   0   0
152   0   0
174   0   0
191   0   0
202   0   0
205   0   0
200   0   0
185   0   0
154   0   0
255 255 255
  0   0 153
  0   0 186
  0   0 205
  0   0 215
  0   0 218
  0   0 216
  0   0 210
  0   0 200
  0   0 185
  0   0 164
  0   0 135
  0   0  73
118   0   0
145   0   0
160   0   0
169   0   0
174   0   0
176   0   0
176   0   0
173   0   0
169   0   0
164   0   0
158   0   0
150   0   0
142   0   0
133   0   0
123   0   0
112   0   0
100   0   0
 86   0   0
 69   0   0
255 255 255
255 255 255
  0   0  73
  0   0  79
  0   0  83
  0   0  86
  0   0  87
  0   0  88
  0   0  88
  0   0  89
  0   0  89
  0   0  89
  0   0  88
  0   0  87
  0   0  85
  0   0  84
  0   0  82
  0   0  80
  0   0  79
  0   0  79
  0   0  79
  0   0  78
  0   0  78
  0   0  77
  0   0  76
  0   0  76
  0   0  75
  0   0  75
  0   0  74
  0   0  74
  0   0  73
  0   0  73
  0   0  73
  0   0  73
  0   0  73
  0   0  73
  0   0  73
  0   0  73
  0   0  73
  0   0  73
  0   0  73
  0   0  74
  0   0  74
  0   0  75
  0   0  75
  0   0  76
  0   0  76
  0   0  77
  0   0  78
  0   0  78
  0   0  79
  0   0  79
  0   0  79
  0   0  80
  0   0  82
  0   0  84
  0   0  85
  0   0  87
  0   0  88
  0   0  89
  0   0  89
  0   0  89
  0   0  88
  0   0  88
  0   0  87
  0   0  86
  0   0  83
  0   0  79
  0   0  73
255 255 255
255 255 255
 69   0   0
 86   0   0
100   0   0
112   0   0
123   0   0
133   0   0
142   0   0
150   0   0
158   0   0
164   0   0
169   0   0
173   0   0
176   0   0
176   0   0
174   0   0
169   0   0
160   0   0
145   0   0
118   0   0
  0   0  73
  0   0 135
  0   0 164
  0   0 185
  0   0 200
  0   0 210
  0   0 216
  0   0 218
  0   0 215
  0   0 205
  0   0 186
  0   0 153
255 255 255
154   0   0
185   0   0
200   0   0
205   0   0
202   0   0
191   0   0
  0   0   0
  0   0   0
  0   0   0
  0   0   0
101   0   0
130   0   0
151   0   0
164   0   0
166   0   0
155   0   0
123   0   0
  0   0 109
  0   0 163
  0   0 191
  0   0 208
  0   0 216
  0   0 217
  0   0 211
  0   0 198
  0   0 177
  0   0 141
 84   0   0
152   0   0
180   0   0
197   0   0
208   0   0
214   0   0
216   0   0
214   0   0
208   0   0
197   0   0
180   0   0
152   0   0
 84   0   0
  0   0 141
  0   0 177
  0   0 198
  0   0 211
  0   0 217
  0   0 216
  0   0 208
  0   0 191
  0   0 163
  0   0 109
123   0   0
155   0   0
166   0   0
164   0   0
151   0   0
130   0   0
101   0   0
 78   0   0
 98   0   0
132   0   0
161   0   0
182   0   0
196   0   0
201   0   0
198   0   0
185   0   0
159   0   0
 91   0   0
  0   0 144
  0   0 180
  0   0 201
  0   0 213
  0   0 218
  0   0 219
  0   0 215
  0   0 207
  0   0 196
  0   0 181
  0   0 160
  0   0 130
255 255 255
120   0   0
146   0   0
160   0   0
169   0   0
174   0   0
176   0   0
177   0   0
175   0   0
171   0   0
167   0   0
161   0   0
155   0   0
147   0   0
139   0   0
130   0   0
121   0   0
111   0   0
100   0   0
 87   0   0
 73   0   0
255 255 255
255 255 255
  0   0  65
  0   0  74
  0   0  79
  0   0  83
  0   0  86
  0   0  88
  0   0  89
  0   0  90
  0   0  89
  0   0  89
  0   0  88
  0   0  87
  0   0  85
  0   0  84
  0   0  84
  0   0  84
  0   0  84
  0   0  84
  0   0  83
  0   0  83
  0   0  82
  0   0  81
  0   0  81
  0   0  80
  0   0  80
  0   0  80
  0   0  79
  0   0  79
  0   0  79
  0   0  79
  0   0  79
  0   0  79
  0   0  79
  0   0  79
  0   0  79
  0   0  80
  0   0  80
  0   0  80
  0   0  81
  0   0  81
  0   0  82
  0   0  83
  0   0  83
  0   0  84
  0   0  84
  0   0  84
  0   0  84
  0   0  84
  0   0  85
  0   0  87
  0   0  88
  0   0  89
  0   0  89
  0   0  90
  0   0  89
  0   0  88
  0   0  86
  0   0  83
  0   0  79
  0   0  74
  0   0  65
255 255 255
255 255 255
 73   0   0
 87   0   0
100   0   0
111   0   0
121   0   0
130   0   0
139   0   0
147   0   0
155   0   0
161   0   0
167   0   0
171   0   0
175   0   0
177   0   0
176   0   0
174   0   0
169   0   0
160   0   0
146   0   0
120   0   0
255 255 255
  0   0 130
  0   0 160
  0   0 181
  0   0 196
  0   0 207
  0   0 215
  0   0 219
  0   0 218
  0   0 213
  0   0 201
  0   0 180
  0   0 144
 91   0   0
159   0   0
185   0   0
198   0   0
201   0   0
196   0   0
182   0   0
161   0   0
  0   0   0
  0   0   0
  0   0   0
  0   0   0
 96   0   0
149   0   0
176   0   0
191   0   0
195   0   0
188   0   0
168   0   0
119   0   0
  0   0 135
  0   0 180
  0   0 205
  0   0 218
  0   0 223
  0   0 221
  0   0 211
  0   0 194
  0   0 165
  0   0 109
134   0   0
173   0   0
195   0   0
208   0   0
215   0   0
218   0   0
215   0   0
208   0   0
195   0   0
173   0   0
134   0   0
  0   0 109
  0   0 165
  0   0 194
  0   0 211
  0   0 221
  0   0 223
  0   0 218
  0   0 205
  0   0 180
  0   0 135
119   0   0
168   0   0
188   0   0
195   0   0
191   0   0
176   0   0
149   0   0
 96   0   0
  0   0 109
  0   0 128
  0   0 116
 72   0   0
142   0   0
174   0   0
193   0   0
202   0   0
201   0   0
191   0   0
169   0   0
123   0   0
  0   0 123
  0   0 169
  0   0 193
  0   0 208
  0   0 216
  0   0 219
  0   0 218
  0   0 213
  0   0 205
  0   0 194
  0   0 179
  0   0 159
  0   0 130
  0   0  67
116   0   0
143   0   0
158   0   0
168   0   0
173   0   0
176   0   0
177   0   0
176   0   0
174   0   0
170   0   0
165   0   0
159   0   0
153   0   0
146   0   0
138   0   0
130   0   0
122   0   0
113   0   0
104   0   0
 94   0   0
 83   0   0
 69   0   0
255 255 255
255 255 255
  0   0  66
  0   0  75
  0   0  81
  0   0  84
  0   0  86
  0   0  87
  0   0  87
  0   0  87
  0   0  87
  0   0  86
  0   0  87
  0   0  87
  0   0  87
  0   0  88
  0   0  87
  0   0  87
  0   0  87
  0   0  86
  0   0  86
  0   0  86
  0   0  86
  0   0  85
  0   0  85
  0   0  85
  0   0  85
  0   0  85
  0   0  85
  0   0  85
  0   0  85
  0   0  85
  0   0  85
  0   0  85
  0   0  86
  0   0  86
  0   0  86
  0   0  86
  0   0  87
  0   0  87
  0   0  87
  0   0  88
  0   0  87
  0   0  87
  0   0  87
  0   0  86
  0   0  87
  0   0  87
  0   0  87
  0   0  87
  0   0  86
  0   0  84
  0   0  81
  0   0  75
  0   0  66
255 255 255
255 255 255
 69   0   0
 83   0   0
 94   0   0
104   0   0
113   0   0
122   0   0
130   0   0
138   0   0
146   0   0
153   0   0
159   0   0
165   0   0
170   0   0
174   0   0
176   0   0
177   0   0
176   0   0
173   0   0
168   0   0
158   0   0
143   0   0
116   0   0
  0   0  67
  0   0 130
  0   0 159
  0   0 179
  0   0 194
  0   0 205
  0   0 213
  0   0 218
  0   0 219
  0   0 216
  0   0 208
  0   0 193
  0   0 169
  0   0 123
123   0   0
169   0   0
191   0   0
201   0   0
202   0   0
193   0   0
174   0   0
142   0   0
 72   0   0
  0   0   0
  0   0   0
  0   0   0
  0   0   0
 96   0   0
160   0   0
190   0   0
205   0   0
210   0   0
206   0   0
190   0   0
159   0   0
255 255 255
  0   0 160
  0   0 194
  0   0 213
  0   0 222
  0   0 223
  0   0 217
  0   0 203
  0   0 180
  0   0 141
 99   0   0
160   0   0
187   0   0
202   0   0
210   0   0
213   0   0
210   0   0
202   0   0
187   0   0
160   0   0
 99   0   0
  0   0 141
  0   0 180
  0   0 203
  0   0 217
  0   0 223
  0   0 222
  0   0 213
  0   0 194
  0   0 160
255 255 255
159   0   0
190   0   0
206   0   0
210   0   0
205   0   0
190   0   0
160   0   0
 96   0   0
  0   0 133
  0   0 161
  0   0 166
  0   0 153
  0   0 109
130   0   0
173   0   0
195   0   0
205   0   0
206   0   0
198   0   0
180   0   0
145   0   0
  0   0  75
  0   0 153
  0   0 183
  0   0 200
  0   0 211
  0   0 216
  0   0 218
  0   0 216
  0   0 212
  0   0 204
  0   0 193
  0   0 179
  0   0 160
  0   0 134
  0   0  86
107   0   0
138   0   0
154   0   0
165   0   0
172   0   0
175   0   0
177   0   0
177   0   0
175   0   0
173   0   0
169   0   0
164   0   0
159   0   0
153   0   0
147   0   0
141   0   0
134   0   0
126   0   0
119   0   0
111   0   0
102   0   0
 92   0   0
 81   0   0
 66   0   0
255 255 255
255 255 255
255 255 255
  0   0  70
  0   0  74
  0   0  78
  0   0  79
  0   0  81
  0   0  82
  0   0  84
  0   0  85
  0   0  87
  0   0  87
  0   0  88
  0   0  88
  0   0  88
  0   0  88
  0   0  88
  0   0  88
  0   0  88
  0   0  88
  0   0  88
  0   0  88
  0   0  88
  0   0  88
  0   0  88
  0   0  88
  0   0  88
  0   0  88
  0   0  88
  0   0  88
  0   0  88
  0   0  88
  0   0  88
  0   0  88
  0   0  88
  0   0  87
  0   0  87
  0   0  85
  0   0  84
  0   0  82
  0   0  81
  0   0  79
  0   0  78
  0   0  74
  0   0  70
255 255 255
255 255 255
255 255 255
 66   0   0
 81   0   0
 92   0   0
102   0   0
111   0   0
119   0   0
126   0   0
134   0   0
141   0   0
147   0   0
153   0   0
159   0   0
164   0   0
169   0   0
173   0   0
175   0   0
177   0   0
177   0   0
175   0   0
172   0   0
165   0   0
154   0   0
138   0   0
107   0   0
  0   0  86
  0   0 134
  0   0 160
  0   0 179
  0   0 193
  0   0 204
  0   0 212
  0   0 216
  0   0 218
  0   0 216
  0   0 211
  0   0 200
  0   0 183
  0   0 153
  0   0  75
145   0   0
180   0   0
198   0   0
206   0   0
205   0   0
195   0   0
173   0   0
130   0   0
  0   0 109
  0   0 153
  0   0   0
  0   0   0
  0   0   0
  0   0   0
102   0   0
167   0   0
196   0   0
211   0   0
217   0   0
214   0   0
203   0   0
180   0   0
137   0   0
  0   0 119
  0   0 173
  0   0 199
  0   0 213
  0   0 218
  0   0 216
  0   0 206
  0   0 189
  0   0 159
  0   0  97
135   0   0
170   0   0
188   0   0
197   0   0
200   0   0
197   0   0
188   0   0
170   0   0
135   0   0
  0   0  97
  0   0 159
  0   0 189
  0   0 206
  0   0 216
  0   0 218
  0   0 213
  0   0 199
  0   0 173
  0   0 119
137   0   0
180   0   0
203   0   0
214   0   0
217   0   0
211   0   0
196   0   0
167   0   0
102   0   0
  0   0 141
  0   0 175
  0   0 187
  0   0 185
  0   0 168
  0   0 122
130   0   0
176   0   0
199   0   0
210   0   0
211   0   0
204   0   0
188   0   0
161   0   0
107   0   0
  0   0 129
  0   0 168
  0   0 189
  0   0 203
  0   0 211
  0   0 216
  0   0 217
  0   0 215
  0   0 211
  0   0 204
  0   0 194
  0   0 181
  0   0 164
  0   0 141
  0   0 105
 88   0   0
128   0   0
148   0   0
160   0   0
168   0   0
173   0   0
176   0   0
177   0   0
177   0   0
175   0   0
173   0   0
169   0   0
166   0   0
161   0   0
156   0   0
151   0   0
145   0   0
139   0   0
132   0   0
125   0   0
118   0   0
110   0   0
102   0   0
 94   0   0
 86   0   0
 77   0   0
 67   0   0
255 255 255
255 255 255
255 255 255
255 255 255
255 255 255
  0   0  70
  0   0  74
  0   0  77
  0   0  79
  0   0  81
  0   0  82
  0   0  83
  0   0  84
  0   0  84
  0   0  85
  0   0  85
  0   0  85
  0   0  85
  0   0  86
  0   0  86
  0   0  86
  0   0  85
  0   0  85
  0   0  85
  0   0  85
  0   0  84
  0   0  84
  0   0  83
  0   0  82
  0   0  81
  0   0  79
  0   0  77
  0   0  74
  0   0  70
255 255 255
255 255 255
255 255 255
255 255 255
255 255 255
 67   0   0
 77   0   0
 86   0   0
 94   0   0
102   0   0
110   0   0
118   0   0
125   0   0
132   0   0
139   0   0
145   0   0
151   0   0
156   0   0
161   0   0
166   0   0
169   0   0
173   0   0
175   0   0
177   0   0
177   0   0
176   0   0
173   0   0
168   0   0
160   0   0
148   0   0
128   0   0
 88   0   0
  0   0 105
  0   0 141
  0   0 164
  0   0 181
  0   0 194
  0   0 204
  0   0 211
  0   0 215
  0   0 217
  0   0 216
  0   0 211
  0   0 203
  0   0 189
  0   0 168
  0   0 129
107   0   0
161   0   0
188   0   0
204   0   0
211   0   0
210   0   0
199   0   0
176   0   0
130   0   0
  0   0 122
  0   0 168
  0   0 185
  0   0   0
  0   0   0
  0   0   0
  0   0   0
114   0   0
170   0   0
196   0   0
210   0   0
216   0   0
215   0   0
207   0   0
192   0   0
166   0   0
113   0   0
  0   0 132
  0   0 173
  0   0 194
  0   0 205
  0   0 208
  0   0 203
  0   0 191
  0   0 171
  0   0 137
255 255 255
137   0   0
161   0   0
172   0   0
176   0   0
172   0   0
161   0   0
137   0   0
255 255 255
  0   0 137
  0   0 171
  0   0 191
  0   0 203
  0   0 208
  0   0 205
  0   0 194
  0   0 173
  0   0 132
113   0   0
166   0   0
192   0   0
207   0   0
215   0   0
216   0   0
210   0   0
196   0   0
170   0   0
114   0   0
  0   0 138
  0   0 178
  0   0 196
  0   0 201
  0   0 193
  0   0 171
  0   0 118
139   0   0
182   0   0
204   0   0
214   0   0
215   0   0
208   0   0
195   0   0
172   0   0
136   0   0
  0   0  82
  0   0 147
  0   0 174
  0   0 191
  0   0 203
  0   0 210
  0   0 215
  0   0 216
  0   0 215
  0   0 211
  0   0 205
  0   0 196
  0   0 185
  0   0 170
  0   0 151
  0   0 123
255 255 255
112   0   0
137   0   0
153   0   0
163   0   0
169   0   0
174   0   0
176   0   0
177   0   0
177   0   0
176   0   0
174   0   0
171   0   0
168   0   0
164   0   0
160   0   0
155   0   0
150   0   0
144   0   0
139   0   0
133   0   0
127   0   0
122   0   0
116   0   0
111   0   0
105   0   0
100   0   0
 94   0   0
 89   0   0
 83   0   0
 76   0   0
 68   0   0
255 255 255
255 255 255
255 255 255
255 255 255
255 255 255
255 255 255
255 255 255
255 255 255
  0   0  64
  0   0  65
  0   0  67
  0   0  67
  0   0  67
  0   0  67
  0   0  67
  0   0  65
  0   0  64
255 255 255
255 255 255
255 255 255
255 255 255
255 255 255
255 255 255
255 255 255
255 255 255
 68   0   0
 76   0   0
 83   0   0
 89   0   0
 94   0   0
100   0   0
105   0   0
111   0   0
116   0   0
122   0   0
127   0   0
133   0   0
139   0   0
144   0   0
150   0   0
155   0   0
160   0   0
164   0   0
168   0   0
171   0   0
174   0   0
176   0   0
177   0   0
177   0   0
176   0   0
174   0   0
169   0   0
163   0   0
153   0   0
137   0   0
112   0   0
255 255 255
  0   0 123
  0   0 151
  0   0 170
  0   0 185
  0   0 196
  0   0 205
  0   0 211
  0   0 215
  0   0 216
  0   0 215
  0   0 210
  0   0 203
  0   0 191
  0   0 174
  0   0 147
  0   0  82
136   0   0
172   0   0
195   0   0
208   0   0
215   0   0
214   0   0
204   0   0
182   0   0
139   0   0
  0   0 118
  0   0 171
  0   0 193
  0   0 201
  0   0   0
  0   0   0
  0   0   0
  0   0   0
126   0   0
171   0   0
193   0   0
205   0   0
210   0   0
210   0   0
206   0   0
197   0   0
182   0   0
158   0   0
113   0   0
  0   0 119
  0   0 160
  0   0 180
  0   0 191
  0   0 193
  0   0 189
  0   0 178
  0   0 161
  0   0 134
  0   0  90
 96   0   0
121   0   0
127   0   0
121   0   0
 96   0   0
  0   0  90
  0   0 134
  0   0 161
  0   0 178
  0   0 189
  0   0 193
  0   0 191
  0   0 180
  0   0 160
  0   0 119
113   0   0
158   0   0
182   0   0
197   0   0
206   0   0
210   0   0
210   0   0
205   0   0
193   0   0
171   0   0
126   0   0
  0   0 124
  0   0 172
  0   0 195
  0   0 206
  0   0 206
  0   0 195
  0   0 168
  0   0 101
149   0   0
187   0   0
207   0   0
215   0   0
216   0   0
210   0   0
198   0   0
180   0   0
154   0   0
107   0   0
  0   0 114
  0   0 153
  0   0 176
  0   0 191
  0   0 201
  0   0 209
  0   0 213
  0   0 215
  0   0 215
  0   0 212
  0   0 207
  0   0 199
  0   0 190
  0   0 177
  0   0 161
  0   0 140
  0   0 109
 72   0   0
120   0   0
141   0   0
154   0   0
163   0   0
170   0   0
174   0   0
177   0   0
178   0   0
178   0   0
177   0   0
176   0   0
174   0   0
171   0   0
167   0   0
164   0   0
160   0   0
156   0   0
152   0   0
147   0   0
143   0   0
139   0   0
135   0   0
131   0   0
127   0   0
123   0   0
119   0   0
115   0   0
111   0   0
107   0   0
103   0   0
100   0   0
 97   0   0
 94   0   0
 91   0   0
 88   0   0
 86   0   0
 84   0   0
 83   0   0
 82   0   0
 81   0   0
 81   0   0
 81   0   0
 82   0   0
 83   0   0
 84   0   0
 86   0   0
 88   0   0
 91   0   0
 94   0   0
 97   0   0
100   0   0
103   0   0
107   0   0
111   0   0
115   0   0
119   0   0
123   0   0
127   0   0
131   0   0
135   0   0
139   0   0
143   0   0
147   0   0
152   0   0
156   0   0
160   0   0
164   0   0
167   0   0
171   0   0
174   0   0
176   0   0
177   0   0
178   0   0
178   0   0
177   0   0
174   0   0
170   0   0
163   0   0
154   0   0
141   0   0
120   0   0
 72   0   0
  0   0 109
  0   0 140
  0   0 161
  0   0 177
  0   0 190
  0   0 199
  0   0 207
  0   0 212
  0   0 215
  0   0 215
  0   0 213
  0   0 209
  0   0 201
  0   0 191
  0   0 176
  0   0 153
  0   0 114
107   0   0
154   0   0
180   0   0
198   0   0
210   0   0
216   0   0
215   0   0
207   0   0
187   0   0
149   0   0
  0   0 101
  0   0 168
  0   0 195
  0   0 206
  0   0 206
  0   0   0
  0   0   0
  0   0   0
  0   0   0
137   0   0
169   0   0
186   0   0
195   0   0
199   0   0
201   0   0
201   0   0
198   0   0
193   0   0
182   0   0
166   0   0
137   0   0
255 255 255
  0   0 135
  0   0 163
  0   0 177
  0   0 183
  0   0 183
  0   0 178
  0   0 169
  0   0 157
  0   0 144
  0   0 134
  0   0 130
  0   0 134
  0   0 144
  0   0 157
  0   0 169
  0   0 178
  0   0 183
  0   0 183
  0   0 177
  0   0 163
  0   0 135
255 255 255
137   0   0
166   0   0
182   0   0
193   0   0
198   0   0
201   0   0
201   0   0
199   0   0
195   0   0
186   0   0
169   0   0
137   0   0
  0   0  91
  0   0 158
  0   0 188
  0   0 205
  0   0 211
  0   0 207
  0   0 193
  0   0 161
255 255 255
158   0   0
191   0   0
208   0   0
215   0   0
215   0   0
210   0   0
199   0   0
185   0   0
165   0   0
138   0   0
 81   0   0
  0   0 120
  0   0 153
  0   0 173
  0   0 188
  0   0 199
  0   0 206
  0   0 212
  0   0 214
  0   0 215
  0   0 213
  0   0 209
  0   0 203
  0   0 195
  0   0 185
  0   0 172
  0   0 156
  0   0 134
  0   0 101
 80   0   0
121   0   0
140   0   0
153   0   0
162   0   0
169   0   0
173   0   0
176   0   0
178   0   0
178   0   0
178   0   0
177   0   0
176   0   0
174   0   0
171   0   0
169   0   0
166   0   0
163   0   0
160   0   0
157   0   0
154   0   0
151   0   0
149   0   0
146   0   0
143   0   0
140   0   0
137   0   0
134   0   0
132   0   0
129   0   0
127   0   0
125   0   0
124   0   0
122   0   0
121   0   0
120   0   0
119   0   0
119   0   0
119   0   0
119   0   0
119   0   0
120   0   0
121   0   0
122   0   0
124   0   0
125   0   0
127   0   0
129   0   0
132   0   0
134   0   0
137   0   0
140   0   0
143   0   0
146   0   0
149   0   0
151   0   0
154   0   0
157   0   0
160   0   0
163   0   0
166   0   0
169   0   0
171   0   0
174   0   0
176   0   0
177   0   0
178   0   0
178   0   0
178   0   0
176   0   0
173   0   0
169   0   0
162   0   0
153   0   0
140   0   0
121   0   0
 80   0   0
  0   0 101
  0   0 134
  0   0 156
  0   0 172
  0   0 185
  0   0 195
  0   0 203
  0   0 209
  0   0 213
  0   0 215
  0   0 214
  0   0 212
  0   0 206
  0   0 199
  0   0 188
  0   0 173
  0   0 153
  0   0 120
 81   0   0
138   0   0
165   0   0
185   0   0
199   0   0
210   0   0
215   0   0
215   0   0
208   0   0
191   0   0
158   0   0
255 255 255
  0   0 161
  0   0 193
  0   0 207
  0   0 211
  0   0 205
  0   0   0
  0   0   0
  0   0   0
  0   0   0
145   0   0
166   0   0
176   0   0
182   0   0
185   0   0
189   0   0
193   0   0
196   0   0
198   0   0
197   0   0
192   0   0
180   0   0
159   0   0
119   0   0
  0   0 109
  0   0 154
  0   0 175
  0   0 186
  0   0 191
  0   0 190
  0   0 187
  0   0 182
  0   0 178
  0   0 176
  0   0 178
  0   0 182
  0   0 187
  0   0 190
  0   0 191
  0   0 186
  0   0 175
  0   0 154
  0   0 109
119   0   0
159   0   0
180   0   0
192   0   0
197   0   0
198   0   0
196   0   0
193   0   0
189   0   0
185   0   0
182   0   0
176   0   0
166   0   0
145   0   0
 91   0   0
  0   0 134
  0   0 173
  0   0 197
  0   0 209
  0   0 213
  0   0 206
  0   0 188
  0   0 152
 90   0   0
164   0   0
192   0   0
207   0   0
213   0   0
212   0   0
207   0   0
198   0   0
187   0   0
173   0   0
155   0   0
130   0   0
 76   0   0
  0   0 116
  0   0 148
  0   0 168
  0   0 184
  0   0 195
  0   0 204
  0   0 209
  0   0 213
  0   0 214
  0   0 214
  0   0 211
  0   0 207
  0   0 201
  0   0 193
  0   0 182
  0   0 170
  0   0 154
  0   0 134
  0   0 103
 71   0   0
115   0   0
136   0   0
149   0   0
158   0   0
165   0   0
170   0   0
173   0   0
176   0   0
177   0   0
178   0   0
178   0   0
177   0   0
176   0   0
175   0   0
174   0   0
172   0   0
171   0   0
169   0   0
167   0   0
165   0   0
163   0   0
161   0   0
159   0   0
157   0   0
155   0   0
153   0   0
152   0   0
151   0   0
149   0   0
148   0   0
147   0   0
147   0   0
146   0   0
146   0   0
146   0   0
146   0   0
146   0   0
147   0   0
147   0   0
148   0   0
149   0   0
151   0   0
152   0   0
153   0   0
155   0   0
157   0   0
159   0   0
161   0   0
163   0   0
165   0   0
167   0   0
169   0   0
171   0   0
172   0   0
174   0   0
175   0   0
176   0   0
177   0   0
178   0   0
178   0   0
177   0   0
176   0   0
173   0   0
170   0   0
165   0   0
158   0   0
149   0   0
136   0   0
115   0   0
 71   0   0
  0   0 103
  0   0 134
  0   0 154
  0   0 170
  0   0 182
  0   0 193
  0   0 201
  0   0 207
  0   0 211
  0   0 214
  0   0 214
  0   0 213
  0   0 209
  0   0 204
  0   0 195
  0   0 184
  0   0 168
  0   0 148
  0   0 116
 76   0   0
130   0   0
155   0   0
173   0   0
187   0   0
198   0   0
207   0   0
212   0   0
213   0   0
207   0   0
192   0   0
164   0   0
 90   0   0
  0   0 152
  0   0 188
  0   0 206
  0   0 213
  0   0 209
  0   0 197
  0   0   0
  0   0   0
  0   0   0
  0   0   0
151   0   0
161   0   0
165   0   0
167   0   0
170   0   0
176   0   0
184   0   0
193   0   0
201   0   0
206   0   0
207   0   0
203   0   0
190   0   0
168   0   0
123   0   0
  0   0 121
  0   0 166
  0   0 188
  0   0 200
  0   0 205
  0   0 205
  0   0 203
  0   0 201
  0   0 200
  0   0 201
  0   0 203
  0   0 205
  0   0 205
  0   0 200
  0   0 188
  0   0 166
  0   0 121
123   0   0
168   0   0
190   0   0
203   0   0
207   0   0
206   0   0
201   0   0
193   0   0
184   0   0
176   0   0
170   0   0
167   0   0
165   0   0
161   0   0
151   0   0
125   0   0
  0   0  87
  0   0 151
  0   0 183
  0   0 202
  0   0 212
  0   0 213
  0   0 203
  0   0 182
  0   0 140
114   0   0
169   0   0
192   0   0
204   0   0
208   0   0
207   0   0
202   0   0
195   0   0
187   0   0
177   0   0
166   0   0
151   0   0
131   0   0
 93   0   0
  0   0 102
  0   0 139
  0   0 162
  0   0 178
  0   0 190
  0   0 200
  0   0 207
  0   0 211
  0   0 214
  0   0 214
  0   0 213
  0   0 210
  0   0 206
  0   0 200
  0   0 192
  0   0 182
  0   0 171
  0   0 157
  0   0 139
  0   0 115
  0   0  69
 98   0   0
124   0   0
139   0   0
150   0   0
158   0   0
164   0   0
168   0   0
172   0   0
174   0   0
176   0   0
177   0   0
178   0   0
178   0   0
178   0   0
178   0   0
177   0   0
176   0   0
176   0   0
175   0   0
174   0   0
172   0   0
171   0   0
170   0   0
169   0   0
168   0   0
168   0   0
167   0   0
166   0   0
166   0   0
166   0   0
165   0   0
165   0   0
165   0   0
166   0   0
166   0   0
166   0   0
167   0   0
168   0   0
168   0   0
169   0   0
170   0   0
171   0   0
172   0   0
174   0   0
175   0   0
176   0   0
176   0   0
177   0   0
178   0   0
178   0   0
178   0   0
178   0   0
177   0   0
176   0   0
174   0   0
172   0   0
168   0   0
164   0   0
158   0   0
150   0   0
139   0   0
124   0   0
 98   0   0
  0   0  69
  0   0 115
  0   0 139
  0   0 157
  0   0 171
  0   0 182
  0   0 192
  0   0 200
  0   0 206
  0   0 210
  0   0 213
  0   0 214
  0   0 214
  0   0 211
  0   0 207
  0   0 200
  0   0 190
  0   0 178
  0   0 162
  0   0 139
  0   0 102
 93   0   0
131   0   0
151   0   0
166   0   0
177   0   0
187   0   0
195   0   0
202   0   0
207   0   0
208   0   0
204   0   0
192   0   0
169   0   0
114   0   0
  0   0 140
  0   0 182
  0   0 203
  0   0 213
  0   0 212
  0   0 202
  0   0 183
  0   0   0
  0   0   0
  0   0   0
  0   0   0
154   0   0
157   0   0
155   0   0
153   0   0
156   0   0
163   0   0
176   0   0
189   0   0
201   0   0
210   0   0
215   0   0
214   0   0
206   0   0
188   0   0
155   0   0
255 255 255
  0   0 158
  0   0 189
  0   0 206
  0   0 214
  0   0 216
  0   0 215
  0   0 213
  0   0 212
  0   0 213
  0   0 215
  0   0 216
  0   0 214
  0   0 206
  0   0 189
  0   0 158
255 255 255
155   0   0
188   0   0
206   0   0
214   0   0
215   0   0
210   0   0
201   0   0
189   0   0
176   0   0
163   0   0
156   0   0
153   0   0
155   0   0
157   0   0
154   0   0
142   0   0
108   0   0
  0   0 115
  0   0 163
  0   0 190
  0   0 207
  0   0 214
  0   0 211
  0   0 199
  0   0 174
  0   0 123
130   0   0
172   0   0
191   0   0
200   0   0
202   0   0
200   0   0
195   0   0
190   0   0
184   0   0
178   0   0
172   0   0
164   0   0
154   0   0
138   0   0
111   0   0
  0   0  70
  0   0 126
  0   0 152
  0   0 170
  0   0 184
  0   0 195
  0   0 203
  0   0 208
  0   0 212
  0   0 214
  0   0 214
  0   0 213
  0   0 210
  0   0 206
  0   0 200
  0   0 193
  0   0 185
  0   0 175
  0   0 164
  0   0 150
  0   0 133
  0   0 110
  0   0  65
 95   0   0
119   0   0
134   0   0
145   0   0
153   0   0
159   0   0
164   0   0
167   0   0
170   0   0
173   0   0
175   0   0
176   0   0
177   0   0
178   0   0
178   0   0
178   0   0
178   0   0
178   0   0
178   0   0
178   0   0
178   0   0
177   0   0
177   0   0
177   0   0
177   0   0
177   0   0
177   0   0
177   0   0
177   0   0
177   0   0
177   0   0
177   0   0
177   0   0
177   0   0
178   0   0
178   0   0
178   0   0
178   0   0
178   0   0
178   0   0
178   0   0
178   0   0
177   0   0
176   0   0
175   0   0
173   0   0
170   0   0
167   0   0
164   0   0
159   0   0
153   0   0
145   0   0
134   0   0
119   0   0
 95   0   0
  0   0  65
  0   0 110
  0   0 133
  0   0 150
  0   0 164
  0   0 175
  0   0 185
  0   0 193
  0   0 200
  0   0 206
  0   0 210
  0   0 213
  0   0 214
  0   0 214
  0   0 212
  0   0 208
  0   0 203
  0   0 195
  0   0 184
  0   0 170
  0   0 152
  0   0 126
  0   0  70
111   0   0
138   0   0
154   0   0
164   0   0
172   0   0
178   0   0
184   0   0
190   0   0
195   0   0
200   0   0
202   0   0
200   0   0
191   0   0
172   0   0
130   0   0
  0   0 123
  0   0 174
  0   0 199
  0   0 211
  0   0 214
  0   0 207
  0   0 190
  0   0 163
  0   0   0
  0   0   0
  0   0   0
  0   0   0
156   0   0
153   0   0
147   0   0
143   0   0
146   0   0
156   0   0
170   0   0
185   0   0
199   0   0
210   0   0
216   0   0
217   0   0
210   0   0
195   0   0
166   0   0
 92   0   0
  0   0 151
  0   0 188
  0   0 207
  0   0 217
  0   0 220
  0   0 220
  0   0 218
  0   0 218
  0   0 218
  0   0 220
  0   0 220
  0   0 217
  0   0 207
  0   0 188
  0   0 151
 92   0   0
166   0   0
195   0   0
210   0   0
217   0   0
216   0   0
210   0   0
199   0   0
185   0   0
170   0   0
156   0   0
146   0   0
143   0   0
147   0   0
153   0   0
156   0   0
153   0   0
138   0   0
 85   0   0
  0   0 133
  0   0 173
  0   0 197
  0   0 210
  0   0 214
  0   0 209
  0   0 193
  0   0 163
  0   0  95
141   0   0
174   0   0
189   0   0
194   0   0
194   0   0
191   0   0
187   0   0
182   0   0
179   0   0
177   0   0
174   0   0
171   0   0
166   0   0
158   0   0
146   0   0
126   0   0
 85   0   0
  0   0 105
  0   0 139
  0   0 160
  0   0 176
  0   0 188
  0   0 197
  0   0 204
  0   0 209
  0   0 212
  0   0 214
  0   0 214
  0   0 213
  0   0 211
  0   0 207
  0   0 203
  0   0 197
  0   0 191
  0   0 183
  0   0 174
  0   0 164
  0   0 152
  0   0 138
  0   0 120
  0   0  95
255 255 255
 98   0   0
118   0   0
131   0   0
140   0   0
147   0   0
153   0   0
158   0   0
162   0   0
165   0   0
168   0   0
170   0   0
171   0   0
172   0   0
173   0   0
174   0   0
175   0   0
175   0   0
176   0   0
176   0   0
176   0   0
177   0   0
177   0   0
177   0   0
177   0   0
177   0   0
176   0   0
176   0   0
176   0   0
175   0   0
175   0   0
174   0   0
173   0   0
172   0   0
171   0   0
170   0   0
168   0   0
165   0   0
162   0   0
158   0   0
153   0   0
147   0   0
140   0   0
131   0   0
118   0   0
 98   0   0
255 255 255
  0   0  95
  0   0 120
  0   0 138
  0   0 152
  0   0 164
  0   0 174
  0   0 183
  0   0 191
  0   0 197
  0   0 203
  0   0 207
  0   0 211
  0   0 213
  0   0 214
  0   0 214
  0   0 212
  0   0 209
  0   0 204
  0   0 197
  0   0 188
  0   0 176
  0   0 160
  0   0 139
  0   0 105
 85   0   0
126   0   0
146   0   0
158   0   0
166   0   0
171   0   0
174   0   0
177   0   0
179   0   0
182   0   0
187   0   0
191   0   0
194   0   0
194   0   0
189   0   0
174   0   0
141   0   0
  0   0  95
  0   0 163
  0   0 193
  0   0 209
  0   0 214
  0   0 210
  0   0 197
  0   0 173
  0   0 133
  0   0   0
  0   0   0
  0   0   0
  0   0   0
158   0   0
152   0   0
144   0   0
140   0   0
143   0   0
153   0   0
167   0   0
182   0   0
195   0   0
205   0   0
210   0   0
211   0   0
205   0   0
191   0   0
164   0   0
 99   0   0
  0   0 144
  0   0 182
  0   0 202
  0   0 213
  0   0 218
  0   0 219
  0   0 219
  0   0 219
  0   0 219
  0   0 219
  0   0 218
  0   0 213
  0   0 202
  0   0 182
  0   0 144
 99   0   0
164   0   0
191   0   0
205   0   0
211   0   0
210   0   0
205   0   0
195   0   0
182   0   0
167   0   0
153   0   0
143   0   0
140   0   0
144   0   0
152   0   0
158   0   0
160   0   0
154   0   0
132   0   0
255 255 255
  0   0 148
  0   0 182
  0   0 202
  0   0 213
  0   0 214
  0   0 205
  0   0 185
  0   0 149
 70   0   0
150   0   0
174   0   0
185   0   0
187   0   0
185   0   0
180   0   0
176   0   0
173   0   0
172   0   0
172   0   0
173   0   0
174   0   0
173   0   0
170   0   0
164   0   0
154   0   0
139   0   0
114   0   0
255 255 255
  0   0 119
  0   0 146
  0   0 164
  0   0 178
  0   0 188
  0   0 197
  0   0 203
  0   0 208
  0   0 211
  0   0 213
  0   0 214
  0   0 213
  0   0 212
  0   0 210
  0   0 206
  0   0 202
  0   0 197
  0   0 191
  0   0 185
  0   0 178
  0   0 170
  0   0 161
  0   0 151
  0   0 139
  0   0 126
  0   0 110
  0   0  86
255 255 255
 92   0   0
109   0   0
121   0   0
130   0   0
136   0   0
141   0   0
145   0   0
149   0   0
151   0   0
154   0   0
155   0   0
157   0   0
158   0   0
159   0   0
160   0   0
160   0   0
160   0   0
160   0   0
160   0   0
159   0   0
158   0   0
157   0   0
155   0   0
154   0   0
151   0   0
149   0   0
145   0   0
141   0   0
136   0   0
130   0   0
121   0   0
109   0   0
 92   0   0
255 255 255
  0   0  86
  0   0 110
  0   0 126
  0   0 139
  0   0 151
  0   0 161
  0   0 170
  0   0 178
  0   0 185
  0   0 191
  0   0 197
  0   0 202
  0   0 206
  0   0 210
  0   0 212
  0   0 213
  0   0 214
  0   0 213
  0   0 211
  0   0 208
  0   0 203
  0   0 197
  0   0 188
  0   0 178
  0   0 164
  0   0 146
  0   0 119
255 255 255
114   0   0
139   0   0
154   0   0
164   0   0
170   0   0
173   0   0
174   0   0
173   0   0
172   0   0
172   0   0
173   0   0
176   0   0
180   0   0
185   0   0
187   0   0
185   0   0
174   0   0
150   0   0
 70   0   0
  0   0 149
  0   0 185
  0   0 205
  0   0 214
  0   0 213
  0   0 202
  0   0 182
  0   0 148
255 255 255
  0   0   0
  0   0   0
  0   0   0
  0   0   0
161   0   0
154   0   0
147   0   0
144   0   0
147   0   0
155   0   0
165   0   0
176   0   0
186   0   0
193   0   0
196   0   0
196   0   0
190   0   0
176   0   0
151   0   0
 94   0   0
  0   0 133
  0   0 170
  0   0 191
  0   0 203
  0   0 211
  0   0 215
  0   0 216
  0   0 217
  0   0 216
  0   0 215
  0   0 211
  0   0 203
  0   0 191
  0   0 170
  0   0 133
 94   0   0
151   0   0
176   0   0
190   0   0
196   0   0
196   0   0
193   0   0
186   0   0
176   0   0
165   0   0
155   0   0
147   0   0
144   0   0
147   0   0
154   0   0
161   0   0
166   0   0
164   0   0
153   0   0
122   0   0
  0   0 106
  0   0 161
  0   0 190
  0   0 207
  0   0 214
  0   0 211
  0   0 199
  0   0 175
  0   0 130
112   0   0
157   0   0
174   0   0
180   0   0
179   0   0
173   0   0
167   0   0
162   0   0
161   0   0
162   0   0
165   0   0
169   0   0
173   0   0
175   0   0
175   0   0
173   0   0
168   0   0
161   0   0
150   0   0
133   0   0
104   0   0
  0   0  75
  0   0 123
  0   0 147
  0   0 163
  0   0 176
  0   0 187
  0   0 195
  0   0 201
  0   0 206
  0   0 210
  0   0 212
  0   0 214
  0   0 214
  0   0 213
  0   0 212
  0   0 210
  0   0 207
  0   0 204
  0   0 200
  0   0 196
  0   0 191
  0   0 186
  0   0 180
  0   0 174
  0   0 168
  0   0 161
  0   0 154
  0   0 146
  0   0 138
  0   0 129
  0   0 119
  0   0 108
  0   0  97
  0   0  82
255 255 255
255 255 255
 73   0   0
 84   0   0
 91   0   0
 96   0   0
 99   0   0
101   0   0
101   0   0
101   0   0
 99   0   0
 96   0   0
 91   0   0
 84   0   0
 73   0   0
255 255 255
255 255 255
  0   0  82
  0   0  97
  0   0 108
  0   0 119
  0   0 129
  0   0 138
  0   0 146
  0   0 154
  0   0 161
  0   0 168
  0   0 174
  0   0 180
  0   0 186
  0   0 191
  0   0 196
  0   0 200
  0   0 204
  0   0 207
  0   0 210
  0   0 212
  0   0 213
  0   0 214
  0   0 214
  0   0 212
  0   0 210
  0   0 206
  0   0 201
  0   0 195
  0   0 187
  0   0 176
  0   0 163
  0   0 147
  0   0 123
  0   0  75
104   0   0
133   0   0
150   0   0
161   0   0
168   0   0
173   0   0
175   0   0
175   0   0
173   0   0
169   0   0
165   0   0
162   0   0
161   0   0
162   0   0
167   0   0
173   0   0
179   0   0
180   0   0
174   0   0
157   0   0
112   0   0
  0   0 130
  0   0 175
  0   0 199
  0   0 211
  0   0 214
  0   0 207
  0   0 190
  0   0 161
  0   0 106
122   0   0
  0   0   0
  0   0   0
  0   0   0
  0   0   0
166   0   0
159   0   0
154   0   0
152   0   0
153   0   0
157   0   0
161   0   0
166   0   0
169   0   0
171   0   0
170   0   0
167   0   0
160   0   0
149   0   0
130   0   0
 89   0   0
  0   0 108
  0   0 145
  0   0 169
  0   0 186
  0   0 198
  0   0 207
  0   0 212
  0   0 214
  0   0 212
  0   0 207
  0   0 198
  0   0 186
  0   0 169
  0   0 145
  0   0 108
 89   0   0
130   0   0
149   0   0
160   0   0
167   0   0
170   0   0
171   0   0
169   0   0
166   0   0
161   0   0
157   0   0
153   0   0
152   0   0
154   0   0
159   0   0
166   0   0
171   0   0
172   0   0
167   0   0
150   0   0
104   0   0
  0   0 130
  0   0 173
  0   0 198
  0   0 211
  0   0 214
  0   0 208
  0   0 191
  0   0 161
  0   0  98
132   0   0
161   0   0
172   0   0
173   0   0
168   0   0
160   0   0
152   0   0
147   0   0
146   0   0
150   0   0
156   0   0
162   0   0
168   0   0
173   0   0
176   0   0
177   0   0
176   0   0
172   0   0
167   0   0
159   0   0
148   0   0
131   0   0
104   0   0
  0   0  69
  0   0 119
  0   0 142
  0   0 159
  0   0 172
  0   0 183
  0   0 191
  0   0 198
  0   0 203
  0   0 207
  0   0 210
  0   0 212
  0   0 213
  0   0 214
  0   0 214
  0   0 213
  0   0 212
  0   0 210
  0   0 208
  0   0 206
  0   0 203
  0   0 200
  0   0 197
  0   0 193
  0   0 189
  0   0 186
  0   0 182
  0   0 178
  0   0 174
  0   0 171
  0   0 168
  0   0 165
  0   0 162
  0   0 159
  0   0 157
  0   0 154
  0   0 153
  0   0 152
  0   0 151
  0   0 151
  0   0 151
  0   0 152
  0   0 153
  0   0 154
  0   0 157
  0   0 159
  0   0 162
  0   0 165
  0   0 168
  0   0 171
  0   0 174
  0   0 178
  0   0 182
  0   0 186
  0   0 189
  0   0 193
  0   0 197
  0   0 200
  0   0 203
  0   0 206
  0   0 208
  0   0 210
  0   0 212
  0   0 213
  0   0 214
  0   0 214
  0   0 213
  0   0 212
  0   0 210
  0   0 207
  0   0 203
  0   0 198
  0   0 191
  0   0 183
  0   0 172
  0   0 159
  0   0 142
  0   0 119
  0   0  69
104   0   0
131   0   0
148   0   0
159   0   0
167   0   0
172   0   0
176   0   0
177   0   0
176   0   0
173   0   0
168   0   0
162   0   0
156   0   0
150   0   0
146   0   0
147   0   0
152   0   0
160   0   0
168   0   0
173   0   0
172   0   0
161   0   0
132   0   0
  0   0  98
  0   0 161
  0   0 191
  0   0 208
  0   0 214
  0   0 211
  0   0 198
  0   0 173
  0   0 130
104   0   0
150   0   0
  0   0   0
  0   0   0
  0   0   0
  0   0   0
171   0   0
166   0   0
161   0   0
158   0   0
156   0   0
154   0   0
151   0   0
145   0   0
137   0   0
126   0   0
114   0   0
102   0   0
 96   0   0
 96   0   0
101   0   0
101   0   0
 89   0   0
  0   0  73
  0   0 125
  0   0 158
  0   0 181
  0   0 199
  0   0 209
  0   0 212
  0   0 209
  0   0 199
  0   0 181
  0   0 158
  0   0 125
  0   0  73
 89   0   0
101   0   0
101   0   0
 96   0   0
 96   0   0
102   0   0
114   0   0
126   0   0
137   0   0
145   0   0
151   0   0
154   0   0
156   0   0
158   0   0
161   0   0
166   0   0
171   0   0
176   0   0
179   0   0
177   0   0
167   0   0
144   0   0
255 255 255
  0   0 148
  0   0 183
  0   0 203
  0   0 213
  0   0 212
  0   0 202
  0   0 180
  0   0 142
 82   0   0
145   0   0
164   0   0
170   0   0
166   0   0
157   0   0
145   0   0
134   0   0
128   0   0
128   0   0
134   0   0
143   0   0
152   0   0
160   0   0
167   0   0
172   0   0
175   0   0
177   0   0
177   0   0
176   0   0
172   0   0
167   0   0
160   0   0
149   0   0
134   0   0
112   0   0
255 255 255
  0   0 106
  0   0 133
  0   0 151
  0   0 165
  0   0 175
  0   0 184
  0   0 191
  0   0 197
  0   0 202
  0   0 206
  0   0 209
  0   0 211
  0   0 212
  0   0 213
  0   0 214
  0   0 214
  0   0 214
  0   0 213
  0   0 212
  0   0 211
  0   0 210
  0   0 208
  0   0 206
  0   0 205
  0   0 203
  0   0 201
  0   0 200
  0   0 198
  0   0 197
  0   0 196
  0   0 194
  0   0 194
  0   0 193
  0   0 192
  0   0 192
  0   0 192
  0   0 192
  0   0 192
  0   0 193
  0   0 194
  0   0 194
  0   0 196
  0   0 197
  0   0 198
  0   0 200
  0   0 201
  0   0 203
  0   0 205
  0   0 206
  0   0 208
  0   0 210
  0   0 211
  0   0 212
  0   0 213
  0   0 214
  0   0 214
  0   0 214
  0   0 213
  0   0 212
  0   0 211
  0   0 209
  0   0 206
  0   0 202
  0   0 197
  0   0 191
  0   0 184
  0   0 175
  0   0 165
  0   0 151
  0   0 133
  0   0 106
255 255 255
112   0   0
134   0   0
149   0   0
160   0   0
167   0   0
172   0   0
176   0   0
177   0   0
177   0   0
175   0   0
172   0   0
167   0   0
160   0   0
152   0   0
143   0   0
134   0   0
128   0   0
128   0   0
134   0   0
145   0   0
157   0   0
166   0   0
170   0   0
164   0   0
145   0   0
 82   0   0
  0   0 142
  0   0 180
  0   0 202
  0   0 212
  0   0 213
  0   0 203
  0   0 183
  0   0 148
255 255 255
144   0   0
167   0   0
  0   0   0
  0   0   0
  0   0   0
  0   0   0
176   0   0
171   0   0
166   0   0
160   0   0
153   0   0
142   0   0
125   0   0
 91   0   0
  0   0  91
  0   0 124
  0   0 138
  0   0 141
  0   0 133
  0   0 109
 78   0   0
126   0   0
142   0   0
141   0   0
116   0   0
  0   0 106
  0   0 161
  0   0 190
  0   0 207
  0   0 212
  0   0 207
  0   0 190
  0   0 161
  0   0 106
116   0   0
141   0   0
142   0   0
126   0   0
 78   0   0
  0   0 109
  0   0 133
  0   0 141
  0   0 138
  0   0 124
  0   0  91
 91   0   0
125   0   0
142   0   0
153   0   0
160   0   0
166   0   0
171   0   0
176   0   0
181   0   0
185   0   0
185   0   0
181   0   0
167   0   0
135   0   0
  0   0  99
  0   0 162
  0   0 192
  0   0 208
  0   0 213
  0   0 209
  0   0 194
  0   0 166
  0   0 114
121   0   0
154   0   0
166   0   0
165   0   0
157   0   0
144   0   0
127   0   0
111   0   0
102   0   0
105   0   0
115   0   0
127   0   0
139   0   0
149   0   0
158   0   0
165   0   0
170   0   0
174   0   0
177   0   0
178   0   0
178   0   0
176   0   0
173   0   0
169   0   0
162   0   0
153   0   0
140   0   0
123   0   0
 95   0   0
  0   0  73
  0   0 115
  0   0 136
  0   0 151
  0   0 163
  0   0 173
  0   0 181
  0   0 187
  0   0 193
  0   0 198
  0   0 202
  0   0 205
  0   0 207
  0   0 210
  0   0 211
  0   0 212
  0   0 213
  0   0 214
  0   0 214
  0   0 214
  0   0 214
  0   0 213
  0   0 213
  0   0 213
  0   0 213
  0   0 212
  0   0 212
  0   0 211
  0   0 211
  0   0 211
  0   0 211
  0   0 211
  0   0 210
  0   0 211
  0   0 211
  0   0 211
  0   0 211
  0   0 211
  0   0 212
  0   0 212
  0   0 213
  0   0 213
  0   0 213
  0   0 213
  0   0 214
  0   0 214
  0   0 214
  0   0 214
  0   0 213
  0   0 212
  0   0 211
  0   0 210
  0   0 207
  0   0 205
  0   0 202
  0   0 198
  0   0 193
  0   0 187
  0   0 181
  0   0 173
  0   0 163
  0   0 151
  0   0 136
  0   0 115
  0   0  73
 95   0   0
123   0   0
140   0   0
153   0   0
162   0   0
169   0   0
173   0   0
176   0   0
178   0   0
178   0   0
177   0   0
174   0   0
170   0   0
165   0   0
158   0   0
149   0   0
139   0   0
127   0   0
115   0   0
105   0   0
102   0   0
111   0   0
127   0   0
144   0   0
157   0   0
165   0   0
166   0   0
154   0   0
121   0   0
  0   0 114
  0   0 166
  0   0 194
  0   0 209
  0   0 213
  0   0 208
  0   0 192
  0   0 162
  0   0  99
135   0   0
167   0   0
181   0   0
  0   0   0
  0   0   0
  0   0   0
  0   0   0
179   0   0
172   0   0
164   0   0
154   0   0
138   0   0
108   0   0
  0   0  87
  0   0 134
  0   0 158
  0   0 172
  0   0 178
  0   0 175
  0   0 161
  0   0 128
 98   0   0
152   0   0
172   0   0
176   0   0
162   0   0
114   0   0
  0   0 140
  0   0 184
  0   0 205
  0   0 212
  0   0 205
  0   0 184
  0   0 140
114   0   0
162   0   0
176   0   0
172   0   0
152   0   0
 98   0   0
  0   0 128
  0   0 161
  0   0 175
  0   0 178
  0   0 172
  0   0 158
  0   0 134
  0   0  87
108   0   0
138   0   0
154   0   0
164   0   0
172   0   0
179   0   0
185   0   0
190   0   0
192   0   0
191   0   0
183   0   0
164   0   0
121   0   0
  0   0 126
  0   0 174
  0   0 198
  0   0 210
  0   0 212
  0   0 203
  0   0 183
  0   0 147
255 255 255
140   0   0
160   0   0
165   0   0
160   0   0
147   0   0
128   0   0
104   0   0
 76   0   0
255 255 255
255 255 255
 87   0   0
107   0   0
123   0   0
135   0   0
146   0   0
155   0   0
162   0   0
168   0   0
172   0   0
176   0   0
178   0   0
179   0   0
179   0   0
177   0   0
175   0   0
171   0   0
165   0   0
158   0   0
149   0   0
137   0   0
121   0   0
 96   0   0
255 255 255
  0   0 106
  0   0 128
  0   0 143
  0   0 155
  0   0 164
  0   0 172
  0   0 179
  0   0 184
  0   0 189
  0   0 194
  0   0 197
  0   0 200
  0   0 202
  0   0 204
  0   0 206
  0   0 208
  0   0 209
  0   0 210
  0   0 210
  0   0 211
  0   0 212
  0   0 212
  0   0 213
  0   0 213
  0   0 213
  0   0 213
  0   0 213
  0   0 213
  0   0 213
  0   0 213
  0   0 213
  0   0 213
  0   0 213
  0   0 212
  0   0 212
  0   0 211
  0   0 210
  0   0 210
  0   0 209
  0   0 208
  0   0 206
  0   0 204
  0   0 202
  0   0 200
  0   0 197
  0   0 194
  0   0 189
  0   0 184
  0   0 179
  0   0 172
  0   0 164
  0   0 155
  0   0 143
  0   0 128
  0   0 106
255 255 255
 96   0   0
121   0   0
137   0   0
149   0   0
158   0   0
165   0   0
171   0   0
175   0   0
177   0   0
179   0   0
179   0   0
178   0   0
176   0   0
172   0   0
168   0   0
162   0   0
155   0   0
146   0   0
135   0   0
123   0   0
107   0   0
 87   0   0
255 255 255
255 255 255
 76   0   0
104   0   0
128   0   0
147   0   0
160   0   0
165   0   0
160   0   0
140   0   0
255 255 255
  0   0 147
  0   0 183
  0   0 203
  0   0 212
  0   0 210
  0   0 198
  0   0 174
  0   0 126
121   0   0
164   0   0
183   0   0
191   0   0
  0   0   0
  0   0   0
  0   0   0
  0   0   0
177   0   0
167   0   0
153   0   0
132   0   0
 85   0   0
  0   0 115
  0   0 151
  0   0 173
  0   0 188
  0   0 195
  0   0 196
  0   0 187
  0   0 166
  0   0 116
132   0   0
174   0   0
192   0   0
195   0   0
182   0   0
144   0   0
  0   0 121
  0   0 179
  0   0 204
  0   0 211
  0   0 204
  0   0 179
  0   0 121
144   0   0
182   0   0
195   0   0
192   0   0
174   0   0
132   0   0
  0   0 116
  0   0 166
  0   0 187
  0   0 196
  0   0 195
  0   0 188
  0   0 173
  0   0 151
  0   0 115
 85   0   0
132   0   0
153   0   0
167   0   0
177   0   0
185   0   0
192   0   0
197   0   0
198   0   0
195   0   0
183   0   0
159   0   0
 96   0   0
  0   0 145
  0   0 183
  0   0 203
  0   0 211
  0   0 208
  0   0 194
  0   0 168
  0   0 119
116   0   0
152   0   0
164   0   0
163   0   0
153   0   0
135   0   0
109   0   0
 65   0   0
  0   0  77
  0   0  88
  0   0  83
255 255 255
 75   0   0
101   0   0
118   0   0
131   0   0
141   0   0
150   0   0
157   0   0
163   0   0
168   0   0
172   0   0
176   0   0
177   0   0
179   0   0
179   0   0
178   0   0
176   0   0
173   0   0
170   0   0
165   0   0
158   0   0
151   0   0
141   0   0
129   0   0
113   0   0
 88   0   0
255 255 255
  0   0 103
  0   0 122
  0   0 136
  0   0 146
  0   0 155
  0   0 162
  0   0 168
  0   0 173
  0   0 178
  0   0 182
  0   0 185
  0   0 187
  0   0 190
  0   0 192
  0   0 194
  0   0 195
  0   0 197
  0   0 198
  0   0 199
  0   0 199
  0   0 200
  0   0 200
  0   0 200
  0   0 200
  0   0 200
  0   0 199
  0   0 199
  0   0 198
  0   0 197
  0   0 195
  0   0 194
  0   0 192
  0   0 190
  0   0 187
  0   0 185
  0   0 182
  0   0 178
  0   0 173
  0   0 168
  0   0 162
  0   0 155
  0   0 146
  0   0 136
  0   0 122
  0   0 103
255 255 255
 88   0   0
113   0   0
129   0   0
141   0   0
151   0   0
158   0   0
165   0   0
170   0   0
173   0   0
176   0   0
178   0   0
179   0   0
179   0   0
177   0   0
176   0   0
172   0   0
168   0   0
163   0   0
157   0   0
150   0   0
141   0   0
131   0   0
118   0   0
101   0   0
 75   0   0
255 255 255
  0   0  83
  0   0  88
  0   0  77
 65   0   0
109   0   0
135   0   0
153   0   0
163   0   0
164   0   0
152   0   0
116   0   0
  0   0 119
  0   0 168
  0   0 194
  0   0 208
  0   0 211
  0   0 203
  0   0 183
  0   0 145
 96   0   0
159   0   0
183   0   0
195   0   0
198   0   0
  0   0   0
  0   0   0
  0   0   0
  0   0   0
167   0   0
150   0   0
122   0   0
255 255 255
  0   0 133
  0   0 163
  0   0 183
  0   0 197
  0   0 205
  0   0 206
  0   0 201
  0   0 185
  0   0 153
 72   0   0
161   0   0
191   0   0
204   0   0
204   0   0
189   0   0
151   0   0
  0   0 111
  0   0 175
  0   0 201
  0   0 208
  0   0 201
  0   0 175
  0   0 111
151   0   0
189   0   0
204   0   0
204   0   0
191   0   0
161   0   0
 72   0   0
  0   0 153
  0   0 185
  0   0 201
  0   0 206
  0   0 205
  0   0 197
  0   0 183
  0   0 163
  0   0 133
255 255 255
122   0   0
150   0   0
167   0   0
181   0   0
191   0   0
198   0   0
203   0   0
203   0   0
197   0   0
183   0   0
152   0   0
255 255 255
  0   0 158
  0   0 190
  0   0 205
  0   0 209
  0   0 201
  0   0 182
  0   0 148
255 255 255
139   0   0
160   0   0
164   0   0
158   0   0
143   0   0
120   0   0
 81   0   0
  0   0  80
  0   0 101
  0   0 106
  0   0 102
  0   0  92
  0   0  69
 65   0   0
 94   0   0
111   0   0
124   0   0
135   0   0
143   0   0
151   0   0
157   0   0
163   0   0
167   0   0
171   0   0
174   0   0
176   0   0
178   0   0
179   0   0
179   0   0
178   0   0
176   0   0
174   0   0
171   0   0
167   0   0
163   0   0
157   0   0
151   0   0
143   0   0
134   0   0
123   0   0
108   0   0
 87   0   0
255 255 255
  0   0  87
  0   0 106
  0   0 119
  0   0 128
  0   0 136
  0   0 142
  0   0 147
  0   0 152
  0   0 156
  0   0 159
  0   0 162
  0   0 164
  0   0 165
  0   0 167
  0   0 168
  0   0 168
  0   0 168
  0   0 168
  0   0 168
  0   0 167
  0   0 165
  0   0 164
  0   0 162
  0   0 159
  0   0 156
  0   0 152
  0   0 147
  0   0 142
  0   0 136
  0   0 128
  0   0 119
  0   0 106
  0   0  87
255 255 255
 87   0   0
108   0   0
123   0   0
134   0   0
143   0   0
151   0   0
157   0   0
163   0   0
167   0   0
171   0   0
174   0   0
176   0   0
178   0   0
179   0   0
179   0   0
178   0   0
176   0   0
174   0   0
171   0   0
167   0   0
163   0   0
157   0   0
151   0   0
143   0   0
135   0   0
124   0   0
111   0   0
 94   0   0
 65   0   0
  0   0  69
  0   0  92
  0   0 102
  0   0 106
  0   0 101
  0   0  80
 81   0   0
120   0   0
143   0   0
158   0   0
164   0   0
160   0   0
139   0   0
255 255 255
  0   0 148
  0   0 182
  0   0 201
  0   0 209
  0   0 205
  0   0 190
  0   0 158
255 255 255
152   0   0
183   0   0
197   0   0
203   0   0
203   0   0
  0   0   0
  0   0   0
  0   0   0
  0   0   0
144   0   0
104   0   0
  0   0 106
  0   0 148
  0   0 173
  0   0 190
  0   0 202
  0   0 209
  0   0 211
  0   0 206
  0   0 193
  0   0 168
  0   0 109
142   0   0
182   0   0
202   0   0
208   0   0
203   0   0
184   0   0
144   0   0
  0   0 113
  0   0 170
  0   0 193
  0   0 200
  0   0 193
  0   0 170
  0   0 113
144   0   0
184   0   0
203   0   0
208   0   0
202   0   0
182   0   0
142   0   0
  0   0 109
  0   0 168
  0   0 193
  0   0 206
  0   0 211
  0   0 209
  0   0 202
  0   0 190
  0   0 173
  0   0 148
  0   0 106
104   0   0
144   0   0
167   0   0
183   0   0
195   0   0
203   0   0
207   0   0
206   0   0
198   0   0
180   0   0
142   0   0
  0   0 108
  0   0 168
  0   0 194
  0   0 205
  0   0 204
  0   0 191
  0   0 166
  0   0 115
119   0   0
153   0   0
164   0   0
163   0   0
152   0   0
132   0   0
101   0   0
255 255 255
  0   0 101
  0   0 112
  0   0 114
  0   0 111
  0   0 104
  0   0  93
  0   0  73
255 255 255
 84   0   0
102   0   0
115   0   0
125   0   0
134   0   0
142   0   0
149   0   0
155   0   0
160   0   0
165   0   0
169   0   0
172   0   0
174   0   0
176   0   0
178   0   0
179   0   0
179   0   0
178   0   0
177   0   0
176   0   0
174   0   0
172   0   0
169   0   0
165   0   0
161   0   0
157   0   0
152   0   0
147   0   0
142   0   0
136   0   0
129   0   0
123   0   0
115   0   0
107   0   0
 98   0   0
 87   0   0
 73   0   0
255 255 255
255 255 255
  0   0  69
  0   0  77
  0   0  82
  0   0  85
  0   0  86
  0   0  85
  0   0  82
  0   0  77
  0   0  69
255 255 255
255 255 255
 73   0   0
 87   0   0
 98   0   0
107   0   0
115   0   0
123   0   0
129   0   0
136   0   0
142   0   0
147   0   0
152   0   0
157   0   0
161   0   0
165   0   0
169   0   0
172   0   0
174   0   0
176   0   0
177   0   0
178   0   0
179   0   0
179   0   0
178   0   0
176   0   0
174   0   0
172   0   0
169   0   0
165   0   0
160   0   0
155   0   0
149   0   0
142   0   0
134   0   0
125   0   0
115   0   0
102   0   0
 84   0   0
255 255 255
  0   0  73
  0   0  93
  0   0 104
  0   0 111
  0   0 114
  0   0 112
  0   0 101
255 255 255
101   0   0
132   0   0
152   0   0
163   0   0
164   0   0
153   0   0
119   0   0
  0   0 115
  0   0 166
  0   0 191
  0   0 204
  0   0 205
  0   0 194
  0   0 168
  0   0 108
142   0   0
180   0   0
198   0   0
206   0   0
207   0   0
203   0   0
  0   0   0
  0   0   0
  0   0   0
  0   0   0
255 255 255
  0   0 130
  0   0 161
  0   0 182
  0   0 197
  0   0 207
  0   0 212
  0   0 213
  0   0 207
  0   0 195
  0   0 171
  0   0 122
130   0   0
174   0   0
196   0   0
205   0   0
203   0   0
192   0   0
168   0   0
120   0   0
  0   0 121
  0   0 162
  0   0 180
  0   0 185
  0   0 180
  0   0 162
  0   0 121
120   0   0
168   0   0
192   0   0
203   0   0
205   0   0
196   0   0
174   0   0
130   0   0
  0   0 122
  0   0 171
  0   0 195
  0   0 207
  0   0 213
  0   0 212
  0   0 207
  0   0 197
  0   0 182
  0   0 161
  0   0 130
255 255 255
135   0   0
164   0   0
183   0   0
197   0   0
206   0   0
210   0   0
208   0   0
198   0   0
175   0   0
127   0   0
  0   0 130
  0   0 175
  0   0 195
  0   0 201
  0   0 195
  0   0 177
  0   0 141
 79   0   0
144   0   0
162   0   0
166   0   0
159   0   0
143   0   0
118   0   0
 71   0   0
  0   0  92
  0   0 111
  0   0 118
  0   0 118
  0   0 116
  0   0 110
  0   0 103
  0   0  93
  0   0  79
255 255 255
 67   0   0
 88   0   0
102   0   0
113   0   0
122   0   0
131   0   0
138   0   0
145   0   0
151   0   0
156   0   0
161   0   0
165   0   0
168   0   0
171   0   0
174   0   0
175   0   0
177   0   0
178   0   0
179   0   0
179   0   0
178   0   0
178   0   0
177   0   0
176   0   0
174   0   0
173   0   0
171   0   0
169   0   0
167   0   0
165   0   0
164   0   0
162   0   0
160   0   0
158   0   0
155   0   0
154   0   0
152   0   0
150   0   0
149   0   0
149   0   0
148   0   0
148   0   0
148   0   0
149   0   0
149   0   0
150   0   0
152   0   0
154   0   0
155   0   0
158   0   0
160   0   0
162   0   0
164   0   0
165   0   0
167   0   0
169   0   0
171   0   0
173   0   0
174   0   0
176   0   0
177   0   0
178   0   0
178   0   0
179   0   0
179   0   0
178   0   0
177   0   0
175   0   0
174   0   0
171   0   0
168   0   0
165   0   0
161   0   0
156   0   0
151   0   0
145   0   0
138   0   0
131   0   0
122   0   0
113   0   0
102   0   0
 88   0   0
 67   0   0
255 255 255
  0   0  79
  0   0  93
  0   0 103
  0   0 110
  0   0 116
  0   0 118
  0   0 118
  0   0 111
  0   0  92
 71   0   0
118   0   0
143   0   0
159   0   0
166   0   0
162   0   0
144   0   0
 79   0   0
  0   0 141
  0   0 177
  0   0 195
  0   0 201
  0   0 195
  0   0 175
  0   0 130
127   0   0
175   0   0
198   0   0
208   0   0
210   0   0
206   0   0
197   0   0
  0   0   0
  0   0   0
  0   0   0
  0   0   0
  0   0 148
  0   0 173
  0   0 190
  0   0 202
  0   0 210
  0   0 214
  0   0 213
  0   0 206
  0   0 193
  0   0 168
  0   0 118
130   0   0
173   0   0
193   0   0
201   0   0
200   0   0
189   0   0
168   0   0
134   0   0
255 255 255
  0   0 128
  0   0 147
  0   0 156
  0   0 158
  0   0 156
  0   0 147
  0   0 128
255 255 255
134   0   0
168   0   0
189   0   0
200   0   0
201   0   0
193   0   0
173   0   0
130   0   0
  0   0 118
  0   0 168
  0   0 193
  0   0 206
  0   0 213
  0   0 214
  0   0 210
  0   0 202
  0   0 190
  0   0 173
  0   0 148
  0   0  99
121   0   0
159   0   0
183   0   0
198   0   0
208   0   0
211   0   0
207   0   0
194   0   0
167   0   0
103   0   0
  0   0 144
  0   0 179
  0   0 194
  0   0 195
  0   0 183
  0   0 155
  0   0  92
131   0   0
159   0   0
168   0   0
165   0   0
153   0   0
133   0   0
100   0   0
  0   0  68
  0   0 105
  0   0 116
  0   0 120
  0   0 120
  0   0 117
  0   0 113
  0   0 108
  0   0 102
  0   0  95
  0   0  86
  0   0  74
255 255 255
255 255 255
 83   0   0
 97   0   0
108   0   0
117   0   0
125   0   0
133   0   0
139   0   0
145   0   0
150   0   0
155   0   0
159   0   0
163   0   0
166   0   0
169   0   0
171   0   0
173   0   0
175   0   0
176   0   0
177   0   0
178   0   0
178   0   0
178   0   0
178   0   0
178   0   0
178   0   0
178   0   0
178   0   0
177   0   0
177   0   0
176   0   0
176   0   0
175   0   0
175   0   0
174   0   0
174   0   0
174   0   0
173   0   0
173   0   0
173   0   0
174   0   0
174   0   0
174   0   0
175   0   0
175   0   0
176   0   0
176   0   0
177   0   0
177   0   0
178   0   0
178   0   0
178   0   0
178   0   0
178   0   0
178   0   0
178   0   0
178   0   0
177   0   0
176   0   0
175   0   0
173   0   0
171   0   0
169   0   0
166   0   0
163   0   0
159   0   0
155   0   0
150   0   0
145   0   0
139   0   0
133   0   0
125   0   0
117   0   0
108   0   0
 97   0   0
 83   0   0
255 255 255
255 255 255
  0   0  74
  0   0  86
  0   0  95
  0   0 102
  0   0 108
  0   0 113
  0   0 117
  0   0 120
  0   0 120
  0   0 116
  0   0 105
  0   0  68
100   0   0
133   0   0
153   0   0
165   0   0
168   0   0
159   0   0
131   0   0
  0   0  92
  0   0 155
  0   0 183
  0   0 195
  0   0 194
  0   0 179
  0   0 144
103   0   0
167   0   0
194   0   0
207   0   0
211   0   0
208   0   0
198   0   0
183   0   0
  0   0   0
  0   0   0
  0   0   0
  0   0   0
  0   0 183
  0   0 198
  0   0 207
  0   0 213
  0   0 214
  0   0 211
  0   0 203
  0   0 188
  0   0 161
  0   0 101
139   0   0
176   0   0
195   0   0
202   0   0
198   0   0
185   0   0
160   0   0
117   0   0
  0   0  93
  0   0 126
  0   0 130
  0   0 120
  0   0 105
  0   0  97
  0   0 105
  0   0 120
  0   0 130
  0   0 126
  0   0  93
117   0   0
160   0   0
185   0   0
198   0   0
202   0   0
195   0   0
176   0   0
139   0   0
  0   0 101
  0   0 161
  0   0 188
  0   0 203
  0   0 211
  0   0 214
  0   0 213
  0   0 207
  0   0 198
  0   0 183
  0   0 162
  0   0 126
 96   0   0
152   0   0
180   0   0
198   0   0
207   0   0
210   0   0
204   0   0
188   0   0
155   0   0
255 255 255
  0   0 154
  0   0 180
  0   0 189
  0   0 183
  0   0 163
  0   0 118
116   0   0
155   0   0
169   0   0
171   0   0
163   0   0
146   0   0
121   0   0
 76   0   0
  0   0  90
  0   0 111
  0   0 118
  0   0 120
  0   0 119
  0   0 117
  0   0 113
  0   0 110
  0   0 107
  0   0 103
  0   0  99
  0   0  94
  0   0  87
  0   0  78
255 255 255
255 255 255
 73   0   0
 88   0   0
 99   0   0
109   0   0
117   0   0
124   0   0
131   0   0
136   0   0
142   0   0
146   0   0
151   0   0
154   0   0
158   0   0
161   0   0
163   0   0
166   0   0
168   0   0
170   0   0
171   0   0
172   0   0
174   0   0
175   0   0
176   0   0
176   0   0
177   0   0
178   0   0
178   0   0
178   0   0
178   0   0
178   0   0
178   0   0
178   0   0
178   0   0
178   0   0
178   0   0
178   0   0
178   0   0
178   0   0
178   0   0
178   0   0
178   0   0
178   0   0
178   0   0
178   0   0
177   0   0
176   0   0
176   0   0
175   0   0
174   0   0
172   0   0
171   0   0
170   0   0
168   0   0
166   0   0
163   0   0
161   0   0
158   0   0
154   0   0
151   0   0
146   0   0
142   0   0
136   0   0
131   0   0
124   0   0
117   0   0
109   0   0
 99   0   0
 88   0   0
 73   0   0
255 255 255
255 255 255
  0   0  78
  0   0  87
  0   0  94
  0   0  99
  0   0 103
  0   0 107
  0   0 110
  0   0 113
  0   0 117
  0   0 119
  0   0 120
  0   0 118
  0   0 111
  0   0  90
 76   0   0
121   0   0
146   0   0
163   0   0
171   0   0
169   0   0
155   0   0
116   0   0
  0   0 118
  0   0 163
  0   0 183
  0   0 189
  0   0 180
  0   0 154
255 255 255
155   0   0
188   0   0
204   0   0
210   0   0
207   0   0
198   0   0
180   0   0
152   0   0
  0   0   0
  0   0   0
  0   0   0
  0   0   0
  0   0 203
  0   0 211
  0   0 214
  0   0 214
  0   0 209
  0   0 199
  0   0 182
  0   0 152
255 255 255
149   0   0
182   0   0
199   0   0
205   0   0
201   0   0
185   0   0
154   0   0
 81   0   0
  0   0 132
  0   0 152
  0   0 148
  0   0 124
 67   0   0
126   0   0
138   0   0
126   0   0
 67   0   0
  0   0 124
  0   0 148
  0   0 152
  0   0 132
 81   0   0
154   0   0
185   0   0
201   0   0
205   0   0
199   0   0
182   0   0
149   0   0
255 255 255
  0   0 152
  0   0 182
  0   0 199
  0   0 209
  0   0 214
  0   0 214
  0   0 211
  0   0 203
  0   0 192
  0   0 174
  0   0 145
255 255 255
142   0   0
175   0   0
194   0   0
204   0   0
205   0   0
197   0   0
177   0   0
136   0   0
  0   0 110
  0   0 161
  0   0 178
  0   0 179
  0   0 165
  0   0 129
101   0   0
152   0   0
171   0   0
176   0   0
172   0   0
159   0   0
139   0   0
109   0   0
255 255 255
  0   0  99
  0   0 113
  0   0 118
  0   0 119
  0   0 117
  0   0 115
  0   0 113
  0   0 111
  0   0 109
  0   0 107
  0   0 105
  0   0 102
  0   0  99
  0   0  95
  0   0  90
  0   0  83
  0   0  73
255 255 255
255 255 255
 72   0   0
 86   0   0
 96   0   0
105   0   0
112   0   0
119   0   0
125   0   0
130   0   0
135   0   0
139   0   0
143   0   0
146   0   0
149   0   0
152   0   0
155   0   0
157   0   0
159   0   0
161   0   0
163   0   0
164   0   0
166   0   0
167   0   0
168   0   0
169   0   0
170   0   0
170   0   0
170   0   0
171   0   0
171   0   0
171   0   0
171   0   0
171   0   0
171   0   0
171   0   0
170   0   0
170   0   0
170   0   0
169   0   0
168   0   0
167   0   0
166   0   0
164   0   0
163   0   0
161   0   0
159   0   0
157   0   0
155   0   0
152   0   0
149   0   0
146   0   0
143   0   0
139   0   0
135   0   0
130   0   0
125   0   0
119   0   0
112   0   0
105   0   0
 96   0   0
 86   0   0
 72   0   0
255 255 255
255 255 255
  0   0  73
  0   0  83
  0   0  90
  0   0  95
  0   0  99
  0   0 102
  0   0 105
  0   0 107
  0   0 109
  0   0 111
  0   0 113
  0   0 115
  0   0 117
  0   0 119
  0   0 118
  0   0 113
  0   0  99
255 255 255
109   0   0
139   0   0
159   0   0
172   0   0
176   0   0
171   0   0
152   0   0
101   0   0
  0   0 129
  0   0 165
  0   0 179
  0   0 178
  0   0 161
  0   0 110
136   0   0
177   0   0
197   0   0
205   0   0
204   0   0
194   0   0
175   0   0
142   0   0
255 255 255
  0   0   0
  0   0   0
  0   0   0
  0   0   0
  0   0 213
  0   0 214
  0   0 211
  0   0 205
  0   0 193
  0   0 174
  0   0 140
 90   0   0
158   0   0
187   0   0
204   0   0
210   0   0
206   0   0
191   0   0
159   0   0
255 255 255
  0   0 150
  0   0 173
  0   0 175
  0   0 158
  0   0 107
131   0   0
165   0   0
175   0   0
165   0   0
131   0   0
  0   0 107
  0   0 158
  0   0 175
  0   0 173
  0   0 150
255 255 255
159   0   0
191   0   0
206   0   0
210   0   0
204   0   0
187   0   0
158   0   0
 90   0   0
  0   0 140
  0   0 174
  0   0 193
  0   0 205
  0   0 211
  0   0 214
  0   0 213
  0   0 208
  0   0 198
  0   0 183
  0   0 158
  0   0 108
127   0   0
167   0   0
188   0   0
197   0   0
197   0   0
185   0   0
160   0   0
 99   0   0
  0   0 134
  0   0 164
  0   0 172
  0   0 164
  0   0 135
 85   0   0
149   0   0
173   0   0
182   0   0
181   0   0
172   0   0
156   0   0
132   0   0
 98   0   0
  0   0  68
  0   0 102
  0   0 112
  0   0 116
  0   0 116
  0   0 115
  0   0 113
  0   0 112
  0   0 111
  0   0 110
  0   0 109
  0   0 107
  0   0 106
  0   0 104
  0   0 102
  0   0 100
  0   0  97
  0   0  93
  0   0  89
  0   0  83
  0   0  74
255 255 255
255 255 255
255 255 255
 76   0   0
 86   0   0
 95   0   0
102   0   0
108   0   0
114   0   0
119   0   0
123   0   0
127   0   0
130   0   0
133   0   0
136   0   0
139   0   0
142   0   0
144   0   0
146   0   0
148   0   0
150   0   0
151   0   0
152   0   0
153   0   0
153   0   0
154   0   0
154   0   0
154   0   0
154   0   0
154   0   0
154   0   0
154   0   0
153   0   0
153   0   0
152   0   0
151   0   0
150   0   0
148   0   0
146   0   0
144   0   0
142   0   0
139   0   0
136   0   0
133   0   0
130   0   0
127   0   0
123   0   0
119   0   0
114   0   0
108   0   0
102   0   0
 95   0   0
 86   0   0
 76   0   0
255 255 255
255 255 255
255 255 255
  0   0  74
  0   0  83
  0   0  89
  0   0  93
  0   0  97
  0   0 100
  0   0 102
  0   0 104
  0   0 106
  0   0 107
  0   0 109
  0   0 110
  0   0 111
  0   0 112
  0   0 113
  0   0 115
  0   0 116
  0   0 116
  0   0 112
  0   0 102
  0   0  68
 98   0   0
132   0   0
156   0   0
172   0   0
181   0   0
182   0   0
173   0   0
149   0   0
 85   0   0
  0   0 135
  0   0 164
  0   0 172
  0   0 164
  0   0 134
 99   0   0
160   0   0
185   0   0
197   0   0
197   0   0
188   0   0
167   0   0
127   0   0
  0   0 108
  0   0 158
  0   0   0
  0   0   0
  0   0   0
  0   0   0
  0   0 212
  0   0 208
  0   0 199
  0   0 185
  0   0 163
  0   0 123
114   0   0
164   0   0
191   0   0
207   0   0
214   0   0
211   0   0
198   0   0
169   0   0
 91   0   0
  0   0 153
  0   0 184
  0   0 194
  0   0 187
  0   0 159
255 255 255
158   0   0
187   0   0
195   0   0
187   0   0
158   0   0
255 255 255
  0   0 159
  0   0 187
  0   0 194
  0   0 184
  0   0 153
 91   0   0
169   0   0
198   0   0
211   0   0
214   0   0
207   0   0
191   0   0
164   0   0
114   0   0
  0   0 123
  0   0 163
  0   0 185
  0   0 199
  0   0 208
  0   0 212
  0   0 213
  0   0 210
  0   0 203
  0   0 190
  0   0 168
  0   0 130
103   0   0
155   0   0
177   0   0
185   0   0
182   0   0
166   0   0
128   0   0
  0   0 102
  0   0 150
  0   0 165
  0   0 162
  0   0 139
255 255 255
146   0   0
175   0   0
188   0   0
191   0   0
185   0   0
172   0   0
153   0   0
128   0   0
 93   0   0
  0   0  69
  0   0  98
  0   0 107
  0   0 110
  0   0 111
  0   0 111
  0   0 110
  0   0 110
  0   0 109
  0   0 109
  0   0 108
  0   0 108
  0   0 107
  0   0 107
  0   0 106
  0   0 105
  0   0 103
  0   0 102
  0   0 100
  0   0  97
  0   0  94
  0   0  91
  0   0  86
  0   0  81
  0   0  74
255 255 255
255 255 255
255 255 255
 64   0   0
 75   0   0
 83   0   0
 90   0   0
 95   0   0
100   0   0
104   0   0
108   0   0
112   0   0
115   0   0
118   0   0
121   0   0
123   0   0
125   0   0
126   0   0
127   0   0
128   0   0
129   0   0
129   0   0
130   0   0
130   0   0
130   0   0
129   0   0
129   0   0
128   0   0
127   0   0
126   0   0
125   0   0
123   0   0
121   0   0
118   0   0
115   0   0
112   0   0
108   0   0
104   0   0
100   0   0
 95   0   0
 90   0   0
 83   0   0
 75   0   0
 64   0   0
255 255 255
255 255 255
255 255 255
  0   0  74
  0   0  81
  0   0  86
  0   0  91
  0   0  94
  0   0  97
  0   0 100
  0   0 102
  0   0 103
  0   0 105
  0   0 106
  0   0 107
  0   0 107
  0   0 108
  0   0 108
  0   0 109
  0   0 109
  0   0 110
  0   0 110
  0   0 111
  0   0 111
  0   0 110
  0   0 107
  0   0  98
  0   0  69
 93   0   0
128   0   0
153   0   0
172   0   0
185   0   0
191   0   0
188   0   0
175   0   0
146   0   0
255 255 255
  0   0 139
  0   0 162
  0   0 165
  0   0 150
  0   0 102
128   0   0
166   0   0
182   0   0
185   0   0
177   0   0
155   0   0
103   0   0
  0   0 130
  0   0 168
  0   0 190
  0   0   0
  0   0   0
  0   0   0
  0   0   0
  0   0 202
  0   0 191
  0   0 175
  0   0 149
  0   0  95
130   0   0
169   0   0
192   0   0
208   0   0
215   0   0
215   0   0
204   0   0
180   0   0
123   0   0
  0   0 144
  0   0 186
  0   0 203
  0   0 204
  0   0 189
  0   0 151
110   0   0
174   0   0
199   0   0
207   0   0
199   0   0
174   0   0
110   0   0
  0   0 151
  0   0 189
  0   0 204
  0   0 203
  0   0 186
  0   0 144
123   0   0
180   0   0
204   0   0
215   0   0
215   0   0
208   0   0
192   0   0
169   0   0
130   0   0
  0   0  95
  0   0 149
  0   0 175
  0   0 191
  0   0 202
  0   0 209
  0   0 212
  0   0 211
  0   0 205
  0   0 194
  0   0 175
  0   0 144
255 255 255
136   0   0
160   0   0
166   0   0
157   0   0
128   0   0
  0   0  86
  0   0 143
  0   0 162
  0   0 164
  0   0 146
  0   0  84
140   0   0
175   0   0
192   0   0
198   0   0
196   0   0
187   0   0
172   0   0
152   0   0
128   0   0
 97   0   0
255 255 255
  0   0  86
  0   0  97
  0   0 102
  0   0 104
  0   0 105
  0   0 105
  0   0 105
  0   0 106
  0   0 106
  0   0 106
  0   0 107
  0   0 107
  0   0 107
  0   0 107
  0   0 106
  0   0 106
  0   0 105
  0   0 104
  0   0 103
  0   0 102
  0   0 101
  0   0  99
  0   0  97
  0   0  95
  0   0  92
  0   0  89
  0   0  85
  0   0  81
  0   0  77
  0   0  71
  0   0  65
255 255 255
255 255 255
255 255 255
255 255 255
 66   0   0
 73   0   0
 79   0   0
 83   0   0
 87   0   0
 89   0   0
 91   0   0
 92   0   0
 93   0   0
 93   0   0
 94   0   0
 94   0   0
 94   0   0
 93   0   0
 93   0   0
 92   0   0
 91   0   0
 89   0   0
 87   0   0
 83   0   0
 79   0   0
 73   0   0
 66   0   0
255 255 255
255 255 255
255 255 255
255 255 255
  0   0  65
  0   0  71
  0   0  77
  0   0  81
  0   0  85
  0   0  89
  0   0  92
  0   0  95
  0   0  97
  0   0  99
  0   0 101
  0   0 102
  0   0 103
  0   0 104
  0   0 105
  0   0 106
  0   0 106
  0   0 107
  0   0 107
  0   0 107
  0   0 107
  0   0 106
  0   0 106
  0   0 106
  0   0 105
  0   0 105
  0   0 105
  0   0 104
  0   0 102
  0   0  97
  0   0  86
255 255 255
 97   0   0
128   0   0
152   0   0
172   0   0
187   0   0
196   0   0
198   0   0
192   0   0
175   0   0
140   0   0
  0   0  84
  0   0 146
  0   0 164
  0   0 162
  0   0 143
  0   0  86
128   0   0
157   0   0
166   0   0
160   0   0
136   0   0
255 255 255
  0   0 144
  0   0 175
  0   0 194
  0   0 205
  0   0   0
  0   0   0
  0   0   0
  0   0   0
  0   0 180
  0   0 161
  0   0 130
 70   0   0
141   0   0
172   0   0
192   0   0
207   0   0
215   0   0
216   0   0
208   0   0
188   0   0
145   0   0
  0   0 123
  0   0 180
  0   0 205
  0   0 212
  0   0 206
  0   0 184
  0   0 134
137   0   0
185   0   0
206   0   0
212   0   0
206   0   0
185   0   0
137   0   0
  0   0 134
  0   0 184
  0   0 206
  0   0 212
  0   0 205
  0   0 180
  0   0 123
145   0   0
188   0   0
208   0   0
216   0   0
215   0   0
207   0   0
192   0   0
172   0   0
141   0   0
 70   0   0
  0   0 130
  0   0 161
  0   0 180
  0   0 194
  0   0 203
  0   0 208
  0   0 209
  0   0 205
  0   0 195
  0   0 179
  0   0 154
  0   0 110
 99   0   0
128   0   0
128   0   0
 98   0   0
  0   0 109
  0   0 150
  0   0 168
  0   0 172
  0   0 160
  0   0 122
121   0   0
169   0   0
193   0   0
204   0   0
206   0   0
200   0   0
189   0   0
173   0   0
154   0   0
132   0   0
108   0   0
 80   0   0
255 255 255
  0   0  74
  0   0  84
  0   0  89
  0   0  93
  0   0  95
  0   0  98
  0   0 100
  0   0 101
  0   0 103
  0   0 104
  0   0 105
  0   0 105
  0   0 106
  0   0 106
  0   0 106
  0   0 106
  0   0 106
  0   0 106
  0   0 105
  0   0 105
  0   0 104
  0   0 103
  0   0 103
  0   0 101
  0   0 100
  0   0  99
  0   0  98
  0   0  97
  0   0  95
  0   0  94
  0   0  92
  0   0  91
  0   0  88
  0   0  86
  0   0  83
  0   0  80
  0   0  76
  0   0  73
  0   0  70
  0   0  69
  0   0  68
  0   0  67
  0   0  67
  0   0  66
  0   0  66
  0   0  66
  0   0  67
  0   0  67
  0   0  68
  0   0  69
  0   0  70
  0   0  73
  0   0  76
  0   0  80
  0   0  83
  0   0  86
  0   0  88
  0   0  91
  0   0  92
  0   0  94
  0   0  95
  0   0  97
  0   0  98
  0   0  99
  0   0 100
  0   0 101
  0   0 103
  0   0 103
  0   0 104
  0   0 105
  0   0 105
  0   0 106
  0   0 106
  0   0 106
  0   0 106
  0   0 106
  0   0 106
  0   0 105
  0   0 105
  0   0 104
  0   0 103
  0   0 101
  0   0 100
  0   0  98
  0   0  95
  0   0  93
  0   0  89
  0   0  84
  0   0  74
255 255 255
 80   0   0
108   0   0
132   0   0
154   0   0
173   0   0
189   0   0
200   0   0
206   0   0
204   0   0
193   0   0
169   0   0
121   0   0
  0   0 122
  0   0 160
  0   0 172
  0   0 168
  0   0 150
  0   0 109
 98   0   0
128   0   0
128   0   0
 99   0   0
  0   0 110
  0   0 154
  0   0 179
  0   0 195
  0   0 205
  0   0 209
  0   0   0
  0   0   0
  0   0   0
  0   0   0
  0   0 142
  0   0  98
112   0   0
150   0   0
174   0   0
191   0   0
204   0   0
213   0   0
215   0   0
210   0   0
195   0   0
161   0   0
  0   0  75
  0   0 169
  0   0 201
  0   0 215
  0   0 215
  0   0 202
  0   0 173
  0   0 100
154   0   0
190   0   0
207   0   0
212   0   0
207   0   0
190   0   0
154   0   0
  0   0 100
  0   0 173
  0   0 202
  0   0 215
  0   0 215
  0   0 201
  0   0 169
  0   0  75
161   0   0
195   0   0
210   0   0
215   0   0
213   0   0
204   0   0
191   0   0
174   0   0
150   0   0
112   0   0
  0   0  98
  0   0 142
  0   0 166
  0   0 183
  0   0 194
  0   0 201
  0   0 204
  0   0 201
  0   0 194
  0   0 180
  0   0 161
  0   0 134
  0   0 102
  0   0  86
  0   0 109
  0   0 141
  0   0 166
  0   0 181
  0   0 186
  0   0 179
  0   0 155
  0   0  72
152   0   0
187   0   0
204   0   0
211   0   0
209   0   0
202   0   0
189   0   0
174   0   0
157   0   0
139   0   0
122   0   0
106   0   0
 91   0   0
 76   0   0
255 255 255
255 255 255
255 255 255
  0   0  75
  0   0  83
  0   0  88
  0   0  92
  0   0  95
  0   0  98
  0   0 100
  0   0 101
  0   0 103
  0   0 104
  0   0 104
  0   0 105
  0   0 105
  0   0 106
  0   0 106
  0   0 106
  0   0 106
  0   0 105
  0   0 105
  0   0 105
  0   0 105
  0   0 104
  0   0 104
  0   0 104
  0   0 104
  0   0 103
  0   0 103
  0   0 102
  0   0 101
  0   0 100
  0   0  99
  0   0  98
  0   0  96
  0   0  96
  0   0  95
  0   0  95
  0   0  95
  0   0  95
  0   0  95
  0   0  95
  0   0  95
  0   0  95
  0   0  95
  0   0  95
  0   0  95
  0   0  96
  0   0  96
  0   0  98
  0   0  99
  0   0 100
  0   0 101
  0   0 102
  0   0 103
  0   0 103
  0   0 104
  0   0 104
  0   0 104
  0   0 104
  0   0 105
  0   0 105
  0   0 105
  0   0 105
  0   0 106
  0   0 106
  0   0 106
  0   0 106
  0   0 105
  0   0 105
  0   0 104
  0   0 104
  0   0 103
  0   0 101
  0   0 100
  0   0  98
  0   0  95
  0   0  92
  0   0  88
  0   0  83
  0   0  75
255 255 255
255 255 255
255 255 255
 76   0   0
 91   0   0
106   0   0
122   0   0
139   0   0
157   0   0
174   0   0
189   0   0
202   0   0
209   0   0
211   0   0
204   0   0
187   0   0
152   0   0
  0   0  72
  0   0 155
  0   0 179
  0   0 186
  0   0 181
  0   0 166
  0   0 141
  0   0 109
  0   0  86
  0   0 102
  0   0 134
  0   0 161
  0   0 180
  0   0 194
  0   0 201
  0   0 204
  0   0 201
  0   0   0
  0   0   0
  0   0   0
  0   0   0
 82   0   0
132   0   0
157   0   0
174   0   0
189   0   0
200   0   0
208   0   0
212   0   0
210   0   0
198   0   0
172   0   0
107   0   0
  0   0 153
  0   0 193
  0   0 213
  0   0 218
  0   0 212
  0   0 192
  0   0 154
 93   0   0
165   0   0
192   0   0
205   0   0
209   0   0
205   0   0
192   0   0
165   0   0
 93   0   0
  0   0 154
  0   0 192
  0   0 212
  0   0 218
  0   0 213
  0   0 193
  0   0 153
107   0   0
172   0   0
198   0   0
210   0   0
212   0   0
208   0   0
200   0   0
189   0   0
174   0   0
157   0   0
132   0   0
 82   0   0
  0   0 114
  0   0 147
  0   0 168
  0   0 182
  0   0 191
  0   0 195
  0   0 195
  0   0 189
  0   0 178
  0   0 164
  0   0 150
  0   0 143
  0   0 150
  0   0 166
  0   0 183
  0   0 197
  0   0 203
  0   0 200
  0   0 184
  0   0 149
102   0   0
169   0   0
197   0   0
210   0   0
214   0   0
210   0   0
201   0   0
189   0   0
175   0   0
161   0   0
148   0   0
136   0   0
126   0   0
118   0   0
110   0   0
102   0   0
 93   0   0
 83   0   0
 69   0   0
255 255 255
255 255 255
  0   0  71
  0   0  80
  0   0  86
  0   0  91
  0   0  94
  0   0  97
  0   0  99
  0   0 100
  0   0 101
  0   0 103
  0   0 103
  0   0 104
  0   0 104
  0   0 105
  0   0 105
  0   0 105
  0   0 105
  0   0 106
  0   0 106
  0   0 106
  0   0 106
  0   0 106
  0   0 106
  0   0 106
  0   0 106
  0   0 105
  0   0 105
  0   0 104
  0   0 103
  0   0 103
  0   0 103
  0   0 103
  0   0 103
  0   0 103
  0   0 104
  0   0 104
  0   0 104
  0   0 103
  0   0 103
  0   0 103
  0   0 103
  0   0 103
  0   0 103
  0   0 104
  0   0 105
  0   0 105
  0   0 106
  0   0 106
  0   0 106
  0   0 106
  0   0 106
  0   0 106
  0   0 106
  0   0 106
  0   0 105
  0   0 105
  0   0 105
  0   0 105
  0   0 104
  0   0 104
  0   0 103
  0   0 103
  0   0 101
  0   0 100
  0   0  99
  0   0  97
  0   0  94
  0   0  91
  0   0  86
  0   0  80
  0   0  71
255 255 255
255 255 255
 69   0   0
 83   0   0
 93   0   0
102   0   0
110   0   0
118   0   0
126   0   0
136   0   0
148   0   0
161   0   0
175   0   0
189   0   0
201   0   0
210   0   0
214   0   0
210   0   0
197   0   0
169   0   0
102   0   0
  0   0 149
  0   0 184
  0   0 200
  0   0 203
  0   0 197
  0   0 183
  0   0 166
  0   0 150
  0   0 143
  0   0 150
  0   0 164
  0   0 178
  0   0 189
  0   0 195
  0   0 195
  0   0 191
  0   0 182
  0   0   0
  0   0   0
  0   0   0
  0   0   0
145   0   0
161   0   0
174   0   0
185   0   0
194   0   0
202   0   0
207   0   0
207   0   0
199   0   0
180   0   0
136   0   0
  0   0 129
  0   0 183
  0   0 208
  0   0 218
  0   0 216
  0   0 203
  0   0 176
  0   0 122
131   0   0
171   0   0
190   0   0
199   0   0
202   0   0
199   0   0
190   0   0
171   0   0
131   0   0
  0   0 122
  0   0 176
  0   0 203
  0   0 216
  0   0 218
  0   0 208
  0   0 183
  0   0 129
136   0   0
180   0   0
199   0   0
207   0   0
207   0   0
202   0   0
194   0   0
185   0   0
174   0   0
161   0   0
145   0   0
121   0   0
255 255 255
  0   0 119
  0   0 148
  0   0 166
  0   0 177
  0   0 183
  0   0 183
  0   0 179
  0   0 172
  0   0 165
  0   0 162
  0   0 168
  0   0 181
  0   0 197
  0   0 210
  0   0 219
  0   0 219
  0   0 210
  0   0 188
  0   0 143
124   0   0
178   0   0
201   0   0
211   0   0
212   0   0
207   0   0
198   0   0
187   0   0
176   0   0
165   0   0
156   0   0
149   0   0
143   0   0
138   0   0
132   0   0
126   0   0
120   0   0
113   0   0
105   0   0
 96   0   0
 85   0   0
 72   0   0
255 255 255
255 255 255
  0   0  66
  0   0  76
  0   0  82
  0   0  87
  0   0  91
  0   0  94
  0   0  96
  0   0  98
  0   0  99
  0   0 100
  0   0 101
  0   0 102
  0   0 103
  0   0 103
  0   0 104
  0   0 105
  0   0 105
  0   0 106
  0   0 106
  0   0 106
  0   0 106
  0   0 106
  0   0 106
  0   0 105
  0   0 105
  0   0 104
  0   0 104
  0   0 104
  0   0 105
  0   0 105
  0   0 105
  0   0 106
  0   0 105
  0   0 105
  0   0 105
  0   0 104
  0   0 104
  0   0 104
  0   0 105
  0   0 105
  0   0 106
  0   0 106
  0   0 106
  0   0 106
  0   0 106
  0   0 106
  0   0 105
  0   0 105
  0   0 104
  0   0 103
  0   0 103
  0   0 102
  0   0 101
  0   0 100
  0   0  99
  0   0  98
  0   0  96
  0   0  94
  0   0  91
  0   0  87
  0   0  82
  0   0  76
  0   0  66
255 255 255
255 255 255
 72   0   0
 85   0   0
 96   0   0
105   0   0
113   0   0
120   0   0
126   0   0
132   0   0
138   0   0
143   0   0
149   0   0
156   0   0
165   0   0
176   0   0
187   0   0
198   0   0
207   0   0
212   0   0
211   0   0
201   0   0
178   0   0
124   0   0
  0   0 143
  0   0 188
  0   0 210
  0   0 219
  0   0 219
  0   0 210
  0   0 197
  0   0 181
  0   0 168
  0   0 162
  0   0 165
  0   0 172
  0   0 179
  0   0 183
  0   0 183
  0   0 177
  0   0 166
  0   0 148
  0   0   0
  0   0   0
  0   0   0
  0   0   0
164   0   0
172   0   0
180   0   0
187   0   0
194   0   0
200   0   0
202   0   0
198   0   0
185   0   0
154   0   0
  0   0  82
  0   0 168
  0   0 200
  0   0 216
  0   0 219
  0   0 210
  0   0 190
  0   0 152
 68   0   0
150   0   0
174   0   0
186   0   0
190   0   0
192   0   0
190   0   0
186   0   0
174   0   0
150   0   0
 68   0   0
  0   0 152
  0   0 190
  0   0 210
  0   0 219
  0   0 216
  0   0 200
  0   0 168
  0   0  82
154   0   0
185   0   0
198   0   0
202   0   0
200   0   0
194   0   0
187   0   0
180   0   0
172   0   0
164   0   0
154   0   0
140   0   0
116   0   0
255 255 255
  0   0 115
  0   0 141
  0   0 155
  0   0 163
  0   0 165
  0   0 164
  0   0 162
  0   0 164
  0   0 172
  0   0 186
  0   0 203
  0   0 219
  0   0 230
  0   0 234
  0   0 231
  0   0 217
  0   0 190
  0   0 139
131   0   0
178   0   0
198   0   0
206   0   0
205   0   0
200   0   0
192   0   0
183   0   0
174   0   0
168   0   0
163   0   0
159   0   0
156   0   0
152   0   0
149   0   0
144   0   0
139   0   0
134   0   0
128   0   0
121   0   0
114   0   0
107   0   0
 99   0   0
 90   0   0
 79   0   0
 66   0   0
255 255 255
255 255 255
  0   0  66
  0   0  74
  0   0  80
  0   0  85
  0   0  88
  0   0  91
  0   0  93
  0   0  95
  0   0  97
  0   0  98
  0   0  99
  0   0 100
  0   0 101
  0   0 102
  0   0 103
  0   0 103
  0   0 103
  0   0 103
  0   0 103
  0   0 103
  0   0 102
  0   0 102
  0   0 103
  0   0 103
  0   0 104
  0   0 104
  0   0 104
  0   0 104
  0   0 104
  0   0 103
  0   0 103
  0   0 102
  0   0 102
  0   0 103
  0   0 103
  0   0 103
  0   0 103
  0   0 103
  0   0 103
  0   0 102
  0   0 101
  0   0 100
  0   0  99
  0   0  98
  0   0  97
  0   0  95
  0   0  93
  0   0  91
  0   0  88
  0   0  85
  0   0  80
  0   0  74
  0   0  66
255 255 255
255 255 255
 66   0   0
 79   0   0
 90   0   0
 99   0   0
107   0   0
114   0   0
121   0   0
128   0   0
134   0   0
139   0   0
144   0   0
149   0   0
152   0   0
156   0   0
159   0   0
163   0   0
168   0   0
174   0   0
183   0   0
192   0   0
200   0   0
205   0   0
206   0   0
198   0   0
178   0   0
131   0   0
  0   0 139
  0   0 190
  0   0 217
  0   0 231
  0   0 234
  0   0 230
  0   0 219
  0   0 203
  0   0 186
  0   0 172
  0   0 164
  0   0 162
  0   0 164
  0   0 165
  0   0 163
  0   0 155
  0   0 141
  0   0 115
255 255 255
  0   0   0
  0   0   0
  0   0   0
  0   0   0
170   0   0
173   0   0
179   0   0
185   0   0
191   0   0
195   0   0
195   0   0
187   0   0
165   0   0
107   0   0
  0   0 147
  0   0 189
  0   0 211
  0   0 219
  0   0 215
  0   0 200
  0   0 171
  0   0 114
127   0   0
161   0   0
175   0   0
179   0   0
180   0   0
179   0   0
180   0   0
179   0   0
175   0   0
161   0   0
127   0   0
  0   0 114
  0   0 171
  0   0 200
  0   0 215
  0   0 219
  0   0 211
  0   0 189
  0   0 147
107   0   0
165   0   0
187   0   0
195   0   0
195   0   0
191   0   0
185   0   0
179   0   0
173   0   0
170   0   0
166   0   0
160   0   0
152   0   0
139   0   0
119   0   0
 79   0   0
  0   0  92
  0   0 118
  0   0 129
  0   0 135
  0   0 139
  0   0 146
  0   0 160
  0   0 179
  0   0 200
  0   0 219
  0   0 234
  0   0 243
  0   0 245
  0   0 238
  0   0 221
  0   0 192
  0   0 139
126   0   0
171   0   0
188   0   0
194   0   0
192   0   0
187   0   0
180   0   0
174   0   0
170   0   0
168   0   0
167   0   0
166   0   0
165   0   0
163   0   0
161   0   0
158   0   0
154   0   0
150   0   0
145   0   0
140   0   0
135   0   0
130   0   0
124   0   0
118   0   0
111   0   0
105   0   0
 97   0   0
 90   0   0
 81   0   0
 71   0   0
255 255 255
255 255 255
255 255 255
255 255 255
  0   0  71
  0   0  77
  0   0  81
  0   0  84
  0   0  87
  0   0  90
  0   0  92
  0   0  94
  0   0  95
  0   0  95
  0   0  96
  0   0  96
  0   0  96
  0   0  96
  0   0  96
  0   0  96
  0   0  97
  0   0  98
  0   0  98
  0   0  98
  0   0  98
  0   0  98
  0   0  97
  0   0  96
  0   0  96
  0   0  96
  0   0  96
  0   0  96
  0   0  96
  0   0  95
  0   0  95
  0   0  94
  0   0  92
  0   0  90
  0   0  87
  0   0  84
  0   0  81
  0   0  77
  0   0  71
255 255 255
255 255 255
255 255 255
255 255 255
 71   0   0
 81   0   0
 90   0   0
 97   0   0
105   0   0
111   0   0
118   0   0
124   0   0
130   0   0
135   0   0
140   0   0
145   0   0
150   0   0
154   0   0
158   0   0
161   0   0
163   0   0
165   0   0
166   0   0
167   0   0
168   0   0
170   0   0
174   0   0
180   0   0
187   0   0
192   0   0
194   0   0
188   0   0
171   0   0
126   0   0
  0   0 139
  0   0 192
  0   0 221
  0   0 238
  0   0 245
  0   0 243
  0   0 234
  0   0 219
  0   0 200
  0   0 179
  0   0 160
  0   0 146
  0   0 139
  0   0 135
  0   0 129
  0   0 118
  0   0  92
 79   0   0
119   0   0
139   0   0
  0   0   0
  0   0   0
  0   0   0
  0   0   0
166   0   0
168   0   0
173   0   0
180   0   0
187   0   0
190   0   0
187   0   0
173   0   0
138   0   0
  0   0 114
  0   0 174
  0   0 203
  0   0 216
  0   0 218
  0   0 207
  0   0 185
  0   0 144
 92   0   0
150   0   0
167   0   0
172   0   0
170   0   0
167   0   0
165   0   0
167   0   0
170   0   0
172   0   0
167   0   0
150   0   0
 92   0   0
  0   0 144
  0   0 185
  0   0 207
  0   0 218
  0   0 216
  0   0 203
  0   0 174
  0   0 114
138   0   0
173   0   0
187   0   0
190   0   0
187   0   0
180   0   0
173   0   0
168   0   0
166   0   0
165   0   0
165   0   0
164   0   0
160   0   0
153   0   0
144   0   0
131   0   0
116   0   0
101   0   0
 85   0   0
255 255 255
  0   0  84
  0   0 122
  0   0 155
  0   0 184
  0   0 210
  0   0 231
  0   0 245
  0   0 252
  0   0 250
  0   0 241
  0   0 221
  0   0 191
  0   0 143
105   0   0
154   0   0
169   0   0
173   0   0
170   0   0
166   0   0
162   0   0
160   0   0
161   0   0
163   0   0
165   0   0
167   0   0
169   0   0
169   0   0
168   0   0
167   0   0
165   0   0
162   0   0
159   0   0
155   0   0
151   0   0
147   0   0
143   0   0
138   0   0
134   0   0
129   0   0
124   0   0
119   0   0
114   0   0
108   0   0
103   0   0
 97   0   0
 91   0   0
 85   0   0
 78   0   0
 70   0   0
255 255 255
255 255 255
255 255 255
255 255 255
255 255 255
  0   0  67
  0   0  70
  0   0  72
  0   0  74
  0   0  75
  0   0  76
  0   0  76
  0   0  77
  0   0  78
  0   0  80
  0   0  81
  0   0  81
  0   0  81
  0   0  80
  0   0  78
  0   0  77
  0   0  76
  0   0  76
  0   0  75
  0   0  74
  0   0  72
  0   0  70
  0   0  67
255 255 255
255 255 255
255 255 255
255 255 255
255 255 255
 70   0   0
 78   0   0
 85   0   0
 91   0   0
 97   0   0
103   0   0
108   0   0
114   0   0
119   0   0
124   0   0
129   0   0
134   0   0
138   0   0
143   0   0
147   0   0
151   0   0
155   0   0
159   0   0
162   0   0
165   0   0
167   0   0
168   0   0
169   0   0
169   0   0
167   0   0
165   0   0
163   0   0
161   0   0
160   0   0
162   0   0
166   0   0
170   0   0
173   0   0
169   0   0
154   0   0
105   0   0
  0   0 143
  0   0 191
  0   0 221
  0   0 241
  0   0 250
  0   0 252
  0   0 245
  0   0 231
  0   0 210
  0   0 184
  0   0 155
  0   0 122
  0   0  84
255 255 255
 85   0   0
101   0   0
116   0   0
131   0   0
144   0   0
153   0   0
160   0   0
  0   0   0
  0   0   0
  0   0   0
  0   0   0
157   0   0
160   0   0
167   0   0
176   0   0
182   0   0
184   0   0
177   0   0
155   0   0
 81   0   0
  0   0 153
  0   0 191
  0   0 211
  0   0 218
  0   0 213
  0   0 196
  0   0 164
  0   0  95
135   0   0
162   0   0
170   0   0
167   0   0
160   0   0
152   0   0
148   0   0
152   0   0
160   0   0
167   0   0
170   0   0
162   0   0
135   0   0
  0   0  95
  0   0 164
  0   0 196
  0   0 213
  0   0 218
  0   0 211
  0   0 191
  0   0 153
 81   0   0
155   0   0
177   0   0
184   0   0
182   0   0
176   0   0
167   0   0
160   0   0
157   0   0
157   0   0
160   0   0
163   0   0
164   0   0
164   0   0
162   0   0
159   0   0
155   0   0
152   0   0
149   0   0
146   0   0
140   0   0
121   0   0
  0   0  72
  0   0 149
  0   0 188
  0   0 217
  0   0 238
  0   0 250
  0   0 255
  0   0 251
  0   0 239
  0   0 219
  0   0 189
  0   0 149
  0   0  70
118   0   0
133   0   0
134   0   0
131   0   0
128   0   0
129   0   0
135   0   0
142   0   0
150   0   0
157   0   0
163   0   0
167   0   0
169   0   0
171   0   0
171   0   0
171   0   0
170   0   0
168   0   0
166   0   0
164   0   0
161   0   0
158   0   0
155   0   0
151   0   0
148   0   0
144   0   0
140   0   0
137   0   0
133   0   0
129   0   0
125   0   0
121   0   0
117   0   0
114   0   0
110   0   0
106   0   0
102   0   0
 98   0   0
 94   0   0
 90   0   0
 87   0   0
 84   0   0
 82   0   0
 80   0   0
 78   0   0
 77   0   0
 76   0   0
 74   0   0
 72   0   0
 70   0   0
 69   0   0
 70   0   0
 72   0   0
 74   0   0
 76   0   0
 77   0   0
 78   0   0
 80   0   0
 82   0   0
 84   0   0
 87   0   0
 90   0   0
 94   0   0
 98   0   0
102   0   0
106   0   0
110   0   0
114   0   0
117   0   0
121   0   0
125   0   0
129   0   0
133   0   0
137   0   0
140   0   0
144   0   0
148   0   0
151   0   0
155   0   0
158   0   0
161   0   0
164   0   0
166   0   0
168   0   0
170   0   0
171   0   0
171   0   0
171   0   0
169   0   0
167   0   0
163   0   0
157   0   0
150   0   0
142   0   0
135   0   0
129   0   0
128   0   0
131   0   0
134   0   0
133   0   0
118   0   0
  0   0  70
  0   0 149
  0   0 189
  0   0 219
  0   0 239
  0   0 251
  0   0 255
  0   0 250
  0   0 238
  0   0 217
  0   0 188
  0   0 149
  0   0  72
121   0   0
140   0   0
146   0   0
149   0   0
152   0   0
155   0   0
159   0   0
162   0   0
164   0   0
164   0   0
  0   0   0
  0   0   0
  0   0   0
  0   0   0
145   0   0
152   0   0
162   0   0
173   0   0
179   0   0
178   0   0
166   0   0
130   0   0
  0   0 120
  0   0 176
  0   0 203
  0   0 216
  0   0 216
  0   0 205
  0   0 181
  0   0 135
110   0   0
155   0   0
169   0   0
169   0   0
161   0   0
148   0   0
134   0   0
129   0   0
134   0   0
148   0   0
161   0   0
169   0   0
169   0   0
155   0   0
110   0   0
  0   0 135
  0   0 181
  0   0 205
  0   0 216
  0   0 216
  0   0 203
  0   0 176
  0   0 120
130   0   0
166   0   0
178   0   0
179   0   0
173   0   0
162   0   0
152   0   0
145   0   0
144   0   0
147   0   0
153   0   0
158   0   0
163   0   0
166   0   0
168   0   0
169   0   0
171   0   0
173   0   0
175   0   0
175   0   0
169   0   0
152   0   0
102   0   0
  0   0 143
  0   0 190
  0   0 221
  0   0 241
  0   0 251
  0   0 253
  0   0 247
  0   0 233
  0   0 212
  0   0 185
  0   0 155
  0   0 125
  0   0 102
  0   0  97
  0   0 103
  0   0 108
  0   0 105
  0   0  91
255 255 255
 99   0   0
123   0   0
138   0   0
149   0   0
157   0   0
162   0   0
166   0   0
169   0   0
171   0   0
172   0   0
172   0   0
172   0   0
171   0   0
170   0   0
168   0   0
166   0   0
164   0   0
162   0   0
159   0   0
157   0   0
154   0   0
151   0   0
149   0   0
146   0   0
143   0   0
141   0   0
138   0   0
135   0   0
132   0   0
130   0   0
127   0   0
125   0   0
123   0   0
121   0   0
120   0   0
119   0   0
118   0   0
117   0   0
116   0   0
115   0   0
114   0   0
114   0   0
114   0   0
114   0   0
114   0   0
115   0   0
116   0   0
117   0   0
118   0   0
119   0   0
120   0   0
121   0   0
123   0   0
125   0   0
127   0   0
130   0   0
132   0   0
135   0   0
138   0   0
141   0   0
143   0   0
146   0   0
149   0   0
151   0   0
154   0   0
157   0   0
159   0   0
162   0   0
164   0   0
166   0   0
168   0   0
170   0   0
171   0   0
172   0   0
172   0   0
172   0   0
171   0   0
169   0   0
166   0   0
162   0   0
157   0   0
149   0   0
138   0   0
123   0   0
 99   0   0
255 255 255
  0   0  91
  0   0 105
  0   0 108
  0   0 103
  0   0  97
  0   0 102
  0   0 125
  0   0 155
  0   0 185
  0   0 212
  0   0 233
  0   0 247
  0   0 253
  0   0 251
  0   0 241
  0   0 221
  0   0 190
  0   0 143
102   0   0
152   0   0
169   0   0
175   0   0
175   0   0
173   0   0
171   0   0
169   0   0
168   0   0
166   0   0
163   0   0
158   0   0
  0   0   0
  0   0   0
  0   0   0
  0   0   0
134   0   0
147   0   0
161   0   0
172   0   0
177   0   0
172   0   0
151   0   0
 76   0   0
  0   0 153
  0   0 191
  0   0 210
  0   0 217
  0   0 212
  0   0 194
  0   0 160
  0   0  73
142   0   0
166   0   0
171   0   0
166   0   0
152   0   0
134   0   0
115   0   0
105   0   0
115   0   0
134   0   0
152   0   0
166   0   0
171   0   0
166   0   0
142   0   0
  0   0  73
  0   0 160
  0   0 194
  0   0 212
  0   0 217
  0   0 210
  0   0 191
  0   0 153
 76   0   0
151   0   0
172   0   0
177   0   0
172   0   0
161   0   0
147   0   0
134   0   0
127   0   0
128   0   0
135   0   0
143   0   0
152   0   0
159   0   0
165   0   0
171   0   0
176   0   0
182   0   0
188   0   0
192   0   0
193   0   0
187   0   0
169   0   0
124   0   0
  0   0 139
  0   0 192
  0   0 221
  0   0 239
  0   0 247
  0   0 246
  0   0 237
  0   0 221
  0   0 201
  0   0 179
  0   0 160
  0   0 150
  0   0 150
  0   0 155
  0   0 160
  0   0 162
  0   0 159
  0   0 151
  0   0 139
  0   0 119
  0   0  85
 85   0   0
116   0   0
133   0   0
144   0   0
153   0   0
159   0   0
163   0   0
167   0   0
169   0   0
171   0   0
172   0   0
172   0   0
172   0   0
172   0   0
171   0   0
170   0   0
169   0   0
168   0   0
166   0   0
165   0   0
163   0   0
161   0   0
160   0   0
158   0   0
156   0   0
154   0   0
152   0   0
151   0   0
149   0   0
147   0   0
146   0   0
145   0   0
144   0   0
143   0   0
143   0   0
142   0   0
142   0   0
141   0   0
141   0   0
141   0   0
141   0   0
141   0   0
142   0   0
142   0   0
143   0   0
143   0   0
144   0   0
145   0   0
146   0   0
147   0   0
149   0   0
151   0   0
152   0   0
154   0   0
156   0   0
158   0   0
160   0   0
161   0   0
163   0   0
165   0   0
166   0   0
168   0   0
169   0   0
170   0   0
171   0   0
172   0   0
172   0   0
172   0   0
172   0   0
171   0   0
169   0   0
167   0   0
163   0   0
159   0   0
153   0   0
144   0   0
133   0   0
116   0   0
 85   0   0
  0   0  85
  0   0 119
  0   0 139
  0   0 151
  0   0 159
  0   0 162
  0   0 160
  0   0 155
  0   0 150
  0   0 150
  0   0 160
  0   0 179
  0   0 201
  0   0 221
  0   0 237
  0   0 246
  0   0 247
  0   0 239
  0   0 221
  0   0 192
  0   0 139
124   0   0
169   0   0
187   0   0
193   0   0
192   0   0
188   0   0
182   0   0
176   0   0
171   0   0
165   0   0
159   0   0
152   0   0
143   0   0
  0   0   0
  0   0   0
  0   0   0
  0   0   0
128   0   0
146   0   0
162   0   0
172   0   0
174   0   0
164   0   0
131   0   0
  0   0 116
  0   0 173
  0   0 201
  0   0 215
  0   0 215
  0   0 204
  0   0 179
  0   0 130
118   0   0
159   0   0
172   0   0
171   0   0
160   0   0
143   0   0
118   0   0
 89   0   0
 69   0   0
 89   0   0
118   0   0
143   0   0
160   0   0
171   0   0
172   0   0
159   0   0
118   0   0
  0   0 130
  0   0 179
  0   0 204
  0   0 215
  0   0 215
  0   0 201
  0   0 173
  0   0 116
131   0   0
164   0   0
174   0   0
172   0   0
162   0   0
146   0   0
128   0   0
111   0   0
104   0   0
109   0   0
120   0   0
132   0   0
143   0   0
153   0   0
163   0   0
172   0   0
181   0   0
191   0   0
198   0   0
204   0   0
204   0   0
197   0   0
178   0   0
131   0   0
  0   0 139
  0   0 191
  0   0 219
  0   0 233
  0   0 237
  0   0 232
  0   0 220
  0   0 203
  0   0 184
  0   0 168
  0   0 162
  0   0 165
  0   0 173
  0   0 181
  0   0 186
  0   0 188
  0   0 185
  0   0 180
  0   0 171
  0   0 160
  0   0 146
  0   0 129
  0   0 104
255 255 255
 98   0   0
120   0   0
134   0   0
144   0   0
151   0   0
157   0   0
161   0   0
165   0   0
167   0   0
169   0   0
171   0   0
172   0   0
172   0   0
173   0   0
173   0   0
172   0   0
172   0   0
171   0   0
171   0   0
170   0   0
169   0   0
168   0   0
167   0   0
166   0   0
165   0   0
164   0   0
163   0   0
163   0   0
162   0   0
162   0   0
161   0   0
161   0   0
161   0   0
160   0   0
160   0   0
160   0   0
160   0   0
160   0   0
161   0   0
161   0   0
161   0   0
162   0   0
162   0   0
163   0   0
163   0   0
164   0   0
165   0   0
166   0   0
167   0   0
168   0   0
169   0   0
170   0   0
171   0   0
171   0   0
172   0   0
172   0   0
173   0   0
173   0   0
172   0   0
172   0   0
171   0   0
169   0   0
167   0   0
165   0   0
161   0   0
157   0   0
151   0   0
144   0   0
134   0   0
120   0   0
 98   0   0
255 255 255
  0   0 104
  0   0 129
  0   0 146
  0   0 160
  0   0 171
  0   0 180
  0   0 185
  0   0 188
  0   0 186
  0   0 181
  0   0 173
  0   0 165
  0   0 162
  0   0 168
  0   0 184
  0   0 203
  0   0 220
  0   0 232
  0   0 237
  0   0 233
  0   0 219
  0   0 191
  0   0 139
131   0   0
178   0   0
197   0   0
204   0   0
204   0   0
198   0   0
191   0   0
181   0   0
172   0   0
163   0   0
153   0   0
143   0   0
132   0   0
120   0   0
  0   0   0
  0   0   0
  0   0   0
  0   0   0
128   0   0
150   0   0
165   0   0
173   0   0
171   0   0
154   0   0
 93   0   0
  0   0 148
  0   0 188
  0   0 209
  0   0 216
  0   0 211
  0   0 193
  0   0 159
255 255 255
145   0   0
168   0   0
174   0   0
168   0   0
153   0   0
131   0   0
 99   0   0
255 255 255
  0   0  74
255 255 255
 99   0   0
131   0   0
153   0   0
168   0   0
174   0   0
168   0   0
145   0   0
255 255 255
  0   0 159
  0   0 193
  0   0 211
  0   0 216
  0   0 209
  0   0 188
  0   0 148
 93   0   0
154   0   0
171   0   0
173   0   0
165   0   0
150   0   0
128   0   0
102   0   0
 76   0   0
 65   0   0
 81   0   0
101   0   0
118   0   0
133   0   0
146   0   0
159   0   0
172   0   0
185   0   0
196   0   0
206   0   0
211   0   0
210   0   0
201   0   0
178   0   0
126   0   0
  0   0 143
  0   0 189
  0   0 212
  0   0 221
  0   0 220
  0   0 210
  0   0 194
  0   0 174
  0   0 158
  0   0 152
  0   0 159
  0   0 172
  0   0 185
  0   0 195
  0   0 200
  0   0 202
  0   0 201
  0   0 198
  0   0 192
  0   0 185
  0   0 176
  0   0 166
  0   0 155
  0   0 142
  0   0 126
  0   0 104
255 255 255
 88   0   0
112   0   0
126   0   0
136   0   0
144   0   0
151   0   0
156   0   0
159   0   0
163   0   0
165   0   0
167   0   0
169   0   0
170   0   0
171   0   0
172   0   0
172   0   0
173   0   0
173   0   0
173   0   0
172   0   0
172   0   0
172   0   0
172   0   0
172   0   0
172   0   0
171   0   0
171   0   0
171   0   0
171   0   0
171   0   0
171   0   0
171   0   0
171   0   0
171   0   0
171   0   0
171   0   0
171   0   0
171   0   0
172   0   0
172   0   0
172   0   0
172   0   0
172   0   0
172   0   0
173   0   0
173   0   0
173   0   0
172   0   0
172   0   0
171   0   0
170   0   0
169   0   0
167   0   0
165   0   0
163   0   0
159   0   0
156   0   0
151   0   0
144   0   0
136   0   0
126   0   0
112   0   0
 88   0   0
255 255 255
  0   0 104
  0   0 126
  0   0 142
  0   0 155
  0   0 166
  0   0 176
  0   0 185
  0   0 192
  0   0 198
  0   0 201
  0   0 202
  0   0 200
  0   0 195
  0   0 185
  0   0 172
  0   0 159
  0   0 152
  0   0 158
  0   0 174
  0   0 194
  0   0 210
  0   0 220
  0   0 221
  0   0 212
  0   0 189
  0   0 143
126   0   0
178   0   0
201   0   0
210   0   0
211   0   0
206   0   0
196   0   0
185   0   0
172   0   0
159   0   0
146   0   0
133   0   0
118   0   0
101   0   0
 81   0   0
  0   0   0
  0   0   0
  0   0   0
  0   0   0
134   0   0
156   0   0
169   0   0
174   0   0
166   0   0
138   0   0
  0   0 102
  0   0 168
  0   0 199
  0   0 213
  0   0 215
  0   0 204
  0   0 179
  0   0 130
120   0   0
160   0   0
173   0   0
173   0   0
163   0   0
145   0   0
118   0   0
 74   0   0
  0   0  83
  0   0  95
  0   0  83
 74   0   0
118   0   0
145   0   0
163   0   0
173   0   0
173   0   0
160   0   0
120   0   0
  0   0 130
  0   0 179
  0   0 204
  0   0 215
  0   0 213
  0   0 199
  0   0 168
  0   0 102
138   0   0
166   0   0
174   0   0
169   0   0
156   0   0
134   0   0
105   0   0
255 255 255
  0   0  77
  0   0  80
255 255 255
 71   0   0
100   0   0
121   0   0
139   0   0
156   0   0
172   0   0
187   0   0
200   0   0
209   0   0
214   0   0
211   0   0
198   0   0
171   0   0
105   0   0
  0   0 149
  0   0 185
  0   0 201
  0   0 203
  0   0 194
  0   0 175
  0   0 150
  0   0 123
  0   0 110
  0   0 125
  0   0 150
  0   0 172
  0   0 188
  0   0 199
  0   0 206
  0   0 209
  0   0 209
  0   0 207
  0   0 204
  0   0 200
  0   0 195
  0   0 189
  0   0 182
  0   0 175
  0   0 166
  0   0 157
  0   0 146
  0   0 134
  0   0 119
  0   0  99
255 255 255
 83   0   0
106   0   0
120   0   0
130   0   0
138   0   0
144   0   0
149   0   0
153   0   0
156   0   0
159   0   0
161   0   0
163   0   0
165   0   0
166   0   0
167   0   0
168   0   0
169   0   0
169   0   0
170   0   0
171   0   0
171   0   0
171   0   0
172   0   0
172   0   0
172   0   0
172   0   0
172   0   0
172   0   0
172   0   0
172   0   0
172   0   0
171   0   0
171   0   0
171   0   0
170   0   0
169   0   0
169   0   0
168   0   0
167   0   0
166   0   0
165   0   0
163   0   0
161   0   0
159   0   0
156   0   0
153   0   0
149   0   0
144   0   0
138   0   0
130   0   0
120   0   0
106   0   0
 83   0   0
255 255 255
  0   0  99
  0   0 119
  0   0 134
  0   0 146
  0   0 157
  0   0 166
  0   0 175
  0   0 182
  0   0 189
  0   0 195
  0   0 200
  0   0 204
  0   0 207
  0   0 209
  0   0 209
  0   0 206
  0   0 199
  0   0 188
  0   0 172
  0   0 150
  0   0 125
  0   0 110
  0   0 123
  0   0 150
  0   0 175
  0   0 194
  0   0 203
  0   0 201
  0   0 185
  0   0 149
105   0   0
171   0   0
198   0   0
211   0   0
214   0   0
209   0   0
200   0   0
187   0   0
172   0   0
156   0   0
139   0   0
121   0   0
100   0   0
 71   0   0
255 255 255
  0   0  80
  0   0   0
  0   0   0
  0   0   0
  0   0   0
143   0   0
162   0   0
173   0   0
173   0   0
158   0   0
111   0   0
  0   0 139
  0   0 184
  0   0 206
  0   0 215
  0   0 211
  0   0 194
  0   0 160
  0   0  67
146   0   0
169   0   0
175   0   0
170   0   0
156   0   0
135   0   0
103   0   0
255 255 255
  0   0  96
  0   0 103
  0   0  96
255 255 255
103   0   0
135   0   0
156   0   0
170   0   0
175   0   0
169   0   0
146   0   0
  0   0  67
  0   0 160
  0   0 194
  0   0 211
  0   0 215
  0   0 206
  0   0 184
  0   0 139
111   0   0
158   0   0
173   0   0
173   0   0
162   0   0
143   0   0
115   0   0
255 255 255
  0   0  88
  0   0 101
  0   0 101
  0   0  92
  0   0  68
 76   0   0
109   0   0
132   0   0
153   0   0
172   0   0
189   0   0
202   0   0
210   0   0
212   0   0
206   0   0
188   0   0
154   0   0
  0   0  70
  0   0 155
  0   0 179
  0   0 184
  0   0 174
  0   0 150
  0   0 100
106   0   0
126   0   0
117   0   0
255 255 255
  0   0 132
  0   0 164
  0   0 184
  0   0 197
  0   0 204
  0   0 209
  0   0 210
  0   0 210
  0   0 209
  0   0 208
  0   0 205
  0   0 202
  0   0 199
  0   0 194
  0   0 190
  0   0 184
  0   0 178
  0   0 172
  0   0 165
  0   0 157
  0   0 148
  0   0 138
  0   0 127
  0   0 114
  0   0  97
  0   0  69
 68   0   0
 93   0   0
108   0   0
118   0   0
125   0   0
131   0   0
136   0   0
140   0   0
143   0   0
146   0   0
149   0   0
151   0   0
152   0   0
154   0   0
155   0   0
156   0   0
157   0   0
158   0   0
159   0   0
159   0   0
159   0   0
159   0   0
159   0   0
158   0   0
157   0   0
156   0   0
155   0   0
154   0   0
152   0   0
151   0   0
149   0   0
146   0   0
143   0   0
140   0   0
136   0   0
131   0   0
125   0   0
118   0   0
108   0   0
 93   0   0
 68   0   0
  0   0  69
  0   0  97
  0   0 114
  0   0 127
  0   0 138
  0   0 148
  0   0 157
  0   0 165
  0   0 172
  0   0 178
  0   0 184
  0   0 190
  0   0 194
  0   0 199
  0   0 202
  0   0 205
  0   0 208
  0   0 209
  0   0 210
  0   0 210
  0   0 209
  0   0 204
  0   0 197
  0   0 184
  0   0 164
  0   0 132
255 255 255
117   0   0
126   0   0
106   0   0
  0   0 100
  0   0 150
  0   0 174
  0   0 184
  0   0 179
  0   0 155
  0   0  70
154   0   0
188   0   0
206   0   0
212   0   0
210   0   0
202   0   0
189   0   0
172   0   0
153   0   0
132   0   0
109   0   0
 76   0   0
  0   0  68
  0   0  92
  0   0 101
  0   0 101
  0   0   0
  0   0   0
  0   0   0
  0   0   0
152   0   0
168   0   0
175   0   0
170   0   0
146   0   0
  0   0  70
  0   0 162
  0   0 195
  0   0 212
  0   0 215
  0   0 205
  0   0 181
  0   0 134
116   0   0
160   0   0
174   0   0
175   0   0
165   0   0
148   0   0
123   0   0
 84   0   0
  0   0  80
  0   0 102
  0   0 108
  0   0 102
  0   0  80
 84   0   0
123   0   0
148   0   0
165   0   0
175   0   0
174   0   0
160   0   0
116   0   0
  0   0 134
  0   0 181
  0   0 205
  0   0 215
  0   0 212
  0   0 195
  0   0 162
  0   0  70
146   0   0
170   0   0
175   0   0
168   0   0
152   0   0
127   0   0
 87   0   0
  0   0  83
  0   0 106
  0   0 112
  0   0 111
  0   0 105
  0   0  90
255 255 255
 98   0   0
128   0   0
152   0   0
173   0   0
189   0   0
201   0   0
207   0   0
205   0   0
194   0   0
169   0   0
118   0   0
  0   0 125
  0   0 160
  0   0 168
  0   0 158
  0   0 123
106   0   0
152   0   0
168   0   0
169   0   0
156   0   0
124   0   0
  0   0  93
  0   0 147
  0   0 171
  0   0 186
  0   0 195
  0   0 201
  0   0 204
  0   0 207
  0   0 208
  0   0 209
  0   0 208
  0   0 208
  0   0 207
  0   0 205
  0   0 203
  0   0 200
  0   0 197
  0   0 194
  0   0 190
  0   0 185
  0   0 181
  0   0 176
  0   0 170
  0   0 164
  0   0 158
  0   0 152
  0   0 145
  0   0 138
  0   0 130
  0   0 122
  0   0 112
  0   0 102
  0   0  89
  0   0  72
255 255 255
 65   0   0
 81   0   0
 91   0   0
 98   0   0
103   0   0
107   0   0
111   0   0
113   0   0
115   0   0
116   0   0
116   0   0
116   0   0
115   0   0
113   0   0
111   0   0
107   0   0
103   0   0
 98   0   0
 91   0   0
 81   0   0
 65   0   0
255 255 255
  0   0  72
  0   0  89
  0   0 102
  0   0 112
  0   0 122
  0   0 130
  0   0 138
  0   0 145
  0   0 152
  0   0 158
  0   0 164
  0   0 170
  0   0 176
  0   0 181
  0   0 185
  0   0 190
  0   0 194
  0   0 197
  0   0 200
  0   0 203
  0   0 205
  0   0 207
  0   0 208
  0   0 208
  0   0 209
  0   0 208
  0   0 207
  0   0 204
  0   0 201
  0   0 195
  0   0 186
  0   0 171
  0   0 147
  0   0  93
124   0   0
156   0   0
169   0   0
168   0   0
152   0   0
106   0   0
  0   0 123
  0   0 158
  0   0 168
  0   0 160
  0   0 125
118   0   0
169   0   0
194   0   0
205   0   0
207   0   0
201   0   0
189   0   0
173   0   0
152   0   0
128   0   0
 98   0   0
255 255 255
  0   0  90
  0   0 105
  0   0 111
  0   0 112
  0   0 106
  0   0   0
  0   0   0
  0   0   0
  0   0   0
160   0   0
173   0   0
175   0   0
164   0   0
126   0   0
  0   0 126
  0   0 178
  0   0 204
  0   0 214
  0   0 212
  0   0 196
  0   0 164
  0   0  86
143   0   0
169   0   0
176   0   0
172   0   0
159   0   0
139   0   0
110   0   0
255 255 255
  0   0  91
  0   0 105
  0   0 109
  0   0 105
  0   0  91
255 255 255
110   0   0
139   0   0
159   0   0
172   0   0
176   0   0
169   0   0
143   0   0
  0   0  86
  0   0 164
  0   0 196
  0   0 212
  0   0 214
  0   0 204
  0   0 178
  0   0 126
126   0   0
164   0   0
175   0   0
173   0   0
160   0   0
139   0   0
107   0   0
255 255 255
  0   0 102
  0   0 114
  0   0 118
  0   0 116
  0   0 111
  0   0  99
  0   0  68
 93   0   0
128   0   0
154   0   0
174   0   0
189   0   0
198   0   0
200   0   0
192   0   0
173   0   0
133   0   0
  0   0 102
  0   0 150
  0   0 162
  0   0 152
  0   0 110
126   0   0
168   0   0
188   0   0
194   0   0
190   0   0
176   0   0
151   0   0
104   0   0
  0   0 112
  0   0 148
  0   0 166
  0   0 177
  0   0 185
  0   0 191
  0   0 195
  0   0 199
  0   0 202
  0   0 204
  0   0 206
  0   0 207
  0   0 208
  0   0 208
  0   0 207
  0   0 206
  0   0 205
  0   0 203
  0   0 201
  0   0 199
  0   0 196
  0   0 194
  0   0 190
  0   0 187
  0   0 184
  0   0 181
  0   0 177
  0   0 173
  0   0 170
  0   0 166
  0   0 163
  0   0 159
  0   0 156
  0   0 153
  0   0 150
  0   0 147
  0   0 144
  0   0 141
  0   0 138
  0   0 136
  0   0 134
  0   0 133
  0   0 132
  0   0 132
  0   0 132
  0   0 133
  0   0 134
  0   0 136
  0   0 138
  0   0 141
  0   0 144
  0   0 147
  0   0 150
  0   0 153
  0   0 156
  0   0 159
  0   0 163
  0   0 166
  0   0 170
  0   0 173
  0   0 177
  0   0 181
  0   0 184
  0   0 187
  0   0 190
  0   0 194
  0   0 196
  0   0 199
  0   0 201
  0   0 203
  0   0 205
  0   0 206
  0   0 207
  0   0 208
  0   0 208
  0   0 207
  0   0 206
  0   0 204
  0   0 202
  0   0 199
  0   0 195
  0   0 191
  0   0 185
  0   0 177
  0   0 166
  0   0 148
  0   0 112
104   0   0
151   0   0
176   0   0
190   0   0
194   0   0
188   0   0
168   0   0
126   0   0
  0   0 110
  0   0 152
  0   0 162
  0   0 150
  0   0 102
133   0   0
173   0   0
192   0   0
200   0   0
198   0   0
189   0   0
174   0   0
154   0   0
128   0   0
 93   0   0
  0   0  68
  0   0  99
  0   0 111
  0   0 116
  0   0 118
  0   0 114
  0   0 102
  0   0   0
  0   0   0
  0   0   0
  0   0   0
167   0   0
176   0   0
173   0   0
154   0   0
 85   0   0
  0   0 152
  0   0 190
  0   0 209
  0   0 215
  0   0 207
  0   0 185
  0   0 141
107   0   0
158   0   0
174   0   0
176   0   0
167   0   0
151   0   0
128   0   0
 95   0   0
255 255 255
  0   0  96
  0   0 106
  0   0 109
  0   0 106
  0   0  96
255 255 255
 95   0   0
128   0   0
151   0   0
167   0   0
176   0   0
174   0   0
158   0   0
107   0   0
  0   0 141
  0   0 185
  0   0 207
  0   0 215
  0   0 209
  0   0 190
  0   0 152
 85   0   0
154   0   0
173   0   0
176   0   0
167   0   0
149   0   0
123   0   0
 75   0   0
  0   0  92
  0   0 111
  0   0 118
  0   0 120
  0   0 118
  0   0 113
  0   0 102
  0   0  69
 97   0   0
132   0   0
157   0   0
175   0   0
187   0   0
192   0   0
187   0   0
170   0   0
134   0   0
  0   0  97
  0   0 150
  0   0 165
  0   0 159
  0   0 125
117   0   0
169   0   0
194   0   0
206   0   0
207   0   0
200   0   0
187   0   0
167   0   0
139   0   0
 94   0   0
  0   0  99
  0   0 130
  0   0 147
  0   0 159
  0   0 168
  0   0 175
  0   0 182
  0   0 187
  0   0 192
  0   0 196
  0   0 199
  0   0 202
  0   0 204
  0   0 205
  0   0 206
  0   0 207
  0   0 207
  0   0 207
  0   0 207
  0   0 206
  0   0 205
  0   0 204
  0   0 203
  0   0 201
  0   0 200
  0   0 198
  0   0 196
  0   0 194
  0   0 193
  0   0 191
  0   0 189
  0   0 188
  0   0 186
  0   0 185
  0   0 183
  0   0 182
  0   0 181
  0   0 180
  0   0 179
  0   0 179
  0   0 178
  0   0 178
  0   0 178
  0   0 179
  0   0 179
  0   0 180
  0   0 181
  0   0 182
  0   0 183
  0   0 185
  0   0 186
  0   0 188
  0   0 189
  0   0 191
  0   0 193
  0   0 194
  0   0 196
  0   0 198
  0   0 200
  0   0 201
  0   0 203
  0   0 204
  0   0 205
  0   0 206
  0   0 207
  0   0 207
  0   0 207
  0   0 207
  0   0 206
  0   0 205
  0   0 204
  0   0 202
  0   0 199
  0   0 196
  0   0 192
  0   0 187
  0   0 182
  0   0 175
  0   0 168
  0   0 159
  0   0 147
  0   0 130
  0   0  99
 94   0   0
139   0   0
167   0   0
187   0   0
200   0   0
207   0   0
206   0   0
194   0   0
169   0   0
117   0   0
  0   0 125
  0   0 159
  0   0 165
  0   0 150
  0   0  97
134   0   0
170   0   0
187   0   0
192   0   0
187   0   0
175   0   0
157   0   0
132   0   0
 97   0   0
  0   0  69
  0   0 102
  0   0 113
  0   0 118
  0   0 120
  0   0 118
  0   0 111
  0   0  92
  0   0   0
  0   0   0
  0   0   0
  0   0   0
172   0   0
177   0   0
168   0   0
139   0   0
  0   0 105
  0   0 170
  0   0 200
  0   0 213
  0   0 213
  0   0 199
  0   0 170
  0   0 105
138   0   0
168   0   0
176   0   0
173   0   0
161   0   0
142   0   0
116   0   0
 75   0   0
  0   0  80
  0   0  99
  0   0 106
  0   0 108
  0   0 106
  0   0  99
  0   0  80
 75   0   0
116   0   0
142   0   0
161   0   0
173   0   0
176   0   0
168   0   0
138   0   0
  0   0 105
  0   0 170
  0   0 199
  0   0 213
  0   0 213
  0   0 200
  0   0 170
  0   0 105
139   0   0
168   0   0
177   0   0
172   0   0
158   0   0
135   0   0
101   0   0
  0   0  69
  0   0 104
  0   0 116
  0   0 120
  0   0 120
  0   0 118
  0   0 112
  0   0  98
255 255 255
108   0   0
139   0   0
161   0   0
176   0   0
183   0   0
180   0   0
166   0   0
131   0   0
  0   0 103
  0   0 155
  0   0 173
  0   0 172
  0   0 150
255 255 255
156   0   0
190   0   0
207   0   0
214   0   0
212   0   0
204   0   0
191   0   0
175   0   0
157   0   0
138   0   0
116   0   0
 83   0   0
  0   0  77
  0   0 109
  0   0 127
  0   0 141
  0   0 152
  0   0 161
  0   0 169
  0   0 176
  0   0 182
  0   0 187
  0   0 191
  0   0 195
  0   0 198
  0   0 200
  0   0 202
  0   0 204
  0   0 205
  0   0 206
  0   0 207
  0   0 207
  0   0 207
  0   0 207
  0   0 207
  0   0 207
  0   0 206
  0   0 206
  0   0 205
  0   0 205
  0   0 204
  0   0 204
  0   0 203
  0   0 203
  0   0 202
  0   0 202
  0   0 201
  0   0 201
  0   0 200
  0   0 200
  0   0 200
  0   0 200
  0   0 200
  0   0 201
  0   0 201
  0   0 202
  0   0 202
  0   0 203
  0   0 203
  0   0 204
  0   0 204
  0   0 205
  0   0 205
  0   0 206
  0   0 206
  0   0 207
  0   0 207
  0   0 207
  0   0 207
  0   0 207
  0   0 207
  0   0 206
  0   0 205
  0   0 204
  0   0 202
  0   0 200
  0   0 198
  0   0 195
  0   0 191
  0   0 187
  0   0 182
  0   0 176
  0   0 169
  0   0 161
  0   0 152
  0   0 141
  0   0 127
  0   0 109
  0   0  77
 83   0   0
116   0   0
138   0   0
157   0   0
175   0   0
191   0   0
204   0   0
212   0   0
214   0   0
207   0   0
190   0   0
156   0   0
255 255 255
  0   0 150
  0   0 172
  0   0 173
  0   0 155
  0   0 103
131   0   0
166   0   0
180   0   0
183   0   0
176   0   0
161   0   0
139   0   0
108   0   0
255 255 255
  0   0  98
  0   0 112
  0   0 118
  0   0 120
  0   0 120
  0   0 116
  0   0 104
  0   0  69
  0   0   0
  0   0   0
  0   0   0
  0   0   0
175   0   0
176   0   0
161   0   0
114   0   0
  0   0 139
  0   0 184
  0   0 207
  0   0 214
  0   0 209
  0   0 190
  0   0 151
 88   0   0
154   0   0
173   0   0
177   0   0
169   0   0
154   0   0
132   0   0
103   0   0
255 255 255
  0   0  88
  0   0 100
  0   0 104
  0   0 105
  0   0 104
  0   0 100
  0   0  88
255 255 255
103   0   0
132   0   0
154   0   0
169   0   0
177   0   0
173   0   0
154   0   0
 88   0   0
  0   0 151
  0   0 190
  0   0 209
  0   0 214
  0   0 207
  0   0 184
  0   0 139
114   0   0
161   0   0
176   0   0
175   0   0
165   0   0
146   0   0
118   0   0
 65   0   0
  0   0  93
  0   0 110
  0   0 117
  0   0 119
  0   0 119
  0   0 116
  0   0 107
  0   0  86
 80   0   0
122   0   0
148   0   0
165   0   0
174   0   0
174   0   0
162   0   0
128   0   0
  0   0 108
  0   0 160
  0   0 181
  0   0 185
  0   0 172
  0   0 132
124   0   0
176   0   0
200   0   0
212   0   0
214   0   0
210   0   0
201   0   0
190   0   0
178   0   0
167   0   0
158   0   0
149   0   0
140   0   0
130   0   0
118   0   0
100   0   0
255 255 255
  0   0  86
  0   0 112
  0   0 129
  0   0 141
  0   0 151
  0   0 160
  0   0 167
  0   0 173
  0   0 178
  0   0 183
  0   0 187
  0   0 190
  0   0 193
  0   0 196
  0   0 198
  0   0 200
  0   0 201
  0   0 203
  0   0 204
  0   0 205
  0   0 205
  0   0 206
  0   0 206
  0   0 207
  0   0 207
  0   0 207
  0   0 207
  0   0 207
  0   0 207
  0   0 207
  0   0 207
  0   0 207
  0   0 207
  0   0 207
  0   0 207
  0   0 207
  0   0 207
  0   0 207
  0   0 207
  0   0 207
  0   0 207
  0   0 207
  0   0 207
  0   0 207
  0   0 206
  0   0 206
  0   0 205
  0   0 205
  0   0 204
  0   0 203
  0   0 201
  0   0 200
  0   0 198
  0   0 196
  0   0 193
  0   0 190
  0   0 187
  0   0 183
  0   0 178
  0   0 173
  0   0 167
  0   0 160
  0   0 151
  0   0 141
  0   0 129
  0   0 112
  0   0  86
255 255 255
100   0   0
118   0   0
130   0   0
140   0   0
149   0   0
158   0   0
167   0   0
178   0   0
190   0   0
201   0   0
210   0   0
214   0   0
212   0   0
200   0   0
176   0   0
124   0   0
  0   0 132
  0   0 172
  0   0 185
  0   0 181
  0   0 160
  0   0 108
128   0   0
162   0   0
174   0   0
174   0   0
165   0   0
148   0   0
122   0   0
 80   0   0
  0   0  86
  0   0 107
  0   0 116
  0   0 119
  0   0 119
  0   0 117
  0   0 110
  0   0  93
 65   0   0
  0   0   0
  0   0   0
  0   0   0
  0   0   0
177   0   0
172   0   0
150   0   0
255 255 255
  0   0 160
  0   0 195
  0   0 211
  0   0 214
  0   0 203
  0   0 177
  0   0 123
128   0   0
165   0   0
176   0   0
175   0   0
164   0   0
146   0   0
121   0   0
 86   0   0
  0   0  66
  0   0  92
  0   0 100
  0   0 102
  0   0 103
  0   0 102
  0   0 100
  0   0  92
  0   0  66
 86   0   0
121   0   0
146   0   0
164   0   0
175   0   0
176   0   0
165   0   0
128   0   0
  0   0 123
  0   0 177
  0   0 203
  0   0 214
  0   0 211
  0   0 195
  0   0 160
255 255 255
150   0   0
172   0   0
177   0   0
170   0   0
155   0   0
131   0   0
 94   0   0
  0   0  73
  0   0 103
  0   0 113
  0   0 117
  0   0 117
  0   0 116
  0   0 110
  0   0  97
255 255 255
106   0   0
136   0   0
156   0   0
168   0   0
170   0   0
160   0   0
129   0   0
  0   0 105
  0   0 162
  0   0 186
  0   0 195
  0   0 188
  0   0 164
  0   0  93
151   0   0
187   0   0
204   0   0
210   0   0
209   0   0
203   0   0
194   0   0
185   0   0
177   0   0
171   0   0
167   0   0
164   0   0
161   0   0
157   0   0
153   0   0
147   0   0
140   0   0
131   0   0
119   0   0
102   0   0
 71   0   0
  0   0  77
  0   0 105
  0   0 121
  0   0 133
  0   0 143
  0   0 151
  0   0 158
  0   0 164
  0   0 169
  0   0 173
  0   0 177
  0   0 181
  0   0 184
  0   0 186
  0   0 189
  0   0 191
  0   0 192
  0   0 194
  0   0 195
  0   0 196
  0   0 197
  0   0 198
  0   0 199
  0   0 199
  0   0 200
  0   0 200
  0   0 200
  0   0 200
  0   0 200
  0   0 200
  0   0 200
  0   0 200
  0   0 200
  0   0 199
  0   0 199
  0   0 198
  0   0 197
  0   0 196
  0   0 195
  0   0 194
  0   0 192
  0   0 191
  0   0 189
  0   0 186
  0   0 184
  0   0 181
  0   0 177
  0   0 173
  0   0 169
  0   0 164
  0   0 158
  0   0 151
  0   0 143
  0   0 133
  0   0 121
  0   0 105
  0   0  77
 71   0   0
102   0   0
119   0   0
131   0   0
140   0   0
147   0   0
153   0   0
157   0   0
161   0   0
164   0   0
167   0   0
171   0   0
177   0   0
185   0   0
194   0   0
203   0   0
209   0   0
210   0   0
204   0   0
187   0   0
151   0   0
  0   0  93
  0   0 164
  0   0 188
  0   0 195
  0   0 186
  0   0 162
  0   0 105
129   0   0
160   0   0
170   0   0
168   0   0
156   0   0
136   0   0
106   0   0
255 255 255
  0   0  97
  0   0 110
  0   0 116
  0   0 117
  0   0 117
  0   0 113
  0   0 103
  0   0  73
 94   0   0
  0   0   0
  0   0   0
  0   0   0
  0   0   0
177   0   0
167   0   0
133   0   0
  0   0 119
  0   0 176
  0   0 203
  0   0 214
  0   0 211
  0   0 195
  0   0 161
255 255 255
148   0   0
172   0   0
177   0   0
171   0   0
158   0   0
137   0   0
109   0   0
 64   0   0
  0   0  79
  0   0  94
  0   0  99
  0   0 100
  0   0 100
  0   0 100
  0   0  99
  0   0  94
  0   0  79
 64   0   0
109   0   0
137   0   0
158   0   0
171   0   0
177   0   0
172   0   0
148   0   0
255 255 255
  0   0 161
  0   0 195
  0   0 211
  0   0 214
  0   0 203
  0   0 176
  0   0 119
133   0   0
167   0   0
177   0   0
174   0   0
162   0   0
141   0   0
111   0   0
255 255 255
  0   0  93
  0   0 108
  0   0 113
  0   0 115
  0   0 115
  0   0 111
  0   0 102
  0   0  74
 91   0   0
126   0   0
149   0   0
163   0   0
168   0   0
161   0   0
135   0   0
  0   0  91
  0   0 159
  0   0 188
  0   0 200
  0   0 199
  0   0 184
  0   0 147
104   0   0
167   0   0
191   0   0
201   0   0
203   0   0
198   0   0
191   0   0
182   0   0
175   0   0
171   0   0
169   0   0
169   0   0
169   0   0
169   0   0
169   0   0
168   0   0
166   0   0
163   0   0
159   0   0
155   0   0
149   0   0
143   0   0
135   0   0
126   0   0
114   0   0
 99   0   0
 74   0   0
  0   0  64
  0   0  94
  0   0 110
  0   0 121
  0   0 131
  0   0 138
  0   0 144
  0   0 150
  0   0 154
  0   0 158
  0   0 162
  0   0 165
  0   0 168
  0   0 170
  0   0 172
  0   0 174
  0   0 175
  0   0 176
  0   0 177
  0   0 177
  0   0 178
  0   0 178
  0   0 178
  0   0 178
  0   0 178
  0   0 177
  0   0 177
  0   0 176
  0   0 175
  0   0 174
  0   0 172
  0   0 170
  0   0 168
  0   0 165
  0   0 162
  0   0 158
  0   0 154
  0   0 150
  0   0 144
  0   0 138
  0   0 131
  0   0 121
  0   0 110
  0   0  94
  0   0  64
 74   0   0
 99   0   0
114   0   0
126   0   0
135   0   0
143   0   0
149   0   0
155   0   0
159   0   0
163   0   0
166   0   0
168   0   0
169   0   0
169   0   0
169   0   0
169   0   0
169   0   0
171   0   0
175   0   0
182   0   0
191   0   0
198   0   0
203   0   0
201   0   0
191   0   0
167   0   0
104   0   0
  0   0 147
  0   0 184
  0   0 199
  0   0 200
  0   0 188
  0   0 159
  0   0  91
135   0   0
161   0   0
168   0   0
163   0   0
149   0   0
126   0   0
 91   0   0
  0   0  74
  0   0 102
  0   0 111
  0   0 115
  0   0 115
  0   0 113
  0   0 108
  0   0  93
255 255 255
111   0   0
  0   0   0
  0   0   0
  0   0   0
  0   0   0
176   0   0
159   0   0
104   0   0
  0   0 146
  0   0 188
  0   0 208
  0   0 214
  0   0 207
  0   0 185
  0   0 140
112   0   0
160   0   0
175   0   0
176   0   0
167   0   0
150   0   0
127   0   0
 95   0   0
255 255 255
  0   0  86
  0   0  95
  0   0  97
  0   0  97
  0   0  96
  0   0  97
  0   0  97
  0   0  95
  0   0  86
255 255 255
 95   0   0
127   0   0
150   0   0
167   0   0
176   0   0
175   0   0
160   0   0
112   0   0
  0   0 140
  0   0 185
  0   0 207
  0   0 214
  0   0 208
  0   0 188
  0   0 146
104   0   0
159   0   0
176   0   0
177   0   0
168   0   0
150   0   0
124   0   0
 84   0   0
  0   0  79
  0   0 102
  0   0 110
  0   0 113
  0   0 113
  0   0 111
  0   0 104
  0   0  84
 76   0   0
118   0   0
143   0   0
159   0   0
167   0   0
163   0   0
142   0   0
255 255 255
  0   0 151
  0   0 185
  0   0 202
  0   0 206
  0   0 197
  0   0 171
  0   0 112
139   0   0
175   0   0
190   0   0
194   0   0
191   0   0
183   0   0
174   0   0
166   0   0
162   0   0
161   0   0
162   0   0
165   0   0
167   0   0
170   0   0
171   0   0
172   0   0
173   0   0
172   0   0
171   0   0
170   0   0
167   0   0
165   0   0
162   0   0
158   0   0
154   0   0
150   0   0
145   0   0
139   0   0
133   0   0
126   0   0
118   0   0
108   0   0
 97   0   0
 81   0   0
255 255 255
  0   0  65
  0   0  85
  0   0  97
  0   0 105
  0   0 112
  0   0 118
  0   0 122
  0   0 125
  0   0 128
  0   0 129
  0   0 131
  0   0 131
  0   0 131
  0   0 131
  0   0 131
  0   0 131
  0   0 131
  0   0 129
  0   0 128
  0   0 125
  0   0 122
  0   0 118
  0   0 112
  0   0 105
  0   0  97
  0   0  85
  0   0  65
255 255 255
 81   0   0
 97   0   0
108   0   0
118   0   0
126   0   0
133   0   0
139   0   0
145   0   0
150   0   0
154   0   0
158   0   0
162   0   0
165   0   0
167   0   0
170   0   0
171   0   0
172   0   0
173   0   0
172   0   0
171   0   0
170   0   0
167   0   0
165   0   0
162   0   0
161   0   0
162   0   0
166   0   0
174   0   0
183   0   0
191   0   0
194   0   0
190   0   0
175   0   0
139   0   0
  0   0 112
  0   0 171
  0   0 197
  0   0 206
  0   0 202
  0   0 185
  0   0 151
255 255 255
142   0   0
163   0   0
167   0   0
159   0   0
143   0   0
118   0   0
 76   0   0
  0   0  84
  0   0 104
  0   0 111
  0   0 113
  0   0 113
  0   0 110
  0   0 102
  0   0  79
 84   0   0
124   0   0
  0   0   0
  0   0   0
  0   0   0
  0   0   0
172   0   0
148   0   0
  0   0  75
  0   0 164
  0   0 197
  0   0 212
  0   0 213
  0   0 201
  0   0 172
  0   0 109
137   0   0
168   0   0
177   0   0
174   0   0
161   0   0
142   0   0
116   0   0
 79   0   0
  0   0  70
  0   0  89
  0   0  94
  0   0  95
  0   0  94
  0   0  93
  0   0  94
  0   0  95
  0   0  94
  0   0  89
  0   0  70
 79   0   0
116   0   0
142   0   0
161   0   0
174   0   0
177   0   0
168   0   0
137   0   0
  0   0 109
  0   0 172
  0   0 201
  0   0 213
  0   0 212
  0   0 197
  0   0 164
  0   0  75
148   0   0
172   0   0
178   0   0
172   0   0
157   0   0
135   0   0
102   0   0
255 255 255
  0   0  95
  0   0 107
  0   0 111
  0   0 112
  0   0 110
  0   0 105
  0   0  89
255 255 255
110   0   0
138   0   0
156   0   0
166   0   0
165   0   0
150   0   0
 99   0   0
  0   0 139
  0   0 180
  0   0 201
  0   0 209
  0   0 204
  0   0 186
  0   0 148
 94   0   0
157   0   0
178   0   0
185   0   0
182   0   0
174   0   0
163   0   0
153   0   0
147   0   0
145   0   0
147   0   0
151   0   0
156   0   0
160   0   0
164   0   0
167   0   0
170   0   0
171   0   0
173   0   0
173   0   0
174   0   0
174   0   0
173   0   0
172   0   0
171   0   0
170   0   0
168   0   0
167   0   0
164   0   0
162   0   0
160   0   0
157   0   0
154   0   0
151   0   0
148   0   0
145   0   0
142   0   0
139   0   0
135   0   0
132   0   0
129   0   0
126   0   0
123   0   0
121   0   0
119   0   0
118   0   0
118   0   0
118   0   0
117   0   0
118   0   0
118   0   0
118   0   0
119   0   0
121   0   0
123   0   0
126   0   0
129   0   0
132   0   0
135   0   0
139   0   0
142   0   0
145   0   0
148   0   0
151   0   0
154   0   0
157   0   0
160   0   0
162   0   0
164   0   0
167   0   0
168   0   0
170   0   0
171   0   0
172   0   0
173   0   0
174   0   0
174   0   0
173   0   0
173   0   0
171   0   0
170   0   0
167   0   0
164   0   0
160   0   0
156   0   0
151   0   0
147   0   0
145   0   0
147   0   0
153   0   0
163   0   0
174   0   0
182   0   0
185   0   0
178   0   0
157   0   0
 94   0   0
  0   0 148
  0   0 186
  0   0 204
  0   0 209
  0   0 201
  0   0 180
  0   0 139
 99   0   0
150   0   0
165   0   0
166   0   0
156   0   0
138   0   0
110   0   0
255 255 255
  0   0  89
  0   0 105
  0   0 110
  0   0 112
  0   0 111
  0   0 107
  0   0  95
255 255 255
102   0   0
135   0   0
  0   0   0
  0   0   0
  0   0   0
  0   0   0
167   0   0
131   0   0
  0   0 123
  0   0 178
  0   0 204
  0   0 214
  0   0 210
  0   0 193
  0   0 156
 72   0   0
153   0   0
173   0   0
177   0   0
170   0   0
155   0   0
133   0   0
104   0   0
255 255 255
  0   0  80
  0   0  91
  0   0  93
  0   0  92
  0   0  91
  0   0  90
  0   0  91
  0   0  92
  0   0  93
  0   0  91
  0   0  80
255 255 255
104   0   0
133   0   0
155   0   0
170   0   0
177   0   0
173   0   0
153   0   0
 72   0   0
  0   0 156
  0   0 193
  0   0 210
  0   0 214
  0   0 204
  0   0 178
  0   0 123
131   0   0
167   0   0
178   0   0
176   0   0
163   0   0
143   0   0
115   0   0
 67   0   0
  0   0  86
  0   0 103
  0   0 109
  0   0 111
  0   0 110
  0   0 105
  0   0  93
255 255 255
102   0   0
132   0   0
152   0   0
165   0   0
167   0   0
157   0   0
123   0   0
  0   0 119
  0   0 171
  0   0 198
  0   0 209
  0   0 209
  0   0 195
  0   0 166
  0   0  99
138   0   0
167   0   0
177   0   0
175   0   0
166   0   0
153   0   0
139   0   0
127   0   0
122   0   0
123   0   0
128   0   0
135   0   0
142   0   0
148   0   0
153   0   0
157   0   0
161   0   0
164   0   0
166   0   0
168   0   0
170   0   0
171   0   0
172   0   0
173   0   0
174   0   0
174   0   0
174   0   0
174   0   0
173   0   0
173   0   0
172   0   0
171   0   0
171   0   0
170   0   0
169   0   0
168   0   0
166   0   0
165   0   0
164   0   0
163   0   0
162   0   0
161   0   0
161   0   0
160   0   0
160   0   0
160   0   0
160   0   0
160   0   0
160   0   0
160   0   0
160   0   0
160   0   0
161   0   0
161   0   0
162   0   0
163   0   0
164   0   0
165   0   0
166   0   0
168   0   0
169   0   0
170   0   0
171   0   0
171   0   0
172   0   0
173   0   0
173   0   0
174   0   0
174   0   0
174   0   0
174   0   0
173   0   0
172   0   0
171   0   0
170   0   0
168   0   0
166   0   0
164   0   0
161   0   0
157   0   0
153   0   0
148   0   0
142   0   0
135   0   0
128   0   0
123   0   0
122   0   0
127   0   0
139   0   0
153   0   0
166   0   0
175   0   0
177   0   0
167   0   0
138   0   0
  0   0  99
  0   0 166
  0   0 195
  0   0 209
  0   0 209
  0   0 198
  0   0 171
  0   0 119
123   0   0
157   0   0
167   0   0
165   0   0
152   0   0
132   0   0
102   0   0
255 255 255
  0   0  93
  0   0 105
  0   0 110
  0   0 111
  0   0 109
  0   0 103
  0   0  86
 67   0   0
115   0   0
143   0   0
  0   0   0
  0   0   0
  0   0   0
  0   0   0
160   0   0
104   0   0
  0   0 147
  0   0 188
  0   0 209
  0   0 214
  0   0 206
  0   0 182
  0   0 134
120   0   0
163   0   0
176   0   0
175   0   0
165   0   0
147   0   0
123   0   0
 90   0   0
255 255 255
  0   0  85
  0   0  92
  0   0  92
  0   0  90
  0   0  88
  0   0  86
  0   0  88
  0   0  90
  0   0  92
  0   0  92
  0   0  85
255 255 255
 90   0   0
123   0   0
147   0   0
165   0   0
175   0   0
176   0   0
163   0   0
120   0   0
  0   0 134
  0   0 182
  0   0 206
  0   0 214
  0   0 209
  0   0 188
  0   0 147
104   0   0
160   0   0
176   0   0
178   0   0
168   0   0
151   0   0
125   0   0
 88   0   0
  0   0  74
  0   0  99
  0   0 107
  0   0 110
  0   0 109
  0   0 105
  0   0  95
255 255 255
 93   0   0
126   0   0
149   0   0
163   0   0
169   0   0
163   0   0
138   0   0
  0   0  85
  0   0 160
  0   0 192
  0   0 207
  0   0 210
  0   0 201
  0   0 177
  0   0 130
116   0   0
158   0   0
171   0   0
171   0   0
162   0   0
147   0   0
127   0   0
107   0   0
 92   0   0
 87   0   0
 94   0   0
105   0   0
115   0   0
124   0   0
131   0   0
137   0   0
142   0   0
147   0   0
151   0   0
154   0   0
157   0   0
160   0   0
162   0   0
165   0   0
166   0   0
168   0   0
169   0   0
171   0   0
171   0   0
172   0   0
173   0   0
173   0   0
174   0   0
174   0   0
174   0   0
174   0   0
174   0   0
174   0   0
174   0   0
173   0   0
173   0   0
173   0   0
173   0   0
173   0   0
173   0   0
173   0   0
173   0   0
174   0   0
173   0   0
173   0   0
173   0   0
173   0   0
173   0   0
173   0   0
173   0   0
173   0   0
174   0   0
174   0   0
174   0   0
174   0   0
174   0   0
174   0   0
174   0   0
173   0   0
173   0   0
172   0   0
171   0   0
171   0   0
169   0   0
168   0   0
166   0   0
165   0   0
162   0   0
160   0   0
157   0   0
154   0   0
151   0   0
147   0   0
142   0   0
137   0   0
131   0   0
124   0   0
115   0   0
105   0   0
 94   0   0
 87   0   0
 92   0   0
107   0   0
127   0   0
147   0   0
162   0   0
171   0   0
171   0   0
158   0   0
116   0   0
  0   0 130
  0   0 177
  0   0 201
  0   0 210
  0   0 207
  0   0 192
  0   0 160
  0   0  85
138   0   0
163   0   0
169   0   0
163   0   0
149   0   0
126   0   0
 93   0   0
255 255 255
  0   0  95
  0   0 105
  0   0 109
  0   0 110
  0   0 107
  0   0  99
  0   0  74
 88   0   0
125   0   0
151   0   0
  0   0   0
  0   0   0
  0   0   0
  0   0   0
149   0   0
  0   0  69
  0   0 163
  0   0 197
  0   0 212
  0   0 213
  0   0 200
  0   0 170
  0   0 101
141   0   0
169   0   0
177   0   0
173   0   0
159   0   0
139   0   0
112   0   0
 72   0   0
  0   0  73
  0   0  88
  0   0  92
  0   0  90
  0   0  87
  0   0  84
  0   0  83
  0   0  84
  0   0  87
  0   0  90
  0   0  92
  0   0  88
  0   0  73
 72   0   0
112   0   0
139   0   0
159   0   0
173   0   0
177   0   0
169   0   0
141   0   0
  0   0 101
  0   0 170
  0   0 200
  0   0 213
  0   0 212
  0   0 197
  0   0 163
  0   0  69
149   0   0
173   0   0
179   0   0
172   0   0
157   0   0
134   0   0
102   0   0
255 255 255
  0   0  94
  0   0 105
  0   0 109
  0   0 109
  0   0 106
  0   0  98
  0   0  75
 83   0   0
120   0   0
144   0   0
161   0   0
169   0   0
167   0   0
149   0   0
 85   0   0
  0   0 146
  0   0 185
  0   0 204
  0   0 210
  0   0 204
  0   0 185
  0   0 147
 83   0   0
149   0   0
167   0   0
169   0   0
161   0   0
145   0   0
122   0   0
 92   0   0
255 255 255
  0   0  69
  0   0  67
255 255 255
 68   0   0
 87   0   0
100   0   0
109   0   0
117   0   0
123   0   0
128   0   0
133   0   0
138   0   0
141   0   0
145   0   0
148   0   0
151   0   0
154   0   0
156   0   0
158   0   0
160   0   0
162   0   0
163   0   0
165   0   0
166   0   0
167   0   0
168   0   0
169   0   0
169   0   0
170   0   0
170   0   0
171   0   0
171   0   0
171   0   0
171   0   0
172   0   0
172   0   0
173   0   0
173   0   0
173   0   0
173   0   0
173   0   0
172   0   0
172   0   0
171   0   0
171   0   0
171   0   0
171   0   0
170   0   0
170   0   0
169   0   0
169   0   0
168   0   0
167   0   0
166   0   0
165   0   0
163   0   0
162   0   0
160   0   0
158   0   0
156   0   0
154   0   0
151   0   0
148   0   0
145   0   0
141   0   0
138   0   0
133   0   0
128   0   0
123   0   0
117   0   0
109   0   0
100   0   0
 87   0   0
 68   0   0
255 255 255
  0   0  67
  0   0  69
255 255 255
 92   0   0
122   0   0
145   0   0
161   0   0
169   0   0
167   0   0
149   0   0
 83   0   0
  0   0 147
  0   0 185
  0   0 204
  0   0 210
  0   0 204
  0   0 185
  0   0 146
 85   0   0
149   0   0
167   0   0
169   0   0
161   0   0
144   0   0
120   0   0
 83   0   0
  0   0  75
  0   0  98
  0   0 106
  0   0 109
  0   0 109
  0   0 105
  0   0  94
255 255 255
102   0   0
134   0   0
157   0   0
  0   0   0
  0   0   0
  0   0   0
  0   0   0
134   0   0
  0   0 119
  0   0 176
  0   0 203
  0   0 214
  0   0 210
  0   0 192
  0   0 154
 80   0   0
154   0   0
174   0   0
177   0   0
169   0   0
153   0   0
130   0   0
100   0   0
255 255 255
  0   0  81
  0   0  90
  0   0  91
  0   0  88
  0   0  84
  0   0  82
  0   0  81
  0   0  82
  0   0  84
  0   0  88
  0   0  91
  0   0  90
  0   0  81
255 255 255
100   0   0
130   0   0
153   0   0
169   0   0
177   0   0
174   0   0
154   0   0
 80   0   0
  0   0 154
  0   0 192
  0   0 210
  0   0 214
  0   0 203
  0   0 176
  0   0 119
134   0   0
169   0   0
179   0   0
176   0   0
163   0   0
142   0   0
113   0   0
255 255 255
  0   0  87
  0   0 102
  0   0 107
  0   0 108
  0   0 106
  0   0 100
  0   0  83
 69   0   0
113   0   0
139   0   0
158   0   0
168   0   0
169   0   0
157   0   0
116   0   0
  0   0 129
  0   0 176
  0   0 200
  0   0 209
  0   0 207
  0   0 191
  0   0 159
  0   0  77
140   0   0
164   0   0
169   0   0
162   0   0
147   0   0
123   0   0
 87   0   0
  0   0  69
  0   0  93
  0   0  97
  0   0  94
  0   0  86
  0   0  72
255 255 255
255 255 255
 78   0   0
 89   0   0
 98   0   0
104   0   0
110   0   0
116   0   0
120   0   0
125   0   0
129   0   0
132   0   0
136   0   0
139   0   0
141   0   0
144   0   0
146   0   0
148   0   0
150   0   0
152   0   0
153   0   0
155   0   0
156   0   0
157   0   0
158   0   0
159   0   0
159   0   0
160   0   0
160   0   0
161   0   0
162   0   0
162   0   0
163   0   0
163   0   0
163   0   0
162   0   0
162   0   0
161   0   0
160   0   0
160   0   0
159   0   0
159   0   0
158   0   0
157   0   0
156   0   0
155   0   0
153   0   0
152   0   0
150   0   0
148   0   0
146   0   0
144   0   0
141   0   0
139   0   0
136   0   0
132   0   0
129   0   0
125   0   0
120   0   0
116   0   0
110   0   0
104   0   0
 98   0   0
 89   0   0
 78   0   0
255 255 255
255 255 255
  0   0  72
  0   0  86
  0   0  94
  0   0  97
  0   0  93
  0   0  69
 87   0   0
123   0   0
147   0   0
162   0   0
169   0   0
164   0   0
140   0   0
  0   0  77
  0   0 159
  0   0 191
  0   0 207
  0   0 209
  0   0 200
  0   0 176
  0   0 129
116   0   0
157   0   0
169   0   0
168   0   0
158   0   0
139   0   0
113   0   0
 69   0   0
  0   0  83
  0   0 100
  0   0 106
  0   0 108
  0   0 107
  0   0 102
  0   0  87
255 255 255
113   0   0
142   0   0
163   0   0
  0   0   0
  0   0   0
  0   0   0
  0   0   0
112   0   0
  0   0 142
  0   0 187
  0   0 208
  0   0 214
  0   0 206
  0   0 182
  0   0 134
121   0   0
163   0   0
176   0   0
175   0   0
164   0   0
146   0   0
121   0   0
 86   0   0
255 255 255
  0   0  86
  0   0  91
  0   0  90
  0   0  86
  0   0  82
  0   0  79
  0   0  78
  0   0  79
  0   0  82
  0   0  86
  0   0  90
  0   0  91
  0   0  86
255 255 255
 86   0   0
121   0   0
146   0   0
164   0   0
175   0   0
176   0   0
163   0   0
121   0   0
  0   0 134
  0   0 182
  0   0 206
  0   0 214
  0   0 208
  0   0 187
  0   0 142
112   0   0
162   0   0
177   0   0
177   0   0
167   0   0
149   0   0
122   0   0
 83   0   0
  0   0  78
  0   0  99
  0   0 106
  0   0 108
  0   0 106
  0   0 101
  0   0  88
255 255 255
105   0   0
134   0   0
154   0   0
167   0   0
171   0   0
162   0   0
133   0   0
  0   0 104
  0   0 166
  0   0 195
  0   0 208
  0   0 208
  0   0 195
  0   0 168
  0   0 109
130   0   0
161   0   0
169   0   0
165   0   0
151   0   0
128   0   0
 94   0   0
  0   0  67
  0   0  97
  0   0 105
  0   0 106
  0   0 102
  0   0  97
  0   0  90
  0   0  82
  0   0  73
255 255 255
255 255 255
255 255 255
 69   0   0
 79   0   0
 86   0   0
 93   0   0
 98   0   0
104   0   0
108   0   0
112   0   0
116   0   0
119   0   0
122   0   0
125   0   0
127   0   0
130   0   0
132   0   0
134   0   0
135   0   0
137   0   0
138   0   0
139   0   0
140   0   0
141   0   0
142   0   0
142   0   0
143   0   0
144   0   0
145   0   0
145   0   0
145   0   0
144   0   0
143   0   0
142   0   0
142   0   0
141   0   0
140   0   0
139   0   0
138   0   0
137   0   0
135   0   0
134   0   0
132   0   0
130   0   0
127   0   0
125   0   0
122   0   0
119   0   0
116   0   0
112   0   0
108   0   0
104   0   0
 98   0   0
 93   0   0
 86   0   0
 79   0   0
 69   0   0
255 255 255
255 255 255
255 255 255
  0   0  73
  0   0  82
  0   0  90
  0   0  97
  0   0 102
  0   0 106
  0   0 105
  0   0  97
  0   0  67
 94   0   0
128   0   0
151   0   0
165   0   0
169   0   0
161   0   0
130   0   0
  0   0 109
  0   0 168
  0   0 195
  0   0 208
  0   0 208
  0   0 195
  0   0 166
  0   0 104
133   0   0
162   0   0
171   0   0
167   0   0
154   0   0
134   0   0
105   0   0
255 255 255
  0   0  88
  0   0 101
  0   0 106
  0   0 108
  0   0 106
  0   0  99
  0   0  78
 83   0   0
122   0   0
149   0   0
167   0   0
  0   0   0
  0   0   0
  0   0   0
  0   0   0
255 255 255
  0   0 159
  0   0 195
  0   0 211
  0   0 213
  0   0 200
  0   0 171
  0   0 103
140   0   0
170   0   0
177   0   0
173   0   0
159   0   0
138   0   0
111   0   0
 69   0   0
  0   0  74
  0   0  89
  0   0  91
  0   0  89
  0   0  84
  0   0  80
  0   0  77
  0   0  76
  0   0  77
  0   0  80
  0   0  84
  0   0  89
  0   0  91
  0   0  89
  0   0  74
 69   0   0
111   0   0
138   0   0
159   0   0
173   0   0
177   0   0
170   0   0
140   0   0
  0   0 103
  0   0 171
  0   0 200
  0   0 213
  0   0 211
  0   0 195
  0   0 159
255 255 255
153   0   0
175   0   0
179   0   0
171   0   0
155   0   0
131   0   0
 97   0   0
255 255 255
  0   0  95
  0   0 104
  0   0 107
  0   0 107
  0   0 103
  0   0  92
255 255 255
 96   0   0
128   0   0
150   0   0
165   0   0
171   0   0
166   0   0
144   0   0
255 255 255
  0   0 155
  0   0 189
  0   0 205
  0   0 209
  0   0 199
  0   0 175
  0   0 127
118   0   0
157   0   0
169   0   0
167   0   0
156   0   0
135   0   0
105   0   0
255 255 255
  0   0  94
  0   0 106
  0   0 108
  0   0 107
  0   0 103
  0   0  99
  0   0  95
  0   0  92
  0   0  88
  0   0  84
  0   0  80
  0   0  75
  0   0  69
255 255 255
255 255 255
255 255 255
255 255 255
 64   0   0
 72   0   0
 79   0   0
 84   0   0
 89   0   0
 93   0   0
 97   0   0
100   0   0
103   0   0
105   0   0
108   0   0
110   0   0
111   0   0
112   0   0
114   0   0
115   0   0
116   0   0
117   0   0
118   0   0
119   0   0
120   0   0
121   0   0
120   0   0
119   0   0
118   0   0
117   0   0
116   0   0
115   0   0
114   0   0
112   0   0
111   0   0
110   0   0
108   0   0
105   0   0
103   0   0
100   0   0
 97   0   0
 93   0   0
 89   0   0
 84   0   0
 79   0   0
 72   0   0
 64   0   0
255 255 255
255 255 255
255 255 255
255 255 255
  0   0  69
  0   0  75
  0   0  80
  0   0  84
  0   0  88
  0   0  92
  0   0  95
  0   0  99
  0   0 103
  0   0 107
  0   0 108
  0   0 106
  0   0  94
255 255 255
105   0   0
135   0   0
156   0   0
167   0   0
169   0   0
157   0   0
118   0   0
  0   0 127
  0   0 175
  0   0 199
  0   0 209
  0   0 205
  0   0 189
  0   0 155
255 255 255
144   0   0
166   0   0
171   0   0
165   0   0
150   0   0
128   0   0
 96   0   0
255 255 255
  0   0  92
  0   0 103
  0   0 107
  0   0 107
  0   0 104
  0   0  95
255 255 255
 97   0   0
131   0   0
155   0   0
171   0   0
  0   0   0
  0   0   0
  0   0   0
  0   0   0
  0   0 106
  0   0 172
  0   0 201
  0   0 213
  0   0 211
  0   0 193
  0   0 157
 71   0   0
153   0   0
174   0   0
177   0   0
169   0   0
153   0   0
130   0   0
100   0   0
255 255 255
  0   0  82
  0   0  90
  0   0  91
  0   0  87
  0   0  83
  0   0  78
  0   0  75
  0   0  74
  0   0  75
  0   0  78
  0   0  83
  0   0  87
  0   0  91
  0   0  90
  0   0  82
255 255 255
100   0   0
130   0   0
153   0   0
169   0   0
177   0   0
174   0   0
153   0   0
 71   0   0
  0   0 157
  0   0 193
  0   0 211
  0   0 213
  0   0 201
  0   0 172
  0   0 106
140   0   0
171   0   0
179   0   0
174   0   0
160   0   0
138   0   0
108   0   0
255 255 255
  0   0  90
  0   0 102
  0   0 107
  0   0 107
  0   0 104
  0   0  95
  0   0  71
 85   0   0
121   0   0
145   0   0
162   0   0
171   0   0
169   0   0
153   0   0
 98   0   0
  0   0 142
  0   0 182
  0   0 202
  0   0 208
  0   0 202
  0   0 182
  0   0 141
100   0   0
153   0   0
169   0   0
170   0   0
160   0   0
142   0   0
115   0   0
 68   0   0
  0   0  86
  0   0 102
  0   0 107
  0   0 107
  0   0 104
  0   0 101
  0   0  98
  0   0  96
  0   0  94
  0   0  92
  0   0  90
  0   0  89
  0   0  87
  0   0  85
  0   0  83
  0   0  81
  0   0  78
  0   0  75
  0   0  71
  0   0  67
255 255 255
255 255 255
255 255 255
255 255 255
255 255 255
255 255 255
255 255 255
255 255 255
 68   0   0
 71   0   0
 73   0   0
 75   0   0
 76   0   0
 79   0   0
 81   0   0
 83   0   0
 85   0   0
 87   0   0
 87   0   0
 87   0   0
 85   0   0
 83   0   0
 81   0   0
 79   0   0
 76   0   0
 75   0   0
 73   0   0
 71   0   0
 68   0   0
255 255 255
255 255 255
255 255 255
255 255 255
255 255 255
255 255 255
255 255 255
255 255 255
  0   0  67
  0   0  71
  0   0  75
  0   0  78
  0   0  81
  0   0  83
  0   0  85
  0   0  87
  0   0  89
  0   0  90
  0   0  92
  0   0  94
  0   0  96
  0   0  98
  0   0 101
  0   0 104
  0   0 107
  0   0 107
  0   0 102
  0   0  86
 68   0   0
115   0   0
142   0   0
160   0   0
170   0   0
169   0   0
153   0   0
100   0   0
  0   0 141
  0   0 182
  0   0 202
  0   0 208
  0   0 202
  0   0 182
  0   0 142
 98   0   0
153   0   0
169   0   0
171   0   0
162   0   0
145   0   0
121   0   0
 85   0   0
  0   0  71
  0   0  95
  0   0 104
  0   0 107
  0   0 107
  0   0 102
  0   0  90
255 255 255
108   0   0
138   0   0
160   0   0
174   0   0
  0   0   0
  0   0   0
  0   0   0
  0   0   0
  0   0 133
  0   0 183
  0   0 206
  0   0 214
  0   0 207
  0   0 185
  0   0 139
115   0   0
162   0   0
177   0   0
176   0   0
166   0   0
147   0   0
122   0   0
 87   0   0
255 255 255
  0   0  86
  0   0  91
  0   0  90
  0   0  86
  0   0  81
  0   0  77
  0   0  74
  0   0  73
  0   0  74
  0   0  77
  0   0  81
  0   0  86
  0   0  90
  0   0  91
  0   0  86
255 255 255
 87   0   0
122   0   0
147   0   0
166   0   0
176   0   0
177   0   0
162   0   0
115   0   0
  0   0 139
  0   0 185
  0   0 207
  0   0 214
  0   0 206
  0   0 183
  0   0 133
123   0   0
165   0   0
178   0   0
176   0   0
165   0   0
145   0   0
117   0   0
 73   0   0
  0   0  83
  0   0 100
  0   0 106
  0   0 107
  0   0 105
  0   0  98
  0   0  80
 72   0   0
114   0   0
140   0   0
159   0   0
170   0   0
171   0   0
159   0   0
120   0   0
  0   0 126
  0   0 175
  0   0 199
  0   0 208
  0   0 204
  0   0 187
  0   0 152
255 255 255
147   0   0
168   0   0
171   0   0
164   0   0
148   0   0
124   0   0
 87   0   0
  0   0  72
  0   0  97
  0   0 103
  0   0 104
  0   0 102
  0   0 100
  0   0  97
  0   0  95
  0   0  93
  0   0  92
  0   0  91
  0   0  91
  0   0  90
  0   0  90
  0   0  89
  0   0  89
  0   0  88
  0   0  87
  0   0  87
  0   0  86
  0   0  84
  0   0  83
  0   0  82
  0   0  81
  0   0  79
  0   0  77
  0   0  76
  0   0  75
  0   0  73
  0   0  72
  0   0  71
  0   0  71
  0   0  70
  0   0  68
  0   0  66
255 255 255
255 255 255
255 255 255
255 255 255
255 255 255
255 255 255
255 255 255
  0   0  66
  0   0  68
  0   0  70
  0   0  71
  0   0  71
  0   0  72
  0   0  73
  0   0  75
  0   0  76
  0   0  77
  0   0  79
  0   0  81
  0   0  82
  0   0  83
  0   0  84
  0   0  86
  0   0  87
  0   0  87
  0   0  88
  0   0  89
  0   0  89
  0   0  90
  0   0  90
  0   0  91
  0   0  91
  0   0  92
  0   0  93
  0   0  95
  0   0  97
  0   0 100
  0   0 102
  0   0 104
  0   0 103
  0   0  97
  0   0  72
 87   0   0
124   0   0
148   0   0
164   0   0
171   0   0
168   0   0
147   0   0
255 255 255
  0   0 152
  0   0 187
  0   0 204
  0   0 208
  0   0 199
  0   0 175
  0   0 126
120   0   0
159   0   0
171   0   0
170   0   0
159   0   0
140   0   0
114   0   0
 72   0   0
  0   0  80
  0   0  98
  0   0 105
  0   0 107
  0   0 106
  0   0 100
  0   0  83
 73   0   0
117   0   0
145   0   0
165   0   0
176   0   0
  0   0   0
  0   0   0
  0   0   0
  0   0   0
  0   0 151
  0   0 191
  0   0 210
  0   0 213
  0   0 203
  0   0 175
  0   0 115
136   0   0
169   0   0
178   0   0
174   0   0
161   0   0
141   0   0
113   0   0
 73   0   0
  0   0  73
  0   0  89
  0   0  91
  0   0  89
  0   0  84
  0   0  80
  0   0  76
  0   0  73
  0   0  72
  0   0  73
  0   0  76
  0   0  80
  0   0  84
  0   0  89
  0   0  91
  0   0  89
  0   0  73
 73   0   0
113   0   0
141   0   0
161   0   0
174   0   0
178   0   0
169   0   0
136   0   0
  0   0 115
  0   0 175
  0   0 203
  0   0 213
  0   0 210
  0   0 191
  0   0 151
 95   0   0
158   0   0
176   0   0
178   0   0
169   0   0
151   0   0
125   0   0
 88   0   0
  0   0  73
  0   0  97
  0   0 105
  0   0 107
  0   0 105
  0   0 100
  0   0  86
255 255 255
107   0   0
135   0   0
155   0   0
168   0   0
172   0   0
163   0   0
134   0   0
  0   0 104
  0   0 166
  0   0 194
  0   0 207
  0   0 206
  0   0 192
  0   0 161
  0   0  86
140   0   0
166   0   0
172   0   0
167   0   0
153   0   0
131   0   0
100   0   0
255 255 255
  0   0  90
  0   0  99
  0   0 101
  0   0 100
  0   0  97
  0   0  94
  0   0  91
  0   0  90
  0   0  89
  0   0  88
  0   0  88
  0   0  88
  0   0  88
  0   0  88
  0   0  88
  0   0  88
  0   0  88
  0   0  89
  0   0  88
  0   0  88
  0   0  88
  0   0  88
  0   0  88
  0   0  87
  0   0  87
  0   0  87
  0   0  87
  0   0  87
  0   0  86
  0   0  87
  0   0  87
  0   0  87
  0   0  86
  0   0  86
  0   0  84
  0   0  83
  0   0  82
  0   0  81
  0   0  82
  0   0  83
  0   0  84
  0   0  86
  0   0  86
  0   0  87
  0   0  87
  0   0  87
  0   0  86
  0   0  87
  0   0  87
  0   0  87
  0   0  87
  0   0  87
  0   0  88
  0   0  88
  0   0  88
  0   0  88
  0   0  88
  0   0  89
  0   0  88
  0   0  88
  0   0  88
  0   0  88
  0   0  88
  0   0  88
  0   0  88
  0   0  88
  0   0  89
  0   0  90
  0   0  91
  0   0  94
  0   0  97
  0   0 100
  0   0 101
  0   0  99
  0   0  90
255 255 255
100   0   0
131   0   0
153   0   0
167   0   0
172   0   0
166   0   0
140   0   0
  0   0  86
  0   0 161
  0   0 192
  0   0 206
  0   0 207
  0   0 194
  0   0 166
  0   0 104
134   0   0
163   0   0
172   0   0
168   0   0
155   0   0
135   0   0
107   0   0
255 255 255
  0   0  86
  0   0 100
  0   0 105
  0   0 107
  0   0 105
  0   0  97
  0   0  73
 88   0   0
125   0   0
151   0   0
169   0   0
178   0   0
  0   0   0
  0   0   0
  0   0   0
  0   0   0
  0   0 165
  0   0 198
  0   0 212
  0   0 212
  0   0 197
  0   0 164
  0   0  69
149   0   0
173   0   0
178   0   0
171   0   0
156   0   0
134   0   0
104   0   0
255 255 255
  0   0  79
  0   0  90
  0   0  91
  0   0  88
  0   0  83
  0   0  79
  0   0  75
  0   0  72
  0   0  72
  0   0  72
  0   0  75
  0   0  79
  0   0  83
  0   0  88
  0   0  91
  0   0  90
  0   0  79
255 255 255
104   0   0
134   0   0
156   0   0
171   0   0
178   0   0
173   0   0
149   0   0
  0   0  69
  0   0 164
  0   0 197
  0   0 212
  0   0 212
  0   0 198
  0   0 165
  0   0  73
149   0   0
173   0   0
179   0   0
172   0   0
156   0   0
133   0   0
 99   0   0
255 255 255
  0   0  93
  0   0 103
  0   0 106
  0   0 106
  0   0 101
  0   0  91
255 255 255
 99   0   0
130   0   0
151   0   0
166   0   0
172   0   0
167   0   0
144   0   0
255 255 255
  0   0 157
  0   0 190
  0   0 205
  0   0 207
  0   0 196
  0   0 169
  0   0 112
131   0   0
163   0   0
173   0   0
170   0   0
157   0   0
137   0   0
109   0   0
255 255 255
  0   0  82
  0   0  95
  0   0  98
  0   0  97
  0   0  94
  0   0  90
  0   0  87
  0   0  85
  0   0  84
  0   0  83
  0   0  83
  0   0  83
  0   0  83
  0   0  84
  0   0  84
  0   0  85
  0   0  85
  0   0  86
  0   0  86
  0   0  86
  0   0  86
  0   0  87
  0   0  87
  0   0  87
  0   0  87
  0   0  87
  0   0  88
  0   0  88
  0   0  88
  0   0  89
  0   0  89
  0   0  90
  0   0  90
  0   0  89
  0   0  88
  0   0  87
  0   0  86
  0   0  86
  0   0  86
  0   0  87
  0   0  88
  0   0  89
  0   0  90
  0   0  90
  0   0  89
  0   0  89
  0   0  88
  0   0  88
  0   0  88
  0   0  87
  0   0  87
  0   0  87
  0   0  87
  0   0  87
  0   0  86
  0   0  86
  0   0  86
  0   0  86
  0   0  85
  0   0  85
  0   0  84
  0   0  84
  0   0  83
  0   0  83
  0   0  83
  0   0  83
  0   0  84
  0   0  85
  0   0  87
  0   0  90
  0   0  94
  0   0  97
  0   0  98
  0   0  95
  0   0  82
255 255 255
109   0   0
137   0   0
157   0   0
170   0   0
173   0   0
163   0   0
131   0   0
  0   0 112
  0   0 169
  0   0 196
  0   0 207
  0   0 205
  0   0 190
  0   0 157
255 255 255
144   0   0
167   0   0
172   0   0
166   0   0
151   0   0
130   0   0
 99   0   0
255 255 255
  0   0  91
  0   0 101
  0   0 106
  0   0 106
  0   0 103
  0   0  93
255 255 255
 99   0   0
133   0   0
156   0   0
172   0   0
179   0   0
  0   0   0
  0   0   0
  0   0   0
  0   0   0
  0   0 175
  0   0 203
  0   0 214
  0   0 210
  0   0 191
  0   0 150
 98   0   0
158   0   0
176   0   0
177   0   0
168   0   0
151   0   0
126   0   0
 94   0   0
255 255 255
  0   0  83
  0   0  90
  0   0  89
  0   0  86
  0   0  82
  0   0  77
  0   0  74
  0   0  72
  0   0  71
  0   0  72
  0   0  74
  0   0  77
  0   0  82
  0   0  86
  0   0  89
  0   0  90
  0   0  83
255 255 255
 94   0   0
126   0   0
151   0   0
168   0   0
177   0   0
176   0   0
158   0   0
 98   0   0
  0   0 150
  0   0 191
  0   0 210
  0   0 214
  0   0 203
  0   0 175
  0   0 115
137   0   0
170   0   0
179   0   0
174   0   0
161   0   0
139   0   0
109   0   0
255 255 255
  0   0  89
  0   0 102
  0   0 106
  0   0 106
  0   0 103
  0   0  94
  0   0  66
 90   0   0
124   0   0
147   0   0
164   0   0
172   0   0
169   0   0
151   0   0
 88   0   0
  0   0 146
  0   0 184
  0   0 203
  0   0 208
  0   0 199
  0   0 176
  0   0 129
119   0   0
159   0   0
172   0   0
171   0   0
161   0   0
142   0   0
117   0   0
 78   0   0
  0   0  73
  0   0  92
  0   0  96
  0   0  95
  0   0  91
  0   0  87
  0   0  84
  0   0  81
  0   0  79
  0   0  78
  0   0  78
  0   0  77
  0   0  77
  0   0  78
  0   0  78
  0   0  79
  0   0  79
  0   0  80
  0   0  80
  0   0  81
  0   0  81
  0   0  82
  0   0  82
  0   0  83
  0   0  83
  0   0  83
  0   0  84
  0   0  84
  0   0  85
  0   0  86
  0   0  86
  0   0  87
  0   0  87
  0   0  86
  0   0  85
  0   0  84
  0   0  83
  0   0  83
  0   0  83
  0   0  84
  0   0  85
  0   0  86
  0   0  87
  0   0  87
  0   0  86
  0   0  86
  0   0  85
  0   0  84
  0   0  84
  0   0  83
  0   0  83
  0   0  83
  0   0  82
  0   0  82
  0   0  81
  0   0  81
  0   0  80
  0   0  80
  0   0  79
  0   0  79
  0   0  78
  0   0  78
  0   0  77
  0   0  77
  0   0  78
  0   0  78
  0   0  79
  0   0  81
  0   0  84
  0   0  87
  0   0  91
  0   0  95
  0   0  96
  0   0  92
  0   0  73
 78   0   0
117   0   0
142   0   0
161   0   0
171   0   0
172   0   0
159   0   0
119   0   0
  0   0 129
  0   0 176
  0   0 199
  0   0 208
  0   0 203
  0   0 184
  0   0 146
 88   0   0
151   0   0
169   0   0
172   0   0
164   0   0
147   0   0
124   0   0
 90   0   0
  0   0  66
  0   0  94
  0   0 103
  0   0 106
  0   0 106
  0   0 102
  0   0  89
255 255 255
109   0   0
139   0   0
161   0   0
174   0   0
179   0   0
  0   0   0
  0   0   0
  0   0   0
  0   0   0
  0   0 184
  0   0 207
  0   0 214
  0   0 206
  0   0 183
  0   0 133
124   0   0
165   0   0
178   0   0
176   0   0
164   0   0
145   0   0
119   0   0
 83   0   0
  0   0  65
  0   0  86
  0   0  90
  0   0  88
  0   0  84
  0   0  80
  0   0  76
  0   0  73
  0   0  71
  0   0  71
  0   0  71
  0   0  73
  0   0  76
  0   0  80
  0   0  84
  0   0  88
  0   0  90
  0   0  86
  0   0  65
 83   0   0
119   0   0
145   0   0
164   0   0
176   0   0
178   0   0
165   0   0
124   0   0
  0   0 133
  0   0 183
  0   0 206
  0   0 214
  0   0 207
  0   0 184
  0   0 136
121   0   0
165   0   0
178   0   0
176   0   0
165   0   0
145   0   0
117   0   0
 72   0   0
  0   0  83
  0   0 100
  0   0 105
  0   0 106
  0   0 104
  0   0  97
  0   0  76
 79   0   0
118   0   0
143   0   0
161   0   0
171   0   0
171   0   0
157   0   0
112   0   0
  0   0 134
  0   0 178
  0   0 200
  0   0 208
  0   0 202
  0   0 182
  0   0 141
102   0   0
155   0   0
171   0   0
173   0   0
164   0   0
147   0   0
123   0   0
 89   0   0
255 255 255
  0   0  88
  0   0  94
  0   0  93
  0   0  90
  0   0  85
  0   0  81
  0   0  78
  0   0  75
  0   0  73
  0   0  72
  0   0  72
  0   0  72
  0   0  72
  0   0  72
  0   0  73
  0   0  73
  0   0  74
  0   0  74
  0   0  75
  0   0  75
  0   0  76
  0   0  76
  0   0  77
  0   0  77
  0   0  77
  0   0  78
  0   0  78
  0   0  79
  0   0  80
  0   0  81
  0   0  82
  0   0  81
  0   0  81
  0   0  80
  0   0  79
  0   0  78
  0   0  78
  0   0  78
  0   0  79
  0   0  80
  0   0  81
  0   0  81
  0   0  82
  0   0  81
  0   0  80
  0   0  79
  0   0  78
  0   0  78
  0   0  77
  0   0  77
  0   0  77
  0   0  76
  0   0  76
  0   0  75
  0   0  75
  0   0  74
  0   0  74
  0   0  73
  0   0  73
  0   0  72
  0   0  72
  0   0  72
  0   0  72
  0   0  72
  0   0  73
  0   0  75
  0   0  78
  0   0  81
  0   0  85
  0   0  90
  0   0  93
  0   0  94
  0   0  88
255 255 255
 89   0   0
123   0   0
147   0   0
164   0   0
173   0   0
171   0   0
155   0   0
102   0   0
  0   0 141
  0   0 182
  0   0 202
  0   0 208
  0   0 200
  0   0 178
  0   0 134
112   0   0
157   0   0
171   0   0
171   0   0
161   0   0
143   0   0
118   0   0
 79   0   0
  0   0  76
  0   0  97
  0   0 104
  0   0 106
  0   0 105
  0   0 100
  0   0  83
 72   0   0
117   0   0
145   0   0
165   0   0
176   0   0
178   0   0
  0   0   0
  0   0   0
  0   0   0
  0   0   0
  0   0 191
  0   0 210
  0   0 213
  0   0 202
  0   0 174
  0   0 110
139   0   0
170   0   0
178   0   0
174   0   0
160   0   0
139   0   0
111   0   0
 69   0   0
  0   0  74
  0   0  87
  0   0  89
  0   0  86
  0   0  82
  0   0  78
  0   0  74
  0   0  72
  0   0  70
  0   0  70
  0   0  70
  0   0  72
  0   0  74
  0   0  78
  0   0  82
  0   0  86
  0   0  89
  0   0  87
  0   0  74
 69   0   0
111   0   0
139   0   0
160   0   0
174   0   0
178   0   0
170   0   0
139   0   0
  0   0 110
  0   0 174
  0   0 202
  0   0 213
  0   0 210
  0   0 191
  0   0 151
 96   0   0
158   0   0
176   0   0
178   0   0
168   0   0
150   0   0
124   0   0
 86   0   0
  0   0  74
  0   0  97
  0   0 104
  0   0 106
  0   0 104
  0   0  99
  0   0  82
 66   0   0
111   0   0
138   0   0
158   0   0
170   0   0
172   0   0
161   0   0
126   0   0
  0   0 119
  0   0 172
  0   0 197
  0   0 207
  0   0 204
  0   0 187
  0   0 151
 71   0   0
149   0   0
170   0   0
173   0   0
166   0   0
151   0   0
128   0   0
 98   0   0
255 255 255
  0   0  84
  0   0  92
  0   0  92
  0   0  89
  0   0  84
  0   0  79
  0   0  75
  0   0  72
  0   0  69
  0   0  68
  0   0  67
  0   0  67
  0   0  67
  0   0  67
  0   0  67
  0   0  67
  0   0  68
  0   0  68
  0   0  69
  0   0  69
  0   0  69
  0   0  70
  0   0  70
  0   0  70
  0   0  71
  0   0  71
  0   0  72
  0   0  72
  0   0  73
  0   0  75
  0   0  75
  0   0  75
  0   0  75
  0   0  73
  0   0  72
  0   0  71
  0   0  71
  0   0  71
  0   0  72
  0   0  73
  0   0  75
  0   0  75
  0   0  75
  0   0  75
  0   0  73
  0   0  72
  0   0  72
  0   0  71
  0   0  71
  0   0  70
  0   0  70
  0   0  70
  0   0  69
  0   0  69
  0   0  69
  0   0  68
  0   0  68
  0   0  67
  0   0  67
  0   0  67
  0   0  67
  0   0  67
  0   0  67
  0   0  68
  0   0  69
  0   0  72
  0   0  75
  0   0  79
  0   0  84
  0   0  89
  0   0  92
  0   0  92
  0   0  84
255 255 255
 98   0   0
128   0   0
151   0   0
166   0   0
173   0   0
170   0   0
149   0   0
 71   0   0
  0   0 151
  0   0 187
  0   0 204
  0   0 207
  0   0 197
  0   0 172
  0   0 119
126   0   0
161   0   0
172   0   0
170   0   0
158   0   0
138   0   0
111   0   0
 66   0   0
  0   0  82
  0   0  99
  0   0 104
  0   0 106
  0   0 104
  0   0  97
  0   0  74
 86   0   0
124   0   0
150   0   0
168   0   0
178   0   0
176   0   0
  0   0   0
  0   0   0
  0   0   0
  0   0   0
  0   0 197
  0   0 212
  0   0 212
  0   0 197
  0   0 164
  0   0  65
150   0   0
173   0   0
178   0   0
171   0   0
155   0   0
132   0   0
102   0   0
255 255 255
  0   0  79
  0   0  88
  0   0  88
  0   0  85
  0   0  80
  0   0  76
  0   0  72
  0   0  69
  0   0  68
  0   0  68
  0   0  68
  0   0  69
  0   0  72
  0   0  76
  0   0  80
  0   0  85
  0   0  88
  0   0  88
  0   0  79
255 255 255
102   0   0
132   0   0
155   0   0
171   0   0
178   0   0
173   0   0
150   0   0
  0   0  65
  0   0 164
  0   0 197
  0   0 212
  0   0 212
  0   0 197
  0   0 163
255 255 255
151   0   0
174   0   0
179   0   0
171   0   0
155   0   0
131   0   0
 96   0   0
255 255 255
  0   0  94
  0   0 103
  0   0 106
  0   0 105
  0   0 100
  0   0  87
255 255 255
105   0   0
134   0   0
155   0   0
168   0   0
172   0   0
165   0   0
136   0   0
  0   0  99
  0   0 165
  0   0 194
  0   0 206
  0   0 205
  0   0 191
  0   0 160
  0   0  77
143   0   0
167   0   0
174   0   0
168   0   0
154   0   0
133   0   0
104   0   0
255 255 255
  0   0  80
  0   0  90
  0   0  91
  0   0  88
  0   0  83
  0   0  78
  0   0  73
  0   0  69
  0   0  66
  0   0  65
255 255 255
255 255 255
255 255 255
255 255 255
255 255 255
255 255 255
255 255 255
255 255 255
255 255 255
255 255 255
255 255 255
255 255 255
  0   0  64
  0   0  64
  0   0  65
  0   0  65
  0   0  66
  0   0  66
  0   0  67
  0   0  68
  0   0  69
  0   0  69
  0   0  68
  0   0  67
  0   0  66
  0   0  65
  0   0  65
  0   0  65
  0   0  66
  0   0  67
  0   0  68
  0   0  69
  0   0  69
  0   0  68
  0   0  67
  0   0  66
  0   0  66
  0   0  65
  0   0  65
  0   0  64
  0   0  64
255 255 255
255 255 255
255 255 255
255 255 255
255 255 255
255 255 255
255 255 255
255 255 255
255 255 255
255 255 255
255 255 255
255 255 255
  0   0  65
  0   0  66
  0   0  69
  0   0  73
  0   0  78
  0   0  83
  0   0  88
  0   0  91
  0   0  90
  0   0  80
255 255 255
104   0   0
133   0   0
154   0   0
168   0   0
174   0   0
167   0   0
143   0   0
  0   0  77
  0   0 160
  0   0 191
  0   0 205
  0   0 206
  0   0 194
  0   0 165
  0   0  99
136   0   0
165   0   0
172   0   0
168   0   0
155   0   0
134   0   0
105   0   0
255 255 255
  0   0  87
  0   0 100
  0   0 105
  0   0 106
  0   0 103
  0   0  94
255 255 255
 96   0   0
131   0   0
155   0   0
171   0   0
179   0   0
174   0   0
  0   0   0
  0   0   0
  0   0   0
  0   0   0
  0   0 202
  0   0 213
  0   0 210
  0   0 191
  0   0 152
 95   0   0
158   0   0
176   0   0
177   0   0
167   0   0
150   0   0
125   0   0
 92   0   0
255 255 255
  0   0  83
  0   0  88
  0   0  87
  0   0  83
  0   0  78
  0   0  74
  0   0  69
  0   0  66
  0   0  65
255 255 255
  0   0  65
  0   0  66
  0   0  69
  0   0  74
  0   0  78
  0   0  83
  0   0  87
  0   0  88
  0   0  83
255 255 255
 92   0   0
125   0   0
150   0   0
167   0   0
177   0   0
176   0   0
158   0   0
 95   0   0
  0   0 152
  0   0 191
  0   0 210
  0   0 213
  0   0 202
  0   0 173
  0   0 106
141   0   0
171   0   0
179   0   0
174   0   0
159   0   0
136   0   0
105   0   0
255 255 255
  0   0  91
  0   0 102
  0   0 106
  0   0 105
  0   0 101
  0   0  91
255 255 255
 97   0   0
129   0   0
151   0   0
166   0   0
172   0   0
167   0   0
144   0   0
255 255 255
  0   0 157
  0   0 190
  0   0 205
  0   0 206
  0   0 195
  0   0 167
  0   0 105
135   0   0
165   0   0
174   0   0
170   0   0
157   0   0
138   0   0
110   0   0
 69   0   0
  0   0  75
  0   0  89
  0   0  91
  0   0  88
  0   0  83
  0   0  78
  0   0  72
  0   0  68
  0   0  65
255 255 255
255 255 255
255 255 255
255 255 255
255 255 255
255 255 255
255 255 255
255 255 255
255 255 255
255 255 255
255 255 255
255 255 255
255 255 255
255 255 255
255 255 255
255 255 255
255 255 255
255 255 255
255 255 255
255 255 255
255 255 255
255 255 255
255 255 255
255 255 255
255 255 255
255 255 255
255 255 255
255 255 255
255 255 255
255 255 255
255 255 255
255 255 255
255 255 255
255 255 255
255 255 255
255 255 255
255 255 255
255 255 255
255 255 255
255 255 255
255 255 255
255 255 255
255 255 255
255 255 255
255 255 255
255 255 255
255 255 255
255 255 255
255 255 255
255 255 255
255 255 255
255 255 255
255 255 255
255 255 255
255 255 255
  0   0  65
  0   0  68
  0   0  72
  0   0  78
  0   0  83
  0   0  88
  0   0  91
  0   0  89
  0   0  75
 69   0   0
110   0   0
138   0   0
157   0   0
170   0   0
174   0   0
165   0   0
135   0   0
  0   0 105
  0   0 167
  0   0 195
  0   0 206
  0   0 205
  0   0 190
  0   0 157
255 255 255
144   0   0
167   0   0
172   0   0
166   0   0
151   0   0
129   0   0
 97   0   0
255 255 255
  0   0  91
  0   0 101
  0   0 105
  0   0 106
  0   0 102
  0   0  91
255 255 255
105   0   0
136   0   0
159   0   0
174   0   0
179   0   0
171   0   0
  0   0   0
  0   0   0
  0   0   0
  0   0   0
  0   0 206
  0   0 214
  0   0 207
  0   0 185
  0   0 138
119   0   0
164   0   0
177   0   0
176   0   0
164   0   0
144   0   0
118   0   0
 81   0   0
  0   0  66
  0   0  86
  0   0  89
  0   0  86
  0   0  81
  0   0  76
  0   0  71
  0   0  66
255 255 255
255 255 255
255 255 255
255 255 255
255 255 255
  0   0  66
  0   0  71
  0   0  76
  0   0  81
  0   0  86
  0   0  89
  0   0  86
  0   0  66
 81   0   0
118   0   0
144   0   0
164   0   0
176   0   0
177   0   0
164   0   0
119   0   0
  0   0 138
  0   0 185
  0   0 207
  0   0 214
  0   0 206
  0   0 181
  0   0 128
129   0   0
167   0   0
178   0   0
175   0   0
163   0   0
142   0   0
112   0   0
255 255 255
  0   0  86
  0   0 101
  0   0 105
  0   0 106
  0   0 103
  0   0  94
  0   0  66
 90   0   0
124   0   0
148   0   0
164   0   0
172   0   0
169   0   0
151   0   0
 83   0   0
  0   0 148
  0   0 185
  0   0 203
  0   0 207
  0   0 198
  0   0 173
  0   0 121
126   0   0
162   0   0
173   0   0
171   0   0
160   0   0
141   0   0
116   0   0
 79   0   0
  0   0  69
  0   0  87
  0   0  90
  0   0  88
  0   0  83
  0   0  77
  0   0  72
  0   0  67
255 255 255
255 255 255
255 255 255
255 255 255
255 255 255
255 255 255
255 255 255
255 255 255
255 255 255
255 255 255
255 255 255
255 255 255
255 255 255
255 255 255
255 255 255
255 255 255
255 255 255
255 255 255
255 255 255
255 255 255
255 255 255
255 255 255
255 255 255
255 255 255
255 255 255
255 255 255
255 255 255
255 255 255
255 255 255
255 255 255
255 255 255
255 255 255
255 255 255
255 255 255
255 255 255
255 255 255
255 255 255
255 255 255
255 255 255
255 255 255
255 255 255
255 255 255
255 255 255
255 255 255
255 255 255
255 255 255
255 255 255
255 255 255
255 255 255
255 255 255
255 255 255
255 255 255
255 255 255
255 255 255
255 255 255
255 255 255
255 255 255
  0   0  67
  0   0  72
  0   0  77
  0   0  83
  0   0  88
  0   0  90
  0   0  87
  0   0  69
 79   0   0
116   0   0
141   0   0
160   0   0
171   0   0
173   0   0
162   0   0
126   0   0
  0   0 121
  0   0 173
  0   0 198
  0   0 207
  0   0 203
  0   0 185
  0   0 148
 83   0   0
151   0   0
169   0   0
172   0   0
164   0   0
148   0   0
124   0   0
 90   0   0
  0   0  66
  0   0  94
  0   0 103
  0   0 106
  0   0 105
  0   0 101
  0   0  86
255 255 255
112   0   0
142   0   0
163   0   0
175   0   0
178   0   0
167   0   0
  0   0   0
  0   0   0
  0   0   0
  0   0   0
  0   0 209
  0   0 214
  0   0 204
  0   0 178
  0   0 120
134   0   0
168   0   0
178   0   0
174   0   0
160   0   0
139   0   0
110   0   0
 66   0   0
  0   0  75
  0   0  88
  0   0  89
  0   0  85
  0   0  79
  0   0  73
  0   0  67
255 255 255
255 255 255
255 255 255
255 255 255
255 255 255
255 255 255
255 255 255
  0   0  67
  0   0  73
  0   0  79
  0   0  85
  0   0  89
  0   0  88
  0   0  75
 66   0   0
110   0   0
139   0   0
160   0   0
174   0   0
178   0   0
168   0   0
134   0   0
  0   0 120
  0   0 178
  0   0 204
  0   0 214
  0   0 209
  0   0 187
  0   0 143
113   0   0
163   0   0
177   0   0
177   0   0
166   0   0
146   0   0
119   0   0
 76   0   0
  0   0  81
  0   0  99
  0   0 105
  0   0 106
  0   0 103
  0   0  96
  0   0  74
 81   0   0
119   0   0
144   0   0
162   0   0
171   0   0
171   0   0
156   0   0
106   0   0
  0   0 138
  0   0 181
  0   0 201
  0   0 207
  0   0 200
  0   0 178
  0   0 133
114   0   0
158   0   0
172   0   0
172   0   0
162   0   0
145   0   0
120   0   0
 86   0   0
255 255 255
  0   0  85
  0   0  90
  0   0  88
  0   0  83
  0   0  77
  0   0  72
  0   0  67
255 255 255
255 255 255
255 255 255
255 255 255
255 255 255
255 255 255
255 255 255
255 255 255
255 255 255
255 255 255
255 255 255
255 255 255
255 255 255
255 255 255
255 255 255
255 255 255
255 255 255
255 255 255
255 255 255
255 255 255
255 255 255
255 255 255
255 255 255
255 255 255
255 255 255
255 255 255
255 255 255
255 255 255
255 255 255
255 255 255
255 255 255
255 255 255
255 255 255
255 255 255
255 255 255
255 255 255
255 255 255
255 255 255
255 255 255
255 255 255
255 255 255
255 255 255
255 255 255
255 255 255
255 255 255
255 255 255
255 255 255
255 255 255
255 255 255
255 255 255
255 255 255
255 255 255
255 255 255
255 255 255
255 255 255
255 255 255
255 255 255
  0   0  67
  0   0  72
  0   0  77
  0   0  83
  0   0  88
  0   0  90
  0   0  85
255 255 255
 86   0   0
120   0   0
145   0   0
162   0   0
172   0   0
172   0   0
158   0   0
114   0   0
  0   0 133
  0   0 178
  0   0 200
  0   0 207
  0   0 201
  0   0 181
  0   0 138
106   0   0
156   0   0
171   0   0
171   0   0
162   0   0
144   0   0
119   0   0
 81   0   0
  0   0  74
  0   0  96
  0   0 103
  0   0 106
  0   0 105
  0   0  99
  0   0  81
 76   0   0
119   0   0
146   0   0
166   0   0
177   0   0
177   0   0
163   0   0
  0   0   0
  0   0   0
  0   0   0
  0   0   0
  0   0 211
  0   0 213
  0   0 200
  0   0 170
  0   0  95
145   0   0
172   0   0
178   0   0
171   0   0
156   0   0
133   0   0
102   0   0
255 255 255
  0   0  81
  0   0  89
  0   0  89
  0   0  84
  0   0  78
  0   0  70
255 255 255
255 255 255
255 255 255
255 255 255
255 255 255
255 255 255
255 255 255
255 255 255
255 255 255
  0   0  70
  0   0  78
  0   0  84
  0   0  89
  0   0  89
  0   0  81
255 255 255
102   0   0
133   0   0
156   0   0
171   0   0
178   0   0
172   0   0
145   0   0
  0   0  95
  0   0 170
  0   0 200
  0   0 213
  0   0 211
  0   0 193
  0   0 155
 88   0   0
157   0   0
176   0   0
178   0   0
169   0   0
151   0   0
125   0   0
 86   0   0
  0   0  74
  0   0  97
  0   0 104
  0   0 106
  0   0 104
  0   0  98
  0   0  80
 71   0   0
114   0   0
140   0   0
159   0   0
170   0   0
172   0   0
159   0   0
120   0   0
  0   0 127
  0   0 176
  0   0 199
  0   0 207
  0   0 202
  0   0 183
  0   0 143
 99   0   0
154   0   0
171   0   0
173   0   0
165   0   0
148   0   0
125   0   0
 93   0   0
255 255 255
  0   0  83
  0   0  89
  0   0  88
  0   0  84
  0   0  78
  0   0  72
  0   0  67
255 255 255
255 255 255
255 255 255
255 255 255
255 255 255
255 255 255
255 255 255
255 255 255
255 255 255
255 255 255
255 255 255
255 255 255
255 255 255
255 255 255
255 255 255
255 255 255
255 255 255
255 255 255
255 255 255
255 255 255
255 255 255
255 255 255
255 255 255
255 255 255
255 255 255
255 255 255
255 255 255
255 255 255
255 255 255
255 255 255
255 255 255
255 255 255
255 255 255
255 255 255
255 255 255
255 255 255
255 255 255
255 255 255
255 255 255
255 255 255
255 255 255
255 255 255
255 255 255
255 255 255
255 255 255
255 255 255
255 255 255
255 255 255
255 255 255
255 255 255
255 255 255
255 255 255
255 255 255
255 255 255
255 255 255
255 255 255
255 255 255
  0   0  67
  0   0  72
  0   0  78
  0   0  84
  0   0  88
  0   0  89
  0   0  83
255 255 255
 93   0   0
125   0   0
148   0   0
165   0   0
173   0   0
171   0   0
154   0   0
 99   0   0
  0   0 143
  0   0 183
  0   0 202
  0   0 207
  0   0 199
  0   0 176
  0   0 127
120   0   0
159   0   0
172   0   0
170   0   0
159   0   0
140   0   0
114   0   0
 71   0   0
  0   0  80
  0   0  98
  0   0 104
  0   0 106
  0   0 104
  0   0  97
  0   0  74
 86   0   0
125   0   0
151   0   0
169   0   0
178   0   0
176   0   0
157   0   0
  0   0   0
  0   0   0
  0   0   0
  0   0   0
  0   0 212
  0   0 212
  0   0 196
  0   0 161
255 255 255
153   0   0
174   0   0
177   0   0
169   0   0
152   0   0
127   0   0
 94   0   0
255 255 255
  0   0  84
  0   0  90
  0   0  88
  0   0  83
  0   0  76
  0   0  69
255 255 255
255 255 255
255 255 255
255 255 255
255 255 255
255 255 255
255 255 255
255 255 255
255 255 255
  0   0  69
  0   0  76
  0   0  83
  0   0  88
  0   0  90
  0   0  84
255 255 255
 94   0   0
127   0   0
152   0   0
169   0   0
177   0   0
174   0   0
153   0   0
255 255 255
  0   0 161
  0   0 196
  0   0 212
  0   0 212
  0   0 198
  0   0 164
255 255 255
151   0   0
174   0   0
179   0   0
171   0   0
154   0   0
130   0   0
 95   0   0
255 255 255
  0   0  95
  0   0 103
  0   0 106
  0   0 104
  0   0  99
  0   0  85
255 255 255
108   0   0
137   0   0
157   0   0
169   0   0
172   0   0
163   0   0
130   0   0
  0   0 114
  0   0 170
  0   0 196
  0   0 207
  0   0 204
  0   0 187
  0   0 151
 74   0   0
150   0   0
170   0   0
174   0   0
166   0   0
151   0   0
129   0   0
 98   0   0
255 255 255
  0   0  81
  0   0  89
  0   0  88
  0   0  84
  0   0  78
  0   0  72
  0   0  67
255 255 255
255 255 255
255 255 255
255 255 255
255 255 255
255 255 255
255 255 255
255 255 255
255 255 255
255 255 255
255 255 255
255 255 255
255 255 255
255 255 255
255 255 255
255 255 255
255 255 255
255 255 255
255 255 255
255 255 255
255 255 255
255 255 255
255 255 255
255 255 255
255 255 255
255 255 255
255 255 255
255 255 255
255 255 255
255 255 255
255 255 255
255 255 255
255 255 255
255 255 255
255 255 255
255 255 255
255 255 255
255 255 255
255 255 255
255 255 255
255 255 255
255 255 255
255 255 255
255 255 255
255 255 255
255 255 255
255 255 255
255 255 255
255 255 255
255 255 255
255 255 255
255 255 255
255 255 255
255 255 255
255 255 255
255 255 255
255 255 255
  0   0  67
  0   0  72
  0   0  78
  0   0  84
  0   0  88
  0   0  89
  0   0  81
255 255 255
 98   0   0
129   0   0
151   0   0
166   0   0
174   0   0
170   0   0
150   0   0
 74   0   0
  0   0 151
  0   0 187
  0   0 204
  0   0 207
  0   0 196
  0   0 170
  0   0 114
130   0   0
163   0   0
172   0   0
169   0   0
157   0   0
137   0   0
108   0   0
255 255 255
  0   0  85
  0   0  99
  0   0 104
  0   0 106
  0   0 103
  0   0  95
255 255 255
 95   0   0
130   0   0
154   0   0
171   0   0
179   0   0
174   0   0
151   0   0
  0   0   0
  0   0   0
  0   0   0
  0   0   0
  0   0 213
  0   0 210
  0   0 191
  0   0 151
 98   0   0
159   0   0
176   0   0
176   0   0
166   0   0
147   0   0
122   0   0
 86   0   0
255 255 255
  0   0  86
  0   0  89
  0   0  87
  0   0  81
  0   0  75
  0   0  67
255 255 255
255 255 255
255 255 255
255 255 255
255 255 255
255 255 255
255 255 255
255 255 255
255 255 255
  0   0  67
  0   0  75
  0   0  81
  0   0  87
  0   0  89
  0   0  86
255 255 255
 86   0   0
122   0   0
147   0   0
166   0   0
176   0   0
176   0   0
159   0   0
 98   0   0
  0   0 151
  0   0 191
  0   0 210
  0   0 213
  0   0 202
  0   0 172
  0   0 103
143   0   0
172   0   0
179   0   0
173   0   0
158   0   0
135   0   0
102   0   0
255 255 255
  0   0  92
  0   0 103
  0   0 105
  0   0 105
  0   0 100
  0   0  88
255 255 255
103   0   0
133   0   0
154   0   0
168   0   0
173   0   0
165   0   0
138   0   0
  0   0  97
  0   0 164
  0   0 194
  0   0 206
  0   0 205
  0   0 190
  0   0 158
  0   0  64
145   0   0
168   0   0
174   0   0
168   0   0
154   0   0
132   0   0
104   0   0
255 255 255
  0   0  78
  0   0  88
  0   0  88
  0   0  85
  0   0  79
  0   0  73
  0   0  67
255 255 255
255 255 255
255 255 255
255 255 255
255 255 255
255 255 255
255 255 255
255 255 255
255 255 255
255 255 255
255 255 255
255 255 255
255 255 255
255 255 255
255 255 255
255 255 255
255 255 255
255 255 255
255 255 255
255 255 255
255 255 255
255 255 255
255 255 255
255 255 255
255 255 255
255 255 255
255 255 255
255 255 255
255 255 255
255 255 255
255 255 255
255 255 255
255 255 255
255 255 255
255 255 255
255 255 255
255 255 255
255 255 255
255 255 255
255 255 255
255 255 255
255 255 255
255 255 255
255 255 255
255 255 255
255 255 255
255 255 255
255 255 255
255 255 255
255 255 255
255 255 255
255 255 255
255 255 255
255 255 255
255 255 255
255 255 255
255 255 255
  0   0  67
  0   0  73
  0   0  79
  0   0  85
  0   0  88
  0   0  88
  0   0  78
255 255 255
104   0   0
132   0   0
154   0   0
168   0   0
174   0   0
168   0   0
145   0   0
  0   0  64
  0   0 158
  0   0 190
  0   0 205
  0   0 206
  0   0 194
  0   0 164
  0   0  97
138   0   0
165   0   0
173   0   0
168   0   0
154   0   0
133   0   0
103   0   0
255 255 255
  0   0  88
  0   0 100
  0   0 105
  0   0 105
  0   0 103
  0   0  92
255 255 255
102   0   0
135   0   0
158   0   0
173   0   0
179   0   0
172   0   0
143   0   0
  0   0   0
  0   0   0
  0   0   0
  0   0   0
  0   0 214
  0   0 208
  0   0 186
  0   0 139
118   0   0
164   0   0
177   0   0
175   0   0
163   0   0
143   0   0
116   0   0
 77   0   0
  0   0  70
  0   0  87
  0   0  89
  0   0  85
  0   0  79
  0   0  73
  0   0  66
255 255 255
255 255 255
255 255 255
255 255 255
255 255 255
255 255 255
255 255 255
255 255 255
255 255 255
  0   0  66
  0   0  73
  0   0  79
  0   0  85
  0   0  89
  0   0  87
  0   0  70
 77   0   0
116   0   0
143   0   0
163   0   0
175   0   0
177   0   0
164   0   0
118   0   0
  0   0 139
  0   0 186
  0   0 208
  0   0 214
  0   0 205
  0   0 179
  0   0 122
134   0   0
169   0   0
178   0   0
175   0   0
161   0   0
139   0   0
108   0   0
255 255 255
  0   0  89
  0   0 101
  0   0 105
  0   0 105
  0   0 101
  0   0  91
255 255 255
 97   0   0
129   0   0
151   0   0
166   0   0
173   0   0
167   0   0
144   0   0
  0   0  69
  0   0 158
  0   0 190
  0   0 205
  0   0 206
  0   0 193
  0   0 164
  0   0  94
139   0   0
167   0   0
174   0   0
169   0   0
156   0   0
136   0   0
108   0   0
 64   0   0
  0   0  75
  0   0  87
  0   0  88
  0   0  85
  0   0  79
  0   0  73
  0   0  67
255 255 255
255 255 255
255 255 255
255 255 255
255 255 255
255 255 255
255 255 255
255 255 255
255 255 255
255 255 255
255 255 255
255 255 255
255 255 255
255 255 255
255 255 255
255 255 255
255 255 255
255 255 255
255 255 255
255 255 255
255 255 255
255 255 255
255 255 255
255 255 255
255 255 255
255 255 255
255 255 255
255 255 255
255 255 255
255 255 255
255 255 255
255 255 255
255 255 255
255 255 255
255 255 255
255 255 255
255 255 255
255 255 255
255 255 255
255 255 255
255 255 255
255 255 255
255 255 255
255 255 255
255 255 255
255 255 255
255 255 255
255 255 255
255 255 255
255 255 255
255 255 255
255 255 255
255 255 255
255 255 255
255 255 255
255 255 255
255 255 255
  0   0  67
  0   0  73
  0   0  79
  0   0  85
  0   0  88
  0   0  87
  0   0  75
 64   0   0
108   0   0
136   0   0
156   0   0
169   0   0
174   0   0
167   0   0
139   0   0
  0   0  94
  0   0 164
  0   0 193
  0   0 206
  0   0 205
  0   0 190
  0   0 158
  0   0  69
144   0   0
167   0   0
173   0   0
166   0   0
151   0   0
129   0   0
 97   0   0
255 255 255
  0   0  91
  0   0 101
  0   0 105
  0   0 105
  0   0 101
  0   0  89
255 255 255
108   0   0
139   0   0
161   0   0
175   0   0
178   0   0
169   0   0
134   0   0
  0   0   0
  0   0   0
  0   0   0
  0   0   0
  0   0 214
  0   0 206
  0   0 180
  0   0 126
131   0   0
167   0   0
178   0   0
174   0   0
160   0   0
139   0   0
111   0   0
 67   0   0
  0   0  74
  0   0  87
  0   0  88
  0   0  84
  0   0  77
  0   0  71
255 255 255
255 255 255
255 255 255
255 255 255
255 255 255
255 255 255
255 255 255
255 255 255
255 255 255
255 255 255
255 255 255
  0   0  71
  0   0  77
  0   0  84
  0   0  88
  0   0  87
  0   0  74
 67   0   0
111   0   0
139   0   0
160   0   0
174   0   0
178   0   0
167   0   0
131   0   0
  0   0 126
  0   0 180
  0   0 206
  0   0 214
  0   0 207
  0   0 184
  0   0 136
123   0   0
165   0   0
178   0   0
176   0   0
163   0   0
143   0   0
114   0   0
 64   0   0
  0   0  85
  0   0 100
  0   0 105
  0   0 105
  0   0 102
  0   0  93
255 255 255
 91   0   0
125   0   0
149   0   0
165   0   0
172   0   0
169   0   0
149   0   0
 68   0   0
  0   0 152
  0   0 187
  0   0 204
  0   0 207
  0   0 196
  0   0 169
  0   0 110
133   0   0
164   0   0
174   0   0
171   0   0
158   0   0
139   0   0
112   0   0
 72   0   0
  0   0  71
  0   0  87
  0   0  89
  0   0  86
  0   0  80
  0   0  74
  0   0  68
255 255 255
255 255 255
255 255 255
255 255 255
255 255 255
255 255 255
255 255 255
255 255 255
255 255 255
255 255 255
255 255 255
255 255 255
255 255 255
255 255 255
255 255 255
255 255 255
255 255 255
255 255 255
255 255 255
255 255 255
255 255 255
255 255 255
255 255 255
255 255 255
255 255 255
255 255 255
255 255 255
255 255 255
255 255 255
255 255 255
255 255 255
255 255 255
255 255 255
255 255 255
255 255 255
255 255 255
255 255 255
255 255 255
255 255 255
255 255 255
255 255 255
255 255 255
255 255 255
255 255 255
255 255 255
255 255 255
255 255 255
255 255 255
255 255 255
255 255 255
255 255 255
255 255 255
255 255 255
255 255 255
255 255 255
255 255 255
255 255 255
  0   0  68
  0   0  74
  0   0  80
  0   0  86
  0   0  89
  0   0  87
  0   0  71
 72   0   0
112   0   0
139   0   0
158   0   0
171   0   0
174   0   0
164   0   0
133   0   0
  0   0 110
  0   0 169
  0   0 196
  0   0 207
  0   0 204
  0   0 187
  0   0 152
 68   0   0
149   0   0
169   0   0
172   0   0
165   0   0
149   0   0
125   0   0
 91   0   0
255 255 255
  0   0  93
  0   0 102
  0   0 105
  0   0 105
  0   0 100
  0   0  85
 64   0   0
114   0   0
143   0   0
163   0   0
176   0   0
178   0   0
165   0   0
123   0   0
  0   0   0
  0   0   0
  0   0   0
  0   0   0
  0   0 214
  0   0 203
  0   0 174
  0   0 110
140   0   0
170   0   0
178   0   0
172   0   0
157   0   0
135   0   0
105   0   0
255 255 255
  0   0  78
  0   0  87
  0   0  87
  0   0  82
  0   0  75
  0   0  68
255 255 255
255 255 255
255 255 255
255 255 255
255 255 255
255 255 255
255 255 255
255 255 255
255 255 255
255 255 255
255 255 255
  0   0  68
  0   0  75
  0   0  82
  0   0  87
  0   0  87
  0   0  78
255 255 255
105   0   0
135   0   0
157   0   0
172   0   0
178   0   0
170   0   0
140   0   0
  0   0 110
  0   0 174
  0   0 203
  0   0 214
  0   0 210
  0   0 189
  0   0 146
108   0   0
161   0   0
177   0   0
177   0   0
166   0   0
146   0   0
119   0   0
 75   0   0
  0   0  81
  0   0  99
  0   0 105
  0   0 105
  0   0 103
  0   0  95
  0   0  71
 85   0   0
121   0   0
146   0   0
163   0   0
172   0   0
170   0   0
153   0   0
 93   0   0
  0   0 145
  0   0 184
  0   0 203
  0   0 207
  0   0 198
  0   0 173
  0   0 121
126   0   0
162   0   0
173   0   0
171   0   0
160   0   0
141   0   0
116   0   0
 79   0   0
  0   0  67
  0   0  86
  0   0  88
  0   0  86
  0   0  80
  0   0  74
  0   0  68
255 255 255
255 255 255
255 255 255
255 255 255
255 255 255
255 255 255
255 255 255
255 255 255
255 255 255
255 255 255
255 255 255
255 255 255
255 255 255
255 255 255
255 255 255
255 255 255
255 255 255
255 255 255
255 255 255
255 255 255
255 255 255
255 255 255
255 255 255
255 255 255
255 255 255
255 255 255
255 255 255
255 255 255
255 255 255
255 255 255
255 255 255
255 255 255
255 255 255
255 255 255
255 255 255
255 255 255
255 255 255
255 255 255
255 255 255
255 255 255
255 255 255
255 255 255
255 255 255
255 255 255
255 255 255
255 255 255
255 255 255
255 255 255
255 255 255
255 255 255
255 255 255
255 255 255
255 255 255
255 255 255
255 255 255
255 255 255
255 255 255
  0   0  68
  0   0  74
  0   0  80
  0   0  86
  0   0  88
  0   0  86
  0   0  67
 79   0   0
116   0   0
141   0   0
160   0   0
171   0   0
173   0   0
162   0   0
126   0   0
  0   0 121
  0   0 173
  0   0 198
  0   0 207
  0   0 203
  0   0 184
  0   0 145
 93   0   0
153   0   0
170   0   0
172   0   0
163   0   0
146   0   0
121   0   0
 85   0   0
  0   0  71
  0   0  95
  0   0 103
  0   0 105
  0   0 105
  0   0  99
  0   0  81
 75   0   0
119   0   0
146   0   0
166   0   0
177   0   0
177   0   0
161   0   0
108   0   0
  0   0   0
  0   0   0
  0   0   0
  0   0   0
  0   0 213
  0   0 200
  0   0 168
  0   0  86
147   0   0
173   0   0
178   0   0
171   0   0
154   0   0
131   0   0
100   0   0
255 255 255
  0   0  79
  0   0  87
  0   0  85
  0   0  80
  0   0  74
  0   0  67
255 255 255
255 255 255
255 255 255
255 255 255
255 255 255
255 255 255
255 255 255
255 255 255
255 255 255
255 255 255
255 255 255
  0   0  67
  0   0  74
  0   0  80
  0   0  85
  0   0  87
  0   0  79
255 255 255
100   0   0
131   0   0
154   0   0
171   0   0
178   0   0
173   0   0
147   0   0
  0   0  86
  0   0 168
  0   0 200
  0   0 213
  0   0 211
  0   0 194
  0   0 155
 87   0   0
157   0   0
176   0   0
178   0   0
168   0   0
149   0   0
123   0   0
 83   0   0
  0   0  77
  0   0  98
  0   0 104
  0   0 106
  0   0 103
  0   0  97
  0   0  77
 78   0   0
117   0   0
143   0   0
161   0   0
171   0   0
171   0   0
156   0   0
108   0   0
  0   0 138
  0   0 181
  0   0 201
  0   0 207
  0   0 200
  0   0 177
  0   0 131
118   0   0
160   0   0
173   0   0
172   0   0
162   0   0
144   0   0
119   0   0
 84   0   0
255 255 255
  0   0  84
  0   0  88
  0   0  86
  0   0  81
  0   0  75
  0   0  69
255 255 255
255 255 255
255 255 255
255 255 255
255 255 255
255 255 255
255 255 255
255 255 255
255 255 255
255 255 255
255 255 255
255 255 255
255 255 255
255 255 255
255 255 255
255 255 255
255 255 255
255 255 255
255 255 255
255 255 255
255 255 255
255 255 255
255 255 255
255 255 255
255 255 255
255 255 255
255 255 255
255 255 255
255 255 255
255 255 255
255 255 255
255 255 255
255 255 255
255 255 255
255 255 255
255 255 255
255 255 255
255 255 255
255 255 255
255 255 255
255 255 255
255 255 255
255 255 255
255 255 255
255 255 255
255 255 255
255 255 255
255 255 255
255 255 255
255 255 255
255 255 255
255 255 255
255 255 255
255 255 255
255 255 255
255 255 255
255 255 255
  0   0  69
  0   0  75
  0   0  81
  0   0  86
  0   0  88
  0   0  84
255 255 255
 84   0   0
119   0   0
144   0   0
162   0   0
172   0   0
173   0   0
160   0   0
118   0   0
  0   0 131
  0   0 177
  0   0 200
  0   0 207
  0   0 201
  0   0 181
  0   0 138
108   0   0
156   0   0
171   0   0
171   0   0
161   0   0
143   0   0
117   0   0
 78   0   0
  0   0  77
  0   0  97
  0   0 103
  0   0 106
  0   0 104
  0   0  98
  0   0  77
 83   0   0
123   0   0
149   0   0
168   0   0
178   0   0
176   0   0
157   0   0
 87   0   0
  0   0   0
  0   0   0
  0   0   0
  0   0   0
  0   0 212
  0   0 197
  0   0 161
255 255 255
153   0   0
175   0   0
178   0   0
169   0   0
151   0   0
127   0   0
 94   0   0
255 255 255
  0   0  81
  0   0  86
  0   0  84
  0   0  79
  0   0  73
  0   0  67
255 255 255
255 255 255
255 255 255
255 255 255
255 255 255
255 255 255
255 255 255
255 255 255
255 255 255
255 255 255
255 255 255
  0   0  67
  0   0  73
  0   0  79
  0   0  84
  0   0  86
  0   0  81
255 255 255
 94   0   0
127   0   0
151   0   0
169   0   0
178   0   0
175   0   0
153   0   0
255 255 255
  0   0 161
  0   0 197
  0   0 212
  0   0 212
  0   0 197
  0   0 162
255 255 255
152   0   0
174   0   0
178   0   0
170   0   0
152   0   0
127   0   0
 90   0   0
  0   0  71
  0   0  97
  0   0 104
  0   0 106
  0   0 104
  0   0  98
  0   0  81
 70   0   0
114   0   0
141   0   0
160   0   0
171   0   0
172   0   0
159   0   0
118   0   0
  0   0 130
  0   0 177
  0   0 200
  0   0 207
  0   0 201
  0   0 181
  0   0 138
108   0   0
157   0   0
172   0   0
173   0   0
163   0   0
146   0   0
122   0   0
 89   0   0
255 255 255
  0   0  83
  0   0  88
  0   0  86
  0   0  81
  0   0  75
  0   0  69
255 255 255
255 255 255
255 255 255
255 255 255
255 255 255
255 255 255
255 255 255
255 255 255
255 255 255
255 255 255
255 255 255
255 255 255
255 255 255
255 255 255
255 255 255
255 255 255
255 255 255
255 255 255
255 255 255
255 255 255
255 255 255
255 255 255
255 255 255
255 255 255
255 255 255
255 255 255
255 255 255
255 255 255
255 255 255
255 255 255
255 255 255
255 255 255
255 255 255
255 255 255
255 255 255
255 255 255
255 255 255
255 255 255
255 255 255
255 255 255
255 255 255
255 255 255
255 255 255
255 255 255
255 255 255
255 255 255
255 255 255
255 255 255
255 255 255
255 255 255
255 255 255
255 255 255
255 255 255
255 255 255
255 255 255
255 255 255
255 255 255
  0   0  69
  0   0  75
  0   0  81
  0   0  86
  0   0  88
  0   0  83
255 255 255
 89   0   0
122   0   0
146   0   0
163   0   0
173   0   0
172   0   0
157   0   0
108   0   0
  0   0 138
  0   0 181
  0   0 201
  0   0 207
  0   0 200
  0   0 177
  0   0 130
118   0   0
159   0   0
172   0   0
171   0   0
160   0   0
141   0   0
114   0   0
 70   0   0
  0   0  81
  0   0  98
  0   0 104
  0   0 106
  0   0 104
  0   0  97
  0   0  71
 90   0   0
127   0   0
152   0   0
170   0   0
178   0   0
174   0   0
152   0   0
255 255 255
  0   0   0
  0   0   0
  0   0   0
  0   0   0
  0   0 211
  0   0 193
  0   0 154
 92   0   0
158   0   0
176   0   0
177   0   0
167   0   0
149   0   0
123   0   0
 89   0   0
255 255 255
  0   0  82
  0   0  87
  0   0  84
  0   0  79
  0   0  73
  0   0  67
255 255 255
255 255 255
255 255 255
255 255 255
255 255 255
255 255 255
255 255 255
255 255 255
255 255 255
255 255 255
255 255 255
  0   0  67
  0   0  73
  0   0  79
  0   0  84
  0   0  87
  0   0  82
255 255 255
 89   0   0
123   0   0
149   0   0
167   0   0
177   0   0
176   0   0
158   0   0
 92   0   0
  0   0 154
  0   0 193
  0   0 211
  0   0 213
  0   0 200
  0   0 168
  0   0  87
147   0   0
173   0   0
178   0   0
171   0   0
155   0   0
130   0   0
 95   0   0
  0   0  65
  0   0  95
  0   0 104
  0   0 106
  0   0 105
  0   0  99
  0   0  84
255 255 255
110   0   0
138   0   0
158   0   0
170   0   0
172   0   0
161   0   0
125   0   0
  0   0 122
  0   0 173
  0   0 198
  0   0 207
  0   0 203
  0   0 184
  0   0 144
 97   0   0
154   0   0
171   0   0
173   0   0
165   0   0
148   0   0
125   0   0
 93   0   0
255 255 255
  0   0  82
  0   0  88
  0   0  87
  0   0  82
  0   0  76
  0   0  69
255 255 255
255 255 255
255 255 255
255 255 255
255 255 255
255 255 255
255 255 255
255 255 255
255 255 255
255 255 255
255 255 255
255 255 255
255 255 255
255 255 255
255 255 255
255 255 255
255 255 255
255 255 255
255 255 255
255 255 255
255 255 255
255 255 255
255 255 255
255 255 255
255 255 255
255 255 255
255 255 255
255 255 255
255 255 255
255 255 255
255 255 255
255 255 255
255 255 255
255 255 255
255 255 255
255 255 255
255 255 255
255 255 255
255 255 255
255 255 255
255 255 255
255 255 255
255 255 255
255 255 255
255 255 255
255 255 255
255 255 255
255 255 255
255 255 255
255 255 255
255 255 255
255 255 255
255 255 255
255 255 255
255 255 255
255 255 255
255 255 255
  0   0  69
  0   0  76
  0   0  82
  0   0  87
  0   0  88
  0   0  82
255 255 255
 93   0   0
125   0   0
148   0   0
165   0   0
173   0   0
171   0   0
154   0   0
 97   0   0
  0   0 144
  0   0 184
  0   0 203
  0   0 207
  0   0 198
  0   0 173
  0   0 122
125   0   0
161   0   0
172   0   0
170   0   0
158   0   0
138   0   0
110   0   0
255 255 255
  0   0  84
  0   0  99
  0   0 105
  0   0 106
  0   0 104
  0   0  95
  0   0  65
 95   0   0
130   0   0
155   0   0
171   0   0
178   0   0
173   0   0
147   0   0
  0   0  87
  0   0   0
  0   0   0
  0   0   0
  0   0   0
  0   0 210
  0   0 189
  0   0 146
109   0   0
162   0   0
177   0   0
176   0   0
165   0   0
146   0   0
119   0   0
 83   0   0
255 255 255
  0   0  84
  0   0  87
  0   0  84
  0   0  79
  0   0  73
  0   0  67
255 255 255
255 255 255
255 255 255
255 255 255
255 255 255
255 255 255
255 255 255
255 255 255
255 255 255
255 255 255
255 255 255
  0   0  67
  0   0  73
  0   0  79
  0   0  84
  0   0  87
  0   0  84
255 255 255
 83   0   0
119   0   0
146   0   0
165   0   0
176   0   0
177   0   0
162   0   0
109   0   0
  0   0 146
  0   0 189
  0   0 210
  0   0 214
  0   0 202
  0   0 173
  0   0 106
142   0   0
171   0   0
178   0   0
172   0   0
157   0   0
133   0   0
100   0   0
255 255 255
  0   0  94
  0   0 104
  0   0 106
  0   0 105
  0   0 100
  0   0  87
255 255 255
106   0   0
135   0   0
156   0   0
169   0   0
173   0   0
163   0   0
131   0   0
  0   0 112
  0   0 170
  0   0 196
  0   0 207
  0   0 204
  0   0 186
  0   0 150
 81   0   0
151   0   0
171   0   0
174   0   0
166   0   0
150   0   0
127   0   0
 97   0   0
255 255 255
  0   0  81
  0   0  88
  0   0  87
  0   0  82
  0   0  76
  0   0  70
255 255 255
255 255 255
255 255 255
255 255 255
255 255 255
255 255 255
255 255 255
255 255 255
255 255 255
255 255 255
255 255 255
255 255 255
255 255 255
255 255 255
255 255 255
255 255 255
255 255 255
255 255 255
255 255 255
255 255 255
255 255 255
255 255 255
255 255 255
255 255 255
255 255 255
255 255 255
255 255 255
255 255 255
255 255 255
255 255 255
255 255 255
255 255 255
255 255 255
255 255 255
255 255 255
255 255 255
255 255 255
255 255 255
255 255 255
255 255 255
255 255 255
255 255 255
255 255 255
255 255 255
255 255 255
255 255 255
255 255 255
255 255 255
255 255 255
255 255 255
255 255 255
255 255 255
255 255 255
255 255 255
255 255 255
255 255 255
255 255 255
  0   0  70
  0   0  76
  0   0  82
  0   0  87
  0   0  88
  0   0  81
255 255 255
 97   0   0
127   0   0
150   0   0
166   0   0
174   0   0
171   0   0
151   0   0
 81   0   0
  0   0 150
  0   0 186
  0   0 204
  0   0 207
  0   0 196
  0   0 170
  0   0 112
131   0   0
163   0   0
173   0   0
169   0   0
156   0   0
135   0   0
106   0   0
255 255 255
  0   0  87
  0   0 100
  0   0 105
  0   0 106
  0   0 104
  0   0  94
255 255 255
100   0   0
133   0   0
157   0   0
172   0   0
178   0   0
171   0   0
142   0   0
  0   0 106
  0   0   0
  0   0   0
  0   0   0
  0   0   0
  0   0 208
  0   0 186
  0   0 138
121   0   0
165   0   0
178   0   0
176   0   0
163   0   0
143   0   0
115   0   0
 76   0   0
  0   0  70
  0   0  85
  0   0  87
  0   0  84
  0   0  78
  0   0  72
  0   0  66
255 255 255
255 255 255
255 255 255
255 255 255
255 255 255
255 255 255
255 255 255
255 255 255
255 255 255
255 255 255
255 255 255
  0   0  66
  0   0  72
  0   0  78
  0   0  84
  0   0  87
  0   0  85
  0   0  70
 76   0   0
115   0   0
143   0   0
163   0   0
176   0   0
178   0   0
165   0   0
121   0   0
  0   0 138
  0   0 186
  0   0 208
  0   0 214
  0   0 204
  0   0 178
  0   0 119
136   0   0
169   0   0
178   0   0
174   0   0
159   0   0
136   0   0
104   0   0
255 255 255
  0   0  92
  0   0 103
  0   0 106
  0   0 106
  0   0 101
  0   0  90
255 255 255
102   0   0
132   0   0
154   0   0
168   0   0
173   0   0
165   0   0
136   0   0
  0   0 102
  0   0 166
  0   0 194
  0   0 206
  0   0 205
  0   0 189
  0   0 154
255 255 255
148   0   0
170   0   0
174   0   0
167   0   0
152   0   0
130   0   0
100   0   0
255 255 255
  0   0  79
  0   0  87
  0   0  87
  0   0  83
  0   0  77
  0   0  70
  0   0  64
255 255 255
255 255 255
255 255 255
255 255 255
255 255 255
255 255 255
255 255 255
255 255 255
255 255 255
255 255 255
255 255 255
255 255 255
255 255 255
255 255 255
255 255 255
255 255 255
255 255 255
255 255 255
255 255 255
255 255 255
255 255 255
255 255 255
255 255 255
255 255 255
255 255 255
255 255 255
255 255 255
255 255 255
255 255 255
255 255 255
255 255 255
255 255 255
255 255 255
255 255 255
255 255 255
255 255 255
255 255 255
255 255 255
255 255 255
255 255 255
255 255 255
255 255 255
255 255 255
255 255 255
255 255 255
255 255 255
255 255 255
255 255 255
255 255 255
255 255 255
255 255 255
255 255 255
255 255 255
255 255 255
255 255 255
  0   0  64
  0   0  70
  0   0  77
  0   0  83
  0   0  87
  0   0  87
  0   0  79
255 255 255
100   0   0
130   0   0
152   0   0
167   0   0
174   0   0
170   0   0
148   0   0
255 255 255
  0   0 154
  0   0 189
  0   0 205
  0   0 206
  0   0 194
  0   0 166
  0   0 102
136   0   0
165   0   0
173   0   0
168   0   0
154   0   0
132   0   0
102   0   0
255 255 255
  0   0  90
  0   0 101
  0   0 106
  0   0 106
  0   0 103
  0   0  92
255 255 255
104   0   0
136   0   0
159   0   0
174   0   0
178   0   0
169   0   0
136   0   0
  0   0 119
  0   0   0
  0   0   0
  0   0   0
  0   0   0
  0   0 206
  0   0 182
  0   0 129
130   0   0
168   0   0
178   0   0
175   0   0
161   0   0
140   0   0
111   0   0
 68   0   0
  0   0  74
  0   0  87
  0   0  88
  0   0  84
  0   0  78
  0   0  72
  0   0  66
255 255 255
255 255 255
255 255 255
255 255 255
255 255 255
255 255 255
255 255 255
255 255 255
255 255 255
255 255 255
255 255 255
  0   0  66
  0   0  72
  0   0  78
  0   0  84
  0   0  88
  0   0  87
  0   0  74
 68   0   0
111   0   0
140   0   0
161   0   0
175   0   0
178   0   0
168   0   0
130   0   0
  0   0 129
  0   0 182
  0   0 206
  0   0 214
  0   0 206
  0   0 182
  0   0 128
129   0   0
167   0   0
178   0   0
175   0   0
161   0   0
139   0   0
108   0   0
255 255 255
  0   0  91
  0   0 103
  0   0 106
  0   0 106
  0   0 102
  0   0  92
255 255 255
 98   0   0
130   0   0
152   0   0
167   0   0
173   0   0
166   0   0
140   0   0
  0   0  89
  0   0 163
  0   0 193
  0   0 206
  0   0 205
  0   0 191
  0   0 158
  0   0  65
145   0   0
169   0   0
174   0   0
168   0   0
153   0   0
132   0   0
103   0   0
255 255 255
  0   0  77
  0   0  87
  0   0  87
  0   0  83
  0   0  77
  0   0  70
  0   0  64
255 255 255
255 255 255
255 255 255
255 255 255
255 255 255
255 255 255
255 255 255
255 255 255
255 255 255
255 255 255
255 255 255
255 255 255
255 255 255
255 255 255
255 255 255
255 255 255
255 255 255
255 255 255
255 255 255
255 255 255
255 255 255
255 255 255
255 255 255
255 255 255
255 255 255
255 255 255
255 255 255
255 255 255
255 255 255
255 255 255
255 255 255
255 255 255
255 255 255
255 255 255
255 255 255
255 255 255
255 255 255
255 255 255
255 255 255
255 255 255
255 255 255
255 255 255
255 255 255
255 255 255
255 255 255
255 255 255
255 255 255
255 255 255
255 255 255
255 255 255
255 255 255
255 255 255
255 255 255
255 255 255
255 255 255
  0   0  64
  0   0  70
  0   0  77
  0   0  83
  0   0  87
  0   0  87
  0   0  77
255 255 255
103   0   0
132   0   0
153   0   0
168   0   0
174   0   0
169   0   0
145   0   0
  0   0  65
  0   0 158
  0   0 191
  0   0 205
  0   0 206
  0   0 193
  0   0 163
  0   0  89
140   0   0
166   0   0
173   0   0
167   0   0
152   0   0
130   0   0
 98   0   0
255 255 255
  0   0  92
  0   0 102
  0   0 106
  0   0 106
  0   0 103
  0   0  91
255 255 255
108   0   0
139   0   0
161   0   0
175   0   0
178   0   0
167   0   0
129   0   0
  0   0 128
  0   0   0
  0   0   0
  0   0   0
  0   0   0
  0   0 205
  0   0 178
  0   0 119
136   0   0
170   0   0
178   0   0
174   0   0
159   0   0
137   0   0
107   0   0
255 255 255
  0   0  77
  0   0  87
  0   0  87
  0   0  83
  0   0  77
  0   0  71
  0   0  65
255 255 255
255 255 255
255 255 255
255 255 255
255 255 255
255 255 255
255 255 255
255 255 255
255 255 255
255 255 255
255 255 255
  0   0  65
  0   0  71
  0   0  77
  0   0  83
  0   0  87
  0   0  87
  0   0  77
255 255 255
107   0   0
137   0   0
159   0   0
174   0   0
178   0   0
170   0   0
136   0   0
  0   0 119
  0   0 178
  0   0 205
  0   0 214
  0   0 208
  0   0 185
  0   0 136
123   0   0
165   0   0
178   0   0
176   0   0
163   0   0
142   0   0
112   0   0
255 255 255
  0   0  88
  0   0 102
  0   0 106
  0   0 106
  0   0 103
  0   0  94
255 255 255
 94   0   0
127   0   0
151   0   0
166   0   0
172   0   0
167   0   0
143   0   0
  0   0  72
  0   0 159
  0   0 191
  0   0 205
  0   0 206
  0   0 192
  0   0 162
  0   0  85
142   0   0
168   0   0
174   0   0
169   0   0
155   0   0
134   0   0
105   0   0
255 255 255
  0   0  76
  0   0  87
  0   0  87
  0   0  83
  0   0  77
  0   0  71
  0   0  65
255 255 255
255 255 255
255 255 255
255 255 255
255 255 255
255 255 255
255 255 255
255 255 255
255 255 255
255 255 255
255 255 255
255 255 255
255 255 255
255 255 255
255 255 255
255 255 255
255 255 255
255 255 255
255 255 255
255 255 255
255 255 255
255 255 255
255 255 255
255 255 255
255 255 255
255 255 255
255 255 255
255 255 255
255 255 255
255 255 255
255 255 255
255 255 255
255 255 255
255 255 255
255 255 255
255 255 255
255 255 255
255 255 255
255 255 255
255 255 255
255 255 255
255 255 255
255 255 255
255 255 255
255 255 255
255 255 255
255 255 255
255 255 255
255 255 255
255 255 255
255 255 255
255 255 255
255 255 255
255 255 255
255 255 255
  0   0  65
  0   0  71
  0   0  77
  0   0  83
  0   0  87
  0   0  87
  0   0  76
255 255 255
105   0   0
134   0   0
155   0   0
169   0   0
174   0   0
168   0   0
142   0   0
  0   0  85
  0   0 162
  0   0 192
  0   0 206
  0   0 205
  0   0 191
  0   0 159
  0   0  72
143   0   0
167   0   0
172   0   0
166   0   0
151   0   0
127   0   0
 94   0   0
255 255 255
  0   0  94
  0   0 103
  0   0 106
  0   0 106
  0   0 102
  0   0  88
255 255 255
112   0   0
142   0   0
163   0   0
176   0   0
178   0   0
165   0   0
123   0   0
  0   0 136
  0   0   0
  0   0   0
  0   0   0
  0   0   0
  0   0 203
  0   0 174
  0   0 108
141   0   0
171   0   0
178   0   0
172   0   0
157   0   0
134   0   0
103   0   0
255 255 255
  0   0  79
  0   0  88
  0   0  87
  0   0  83
  0   0  76
  0   0  70
  0   0  64
255 255 255
255 255 255
255 255 255
255 255 255
255 255 255
255 255 255
255 255 255
255 255 255
255 255 255
255 255 255
255 255 255
  0   0  64
  0   0  70
  0   0  76
  0   0  83
  0   0  87
  0   0  88
  0   0  79
255 255 255
103   0   0
134   0   0
157   0   0
172   0   0
178   0   0
171   0   0
141   0   0
  0   0 108
  0   0 174
  0   0 203
  0   0 213
  0   0 209
  0   0 187
  0   0 142
115   0   0
164   0   0
178   0   0
176   0   0
164   0   0
144   0   0
115   0   0
 66   0   0
  0   0  86
  0   0 101
  0   0 106
  0   0 106
  0   0 103
  0   0  95
  0   0  67
 90   0   0
125   0   0
149   0   0
165   0   0
172   0   0
168   0   0
146   0   0
255 255 255
  0   0 156
  0   0 189
  0   0 205
  0   0 206
  0   0 194
  0   0 165
  0   0  97
139   0   0
166   0   0
174   0   0
169   0   0
156   0   0
135   0   0
108   0   0
255 255 255
  0   0  75
  0   0  87
  0   0  88
  0   0  84
  0   0  78
  0   0  71
  0   0  65
255 255 255
255 255 255
255 255 255
255 255 255
255 255 255
255 255 255
255 255 255
255 255 255
255 255 255
255 255 255
255 255 255
255 255 255
255 255 255
255 255 255
255 255 255
255 255 255
255 255 255
255 255 255
255 255 255
255 255 255
255 255 255
255 255 255
255 255 255
255 255 255
255 255 255
255 255 255
255 255 255
255 255 255
255 255 255
255 255 255
255 255 255
255 255 255
255 255 255
255 255 255
255 255 255
255 255 255
255 255 255
255 255 255
255 255 255
255 255 255
255 255 255
255 255 255
255 255 255
255 255 255
255 255 255
255 255 255
255 255 255
255 255 255
255 255 255
255 255 255
255 255 255
255 255 255
255 255 255
255 255 255
255 255 255
  0   0  65
  0   0  71
  0   0  78
  0   0  84
  0   0  88
  0   0  87
  0   0  75
255 255 255
108   0   0
135   0   0
156   0   0
169   0   0
174   0   0
166   0   0
139   0   0
  0   0  97
  0   0 165
  0   0 194
  0   0 206
  0   0 205
  0   0 189
  0   0 156
255 255 255
146   0   0
168   0   0
172   0   0
165   0   0
149   0   0
125   0   0
 90   0   0
  0   0  67
  0   0  95
  0   0 103
  0   0 106
  0   0 106
  0   0 101
  0   0  86
 66   0   0
115   0   0
144   0   0
164   0   0
176   0   0
178   0   0
164   0   0
115   0   0
  0   0 142
  0   0   0
  0   0   0
  0   0   0
  0   0   0
  0   0 201
  0   0 171
  0   0  97
145   0   0
172   0   0
178   0   0
171   0   0
155   0   0
132   0   0
100   0   0
255 255 255
  0   0  81
  0   0  88
  0   0  87
  0   0  82
  0   0  76
  0   0  69
255 255 255
255 255 255
255 255 255
255 255 255
255 255 255
255 255 255
255 255 255
255 255 255
255 255 255
255 255 255
255 255 255
255 255 255
255 255 255
  0   0  69
  0   0  76
  0   0  82
  0   0  87
  0   0  88
  0   0  81
255 255 255
100   0   0
132   0   0
155   0   0
171   0   0
178   0   0
172   0   0
145   0   0
  0   0  97
  0   0 171
  0   0 201
  0   0 213
  0   0 210
  0   0 190
  0   0 147
107   0   0
162   0   0
177   0   0
177   0   0
166   0   0
146   0   0
118   0   0
 73   0   0
  0   0  83
  0   0 100
  0   0 105
  0   0 106
  0   0 103
  0   0  95
  0   0  70
 87   0   0
123   0   0
147   0   0
164   0   0
172   0   0
169   0   0
149   0   0
 65   0   0
  0   0 153
  0   0 188
  0   0 204
  0   0 207
  0   0 195
  0   0 168
  0   0 105
135   0   0
165   0   0
174   0   0
170   0   0
157   0   0
137   0   0
110   0   0
 68   0   0
  0   0  73
  0   0  87
  0   0  88
  0   0  84
  0   0  78
  0   0  72
  0   0  66
255 255 255
255 255 255
255 255 255
255 255 255
255 255 255
255 255 255
255 255 255
255 255 255
255 255 255
255 255 255
255 255 255
255 255 255
255 255 255
255 255 255
255 255 255
255 255 255
255 255 255
255 255 255
255 255 255
255 255 255
255 255 255
255 255 255
255 255 255
255 255 255
255 255 255
255 255 255
255 255 255
255 255 255
255 255 255
255 255 255
255 255 255
255 255 255
255 255 255
255 255 255
255 255 255
255 255 255
255 255 255
255 255 255
255 255 255
255 255 255
255 255 255
255 255 255
255 255 255
255 255 255
255 255 255
255 255 255
255 255 255
255 255 255
255 255 255
255 255 255
255 255 255
255 255 255
255 255 255
255 255 255
255 255 255
  0   0  66
  0   0  72
  0   0  78
  0   0  84
  0   0  88
  0   0  87
  0   0  73
 68   0   0
110   0   0
137   0   0
157   0   0
170   0   0
174   0   0
165   0   0
135   0   0
  0   0 105
  0   0 168
  0   0 195
  0   0 207
  0   0 204
  0   0 188
  0   0 153
 65   0   0
149   0   0
169   0   0
172   0   0
164   0   0
147   0   0
123   0   0
 87   0   0
  0   0  70
  0   0  95
  0   0 103
  0   0 106
  0   0 105
  0   0 100
  0   0  83
 73   0   0
118   0   0
146   0   0
166   0   0
177   0   0
177   0   0
162   0   0
107   0   0
  0   0 147
  0   0   0
  0   0   0
  0   0   0
  0   0   0
  0   0 200
  0   0 168
  0   0  82
149   0   0
173   0   0
178   0   0
170   0   0
153   0   0
129   0   0
 97   0   0
255 255 255
  0   0  82
  0   0  88
  0   0  86
  0   0  81
  0   0  75
  0   0  69
255 255 255
255 255 255
255 255 255
255 255 255
255 255 255
255 255 255
255 255 255
255 255 255
255 255 255
255 255 255
255 255 255
255 255 255
255 255 255
  0   0  69
  0   0  75
  0   0  81
  0   0  86
  0   0  88
  0   0  82
255 255 255
 97   0   0
129   0   0
153   0   0
170   0   0
178   0   0
173   0   0
149   0   0
  0   0  82
  0   0 168
  0   0 200
  0   0 213
  0   0 210
  0   0 192
  0   0 152
 98   0   0
160   0   0
177   0   0
178   0   0
167   0   0
148   0   0
121   0   0
 79   0   0
  0   0  80
  0   0  99
  0   0 105
  0   0 106
  0   0 103
  0   0  96
  0   0  72
 84   0   0
121   0   0
146   0   0
163   0   0
172   0   0
169   0   0
151   0   0
 81   0   0
  0   0 150
  0   0 186
  0   0 204
  0   0 207
  0   0 196
  0   0 170
  0   0 112
132   0   0
164   0   0
174   0   0
170   0   0
158   0   0
138   0   0
111   0   0
 71   0   0
  0   0  72
  0   0  86
  0   0  88
  0   0  85
  0   0  79
  0   0  72
  0   0  66
255 255 255
255 255 255
255 255 255
255 255 255
255 255 255
255 255 255
255 255 255
255 255 255
255 255 255
255 255 255
255 255 255
255 255 255
255 255 255
255 255 255
255 255 255
255 255 255
255 255 255
255 255 255
255 255 255
255 255 255
255 255 255
255 255 255
255 255 255
255 255 255
255 255 255
255 255 255
255 255 255
255 255 255
255 255 255
255 255 255
255 255 255
255 255 255
255 255 255
255 255 255
255 255 255
255 255 255
255 255 255
255 255 255
255 255 255
255 255 255
255 255 255
255 255 255
255 255 255
255 255 255
255 255 255
255 255 255
255 255 255
255 255 255
255 255 255
255 255 255
255 255 255
255 255 255
255 255 255
255 255 255
255 255 255
  0   0  66
  0   0  72
  0   0  79
  0   0  85
  0   0  88
  0   0  86
  0   0  72
 71   0   0
111   0   0
138   0   0
158   0   0
170   0   0
174   0   0
164   0   0
132   0   0
  0   0 112
  0   0 170
  0   0 196
  0   0 207
  0   0 204
  0   0 186
  0   0 150
 81   0   0
151   0   0
169   0   0
172   0   0
163   0   0
146   0   0
121   0   0
 84   0   0
  0   0  72
  0   0  96
  0   0 103
  0   0 106
  0   0 105
  0   0  99
  0   0  80
 79   0   0
121   0   0
148   0   0
167   0   0
178   0   0
177   0   0
160   0   0
 98   0   0
  0   0 152
  0   0   0
  0   0   0
  0   0   0
  0   0   0
  0   0 198
  0   0 165
255 255 255
151   0   0
174   0   0
178   0   0
169   0   0
152   0   0
127   0   0
 94   0   0
255 255 255
  0   0  83
  0   0  88
  0   0  86
  0   0  81
  0   0  75
  0   0  68
255 255 255
255 255 255
255 255 255
255 255 255
255 255 255
255 255 255
255 255 255
255 255 255
255 255 255
255 255 255
255 255 255
255 255 255
255 255 255
  0   0  68
  0   0  75
  0   0  81
  0   0  86
  0   0  88
  0   0  83
255 255 255
 94   0   0
127   0   0
152   0   0
169   0   0
178   0   0
174   0   0
151   0   0
255 255 255
  0   0 165
  0   0 198
  0   0 213
  0   0 211
  0   0 194
  0   0 156
 87   0   0
158   0   0
176   0   0
178   0   0
168   0   0
150   0   0
123   0   0
 83   0   0
  0   0  76
  0   0  98
  0   0 104
  0   0 105
  0   0 103
  0   0  96
  0   0  74
 82   0   0
120   0   0
145   0   0
163   0   0
172   0   0
170   0   0
152   0   0
 91   0   0
  0   0 147
  0   0 185
  0   0 203
  0   0 207
  0   0 197
  0   0 172
  0   0 118
129   0   0
163   0   0
173   0   0
171   0   0
159   0   0
139   0   0
112   0   0
 73   0   0
  0   0  71
  0   0  87
  0   0  89
  0   0  86
  0   0  80
  0   0  73
  0   0  67
255 255 255
255 255 255
255 255 255
255 255 255
255 255 255
255 255 255
255 255 255
255 255 255
255 255 255
255 255 255
255 255 255
255 255 255
255 255 255
255 255 255
255 255 255
255 255 255
255 255 255
255 255 255
255 255 255
255 255 255
255 255 255
255 255 255
255 255 255
255 255 255
255 255 255
255 255 255
255 255 255
255 255 255
255 255 255
255 255 255
255 255 255
255 255 255
255 255 255
255 255 255
255 255 255
255 255 255
255 255 255
255 255 255
255 255 255
255 255 255
255 255 255
255 255 255
255 255 255
255 255 255
255 255 255
255 255 255
255 255 255
255 255 255
255 255 255
255 255 255
255 255 255
255 255 255
255 255 255
255 255 255
255 255 255
  0   0  67
  0   0  73
  0   0  80
  0   0  86
  0   0  89
  0   0  87
  0   0  71
 73   0   0
112   0   0
139   0   0
159   0   0
171   0   0
173   0   0
163   0   0
129   0   0
  0   0 118
  0   0 172
  0   0 197
  0   0 207
  0   0 203
  0   0 185
  0   0 147
 91   0   0
152   0   0
170   0   0
172   0   0
163   0   0
145   0   0
120   0   0
 82   0   0
  0   0  74
  0   0  96
  0   0 103
  0   0 105
  0   0 104
  0   0  98
  0   0  76
 83   0   0
123   0   0
150   0   0
168   0   0
178   0   0
176   0   0
158   0   0
 87   0   0
  0   0 156
  0   0   0
  0   0   0
  0   0   0
  0   0   0
  0   0 197
  0   0 162
255 255 255
154   0   0
175   0   0
178   0   0
168   0   0
151   0   0
125   0   0
 91   0   0
255 255 255
  0   0  84
  0   0  88
  0   0  86
  0   0  80
  0   0  74
  0   0  68
255 255 255
255 255 255
255 255 255
255 255 255
255 255 255
255 255 255
255 255 255
255 255 255
255 255 255
255 255 255
255 255 255
255 255 255
255 255 255
  0   0  68
  0   0  74
  0   0  80
  0   0  86
  0   0  88
  0   0  84
255 255 255
 91   0   0
125   0   0
151   0   0
168   0   0
178   0   0
175   0   0
154   0   0
255 255 255
  0   0 162
  0   0 197
  0   0 212
  0   0 212
  0   0 195
  0   0 159
 73   0   0
155   0   0
176   0   0
178   0   0
169   0   0
151   0   0
125   0   0
 87   0   0
  0   0  73
  0   0  96
  0   0 103
  0   0 105
  0   0 103
  0   0  96
  0   0  75
 80   0   0
119   0   0
144   0   0
162   0   0
172   0   0
171   0   0
154   0   0
 98   0   0
  0   0 144
  0   0 183
  0   0 203
  0   0 207
  0   0 198
  0   0 174
  0   0 122
126   0   0
162   0   0
173   0   0
171   0   0
159   0   0
140   0   0
114   0   0
 75   0   0
  0   0  71
  0   0  87
  0   0  89
  0   0  86
  0   0  81
  0   0  75
  0   0  68
255 255 255
255 255 255
255 255 255
255 255 255
255 255 255
255 255 255
255 255 255
255 255 255
255 255 255
255 255 255
255 255 255
255 255 255
255 255 255
255 255 255
255 255 255
255 255 255
255 255 255
255 255 255
255 255 255
255 255 255
255 255 255
255 255 255
255 255 255
255 255 255
255 255 255
255 255 255
255 255 255
255 255 255
255 255 255
255 255 255
255 255 255
255 255 255
255 255 255
255 255 255
255 255 255
255 255 255
255 255 255
255 255 255
255 255 255
255 255 255
255 255 255
255 255 255
255 255 255
255 255 255
255 255 255
255 255 255
255 255 255
255 255 255
255 255 255
255 255 255
255 255 255
255 255 255
255 255 255
255 255 255
255 255 255
  0   0  68
  0   0  75
  0   0  81
  0   0  86
  0   0  89
  0   0  87
  0   0  71
 75   0   0
114   0   0
140   0   0
159   0   0
171   0   0
173   0   0
162   0   0
126   0   0
  0   0 122
  0   0 174
  0   0 198
  0   0 207
  0   0 203
  0   0 183
  0   0 144
 98   0   0
154   0   0
171   0   0
172   0   0
162   0   0
144   0   0
119   0   0
 80   0   0
  0   0  75
  0   0  96
  0   0 103
  0   0 105
  0   0 103
  0   0  96
  0   0  73
 87   0   0
125   0   0
151   0   0
169   0   0
178   0   0
176   0   0
155   0   0
 73   0   0
  0   0 159
  0   0   0
  0   0   0
  0   0   0
  0   0   0
  0   0 196
  0   0 159
 73   0   0
155   0   0
175   0   0
177   0   0
168   0   0
149   0   0
124   0   0
 88   0   0
255 255 255
  0   0  84
  0   0  88
  0   0  86
  0   0  80
  0   0  74
  0   0  67
255 255 255
255 255 255
255 255 255
255 255 255
255 255 255
255 255 255
255 255 255
255 255 255
255 255 255
255 255 255
255 255 255
255 255 255
255 255 255
  0   0  67
  0   0  74
  0   0  80
  0   0  86
  0   0  88
  0   0  84
255 255 255
 88   0   0
124   0   0
149   0   0
168   0   0
177   0   0
175   0   0
155   0   0
 73   0   0
  0   0 159
  0   0 196
  0   0 212
  0   0 212
  0   0 197
  0   0 162
255 255 255
154   0   0
175   0   0
178   0   0
170   0   0
152   0   0
126   0   0
 89   0   0
  0   0  70
  0   0  96
  0   0 103
  0   0 104
  0   0 102
  0   0  96
  0   0  76
 78   0   0
118   0   0
143   0   0
162   0   0
171   0   0
171   0   0
155   0   0
103   0   0
  0   0 141
  0   0 182
  0   0 202
  0   0 207
  0   0 199
  0   0 175
  0   0 125
123   0   0
161   0   0
173   0   0
171   0   0
160   0   0
141   0   0
115   0   0
 76   0   0
  0   0  70
  0   0  87
  0   0  90
  0   0  87
  0   0  82
  0   0  75
  0   0  69
255 255 255
255 255 255
255 255 255
255 255 255
255 255 255
255 255 255
255 255 255
255 255 255
255 255 255
255 255 255
255 255 255
255 255 255
255 255 255
255 255 255
255 255 255
255 255 255
255 255 255
255 255 255
255 255 255
255 255 255
255 255 255
255 255 255
255 255 255
255 255 255
255 255 255
255 255 255
255 255 255
255 255 255
255 255 255
255 255 255
255 255 255
255 255 255
255 255 255
255 255 255
255 255 255
255 255 255
255 255 255
255 255 255
255 255 255
255 255 255
255 255 255
255 255 255
255 255 255
255 255 255
255 255 255
255 255 255
255 255 255
255 255 255
255 255 255
255 255 255
255 255 255
255 255 255
255 255 255
255 255 255
255 255 255
  0   0  69
  0   0  75
  0   0  82
  0   0  87
  0   0  90
  0   0  87
  0   0  70
 76   0   0
115   0   0
141   0   0
160   0   0
171   0   0
173   0   0
161   0   0
123   0   0
  0   0 125
  0   0 175
  0   0 199
  0   0 207
  0   0 202
  0   0 182
  0   0 141
103   0   0
155   0   0
171   0   0
171   0   0
162   0   0
143   0   0
118   0   0
 78   0   0
  0   0  76
  0   0  96
  0   0 102
  0   0 104
  0   0 103
  0   0  96
  0   0  70
 89   0   0
126   0   0
152   0   0
170   0   0
178   0   0
175   0   0
154   0   0
255 255 255
  0   0 162
  0   0   0
  0   0   0
  0   0   0
  0   0   0
  0   0 194
  0   0 157
 84   0   0
157   0   0
176   0   0
177   0   0
167   0   0
148   0   0
122   0   0
 86   0   0
255 255 255
  0   0  85
  0   0  88
  0   0  85
  0   0  80
  0   0  73
  0   0  67
255 255 255
255 255 255
255 255 255
255 255 255
255 255 255
255 255 255
255 255 255
255 255 255
255 255 255
255 255 255
255 255 255
255 255 255
255 255 255
  0   0  67
  0   0  73
  0   0  80
  0   0  85
  0   0  88
  0   0  85
255 255 255
255 157   0
255 157   0
255 157   0
167   0   0
177   0   0
176   0   0
157   0   0
 84   0   0
  0   0 157
  0   0 194
  0   0 211
  0   0 213
  0   0 198
  0   0 164
255 255 255
152   0   0
175   0   0
178   0   0
170   0   0
153   0   0
127   0   0
 91   0   0
  0   0  69
  0   0  95
  0   0 103
  0   0 104
  0   0 102
  0   0  96
  0   0  76
 77   0   0
117   0   0
143   0   0
161   0   0
171   0   0
171   0   0
156   0   0
107   0   0
  0   0 138
  0   0 181
  0   0 202
  0   0 207
  0   0 199
  0   0 176
  0   0 128
121   0   0
161   0   0
173   0   0
171   0   0
160   0   0
142   0   0
116   0   0
 79   0   0
  0   0  68
  0   0  86
  0   0  90
  0   0  87
  0   0  81
  0   0  75
  0   0  69
255 255 255
255 255 255
255 255 255
255 255 255
255 255 255
255 255 255
255 255 255
255 255 255
255 255 255
255 255 255
255 255 255
255 255 255
255 255 255
255 255 255
255 255 255
255 255 255
255 255 255
255 255 255
255 255 255
255 255 255
255 255 255
255 255 255
255 255 255
255 255 255
255 255 255
255 255 255
255 255 255
255 255 255
255 255 255
255 255 255
255 255 255
255 255 255
255 255 255
255 255 255
255 255 255
255 255 255
255 255 255
255 255 255
255 255 255
255 255 255
255 255 255
255 255 255
255 255 255
255 255 255
255 255 255
255 255 255
255 255 255
255 255 255
255 255 255
255 255 255
255 255 255
255 255 255
255 255 255
255 255 255
255 255 255
  0   0  69
  0   0  75
  0   0  81
  0   0  87
  0   0  90
  0   0  86
  0   0  68
 79   0   0
116   0   0
142   0   0
160   0   0
171   0   0
173   0   0
161   0   0
121   0   0
  0   0 128
  0   0 176
  0   0 199
  0   0 207
  0   0 202
  0   0 181
  0   0 138
107   0   0
156   0   0
171   0   0
171   0   0
161   0   0
143   0   0
117   0   0
 77   0   0
  0   0  76
  0   0  96
  0   0 102
  0   0 104
  0   0 103
  0   0  95
  0   0  69
 91   0   0
127   0   0
153   0   0
170   0   0
178   0   0
175   0   0
152   0   0
255 255 255
  0   0 164
  0   0   0
  0   0   0
  0   0   0
  0   0   0
  0   0 194
  0   0 154
 91   0   0
158   0   0
176   0   0
177   0   0
166   0   0
147   0   0
121   0   0
 84   0   0
  0   0  64
  0   0  85
  0   0  88
  0   0  85
  0   0  79
  0   0  73
  0   0  67
255 255 255
255 255 255
255 255 255
255 255 255
255 255 255
255 255 255
255 255 255
255 255 255
255 255 255
255 255 255
255 255 255
255 255 255
255 255 255
  0   0  67
  0   0  73
  0   0  79
  0   0  85
  0   0  88
  0   0  85
  0   0  64
255 157   0
255 157   0
255 157   0
166   0   0
177   0   0
176   0   0
158   0   0
 91   0   0
  0   0 154
  0   0 194
  0   0 211
  0   0 213
  0   0 199
  0   0 165
  0   0  69
150   0   0
174   0   0
178   0   0
170   0   0
153   0   0
128   0   0
 92   0   0
  0   0  68
  0   0  95
  0   0 103
  0   0 104
  0   0 103
  0   0  96
  0   0  77
 76   0   0
116   0   0
142   0   0
161   0   0
171   0   0
172   0   0
157   0   0
111   0   0
  0   0 136
  0   0 180
  0   0 201
  0   0 207
  0   0 200
  0   0 177
  0   0 129
119   0   0
160   0   0
173   0   0
172   0   0
161   0   0
142   0   0
117   0   0
 81   0   0
  0   0  66
  0   0  86
  0   0  89
  0   0  86
  0   0  81
  0   0  75
  0   0  68
255 255 255
255 255 255
255 255 255
255 255 255
255 255 255
255 255 255
255 255 255
255 255 255
255 255 255
255 255 255
255 255 255
255 255 255
255 255 255
255 255 255
255 255 255
255 255 255
255 255 255
255 255 255
255 255 255
255 255 255
255 255 255
255 255 255
255 255 255
255 255 255
255 255 255
255 255 255
255 255 255
255 255 255
255 255 255
255 255 255
255 255 255
255 255 255
255 255 255
255 255 255
255 255 255
255 255 255
255 255 255
255 255 255
255 255 255
255 255 255
255 255 255
255 255 255
255 255 255
255 255 255
255 255 255
255 255 255
255 255 255
255 255 255
255 255 255
255 255 255
255 255 255
255 255 255
255 255 255
255 255 255
255 255 255
  0   0  68
  0   0  75
  0   0  81
  0   0  86
  0   0  89
  0   0  86
  0   0  66
 81   0   0
117   0   0
142   0   0
161   0   0
172   0   0
173   0   0
160   0   0
119   0   0
  0   0 129
  0   0 177
  0   0 200
  0   0 207
  0   0 201
  0   0 180
  0   0 136
111   0   0
157   0   0
172   0   0
171   0   0
161   0   0
142   0   0
116   0   0
 76   0   0
  0   0  77
  0   0  96
  0   0 103
  0   0 104
  0   0 103
  0   0  95
  0   0  68
 92   0   0
128   0   0
153   0   0
170   0   0
178   0   0
174   0   0
150   0   0
  0   0  69
  0   0 165
  0   0   0
  0   0   0
  0   0   0
  0   0   0
  0   0 193
  0   0 153
 96   0   0
159   0   0
176   0   0
177   0   0
166   0   0
147   0   0
120   0   0
 83   0   0
  0   0  65
  0   0  85
  0   0  88
  0   0  85
  0   0  79
  0   0  73
  0   0  67
255 255 255
255 255 255
255 255 255
255 255 255
255 255 255
255 255 255
255 255 255
255 255 255
255 255 255
255 255 255
255 255 255
255 255 255
255 255 255
  0   0  67
  0   0  73
  0   0  79
  0   0  85
  0   0  88
  0   0  85
  0   0  65
255 157   0
255 157   0
255 157   0
166   0   0
177   0   0
176   0   0
159   0   0
 96   0   0
  0   0 153
  0   0 193
  0   0 211
  0   0 213
  0   0 199
  0   0 167
  0   0  77
149   0   0
174   0   0
178   0   0
171   0   0
154   0   0
129   0   0
 93   0   0
  0   0  67
  0   0  95
  0   0 103
  0   0 105
  0   0 103
  0   0  97
  0   0  78
 74   0   0
115   0   0
142   0   0
161   0   0
171   0   0
172   0   0
158   0   0
113   0   0
  0   0 134
  0   0 179
  0   0 201
  0   0 207
  0   0 200
  0   0 177
  0   0 131
118   0   0
160   0   0
173   0   0
172   0   0
162   0   0
143   0   0
118   0   0
 83   0   0
255 255 255
  0   0  84
  0   0  88
  0   0  85
  0   0  80
  0   0  73
  0   0  67
255 255 255
255 255 255
255 255 255
255 255 255
255 255 255
255 255 255
255 255 255
255 255 255
255 255 255
255 255 255
255 255 255
255 255 255
255 255 255
255 255 255
255 255 255
255 255 255
255 255 255
255 255 255
255 255 255
255 255 255
255 255 255
255 255 255
255 255 255
255 255 255
 30 180  60
 30 180  60
 30 180  60
 30 180  60
 30 180  60
 30 180  60
 30 180  60
255 255 255
255 255 255
255 255 255
255 255 255
255 255 255
255 255 255
255 255 255
255 255 255
255 255 255
255 255 255
255 255 255
255 255 255
255 255 255
255 255 255
255 255 255
255 255 255
255 255 255
255 255 255
255 255 255
255 255 255
255 255 255
255 255 255
255 255 255
255 255 255
  0   0  67
  0   0  73
  0   0  80
  0   0  85
  0   0  88
  0   0  84
255 255 255
 83   0   0
118   0   0
143   0   0
162   0   0
172   0   0
173   0   0
160   0   0
118   0   0
  0   0 131
  0   0 177
  0   0 200
  0   0 207
  0   0 201
  0   0 179
  0   0 134
113   0   0
158   0   0
172   0   0
171   0   0
161   0   0
142   0   0
115   0   0
 74   0   0
  0   0  78
  0   0  97
  0   0 103
  0   0 105
  0   0 103
  0   0  95
  0   0  67
 93   0   0
129   0   0
154   0   0
171   0   0
178   0   0
174   0   0
149   0   0
  0   0  77
  0   0 167
  0   0   0
  0   0   0
  0   0   0
  0   0   0
  0   0 192
  0   0 152
 99   0   0
160   0   0
177   0   0
177   0   0
166   0   0
146   0   0
119   0   0
 82   0   0
  0   0  67
  0   0  85
  0   0  88
  0   0  85
  0   0  79
  0   0  73
  0   0  66
255 255 255
255 255 255
255 255 255
255 255 255
255 255 255
255 255 255
255 255 255
255 255 255
255 255 255
255 255 255
255 255 255
255 255 255
255 255 255
  0   0  66
  0   0  73
  0   0  79
  0   0  85
  0   0  88
  0   0  85
  0   0  67
255 157   0
255 157   0
255 157   0
166   0   0
177   0   0
177   0   0
160   0   0
 99   0   0
  0   0 152
  0   0 192
  0   0 211
  0   0 213
  0   0 200
  0   0 168
  0   0  82
149   0   0
174   0   0
178   0   0
171   0   0
154   0   0
129   0   0
 93   0   0
  0   0  67
  0   0  95
  0   0 103
  0   0 105
  0   0 104
  0   0  98
  0   0  80
 72   0   0
114   0   0
141   0   0
160   0   0
171   0   0
172   0   0
159   0   0
115   0   0
  0   0 133
  0   0 179
  0   0 200
  0   0 207
  0   0 200
  0   0 178
  0   0 131
118   0   0
160   0   0
173   0   0
173   0   0
162   0   0
144   0   0
119   0   0
 85   0   0
255 255 255
  0   0  83
  0   0  87
  0   0  84
  0   0  79
  0   0  72
  0   0  66
255 255 255
255 255 255
255 255 255
255 255 255
255 255 255
255 255 255
255 255 255
255 255 255
255 255 255
255 255 255
255 255 255
255 255 255
255 255 255
255 255 255
255 255 255
255 255 255
255 255 255
255 255 255
255 255 255
255 255 255
255 255 255
255 255 255
255 255 255
255 255 255
 30 180  60
 30 180  60
 30 180  60
 30 180  60
 30 180  60
 30 180  60
 30 180  60
255 255 255
255 255 255
255 255 255
255 255 255
255 255 255
255 255 255
255 255 255
255 255 255
255 255 255
255 255 255
255 255 255
255 255 255
255 255 255
255 255 255
255 255 255
255 255 255
255 255 255
255 255 255
255 255 255
255 255 255
255 255 255
255 255 255
255 255 255
255 255 255
  0   0  66
  0   0  72
  0   0  79
  0   0  84
  0   0  87
  0   0  83
255 255 255
 85   0   0
119   0   0
144   0   0
162   0   0
173   0   0
173   0   0
160   0   0
118   0   0
  0   0 131
  0   0 178
  0   0 200
  0   0 207
  0   0 200
  0   0 179
  0   0 133
115   0   0
159   0   0
172   0   0
171   0   0
160   0   0
141   0   0
114   0   0
 72   0   0
  0   0  80
  0   0  98
  0   0 104
  0   0 105
  0   0 103
  0   0  95
  0   0  67
 93   0   0
129   0   0
154   0   0
171   0   0
178   0   0
174   0   0
149   0   0
  0   0  82
  0   0 168
  0   0   0
  0   0   0
  0   0   0
  0   0   0
  0   0 192
  0   0 151
101   0   0
160   0   0
177   0   0
177   0   0
165   0   0
146   0   0
119   0   0
 81   0   0
  0   0  67
  0   0  86
  0   0  88
  0   0  85
  0   0  79
  0   0  73
  0   0  66
255 255 255
255 255 255
255 255 255
255 255 255
255 255 255
255 255 255
255 255 255
255 255 255
255 255 255
255 255 255
255 255 255
255 255 255
255 255 255
  0   0  66
  0   0  73
  0   0  79
255 157   0
255 157   0
255 157   0
255 157   0
255 157   0
255 157   0
255 157   0
255 157   0
255 157   0
255 157   0
255 157   0
101   0   0
  0   0 151
  0   0 192
  0   0 211
  0   0 213
  0   0 200
  0   0 168
  0   0  85
148   0   0
173   0   0
178   0   0
171   0   0
154   0   0
130   0   0
 94   0   0
  0   0  66
  0   0  95
  0   0 104
  0   0 105
  0   0 104
  0   0  98
  0   0  81
 70   0   0
114   0   0
141   0   0
160   0   0
171   0   0
172   0   0
159   0   0
116   0   0
  0   0 132
  0   0 178
  0   0 200
  0   0 207
  0   0 200
  0   0 178
  0   0 131
118   0   0
160   0   0
173   0   0
173   0   0
163   0   0
145   0   0
120   0   0
 87   0   0
255 255 255
  0   0  82
  0   0  86
  0   0  83
  0   0  78
  0   0  71
  0   0  65
255 255 255
255 255 255
255 255 255
255 255 255
255 255 255
255 255 255
255 255 255
255 255 255
255 255 255
255 255 255
255 255 255
255 255 255
255 255 255
255 255 255
255 255 255
255 255 255
255 255 255
255 255 255
255 255 255
255 255 255
255 255 255
255 255 255
255 255 255
255 255 255
 30 180  60
 30 180  60
 30 180  60
 30 180  60
 30 180  60
 30 180  60
 30 180  60
255 255 255
255 255 255
255 255 255
255 255 255
255 255 255
255 255 255
255 255 255
255 255 255
255 255 255
255 255 255
255 255 255
255 255 255
255 255 255
255 255 255
255 255 255
255 255 255
255 255 255
255 255 255
255 255 255
255 255 255
255 255 255
255 255 255
255 255 255
255 255 255
  0   0  65
  0   0  71
  0   0  78
  0   0  83
  0   0  86
  0   0  82
255 255 255
 87   0   0
120   0   0
145   0   0
163   0   0
173   0   0
173   0   0
160   0   0
118   0   0
  0   0 131
  0   0 178
  0   0 200
  0   0 207
  0   0 200
  0   0 178
  0   0 132
116   0   0
159   0   0
172   0   0
171   0   0
160   0   0
141   0   0
114   0   0
 70   0   0
  0   0  81
  0   0  98
  0   0 104
  0   0 105
  0   0 104
  0   0  95
  0   0  66
 94   0   0
130   0   0
154   0   0
171   0   0
178   0   0
173   0   0
148   0   0
  0   0  85
  0   0 168
  0   0   0
  0   0   0
  0   0   0
  0   0   0
  0   0 192
  0   0 151
101   0   0
160   0   0
177   0   0
177   0   0
165   0   0
146   0   0
119   0   0
 81   0   0
  0   0  67
  0   0  86
  0   0  88
  0   0  85
  0   0  79
  0   0  73
  0   0  66
255 255 255
255 255 255
255 255 255
255 255 255
255 255 255
255 255 255
255 255 255
255 255 255
255 255 255
255 255 255
255 255 255
255 255 255
255 255 255
  0   0  66
  0   0  73
  0   0  79
255 157   0
255 157   0
255 157   0
255 157   0
255 157   0
255 157   0
255 157   0
255 157   0
255 157   0
255 157   0
255 157   0
101   0   0
  0   0 151
  0   0 192
  0   0 210
  0   0 213
  0   0 200
  0   0 168
  0   0  86
148   0   0
173   0   0
178   0   0
171   0   0
154   0   0
130   0   0
 94   0   0
  0   0  66
  0   0  95
  0   0 104
  0   0 106
  0   0 104
  0   0  98
  0   0  81
 69   0   0
114   0   0
141   0   0
160   0   0
171   0   0
172   0   0
159   0   0
116   0   0
  0   0 132
  0   0 178
  0   0 200
  0   0 207
  0   0 200
  0   0 178
  0   0 131
117   0   0
160   0   0
174   0   0
173   0   0
163   0   0
145   0   0
121   0   0
 87   0   0
255 255 255
  0   0  81
  0   0  86
  0   0  83
  0   0  78
  0   0  71
  0   0  65
255 255 255
255 255 255
255 255 255
255 255 255
255 255 255
255 255 255
255 255 255
255 255 255
255 255 255
255 255 255
255 255 255
255 255 255
255 255 255
255 255 255
255 255 255
255 255 255
255 255 255
255 255 255
255 255 255
255 255 255
255 255 255
255 255 255
255 255 255
255 255 255
 30 180  60
 30 180  60
 30 180  60
 30 180  60
 30 180  60
 30 180  60
 30 180  60
255 255 255
255 255 255
255 255 255
255 255 255
255 255 255
255 255 255
255 255 255
255 255 255
255 255 255
255 255 255
255 255 255
255 255 255
255 255 255
255 255 255
255 255 255
255 255 255
255 255 255
255 255 255
255 255 255
255 255 255
255 255 255
255 255 255
255 255 255
255 255 255
  0   0  65
  0   0  71
  0   0  78
  0   0  83
  0   0  86
  0   0  81
255 255 255
 87   0   0
121   0   0
145   0   0
163   0   0
173   0   0
174   0   0
160   0   0
117   0   0
  0   0 131
  0   0 178
  0   0 200
  0   0 207
  0   0 200
  0   0 178
  0   0 132
116   0   0
159   0   0
172   0   0
171   0   0
160   0   0
141   0   0
114   0   0
 69   0   0
  0   0  81
  0   0  98
  0   0 104
  0   0 106
  0   0 104
  0   0  95
  0   0  66
 94   0   0
130   0   0
154   0   0
171   0   0
178   0   0
173   0   0
148   0   0
  0   0  86
  0   0 168
  0   0   0
  0   0   0
  0   0   0
  0   0   0
  0   0 192
  0   0 151
101   0   0
160   0   0
177   0   0
177   0   0
165   0   0
146   0   0
119   0   0
 81   0   0
  0   0  67
  0   0  86
  0   0  88
  0   0  85
  0   0  79
  0   0  73
  0   0  66
255 255 255
255 255 255
255 255 255
255 255 255
255 255 255
255 255 255
255 255 255
255 255 255
255 255 255
255 255 255
255 255 255
255 255 255
255 255 255
  0   0  66
  0   0  73
  0   0  79
255 157   0
255 157   0
255 157   0
255 157   0
255 157   0
255 157   0
255 157   0
255 157   0
255 157   0
255 157   0
255 157   0
101   0   0
  0   0 151
  0   0 192
  0   0 211
  0   0 213
  0   0 200
  0   0 168
  0   0  85
148   0   0
173   0   0
178   0   0
171   0   0
154   0   0
130   0   0
 94   0   0
  0   0  66
  0   0  95
  0   0 104
  0   0 105
  0   0 104
  0   0  98
  0   0  81
 70   0   0
114   0   0
141   0   0
160   0   0
171   0   0
172   0   0
159   0   0
116   0   0
  0   0 132
  0   0 178
  0   0 200
  0   0 207
  0   0 200
  0   0 178
  0   0 131
118   0   0
160   0   0
173   0   0
173   0   0
163   0   0
145   0   0
120   0   0
 87   0   0
255 255 255
  0   0  82
  0   0  86
  0   0  83
  0   0  78
  0   0  71
  0   0  65
255 255 255
255 255 255
255 255 255
255 255 255
255 255 255
255 255 255
255 255 255
255 255 255
255 255 255
255 255 255
255 255 255
255 255 255
255 255 255
255 255 255
255 255 255
255 255 255
255 255 255
255 255 255
255 255 255
255 255 255
255 255 255
255 255 255
255 255 255
255 255 255
 30 180  60
 30 180  60
 30 180  60
 30 180  60
 30 180  60
 30 180  60
 30 180  60
255 255 255
255 255 255
255 255 255
255 255 255
255 255 255
255 255 255
255 255 255
255 255 255
255 255 255
255 255 255
255 255 255
255 255 255
255 255 255
255 255 255
255 255 255
255 255 255
255 255 255
255 255 255
255 255 255
255 255 255
255 255 255
255 255 255
255 255 255
255 255 255
  0   0  65
  0   0  71
  0   0  78
  0   0  83
  0   0  86
  0   0  82
255 255 255
 87   0   0
120   0   0
145   0   0
163   0   0
173   0   0
173   0   0
160   0   0
118   0   0
  0   0 131
  0   0 178
  0   0 200
  0   0 207
  0   0 200
  0   0 178
  0   0 132
116   0   0
159   0   0
172   0   0
171   0   0
160   0   0
141   0   0
114   0   0
 70   0   0
  0   0  81
  0   0  98
  0   0 104
  0   0 105
  0   0 104
  0   0  95
  0   0  66
 94   0   0
130   0   0
154   0   0
171   0   0
178   0   0
173   0   0
148   0   0
  0   0  85
  0   0 168
  0   0   0
  0   0   0
  0   0   0
  0   0   0
  0   0 192
  0   0 152
 99   0   0
160   0   0
177   0   0
177   0   0
166   0   0
146   0   0
119   0   0
 82   0   0
  0   0  67
  0   0  85
  0   0  88
  0   0  85
  0   0  79
  0   0  73
  0   0  66
255 255 255
255 255 255
255 255 255
255 255 255
255 255 255
255 255 255
255 255 255
255 255 255
255 255 255
255 255 255
255 255 255
255 255 255
255 255 255
  0   0  66
  0   0  73
  0   0  79
  0   0  85
  0   0  88
  0   0  85
  0   0  67
255 157   0
255 157   0
255 157   0
166   0   0
177   0   0
177   0   0
160   0   0
 99   0   0
  0   0 152
  0   0 192
  0   0 211
  0   0 213
  0   0 200
  0   0 168
  0   0  82
149   0   0
174   0   0
178   0   0
171   0   0
154   0   0
129   0   0
 93   0   0
  0   0  67
  0   0  95
  0   0 103
  0   0 105
  0   0 104
  0   0  98
  0   0  80
 72   0   0
114   0   0
141   0   0
160   0   0
171   0   0
172   0   0
159   0   0
115   0   0
  0   0 133
  0   0 179
  0   0 200
  0   0 207
  0   0 200
  0   0 178
  0   0 131
118   0   0
160   0   0
173   0   0
173   0   0
162   0   0
144   0   0
119   0   0
 85   0   0
255 255 255
  0   0  83
  0   0  87
  0   0  84
  0   0  79
  0   0  72
  0   0  66
255 255 255
255 255 255
255 255 255
255 255 255
255 255 255
255 255 255
255 255 255
255 255 255
255 255 255
255 255 255
255 255 255
255 255 255
255 255 255
255 255 255
255 255 255
255 255 255
255 255 255
255 255 255
255 255 255
255 255 255
255 255 255
255 255 255
255 255 255
255 255 255
 30 180  60
 30 180  60
 30 180  60
 30 180  60
 30 180  60
 30 180  60
 30 180  60
255 255 255
255 255 255
255 255 255
255 255 255
255 255 255
255 255 255
255 255 255
255 255 255
255 255 255
255 255 255
255 255 255
255 255 255
255 255 255
255 255 255
255 255 255
255 255 255
255 255 255
255 255 255
255 255 255
255 255 255
255 255 255
255 255 255
255 255 255
255 255 255
  0   0  66
  0   0  72
  0   0  79
  0   0  84
  0   0  87
  0   0  83
255 255 255
 85   0   0
119   0   0
144   0   0
162   0   0
173   0   0
173   0   0
160   0   0
118   0   0
  0   0 131
  0   0 178
  0   0 200
  0   0 207
  0   0 200
  0   0 179
  0   0 133
115   0   0
159   0   0
172   0   0
171   0   0
160   0   0
141   0   0
114   0   0
 72   0   0
  0   0  80
  0   0  98
  0   0 104
  0   0 105
  0   0 103
  0   0  95
  0   0  67
 93   0   0
129   0   0
154   0   0
171   0   0
178   0   0
174   0   0
149   0   0
  0   0  82
  0   0 168
  0   0   0
  0   0   0
  0   0   0
  0   0   0
  0   0 193
  0   0 153
 96   0   0
159   0   0
176   0   0
177   0   0
166   0   0
147   0   0
120   0   0
 83   0   0
  0   0  65
  0   0  85
  0   0  88
  0   0  85
  0   0  79
  0   0  73
  0   0  67
255 255 255
255 255 255
255 255 255
255 255 255
255 255 255
255 255 255
255 255 255
255 255 255
255 255 255
255 255 255
255 255 255
255 255 255
255 255 255
  0   0  67
  0   0  73
  0   0  79
  0   0  85
  0   0  88
  0   0  85
  0   0  65
255 157   0
255 157   0
255 157   0
166   0   0
177   0   0
176   0   0
159   0   0
 96   0   0
  0   0 153
  0   0 193
  0   0 211
  0   0 213
  0   0 199
  0   0 167
  0   0  77
149   0   0
174   0   0
178   0   0
171   0   0
154   0   0
129   0   0
 93   0   0
  0   0  67
  0   0  95
  0   0 103
  0   0 105
  0   0 103
  0   0  97
  0   0  78
 74   0   0
115   0   0
142   0   0
161   0   0
171   0   0
172   0   0
158   0   0
113   0   0
  0   0 134
  0   0 179
  0   0 201
  0   0 207
  0   0 200
  0   0 177
  0   0 131
118   0   0
160   0   0
173   0   0
172   0   0
162   0   0
143   0   0
118   0   0
 83   0   0
255 255 255
  0   0  84
  0   0  88
  0   0  85
  0   0  80
  0   0  73
  0   0  67
255 255 255
255 255 255
255 255 255
255 255 255
255 255 255
255 255 255
255 255 255
255 255 255
255 255 255
255 255 255
255 255 255
255 255 255
255 255 255
255 255 255
255 255 255
255 255 255
255 255 255
255 255 255
255 255 255
255 255 255
255 255 255
255 255 255
255 255 255
255 255 255
 30 180  60
 30 180  60
 30 180  60
 30 180  60
 30 180  60
 30 180  60
 30 180  60
255 255 255
255 255 255
255 255 255
255 255 255
255 255 255
255 255 255
255 255 255
255 255 255
255 255 255
255 255 255
255 255 255
255 255 255
255 255 255
255 255 255
255 255 255
255 255 255
255 255 255
255 255 255
255 255 255
255 255 255
255 255 255
255 255 255
255 255 255
255 255 255
  0   0  67
  0   0  73
  0   0  80
  0   0  85
  0   0  88
  0   0  84
255 255 255
 83   0   0
118   0   0
143   0   0
162   0   0
172   0   0
173   0   0
160   0   0
118   0   0
  0   0 131
  0   0 177
  0   0 200
  0   0 207
  0   0 201
  0   0 179
  0   0 134
113   0   0
158   0   0
172   0   0
171   0   0
161   0   0
142   0   0
115   0   0
 74   0   0
  0   0  78
  0   0  97
  0   0 103
  0   0 105
  0   0 103
  0   0  95
  0   0  67
 93   0   0
129   0   0
154   0   0
171   0   0
178   0   0
174   0   0
149   0   0
  0   0  77
  0   0 167
  0   0   0
  0   0   0
  0   0   0
  0   0   0
  0   0 194
  0   0 154
 91   0   0
158   0   0
176   0   0
177   0   0
166   0   0
147   0   0
121   0   0
 84   0   0
  0   0  64
  0   0  85
  0   0  88
  0   0  85
  0   0  79
  0   0  73
  0   0  67
255 255 255
255 255 255
255 255 255
255 255 255
255 255 255
255 255 255
255 255 255
255 255 255
255 255 255
255 255 255
255 255 255
255 255 255
255 255 255
  0   0  67
  0   0  73
  0   0  79
  0   0  85
  0   0  88
  0   0  85
  0   0  64
255 157   0
255 157   0
255 157   0
166   0   0
177   0   0
176   0   0
158   0   0
 91   0   0
  0   0 154
  0   0 194
  0   0 211
  0   0 213
  0   0 199
  0   0 165
  0   0  69
150   0   0
174   0   0
178   0   0
170   0   0
153   0   0
128   0   0
 92   0   0
  0   0  68
  0   0  95
  0   0 103
  0   0 104
  0   0 103
  0   0  96
  0   0  77
 76   0   0
116   0   0
142   0   0
161   0   0
171   0   0
172   0   0
157   0   0
111   0   0
  0   0 136
  0   0 180
  0   0 201
  0   0 207
  0   0 200
  0   0 177
  0   0 129
119   0   0
160   0   0
173   0   0
172   0   0
161   0   0
142   0   0
117   0   0
 81   0   0
  0   0  66
  0   0  86
  0   0  89
  0   0  86
  0   0  81
  0   0  75
  0   0  68
255 255 255
255 255 255
255 255 255
255 255 255
255 255 255
255 255 255
255 255 255
255 255 255
255 255 255
255 255 255
255 255 255
255 255 255
255 255 255
255 255 255
255 255 255
255 255 255
255 255 255
255 255 255
255 255 255
255 255 255
255 255 255
255 255 255
255 255 255
255 255 255
255 255 255
255 255 255
255 255 255
255 255 255
255 255 255
255 255 255
255 255 255
255 255 255
255 255 255
255 255 255
255 255 255
255 255 255
255 255 255
255 255 255
255 255 255
255 255 255
255 255 255
255 255 255
255 255 255
255 255 255
255 255 255
255 255 255
255 255 255
255 255 255
255 255 255
255 255 255
255 255 255
255 255 255
255 255 255
255 255 255
255 255 255
  0   0  68
  0   0  75
  0   0  81
  0   0  86
  0   0  89
  0   0  86
  0   0  66
 81   0   0
117   0   0
142   0   0
161   0   0
172   0   0
173   0   0
160   0   0
119   0   0
  0   0 129
  0   0 177
  0   0 200
  0   0 207
  0   0 201
  0   0 180
  0   0 136
111   0   0
157   0   0
172   0   0
171   0   0
161   0   0
142   0   0
116   0   0
 76   0   0
  0   0  77
  0   0  96
  0   0 103
  0   0 104
  0   0 103
  0   0  95
  0   0  68
 92   0   0
128   0   0
153   0   0
170   0   0
178   0   0
174   0   0
150   0   0
  0   0  69
  0   0 165
  0   0   0
  0   0   0
  0   0   0
  0   0   0
  0   0 194
  0   0 157
 84   0   0
157   0   0
176   0   0
177   0   0
167   0   0
148   0   0
122   0   0
 86   0   0
255 255 255
  0   0  85
  0   0  88
  0   0  85
  0   0  80
  0   0  73
  0   0  67
255 255 255
255 255 255
255 255 255
255 255 255
255 255 255
255 255 255
255 255 255
255 255 255
255 255 255
255 255 255
255 255 255
255 255 255
255 255 255
  0   0  67
  0   0  73
  0   0  80
  0   0  85
  0   0  88
  0   0  85
255 255 255
255 157   0
255 157   0
255 157   0
167   0   0
177   0   0
176   0   0
157   0   0
 84   0   0
  0   0 157
  0   0 194
  0   0 211
  0   0 213
  0   0 198
  0   0 164
255 255 255
152   0   0
175   0   0
178   0   0
170   0   0
153   0   0
127   0   0
 91   0   0
  0   0  69
  0   0  95
  0   0 103
  0   0 104
  0   0 102
  0   0  96
  0   0  76
 77   0   0
117   0   0
143   0   0
161   0   0
171   0   0
171   0   0
156   0   0
107   0   0
  0   0 138
  0   0 181
  0   0 202
  0   0 207
  0   0 199
  0   0 176
  0   0 128
121   0   0
161   0   0
173   0   0
171   0   0
160   0   0
142   0   0
116   0   0
 79   0   0
  0   0  68
  0   0  86
  0   0  90
  0   0  87
  0   0  81
  0   0  75
  0   0  69
255 255 255
255 255 255
255 255 255
255 255 255
255 255 255
255 255 255
255 255 255
255 255 255
255 255 255
255 255 255
255 255 255
255 255 255
255 255 255
255 255 255
255 255 255
255 255 255
255 255 255
255 255 255
255 255 255
255 255 255
255 255 255
255 255 255
255 255 255
255 255 255
255 255 255
255 255 255
255 255 255
255 255 255
255 255 255
255 255 255
255 255 255
255 255 255
255 255 255
255 255 255
255 255 255
255 255 255
255 255 255
255 255 255
255 255 255
255 255 255
255 255 255
255 255 255
255 255 255
255 255 255
255 255 255
255 255 255
255 255 255
255 255 255
255 255 255
255 255 255
255 255 255
255 255 255
255 255 255
255 255 255
255 255 255
  0   0  69
  0   0  75
  0   0  81
  0   0  87
  0   0  90
  0   0  86
  0   0  68
 79   0   0
116   0   0
142   0   0
160   0   0
171   0   0
173   0   0
161   0   0
121   0   0
  0   0 128
  0   0 176
  0   0 199
  0   0 207
  0   0 202
  0   0 181
  0   0 138
107   0   0
156   0   0
171   0   0
171   0   0
161   0   0
143   0   0
117   0   0
 77   0   0
  0   0  76
  0   0  96
  0   0 102
  0   0 104
  0   0 103
  0   0  95
  0   0  69
 91   0   0
127   0   0
153   0   0
170   0   0
178   0   0
175   0   0
152   0   0
255 255 255
  0   0 164
  0   0   0
  0   0   0
  0   0   0
  0   0   0
  0   0 196
  0   0 159
 73   0   0
155   0   0
175   0   0
177   0   0
168   0   0
149   0   0
124   0   0
 88   0   0
255 255 255
  0   0  84
  0   0  88
  0   0  86
  0   0  80
  0   0  74
  0   0  67
255 255 255
255 255 255
255 255 255
255 255 255
255 255 255
255 255 255
255 255 255
255 255 255
255 255 255
255 255 255
255 255 255
255 255 255
255 255 255
  0   0  67
  0   0  74
  0   0  80
  0   0  86
  0   0  88
  0   0  84
255 255 255
 88   0   0
124   0   0
149   0   0
168   0   0
177   0   0
175   0   0
155   0   0
 73   0   0
  0   0 159
  0   0 196
  0   0 212
  0   0 212
  0   0 197
  0   0 162
255 255 255
154   0   0
175   0   0
178   0   0
170   0   0
152   0   0
126   0   0
 89   0   0
  0   0  70
  0   0  96
  0   0 103
  0   0 104
  0   0 102
  0   0  96
  0   0  76
 78   0   0
118   0   0
143   0   0
162   0   0
171   0   0
171   0   0
155   0   0
103   0   0
  0   0 141
  0   0 182
  0   0 202
  0   0 207
  0   0 199
  0   0 175
  0   0 125
123   0   0
161   0   0
173   0   0
171   0   0
160   0   0
141   0   0
115   0   0
 76   0   0
  0   0  70
  0   0  87
  0   0  90
  0   0  87
  0   0  82
  0   0  75
  0   0  69
255 255 255
255 255 255
255 255 255
255 255 255
255 255 255
255 255 255
255 255 255
255 255 255
255 255 255
255 255 255
255 255 255
255 255 255
255 255 255
255 255 255
255 255 255
255 255 255
255 255 255
255 255 255
255 255 255
255 255 255
255 255 255
255 255 255
255 255 255
255 255 255
255 255 255
255 255 255
255 255 255
255 255 255
255 255 255
255 255 255
255 255 255
255 255 255
255 255 255
255 255 255
255 255 255
255 255 255
255 255 255
255 255 255
255 255 255
255 255 255
255 255 255
255 255 255
255 255 255
255 255 255
255 255 255
255 255 255
255 255 255
255 255 255
255 255 255
255 255 255
255 255 255
255 255 255
255 255 255
255 255 255
255 255 255
  0   0  69
  0   0  75
  0   0  82
  0   0  87
  0   0  90
  0   0  87
  0   0  70
 76   0   0
115   0   0
141   0   0
160   0   0
171   0   0
173   0   0
161   0   0
123   0   0
  0   0 125
  0   0 175
  0   0 199
  0   0 207
  0   0 202
  0   0 182
  0   0 141
103   0   0
155   0   0
171   0   0
171   0   0
162   0   0
143   0   0
118   0   0
 78   0   0
  0   0  76
  0   0  96
  0   0 102
  0   0 104
  0   0 103
  0   0  96
  0   0  70
 89   0   0
126   0   0
152   0   0
170   0   0
178   0   0
175   0   0
154   0   0
255 255 255
  0   0 162
  0   0   0
  0   0   0
  0   0   0
  0   0   0
  0   0 197
  0   0 162
255 255 255
154   0   0
175   0   0
178   0   0
168   0   0
151   0   0
125   0   0
 91   0   0
255 255 255
  0   0  84
  0   0  88
  0   0  86
  0   0  80
  0   0  74
  0   0  68
255 255 255
255 255 255
255 255 255
255 255 255
255 255 255
255 255 255
255 255 255
255 255 255
255 255 255
255 255 255
255 255 255
255 255 255
255 255 255
  0   0  68
  0   0  74
  0   0  80
  0   0  86
  0   0  88
  0   0  84
255 255 255
 91   0   0
125   0   0
151   0   0
168   0   0
178   0   0
175   0   0
154   0   0
255 255 255
  0   0 162
  0   0 197
  0   0 212
  0   0 212
  0   0 195
  0   0 159
 73   0   0
155   0   0
176   0   0
178   0   0
169   0   0
151   0   0
125   0   0
 87   0   0
  0   0  73
  0   0  96
  0   0 103
  0   0 105
  0   0 103
  0   0  96
  0   0  75
 80   0   0
119   0   0
144   0   0
162   0   0
172   0   0
171   0   0
154   0   0
 98   0   0
  0   0 144
  0   0 183
  0   0 203
  0   0 207
  0   0 198
  0   0 174
  0   0 122
126   0   0
162   0   0
173   0   0
171   0   0
159   0   0
140   0   0
114   0   0
 75   0   0
  0   0  71
  0   0  87
  0   0  89
  0   0  86
  0   0  81
  0   0  75
  0   0  68
255 255 255
255 255 255
255 255 255
255 255 255
255 255 255
255 255 255
255 255 255
255 255 255
255 255 255
255 255 255
255 255 255
255 255 255
255 255 255
255 255 255
255 255 255
255 255 255
255 255 255
255 255 255
255 255 255
255 255 255
255 255 255
255 255 255
255 255 255
255 255 255
255 255 255
255 255 255
255 255 255
255 255 255
255 255 255
255 255 255
255 255 255
255 255 255
255 255 255
255 255 255
255 255 255
255 255 255
255 255 255
255 255 255
255 255 255
255 255 255
255 255 255
255 255 255
255 255 255
255 255 255
255 255 255
255 255 255
255 255 255
255 255 255
255 255 255
255 255 255
255 255 255
255 255 255
255 255 255
255 255 255
255 255 255
  0   0  68
  0   0  75
  0   0  81
  0   0  86
  0   0  89
  0   0  87
  0   0  71
 75   0   0
114   0   0
140   0   0
159   0   0
171   0   0
173   0   0
162   0   0
126   0   0
  0   0 122
  0   0 174
  0   0 198
  0   0 207
  0   0 203
  0   0 183
  0   0 144
 98   0   0
154   0   0
171   0   0
172   0   0
162   0   0
144   0   0
119   0   0
 80   0   0
  0   0  75
  0   0  96
  0   0 103
  0   0 105
  0   0 103
  0   0  96
  0   0  73
 87   0   0
125   0   0
151   0   0
169   0   0
178   0   0
176   0   0
155   0   0
 73   0   0
  0   0 159
  0   0   0
  0   0   0
  0   0   0
  0   0   0
  0   0 198
  0   0 165
255 255 255
151   0   0
174   0   0
178   0   0
169   0   0
152   0   0
127   0   0
 94   0   0
255 255 255
  0   0  83
  0   0  88
  0   0  86
  0   0  81
  0   0  75
  0   0  68
255 255 255
255 255 255
255 255 255
255 255 255
255 255 255
255 255 255
255 255 255
255 255 255
255 255 255
255 255 255
255 255 255
255 255 255
255 255 255
  0   0  68
  0   0  75
  0   0  81
  0   0  86
  0   0  88
  0   0  83
255 255 255
 94   0   0
127   0   0
152   0   0
169   0   0
178   0   0
174   0   0
151   0   0
255 255 255
  0   0 165
  0   0 198
  0   0 213
  0   0 211
  0   0 194
  0   0 156
 87   0   0
158   0   0
176   0   0
178   0   0
168   0   0
150   0   0
123   0   0
 83   0   0
  0   0  76
  0   0  98
  0   0 104
  0   0 105
  0   0 103
  0   0  96
  0   0  74
 82   0   0
120   0   0
145   0   0
163   0   0
172   0   0
170   0   0
152   0   0
 91   0   0
  0   0 147
  0   0 185
  0   0 203
  0   0 207
  0   0 197
  0   0 172
  0   0 118
129   0   0
163   0   0
173   0   0
171   0   0
159   0   0
139   0   0
112   0   0
 73   0   0
  0   0  71
  0   0  87
  0   0  89
  0   0  86
  0   0  80
  0   0  73
  0   0  67
255 255 255
255 255 255
255 255 255
255 255 255
255 255 255
255 255 255
255 255 255
255 255 255
255 255 255
255 255 255
255 255 255
255 255 255
255 255 255
255 255 255
255 255 255
255 255 255
255 255 255
255 255 255
255 255 255
255 255 255
255 255 255
255 255 255
255 255 255
255 255 255
255 255 255
255 255 255
255 255 255
255 255 255
255 255 255
255 255 255
255 255 255
255 255 255
255 255 255
255 255 255
255 255 255
255 255 255
255 255 255
255 255 255
255 255 255
255 255 255
255 255 255
255 255 255
255 255 255
255 255 255
255 255 255
255 255 255
255 255 255
255 255 255
255 255 255
255 255 255
255 255 255
255 255 255
255 255 255
255 255 255
255 255 255
  0   0  67
  0   0  73
  0   0  80
  0   0  86
  0   0  89
  0   0  87
  0   0  71
 73   0   0
112   0   0
139   0   0
159   0   0
171   0   0
173   0   0
163   0   0
129   0   0
  0   0 118
  0   0 172
  0   0 197
  0   0 207
  0   0 203
  0   0 185
  0   0 147
 91   0   0
152   0   0
170   0   0
172   0   0
163   0   0
145   0   0
120   0   0
 82   0   0
  0   0  74
  0   0  96
  0   0 103
  0   0 105
  0   0 104
  0   0  98
  0   0  76
 83   0   0
123   0   0
150   0   0
168   0   0
178   0   0
176   0   0
158   0   0
 87   0   0
  0   0 156
  0   0   0
  0   0   0
  0   0   0
  0   0   0
  0   0 200
  0   0 168
  0   0  82
149   0   0
173   0   0
178   0   0
170   0   0
153   0   0
129   0   0
 97   0   0
255 255 255
  0   0  82
  0   0  88
  0   0  86
  0   0  81
  0   0  75
  0   0  69
255 255 255
255 255 255
255 255 255
255 255 255
255 255 255
255 255 255
255 255 255
255 255 255
255 255 255
255 255 255
255 255 255
255 255 255
255 255 255
  0   0  69
  0   0  75
  0   0  81
  0   0  86
  0   0  88
  0   0  82
255 255 255
 97   0   0
129   0   0
153   0   0
170   0   0
178   0   0
173   0   0
149   0   0
  0   0  82
  0   0 168
  0   0 200
  0   0 213
  0   0 210
  0   0 192
  0   0 152
 98   0   0
160   0   0
177   0   0
178   0   0
167   0   0
148   0   0
121   0   0
 79   0   0
  0   0  80
  0   0  99
  0   0 105
  0   0 106
  0   0 103
  0   0  96
  0   0  72
 84   0   0
121   0   0
146   0   0
163   0   0
172   0   0
169   0   0
151   0   0
 81   0   0
  0   0 150
  0   0 186
  0   0 204
  0   0 207
  0   0 196
  0   0 170
  0   0 112
132   0   0
164   0   0
174   0   0
170   0   0
158   0   0
138   0   0
111   0   0
 71   0   0
  0   0  72
  0   0  86
  0   0  88
  0   0  85
  0   0  79
  0   0  72
  0   0  66
255 255 255
255 255 255
255 255 255
255 255 255
255 255 255
255 255 255
255 255 255
255 255 255
255 255 255
255 255 255
255 255 255
255 255 255
255 255 255
255 255 255
255 255 255
255 255 255
255 255 255
255 255 255
255 255 255
255 255 255
255 255 255
255 255 255
255 255 255
255 255 255
255 255 255
255 255 255
255 255 255
255 255 255
255 255 255
255 255 255
255 255 255
255 255 255
255 255 255
255 255 255
255 255 255
255 255 255
255 255 255
255 255 255
255 255 255
255 255 255
255 255 255
255 255 255
255 255 255
255 255 255
255 255 255
255 255 255
255 255 255
255 255 255
255 255 255
255 255 255
255 255 255
255 255 255
255 255 255
255 255 255
255 255 255
  0   0  66
  0   0  72
  0   0  79
  0   0  85
  0   0  88
  0   0  86
  0   0  72
 71   0   0
111   0   0
138   0   0
158   0   0
170   0   0
174   0   0
164   0   0
132   0   0
  0   0 112
  0   0 170
  0   0 196
  0   0 207
  0   0 204
  0   0 186
  0   0 150
 81   0   0
151   0   0
169   0   0
172   0   0
163   0   0
146   0   0
121   0   0
 84   0   0
  0   0  72
  0   0  96
  0   0 103
  0   0 106
  0   0 105
  0   0  99
  0   0  80
 79   0   0
121   0   0
148   0   0
167   0   0
178   0   0
177   0   0
160   0   0
 98   0   0
  0   0 152
  0   0   0
  0   0   0
  0   0   0
  0   0   0
  0   0 201
  0   0 171
  0   0  97
145   0   0
172   0   0
178   0   0
171   0   0
155   0   0
132   0   0
100   0   0
255 255 255
  0   0  81
  0   0  88
  0   0  87
  0   0  82
  0   0  76
  0   0  69
255 255 255
255 255 255
255 255 255
255 255 255
255 255 255
255 255 255
255 255 255
255 255 255
255 255 255
255 255 255
255 255 255
255 255 255
255 255 255
  0   0  69
  0   0  76
  0   0  82
  0   0  87
  0   0  88
  0   0  81
255 255 255
100   0   0
132   0   0
155   0   0
171   0   0
178   0   0
172   0   0
145   0   0
  0   0  97
  0   0 171
  0   0 201
  0   0 213
  0   0 210
  0   0 190
  0   0 147
107   0   0
162   0   0
177   0   0
177   0   0
166   0   0
146   0   0
118   0   0
 73   0   0
  0   0  83
  0   0 100
  0   0 105
  0   0 106
  0   0 103
  0   0  95
  0   0  70
 87   0   0
123   0   0
147   0   0
164   0   0
172   0   0
169   0   0
149   0   0
 65   0   0
  0   0 153
  0   0 188
  0   0 204
  0   0 207
  0   0 195
  0   0 168
  0   0 105
135   0   0
165   0   0
174   0   0
170   0   0
157   0   0
137   0   0
110   0   0
 68   0   0
  0   0  73
  0   0  87
  0   0  88
  0   0  84
  0   0  78
  0   0  72
  0   0  66
255 255 255
255 255 255
255 255 255
255 255 255
255 255 255
255 255 255
255 255 255
255 255 255
255 255 255
255 255 255
255 255 255
255 255 255
255 255 255
255 255 255
255 255 255
255 255 255
255 255 255
255 255 255
255 255 255
255 255 255
255 255 255
255 255 255
255 255 255
255 255 255
255 255 255
255 255 255
255 255 255
255 255 255
255 255 255
255 255 255
255 255 255
255 255 255
255 255 255
255 255 255
255 255 255
255 255 255
255 255 255
255 255 255
255 255 255
255 255 255
255 255 255
255 255 255
255 255 255
255 255 255
255 255 255
255 255 255
255 255 255
255 255 255
255 255 255
255 255 255
255 255 255
255 255 255
255 255 255
255 255 255
255 255 255
  0   0  66
  0   0  72
  0   0  78
  0   0  84
  0   0  88
  0   0  87
  0   0  73
 68   0   0
110   0   0
137   0   0
157   0   0
170   0   0
174   0   0
165   0   0
135   0   0
  0   0 105
  0   0 168
  0   0 195
  0   0 207
  0   0 204
  0   0 188
  0   0 153
 65   0   0
149   0   0
169   0   0
172   0   0
164   0   0
147   0   0
123   0   0
 87   0   0
  0   0  70
  0   0  95
  0   0 103
  0   0 106
  0   0 105
  0   0 100
  0   0  83
 73   0   0
118   0   0
146   0   0
166   0   0
177   0   0
177   0   0
162   0   0
107   0   0
  0   0 147
  0   0   0
  0   0   0
  0   0   0
  0   0   0
  0   0 203
  0   0 174
  0   0 108
141   0   0
171   0   0
178   0   0
172   0   0
157   0   0
134   0   0
103   0   0
255 255 255
  0   0  79
  0   0  88
  0   0  87
  0   0  83
  0   0  76
  0   0  70
  0   0  64
255 255 255
255 255 255
255 255 255
255 255 255
255 255 255
255 255 255
255 255 255
255 255 255
255 255 255
255 255 255
255 255 255
  0   0  64
  0   0  70
  0   0  76
  0   0  83
  0   0  87
  0   0  88
  0   0  79
255 255 255
103   0   0
134   0   0
157   0   0
172   0   0
178   0   0
171   0   0
141   0   0
  0   0 108
  0   0 174
  0   0 203
  0   0 213
  0   0 209
  0   0 187
  0   0 142
115   0   0
164   0   0
178   0   0
176   0   0
164   0   0
144   0   0
115   0   0
 66   0   0
  0   0  86
  0   0 101
  0   0 106
  0   0 106
  0   0 103
  0   0  95
  0   0  67
 90   0   0
125   0   0
149   0   0
165   0   0
172   0   0
168   0   0
146   0   0
255 255 255
  0   0 156
  0   0 189
  0   0 205
  0   0 206
  0   0 194
  0   0 165
  0   0  97
139   0   0
166   0   0
174   0   0
169   0   0
156   0   0
135   0   0
108   0   0
255 255 255
  0   0  75
  0   0  87
  0   0  88
  0   0  84
  0   0  78
  0   0  71
  0   0  65
255 255 255
255 255 255
255 255 255
255 255 255
255 255 255
255 255 255
255 255 255
255 255 255
255 255 255
255 255 255
255 255 255
255 255 255
255 255 255
255 255 255
255 255 255
255 255 255
255 255 255
255 255 255
255 255 255
255 255 255
255 255 255
255 255 255
255 255 255
255 255 255
255 255 255
255 255 255
255 255 255
255 255 255
255 255 255
255 255 255
255 255 255
255 255 255
255 255 255
255 255 255
255 255 255
255 255 255
255 255 255
255 255 255
255 255 255
255 255 255
255 255 255
255 255 255
255 255 255
255 255 255
255 255 255
255 255 255
255 255 255
255 255 255
255 255 255
255 255 255
255 255 255
255 255 255
255 255 255
255 255 255
255 255 255
  0   0  65
  0   0  71
  0   0  78
  0   0  84
  0   0  88
  0   0  87
  0   0  75
255 255 255
108   0   0
135   0   0
156   0   0
169   0   0
174   0   0
166   0   0
139   0   0
  0   0  97
  0   0 165
  0   0 194
  0   0 206
  0   0 205
  0   0 189
  0   0 156
255 255 255
146   0   0
168   0   0
172   0   0
165   0   0
149   0   0
125   0   0
 90   0   0
  0   0  67
  0   0  95
  0   0 103
  0   0 106
  0   0 106
  0   0 101
  0   0  86
 66   0   0
115   0   0
144   0   0
164   0   0
176   0   0
178   0   0
164   0   0
115   0   0
  0   0 142
  0   0   0
  0   0   0
  0   0   0
  0   0   0
  0   0 205
  0   0 178
  0   0 119
136   0   0
170   0   0
178   0   0
174   0   0
159   0   0
137   0   0
107   0   0
255 255 255
  0   0  77
  0   0  87
  0   0  87
  0   0  83
  0   0  77
  0   0  71
  0   0  65
255 255 255
255 255 255
255 255 255
255 255 255
255 255 255
255 255 255
255 255 255
255 255 255
255 255 255
255 255 255
255 255 255
  0   0  65
  0   0  71
  0   0  77
  0   0  83
  0   0  87
  0   0  87
  0   0  77
255 255 255
107   0   0
137   0   0
159   0   0
174   0   0
178   0   0
170   0   0
136   0   0
  0   0 119
  0   0 178
  0   0 205
  0   0 214
  0   0 208
  0   0 185
  0   0 136
123   0   0
165   0   0
178   0   0
176   0   0
163   0   0
142   0   0
112   0   0
255 255 255
  0   0  88
  0   0 102
  0   0 106
  0   0 106
  0   0 103
  0   0  94
255 255 255
 94   0   0
127   0   0
151   0   0
166   0   0
172   0   0
167   0   0
143   0   0
  0   0  72
  0   0 159
  0   0 191
  0   0 205
  0   0 206
  0   0 192
  0   0 162
  0   0  85
142   0   0
168   0   0
174   0   0
169   0   0
155   0   0
134   0   0
105   0   0
255 255 255
  0   0  76
  0   0  87
  0   0  87
  0   0  83
  0   0  77
  0   0  71
  0   0  65
255 255 255
255 255 255
255 255 255
255 255 255
255 255 255
255 255 255
255 255 255
255 255 255
255 255 255
255 255 255
255 255 255
255 255 255
255 255 255
255 255 255
255 255 255
255 255 255
255 255 255
255 255 255
255 255 255
255 255 255
255 255 255
255 255 255
255 255 255
255 255 255
255 255 255
255 255 255
255 255 255
255 255 255
255 255 255
255 255 255
255 255 255
255 255 255
255 255 255
255 255 255
255 255 255
255 255 255
255 255 255
255 255 255
255 255 255
255 255 255
255 255 255
255 255 255
255 255 255
255 255 255
255 255 255
255 255 255
255 255 255
255 255 255
255 255 255
255 255 255
255 255 255
255 255 255
255 255 255
255 255 255
255 255 255
  0   0  65
  0   0  71
  0   0  77
  0   0  83
  0   0  87
  0   0  87
  0   0  76
255 255 255
105   0   0
134   0   0
155   0   0
169   0   0
174   0   0
168   0   0
142   0   0
  0   0  85
  0   0 162
  0   0 192
  0   0 206
  0   0 205
  0   0 191
  0   0 159
  0   0  72
143   0   0
167   0   0
172   0   0
166   0   0
151   0   0
127   0   0
 94   0   0
255 255 255
  0   0  94
  0   0 103
  0   0 106
  0   0 106
  0   0 102
  0   0  88
255 255 255
112   0   0
142   0   0
163   0   0
176   0   0
178   0   0
165   0   0
123   0   0
  0   0 136
  0   0   0
  0   0   0
  0   0   0
  0   0   0
  0   0 206
  0   0 182
  0   0 129
130   0   0
168   0   0
178   0   0
175   0   0
161   0   0
140   0   0
111   0   0
 68   0   0
  0   0  74
  0   0  87
  0   0  88
  0   0  84
  0   0  78
  0   0  72
  0   0  66
255 255 255
255 255 255
255 255 255
255 255 255
255 255 255
255 255 255
255 255 255
255 255 255
255 255 255
255 255 255
255 255 255
  0   0  66
  0   0  72
  0   0  78
  0   0  84
  0   0  88
  0   0  87
  0   0  74
 68   0   0
111   0   0
140   0   0
161   0   0
175   0   0
178   0   0
168   0   0
130   0   0
  0   0 129
  0   0 182
  0   0 206
  0   0 214
  0   0 206
  0   0 182
  0   0 128
129   0   0
167   0   0
178   0   0
175   0   0
161   0   0
139   0   0
108   0   0
255 255 255
  0   0  91
  0   0 103
  0   0 106
  0   0 106
  0   0 102
  0   0  92
255 255 255
 98   0   0
130   0   0
152   0   0
167   0   0
173   0   0
166   0   0
140   0   0
  0   0  89
  0   0 163
  0   0 193
  0   0 206
  0   0 205
  0   0 191
  0   0 158
  0   0  65
145   0   0
169   0   0
174   0   0
168   0   0
153   0   0
132   0   0
103   0   0
255 255 255
  0   0  77
  0   0  87
  0   0  87
  0   0  83
  0   0  77
  0   0  70
  0   0  64
255 255 255
255 255 255
255 255 255
255 255 255
255 255 255
255 255 255
255 255 255
255 255 255
255 255 255
255 255 255
255 255 255
255 255 255
255 255 255
255 255 255
255 255 255
255 255 255
255 255 255
255 255 255
255 255 255
255 255 255
255 255 255
255 255 255
255 255 255
255 255 255
255 255 255
255 255 255
255 255 255
255 255 255
255 255 255
255 255 255
255 255 255
255 255 255
255 255 255
255 255 255
255 255 255
255 255 255
255 255 255
255 255 255
255 255 255
255 255 255
255 255 255
255 255 255
255 255 255
255 255 255
255 255 255
255 255 255
255 255 255
255 255 255
255 255 255
255 255 255
255 255 255
255 255 255
255 255 255
255 255 255
255 255 255
  0   0  64
  0   0  70
  0   0  77
  0   0  83
  0   0  87
  0   0  87
  0   0  77
255 255 255
103   0   0
132   0   0
153   0   0
168   0   0
174   0   0
169   0   0
145   0   0
  0   0  65
  0   0 158
  0   0 191
  0   0 205
  0   0 206
  0   0 193
  0   0 163
  0   0  89
140   0   0
166   0   0
173   0   0
167   0   0
152   0   0
130   0   0
 98   0   0
255 255 255
  0   0  92
  0   0 102
  0   0 106
  0   0 106
  0   0 103
  0   0  91
255 255 255
108   0   0
139   0   0
161   0   0
175   0   0
178   0   0
167   0   0
129   0   0
  0   0 128
  0   0   0
  0   0   0
  0   0   0
  0   0   0
  0   0 208
  0   0 186
  0   0 138
121   0   0
165   0   0
178   0   0
176   0   0
163   0   0
143   0   0
115   0   0
 76   0   0
  0   0  70
  0   0  85
  0   0  87
  0   0  84
  0   0  78
  0   0  72
  0   0  66
255 255 255
255 255 255
255 255 255
255 255 255
255 255 255
255 255 255
255 255 255
255 255 255
255 255 255
255 255 255
255 255 255
  0   0  66
  0   0  72
  0   0  78
  0   0  84
  0   0  87
  0   0  85
  0   0  70
 76   0   0
115   0   0
143   0   0
163   0   0
176   0   0
178   0   0
165   0   0
121   0   0
  0   0 138
  0   0 186
  0   0 208
  0   0 214
  0   0 204
  0   0 178
  0   0 119
136   0   0
169   0   0
178   0   0
174   0   0
159   0   0
136   0   0
104   0   0
255 255 255
  0   0  92
  0   0 103
  0   0 106
  0   0 106
  0   0 101
  0   0  90
255 255 255
102   0   0
132   0   0
154   0   0
168   0   0
173   0   0
165   0   0
136   0   0
  0   0 102
  0   0 166
  0   0 194
  0   0 206
  0   0 205
  0   0 189
  0   0 154
255 255 255
148   0   0
170   0   0
174   0   0
167   0   0
152   0   0
130   0   0
100   0   0
255 255 255
  0   0  79
  0   0  87
  0   0  87
  0   0  83
  0   0  77
  0   0  70
  0   0  64
255 255 255
255 255 255
255 255 255
255 255 255
255 255 255
255 255 255
255 255 255
255 255 255
255 255 255
255 255 255
255 255 255
255 255 255
255 255 255
255 255 255
255 255 255
255 255 255
255 255 255
255 255 255
255 255 255
255 255 255
255 255 255
255 255 255
255 255 255
255 255 255
255 255 255
255 255 255
255 255 255
255 255 255
255 255 255
255 255 255
255 255 255
255 255 255
255 255 255
255 255 255
255 255 255
255 255 255
255 255 255
255 255 255
255 255 255
255 255 255
255 255 255
255 255 255
255 255 255
255 255 255
255 255 255
255 255 255
255 255 255
255 255 255
255 255 255
255 255 255
255 255 255
255 255 255
255 255 255
255 255 255
255 255 255
  0   0  64
  0   0  70
  0   0  77
  0   0  83
  0   0  87
  0   0  87
  0   0  79
255 255 255
100   0   0
130   0   0
152   0   0
167   0   0
174   0   0
170   0   0
148   0   0
255 255 255
  0   0 154
  0   0 189
  0   0 205
  0   0 206
  0   0 194
  0   0 166
  0   0 102
136   0   0
165   0   0
173   0   0
168   0   0
154   0   0
132   0   0
102   0   0
255 255 255
  0   0  90
  0   0 101
  0   0 106
  0   0 106
  0   0 103
  0   0  92
255 255 255
104   0   0
136   0   0
159   0   0
174   0   0
178   0   0
169   0   0
136   0   0
  0   0 119
  0   0   0
  0   0   0
  0   0   0
  0   0   0
  0   0 210
  0   0 189
  0   0 146
109   0   0
162   0   0
177   0   0
176   0   0
165   0   0
146   0   0
119   0   0
 83   0   0
255 255 255
  0   0  84
  0   0  87
  0   0  84
  0   0  79
  0   0  73
  0   0  67
255 255 255
255 255 255
255 255 255
255 255 255
255 255 255
255 255 255
255 255 255
255 255 255
255 255 255
255 255 255
255 255 255
  0   0  67
  0   0  73
  0   0  79
  0   0  84
  0   0  87
  0   0  84
255 255 255
 83   0   0
119   0   0
146   0   0
165   0   0
176   0   0
177   0   0
162   0   0
109   0   0
  0   0 146
  0   0 189
  0   0 210
  0   0 214
  0   0 202
  0   0 173
  0   0 106
142   0   0
171   0   0
178   0   0
172   0   0
157   0   0
133   0   0
100   0   0
255 255 255
  0   0  94
  0   0 104
  0   0 106
  0   0 105
  0   0 100
  0   0  87
255 255 255
106   0   0
135   0   0
156   0   0
169   0   0
173   0   0
163   0   0
131   0   0
  0   0 112
  0   0 170
  0   0 196
  0   0 207
  0   0 204
  0   0 186
  0   0 150
 81   0   0
151   0   0
171   0   0
174   0   0
166   0   0
150   0   0
127   0   0
 97   0   0
255 255 255
  0   0  81
  0   0  88
  0   0  87
  0   0  82
  0   0  76
  0   0  70
255 255 255
255 255 255
255 255 255
255 255 255
255 255 255
255 255 255
255 255 255
255 255 255
255 255 255
255 255 255
255 255 255
255 255 255
255 255 255
255 255 255
255 255 255
255 255 255
255 255 255
255 255 255
255 255 255
255 255 255
255 255 255
255 255 255
255 255 255
255 255 255
255 255 255
255 255 255
255 255 255
255 255 255
255 255 255
255 255 255
255 255 255
255 255 255
255 255 255
255 255 255
255 255 255
255 255 255
255 255 255
255 255 255
255 255 255
255 255 255
255 255 255
255 255 255
255 255 255
255 255 255
255 255 255
255 255 255
255 255 255
255 255 255
255 255 255
255 255 255
255 255 255
255 255 255
255 255 255
255 255 255
255 255 255
255 255 255
255 255 255
  0   0  70
  0   0  76
  0   0  82
  0   0  87
  0   0  88
  0   0  81
255 255 255
 97   0   0
127   0   0
150   0   0
166   0   0
174   0   0
171   0   0
151   0   0
 81   0   0
  0   0 150
  0   0 186
  0   0 204
  0   0 207
  0   0 196
  0   0 170
  0   0 112
131   0   0
163   0   0
173   0   0
169   0   0
156   0   0
135   0   0
106   0   0
255 255 255
  0   0  87
  0   0 100
  0   0 105
  0   0 106
  0   0 104
  0   0  94
255 255 255
100   0   0
133   0   0
157   0   0
172   0   0
178   0   0
171   0   0
142   0   0
  0   0 106
  0   0   0
  0   0   0
  0   0   0
  0   0   0
  0   0 211
  0   0 193
  0   0 154
 92   0   0
158   0   0
176   0   0
177   0   0
167   0   0
149   0   0
123   0   0
 89   0   0
255 255 255
  0   0  82
  0   0  87
  0   0  84
  0   0  79
  0   0  73
  0   0  67
255 255 255
255 255 255
255 255 255
255 255 255
255 255 255
255 255 255
255 255 255
255 255 255
255 255 255
255 255 255
255 255 255
  0   0  67
  0   0  73
  0   0  79
  0   0  84
  0   0  87
  0   0  82
255 255 255
 89   0   0
123   0   0
149   0   0
167   0   0
177   0   0
176   0   0
158   0   0
 92   0   0
  0   0 154
  0   0 193
  0   0 211
  0   0 213
  0   0 200
  0   0 168
  0   0  87
147   0   0
173   0   0
178   0   0
171   0   0
155   0   0
130   0   0
 95   0   0
  0   0  65
  0   0  95
  0   0 104
  0   0 106
  0   0 105
  0   0  99
  0   0  84
255 255 255
110   0   0
138   0   0
158   0   0
170   0   0
172   0   0
161   0   0
125   0   0
  0   0 122
  0   0 173
  0   0 198
  0   0 207
  0   0 203
  0   0 184
  0   0 144
 97   0   0
154   0   0
171   0   0
173   0   0
165   0   0
148   0   0
125   0   0
 93   0   0
255 255 255
  0   0  82
  0   0  88
  0   0  87
  0   0  82
  0   0  76
  0   0  69
255 255 255
255 255 255
255 255 255
255 255 255
255 255 255
255 255 255
255 255 255
255 255 255
255 255 255
255 255 255
255 255 255
255 255 255
255 255 255
255 255 255
255 255 255
255 255 255
255 255 255
255 255 255
255 255 255
255 255 255
255 255 255
255 255 255
255 255 255
255 255 255
255 255 255
255 255 255
255 255 255
255 255 255
255 255 255
255 255 255
255 255 255
255 255 255
255 255 255
255 255 255
255 255 255
255 255 255
255 255 255
255 255 255
255 255 255
255 255 255
255 255 255
255 255 255
255 255 255
255 255 255
255 255 255
255 255 255
255 255 255
255 255 255
255 255 255
255 255 255
255 255 255
255 255 255
255 255 255
255 255 255
255 255 255
255 255 255
255 255 255
  0   0  69
  0   0  76
  0   0  82
  0   0  87
  0   0  88
  0   0  82
255 255 255
 93   0   0
125   0   0
148   0   0
165   0   0
173   0   0
171   0   0
154   0   0
 97   0   0
  0   0 144
  0   0 184
  0   0 203
  0   0 207
  0   0 198
  0   0 173
  0   0 122
125   0   0
161   0   0
172   0   0
170   0   0
158   0   0
138   0   0
110   0   0
255 255 255
  0   0  84
  0   0  99
  0   0 105
  0   0 106
  0   0 104
  0   0  95
  0   0  65
 95   0   0
130   0   0
155   0   0
171   0   0
178   0   0
173   0   0
147   0   0
  0   0  87
  0   0   0
  0   0   0
  0   0   0
  0   0   0
  0   0 212
  0   0 197
  0   0 161
255 255 255
153   0   0
175   0   0
178   0   0
169   0   0
151   0   0
127   0   0
 94   0   0
255 255 255
  0   0  81
  0   0  86
  0   0  84
  0   0  79
  0   0  73
  0   0  67
255 255 255
255 255 255
255 255 255
255 255 255
255 255 255
255 255 255
255 255 255
255 255 255
255 255 255
255 255 255
255 255 255
  0   0  67
  0   0  73
  0   0  79
  0   0  84
  0   0  86
  0   0  81
255 255 255
 94   0   0
127   0   0
151   0   0
169   0   0
178   0   0
175   0   0
153   0   0
255 255 255
  0   0 161
  0   0 197
  0   0 212
  0   0 212
  0   0 197
  0   0 162
255 255 255
152   0   0
174   0   0
178   0   0
170   0   0
152   0   0
127   0   0
 90   0   0
  0   0  71
  0   0  97
  0   0 104
  0   0 106
  0   0 104
  0   0  98
  0   0  81
 70   0   0
114   0   0
141   0   0
160   0   0
171   0   0
172   0   0
159   0   0
118   0   0
  0   0 130
  0   0 177
  0   0 200
  0   0 207
  0   0 201
  0   0 181
  0   0 138
108   0   0
157   0   0
172   0   0
173   0   0
163   0   0
146   0   0
122   0   0
 89   0   0
255 255 255
  0   0  83
  0   0  88
  0   0  86
  0   0  81
  0   0  75
  0   0  69
255 255 255
255 255 255
255 255 255
255 255 255
255 255 255
255 255 255
255 255 255
255 255 255
255 255 255
255 255 255
255 255 255
255 255 255
255 255 255
255 255 255
255 255 255
255 255 255
255 255 255
255 255 255
255 255 255
255 255 255
255 255 255
255 255 255
255 255 255
255 255 255
255 255 255
255 255 255
255 255 255
255 255 255
255 255 255
255 255 255
255 255 255
255 255 255
255 255 255
255 255 255
255 255 255
255 255 255
255 255 255
255 255 255
255 255 255
255 255 255
255 255 255
255 255 255
255 255 255
255 255 255
255 255 255
255 255 255
255 255 255
255 255 255
255 255 255
255 255 255
255 255 255
255 255 255
255 255 255
255 255 255
255 255 255
255 255 255
255 255 255
  0   0  69
  0   0  75
  0   0  81
  0   0  86
  0   0  88
  0   0  83
255 255 255
 89   0   0
122   0   0
146   0   0
163   0   0
173   0   0
172   0   0
157   0   0
108   0   0
  0   0 138
  0   0 181
  0   0 201
  0   0 207
  0   0 200
  0   0 177
  0   0 130
118   0   0
159   0   0
172   0   0
171   0   0
160   0   0
141   0   0
114   0   0
 70   0   0
  0   0  81
  0   0  98
  0   0 104
  0   0 106
  0   0 104
  0   0  97
  0   0  71
 90   0   0
127   0   0
152   0   0
170   0   0
178   0   0
174   0   0
152   0   0
255 255 255
  0   0   0
  0   0   0
  0   0   0
  0   0   0
  0   0 213
  0   0 200
  0   0 168
  0   0  86
147   0   0
173   0   0
178   0   0
171   0   0
154   0   0
131   0   0
100   0   0
255 255 255
  0   0  79
  0   0  87
  0   0  85
  0   0  80
  0   0  74
  0   0  67
255 255 255
255 255 255
255 255 255
255 255 255
255 255 255
255 255 255
255 255 255
255 255 255
255 255 255
255 255 255
255 255 255
  0   0  67
  0   0  74
  0   0  80
  0   0  85
  0   0  87
  0   0  79
255 255 255
100   0   0
131   0   0
154   0   0
171   0   0
178   0   0
173   0   0
147   0   0
  0   0  86
  0   0 168
  0   0 200
  0   0 213
  0   0 211
  0   0 194
  0   0 155
 87   0   0
157   0   0
176   0   0
178   0   0
168   0   0
149   0   0
123   0   0
 83   0   0
  0   0  77
  0   0  98
  0   0 104
  0   0 106
  0   0 103
  0   0  97
  0   0  77
 78   0   0
117   0   0
143   0   0
161   0   0
171   0   0
171   0   0
156   0   0
108   0   0
  0   0 138
  0   0 181
  0   0 201
  0   0 207
  0   0 200
  0   0 177
  0   0 131
118   0   0
160   0   0
173   0   0
172   0   0
162   0   0
144   0   0
119   0   0
 84   0   0
255 255 255
  0   0  84
  0   0  88
  0   0  86
  0   0  81
  0   0  75
  0   0  69
255 255 255
255 255 255
255 255 255
255 255 255
255 255 255
255 255 255
255 255 255
255 255 255
255 255 255
255 255 255
255 255 255
255 255 255
255 255 255
255 255 255
255 255 255
255 255 255
255 255 255
255 255 255
255 255 255
255 255 255
255 255 255
255 255 255
255 255 255
255 255 255
255 255 255
255 255 255
255 255 255
255 255 255
255 255 255
255 255 255
255 255 255
255 255 255
255 255 255
255 255 255
255 255 255
255 255 255
255 255 255
255 255 255
255 255 255
255 255 255
255 255 255
255 255 255
255 255 255
255 255 255
255 255 255
255 255 255
255 255 255
255 255 255
255 255 255
255 255 255
255 255 255
255 255 255
255 255 255
255 255 255
255 255 255
255 255 255
255 255 255
  0   0  69
  0   0  75
  0   0  81
  0   0  86
  0   0  88
  0   0  84
255 255 255
 84   0   0
119   0   0
144   0   0
162   0   0
172   0   0
173   0   0
160   0   0
118   0   0
  0   0 131
  0   0 177
  0   0 200
  0   0 207
  0   0 201
  0   0 181
  0   0 138
108   0   0
156   0   0
171   0   0
171   0   0
161   0   0
143   0   0
117   0   0
 78   0   0
  0   0  77
  0   0  97
  0   0 103
  0   0 106
  0   0 104
  0   0  98
  0   0  77
 83   0   0
123   0   0
149   0   0
168   0   0
178   0   0
176   0   0
157   0   0
 87   0   0
  0   0   0
  0   0   0
  0   0   0
  0   0   0
  0   0 214
  0   0 203
  0   0 174
  0   0 110
140   0   0
170   0   0
178   0   0
172   0   0
157   0   0
135   0   0
105   0   0
255 255 255
  0   0  78
  0   0  87
  0   0  87
  0   0  82
  0   0  75
  0   0  68
255 255 255
255 255 255
255 255 255
255 255 255
255 255 255
255 255 255
255 255 255
255 255 255
255 255 255
255 255 255
255 255 255
  0   0  68
  0   0  75
  0   0  82
  0   0  87
  0   0  87
  0   0  78
255 255 255
105   0   0
135   0   0
157   0   0
172   0   0
178   0   0
170   0   0
140   0   0
  0   0 110
  0   0 174
  0   0 203
  0   0 214
  0   0 210
  0   0 189
  0   0 146
108   0   0
161   0   0
177   0   0
177   0   0
166   0   0
146   0   0
119   0   0
 75   0   0
  0   0  81
  0   0  99
  0   0 105
  0   0 105
  0   0 103
  0   0  95
  0   0  71
 85   0   0
121   0   0
146   0   0
163   0   0
172   0   0
170   0   0
153   0   0
 93   0   0
  0   0 145
  0   0 184
  0   0 203
  0   0 207
  0   0 198
  0   0 173
  0   0 121
126   0   0
162   0   0
173   0   0
171   0   0
160   0   0
141   0   0
116   0   0
 79   0   0
  0   0  67
  0   0  86
  0   0  88
  0   0  86
  0   0  80
  0   0  74
  0   0  68
255 255 255
255 255 255
255 255 255
255 255 255
255 255 255
255 255 255
255 255 255
255 255 255
255 255 255
255 255 255
255 255 255
255 255 255
255 255 255
255 255 255
255 255 255
255 255 255
255 255 255
255 255 255
255 255 255
255 255 255
255 255 255
255 255 255
255 255 255
255 255 255
255 255 255
255 255 255
255 255 255
255 255 255
255 255 255
255 255 255
255 255 255
255 255 255
255 255 255
255 255 255
255 255 255
255 255 255
255 255 255
255 255 255
255 255 255
255 255 255
255 255 255
255 255 255
255 255 255
255 255 255
255 255 255
255 255 255
255 255 255
255 255 255
255 255 255
255 255 255
255 255 255
255 255 255
255 255 255
255 255 255
255 255 255
255 255 255
255 255 255
  0   0  68
  0   0  74
  0   0  80
  0   0  86
  0   0  88
  0   0  86
  0   0  67
 79   0   0
116   0   0
141   0   0
160   0   0
171   0   0
173   0   0
162   0   0
126   0   0
  0   0 121
  0   0 173
  0   0 198
  0   0 207
  0   0 203
  0   0 184
  0   0 145
 93   0   0
153   0   0
170   0   0
172   0   0
163   0   0
146   0   0
121   0   0
 85   0   0
  0   0  71
  0   0  95
  0   0 103
  0   0 105
  0   0 105
  0   0  99
  0   0  81
 75   0   0
119   0   0
146   0   0
166   0   0
177   0   0
177   0   0
161   0   0
108   0   0
  0   0   0
  0   0   0
  0   0   0
  0   0   0
  0   0 214
  0   0 206
  0   0 180
  0   0 126
131   0   0
167   0   0
178   0   0
174   0   0
160   0   0
139   0   0
111   0   0
 67   0   0
  0   0  74
  0   0  87
  0   0  88
  0   0  84
  0   0  77
  0   0  71
255 255 255
255 255 255
255 255 255
255 255 255
255 255 255
255 255 255
255 255 255
255 255 255
255 255 255
255 255 255
255 255 255
  0   0  71
  0   0  77
  0   0  84
  0   0  88
  0   0  87
  0   0  74
 67   0   0
111   0   0
139   0   0
160   0   0
174   0   0
178   0   0
167   0   0
131   0   0
  0   0 126
  0   0 180
  0   0 206
  0   0 214
  0   0 207
  0   0 184
  0   0 136
123   0   0
165   0   0
178   0   0
176   0   0
163   0   0
143   0   0
114   0   0
 64   0   0
  0   0  85
  0   0 100
  0   0 105
  0   0 105
  0   0 102
  0   0  93
255 255 255
 91   0   0
125   0   0
149   0   0
165   0   0
172   0   0
169   0   0
149   0   0
 68   0   0
  0   0 152
  0   0 187
  0   0 204
  0   0 207
  0   0 196
  0   0 169
  0   0 110
133   0   0
164   0   0
174   0   0
171   0   0
158   0   0
139   0   0
112   0   0
 72   0   0
  0   0  71
  0   0  87
  0   0  89
  0   0  86
  0   0  80
  0   0  74
  0   0  68
255 255 255
255 255 255
255 255 255
255 255 255
255 255 255
255 255 255
255 255 255
255 255 255
255 255 255
255 255 255
255 255 255
255 255 255
255 255 255
255 255 255
255 255 255
255 255 255
255 255 255
255 255 255
255 255 255
255 255 255
255 255 255
255 255 255
255 255 255
255 255 255
255 255 255
255 255 255
255 255 255
255 255 255
255 255 255
255 255 255
255 255 255
255 255 255
255 255 255
255 255 255
255 255 255
255 255 255
255 255 255
255 255 255
255 255 255
255 255 255
255 255 255
255 255 255
255 255 255
255 255 255
255 255 255
255 255 255
255 255 255
255 255 255
255 255 255
255 255 255
255 255 255
255 255 255
255 255 255
255 255 255
255 255 255
255 255 255
255 255 255
  0   0  68
  0   0  74
  0   0  80
  0   0  86
  0   0  89
  0   0  87
  0   0  71
 72   0   0
112   0   0
139   0   0
158   0   0
171   0   0
174   0   0
164   0   0
133   0   0
  0   0 110
  0   0 169
  0   0 196
  0   0 207
  0   0 204
  0   0 187
  0   0 152
 68   0   0
149   0   0
169   0   0
172   0   0
165   0   0
149   0   0
125   0   0
 91   0   0
255 255 255
  0   0  93
  0   0 102
  0   0 105
  0   0 105
  0   0 100
  0   0  85
 64   0   0
114   0   0
143   0   0
163   0   0
176   0   0
178   0   0
165   0   0
123   0   0
  0   0   0
  0   0   0
  0   0   0
  0   0   0
  0   0 214
  0   0 208
  0   0 186
  0   0 139
118   0   0
164   0   0
177   0   0
175   0   0
163   0   0
143   0   0
116   0   0
 77   0   0
  0   0  70
  0   0  87
  0   0  89
  0   0  85
  0   0  79
  0   0  73
  0   0  66
255 255 255
255 255 255
255 255 255
255 255 255
255 255 255
255 255 255
255 255 255
255 255 255
255 255 255
  0   0  66
  0   0  73
  0   0  79
  0   0  85
  0   0  89
  0   0  87
  0   0  70
 77   0   0
116   0   0
143   0   0
163   0   0
175   0   0
177   0   0
164   0   0
118   0   0
  0   0 139
  0   0 186
  0   0 208
  0   0 214
  0   0 205
  0   0 179
  0   0 122
134   0   0
169   0   0
178   0   0
175   0   0
161   0   0
139   0   0
108   0   0
255 255 255
  0   0  89
  0   0 101
  0   0 105
  0   0 105
  0   0 101
  0   0  91
255 255 255
 97   0   0
129   0   0
151   0   0
166   0   0
173   0   0
167   0   0
144   0   0
  0   0  69
  0   0 158
  0   0 190
  0   0 205
  0   0 206
  0   0 193
  0   0 164
  0   0  94
139   0   0
167   0   0
174   0   0
169   0   0
156   0   0
136   0   0
108   0   0
 64   0   0
  0   0  75
  0   0  87
  0   0  88
  0   0  85
  0   0  79
  0   0  73
  0   0  67
255 255 255
255 255 255
255 255 255
255 255 255
255 255 255
255 255 255
255 255 255
255 255 255
255 255 255
255 255 255
255 255 255
255 255 255
255 255 255
255 255 255
255 255 255
255 255 255
255 255 255
255 255 255
255 255 255
255 255 255
255 255 255
255 255 255
255 255 255
255 255 255
255 255 255
255 255 255
255 255 255
255 255 255
255 255 255
255 255 255
255 255 255
255 255 255
255 255 255
255 255 255
255 255 255
255 255 255
255 255 255
255 255 255
255 255 255
255 255 255
255 255 255
255 255 255
255 255 255
255 255 255
255 255 255
255 255 255
255 255 255
255 255 255
255 255 255
255 255 255
255 255 255
255 255 255
255 255 255
255 255 255
255 255 255
255 255 255
255 255 255
  0   0  67
  0   0  73
  0   0  79
  0   0  85
  0   0  88
  0   0  87
  0   0  75
 64   0   0
108   0   0
136   0   0
156   0   0
169   0   0
174   0   0
167   0   0
139   0   0
  0   0  94
  0   0 164
  0   0 193
  0   0 206
  0   0 205
  0   0 190
  0   0 158
  0   0  69
144   0   0
167   0   0
173   0   0
166   0   0
151   0   0
129   0   0
 97   0   0
255 255 255
  0   0  91
  0   0 101
  0   0 105
  0   0 105
  0   0 101
  0   0  89
255 255 255
108   0   0
139   0   0
161   0   0
175   0   0
178   0   0
169   0   0
134   0   0
  0   0   0
  0   0   0
  0   0   0
  0   0   0
  0   0 213
  0   0 210
  0   0 191
  0   0 151
 98   0   0
159   0   0
176   0   0
176   0   0
166   0   0
147   0   0
122   0   0
 86   0   0
255 255 255
  0   0  86
  0   0  89
  0   0  87
  0   0  81
  0   0  75
  0   0  67
255 255 255
255 255 255
255 255 255
255 255 255
255 255 255
255 255 255
255 255 255
255 255 255
255 255 255
  0   0  67
  0   0  75
  0   0  81
  0   0  87
  0   0  89
  0   0  86
255 255 255
 86   0   0
122   0   0
147   0   0
166   0   0
176   0   0
176   0   0
159   0   0
 98   0   0
  0   0 151
  0   0 191
  0   0 210
  0   0 213
  0   0 202
  0   0 172
  0   0 103
143   0   0
172   0   0
179   0   0
173   0   0
158   0   0
135   0   0
102   0   0
255 255 255
  0   0  92
  0   0 103
  0   0 105
  0   0 105
  0   0 100
  0   0  88
255 255 255
103   0   0
133   0   0
154   0   0
168   0   0
173   0   0
165   0   0
138   0   0
  0   0  97
  0   0 164
  0   0 194
  0   0 206
  0   0 205
  0   0 190
  0   0 158
  0   0  64
145   0   0
168   0   0
174   0   0
168   0   0
154   0   0
132   0   0
104   0   0
255 255 255
  0   0  78
  0   0  88
  0   0  88
  0   0  85
  0   0  79
  0   0  73
  0   0  67
255 255 255
255 255 255
255 255 255
255 255 255
255 255 255
255 255 255
255 255 255
255 255 255
255 255 255
255 255 255
255 255 255
255 255 255
255 255 255
255 255 255
255 255 255
255 255 255
255 255 255
255 255 255
255 255 255
255 255 255
255 255 255
255 255 255
255 255 255
255 255 255
255 255 255
255 255 255
255 255 255
255 255 255
255 255 255
255 255 255
255 255 255
255 255 255
255 255 255
255 255 255
255 255 255
255 255 255
255 255 255
255 255 255
255 255 255
255 255 255
255 255 255
255 255 255
255 255 255
255 255 255
255 255 255
255 255 255
255 255 255
255 255 255
255 255 255
255 255 255
255 255 255
255 255 255
255 255 255
255 255 255
255 255 255
255 255 255
255 255 255
  0   0  67
  0   0  73
  0   0  79
  0   0  85
  0   0  88
  0   0  88
  0   0  78
255 255 255
104   0   0
132   0   0
154   0   0
168   0   0
174   0   0
168   0   0
145   0   0
  0   0  64
  0   0 158
  0   0 190
  0   0 205
  0   0 206
  0   0 194
  0   0 164
  0   0  97
138   0   0
165   0   0
173   0   0
168   0   0
154   0   0
133   0   0
103   0   0
255 255 255
  0   0  88
  0   0 100
  0   0 105
  0   0 105
  0   0 103
  0   0  92
255 255 255
102   0   0
135   0   0
158   0   0
173   0   0
179   0   0
172   0   0
143   0   0
  0   0   0
  0   0   0
  0   0   0
  0   0   0
  0   0 212
  0   0 212
  0   0 196
  0   0 161
255 255 255
153   0   0
174   0   0
177   0   0
169   0   0
152   0   0
127   0   0
 94   0   0
255 255 255
  0   0  84
  0   0  90
  0   0  88
  0   0  83
  0   0  76
  0   0  69
255 255 255
255 255 255
255 255 255
255 255 255
255 255 255
255 255 255
255 255 255
255 255 255
255 255 255
  0   0  69
  0   0  76
  0   0  83
  0   0  88
  0   0  90
  0   0  84
255 255 255
 94   0   0
127   0   0
152   0   0
169   0   0
177   0   0
174   0   0
153   0   0
255 255 255
  0   0 161
  0   0 196
  0   0 212
  0   0 212
  0   0 198
  0   0 164
255 255 255
151   0   0
174   0   0
179   0   0
171   0   0
154   0   0
130   0   0
 95   0   0
255 255 255
  0   0  95
  0   0 103
  0   0 106
  0   0 104
  0   0  99
  0   0  85
255 255 255
108   0   0
137   0   0
157   0   0
169   0   0
172   0   0
163   0   0
130   0   0
  0   0 114
  0   0 170
  0   0 196
  0   0 207
  0   0 204
  0   0 187
  0   0 151
 74   0   0
150   0   0
170   0   0
174   0   0
166   0   0
151   0   0
129   0   0
 98   0   0
255 255 255
  0   0  81
  0   0  89
  0   0  88
  0   0  84
  0   0  78
  0   0  72
  0   0  67
255 255 255
255 255 255
255 255 255
255 255 255
255 255 255
255 255 255
255 255 255
255 255 255
255 255 255
255 255 255
255 255 255
255 255 255
255 255 255
255 255 255
255 255 255
255 255 255
255 255 255
255 255 255
255 255 255
255 255 255
255 255 255
255 255 255
255 255 255
255 255 255
255 255 255
255 255 255
255 255 255
255 255 255
255 255 255
255 255 255
255 255 255
255 255 255
255 255 255
255 255 255
255 255 255
255 255 255
255 255 255
255 255 255
255 255 255
255 255 255
255 255 255
255 255 255
255 255 255
255 255 255
255 255 255
255 255 255
255 255 255
255 255 255
255 255 255
255 255 255
255 255 255
255 255 255
255 255 255
255 255 255
255 255 255
255 255 255
255 255 255
  0   0  67
  0   0  72
  0   0  78
  0   0  84
  0   0  88
  0   0  89
  0   0  81
255 255 255
 98   0   0
129   0   0
151   0   0
166   0   0
174   0   0
170   0   0
150   0   0
 74   0   0
  0   0 151
  0   0 187
  0   0 204
  0   0 207
  0   0 196
  0   0 170
  0   0 114
130   0   0
163   0   0
172   0   0
169   0   0
157   0   0
137   0   0
108   0   0
255 255 255
  0   0  85
  0   0  99
  0   0 104
  0   0 106
  0   0 103
  0   0  95
255 255 255
 95   0   0
130   0   0
154   0   0
171   0   0
179   0   0
174   0   0
151   0   0
  0   0   0
  0   0   0
  0   0   0
  0   0   0
  0   0 211
  0   0 213
  0   0 200
  0   0 170
  0   0  95
145   0   0
172   0   0
178   0   0
171   0   0
156   0   0
133   0   0
102   0   0
255 255 255
  0   0  81
  0   0  89
  0   0  89
  0   0  84
  0   0  78
  0   0  70
255 255 255
255 255 255
255 255 255
255 255 255
255 255 255
255 255 255
255 255 255
255 255 255
255 255 255
  0   0  70
  0   0  78
  0   0  84
  0   0  89
  0   0  89
  0   0  81
255 255 255
102   0   0
133   0   0
156   0   0
171   0   0
178   0   0
172   0   0
145   0   0
  0   0  95
  0   0 170
  0   0 200
  0   0 213
  0   0 211
  0   0 193
  0   0 155
 88   0   0
157   0   0
176   0   0
178   0   0
169   0   0
151   0   0
125   0   0
 86   0   0
  0   0  74
  0   0  97
  0   0 104
  0   0 106
  0   0 104
  0   0  98
  0   0  80
 71   0   0
114   0   0
140   0   0
159   0   0
170   0   0
172   0   0
159   0   0
120   0   0
  0   0 127
  0   0 176
  0   0 199
  0   0 207
  0   0 202
  0   0 183
  0   0 143
 99   0   0
154   0   0
171   0   0
173   0   0
165   0   0
148   0   0
125   0   0
 93   0   0
255 255 255
  0   0  83
  0   0  89
  0   0  88
  0   0  84
  0   0  78
  0   0  72
  0   0  67
255 255 255
255 255 255
255 255 255
255 255 255
255 255 255
255 255 255
255 255 255
255 255 255
255 255 255
255 255 255
255 255 255
255 255 255
255 255 255
255 255 255
255 255 255
255 255 255
255 255 255
255 255 255
255 255 255
255 255 255
255 255 255
255 255 255
255 255 255
255 255 255
255 255 255
255 255 255
255 255 255
255 255 255
255 255 255
255 255 255
255 255 255
255 255 255
255 255 255
255 255 255
255 255 255
255 255 255
255 255 255
255 255 255
255 255 255
255 255 255
255 255 255
255 255 255
255 255 255
255 255 255
255 255 255
255 255 255
255 255 255
255 255 255
255 255 255
255 255 255
255 255 255
255 255 255
255 255 255
255 255 255
255 255 255
255 255 255
255 255 255
  0   0  67
  0   0  72
  0   0  78
  0   0  84
  0   0  88
  0   0  89
  0   0  83
255 255 255
 93   0   0
125   0   0
148   0   0
165   0   0
173   0   0
171   0   0
154   0   0
 99   0   0
  0   0 143
  0   0 183
  0   0 202
  0   0 207
  0   0 199
  0   0 176
  0   0 127
120   0   0
159   0   0
172   0   0
170   0   0
159   0   0
140   0   0
114   0   0
 71   0   0
  0   0  80
  0   0  98
  0   0 104
  0   0 106
  0   0 104
  0   0  97
  0   0  74
 86   0   0
125   0   0
151   0   0
169   0   0
178   0   0
176   0   0
157   0   0
  0   0   0
  0   0   0
  0   0   0
  0   0   0
  0   0 209
  0   0 214
  0   0 204
  0   0 178
  0   0 120
134   0   0
168   0   0
178   0   0
174   0   0
160   0   0
139   0   0
110   0   0
 66   0   0
  0   0  75
  0   0  88
  0   0  89
  0   0  85
  0   0  79
  0   0  73
  0   0  67
255 255 255
255 255 255
255 255 255
255 255 255
255 255 255
255 255 255
255 255 255
  0   0  67
  0   0  73
  0   0  79
  0   0  85
  0   0  89
  0   0  88
  0   0  75
 66   0   0
110   0   0
139   0   0
160   0   0
174   0   0
178   0   0
168   0   0
134   0   0
  0   0 120
  0   0 178
  0   0 204
  0   0 214
  0   0 209
  0   0 187
  0   0 143
113   0   0
163   0   0
177   0   0
177   0   0
166   0   0
146   0   0
119   0   0
 76   0   0
  0   0  81
  0   0  99
  0   0 105
  0   0 106
  0   0 103
  0   0  96
  0   0  74
 81   0   0
119   0   0
144   0   0
162   0   0
171   0   0
171   0   0
156   0   0
106   0   0
  0   0 138
  0   0 181
  0   0 201
  0   0 207
  0   0 200
  0   0 178
  0   0 133
114   0   0
158   0   0
172   0   0
172   0   0
162   0   0
145   0   0
120   0   0
 86   0   0
255 255 255
  0   0  85
  0   0  90
  0   0  88
  0   0  83
  0   0  77
  0   0  72
  0   0  67
255 255 255
255 255 255
255 255 255
255 255 255
255 255 255
255 255 255
255 255 255
255 255 255
255 255 255
255 255 255
255 255 255
255 255 255
255 255 255
255 255 255
255 255 255
255 255 255
255 255 255
255 255 255
255 255 255
255 255 255
255 255 255
255 255 255
255 255 255
255 255 255
255 255 255
255 255 255
255 255 255
255 255 255
255 255 255
255 255 255
255 255 255
255 255 255
255 255 255
255 255 255
255 255 255
255 255 255
255 255 255
255 255 255
255 255 255
255 255 255
255 255 255
255 255 255
255 255 255
255 255 255
255 255 255
255 255 255
255 255 255
255 255 255
255 255 255
255 255 255
255 255 255
255 255 255
255 255 255
255 255 255
255 255 255
255 255 255
255 255 255
  0   0  67
  0   0  72
  0   0  77
  0   0  83
  0   0  88
  0   0  90
  0   0  85
255 255 255
 86   0   0
120   0   0
145   0   0
162   0   0
172   0   0
172   0   0
158   0   0
114   0   0
  0   0 133
  0   0 178
  0   0 200
  0   0 207
  0   0 201
  0   0 181
  0   0 138
106   0   0
156   0   0
171   0   0
171   0   0
162   0   0
144   0   0
119   0   0
 81   0   0
  0   0  74
  0   0  96
  0   0 103
  0   0 106
  0   0 105
  0   0  99
  0   0  81
 76   0   0
119   0   0
146   0   0
166   0   0
177   0   0
177   0   0
163   0   0
  0   0   0
  0   0   0
  0   0   0
  0   0   0
  0   0 206
  0   0 214
  0   0 207
  0   0 185
  0   0 138
119   0   0
164   0   0
177   0   0
176   0   0
164   0   0
144   0   0
118   0   0
 81   0   0
  0   0  66
  0   0  86
  0   0  89
  0   0  86
  0   0  81
  0   0  76
  0   0  71
  0   0  66
255 255 255
255 255 255
255 255 255
255 255 255
255 255 255
  0   0  66
  0   0  71
  0   0  76
  0   0  81
  0   0  86
  0   0  89
  0   0  86
  0   0  66
 81   0   0
118   0   0
144   0   0
164   0   0
176   0   0
177   0   0
164   0   0
119   0   0
  0   0 138
  0   0 185
  0   0 207
  0   0 214
  0   0 206
  0   0 181
  0   0 128
129   0   0
167   0   0
178   0   0
175   0   0
163   0   0
142   0   0
112   0   0
255 255 255
  0   0  86
  0   0 101
  0   0 105
  0   0 106
  0   0 103
  0   0  94
  0   0  66
 90   0   0
124   0   0
148   0   0
164   0   0
172   0   0
169   0   0
151   0   0
 83   0   0
  0   0 148
  0   0 185
  0   0 203
  0   0 207
  0   0 198
  0   0 173
  0   0 121
126   0   0
162   0   0
173   0   0
171   0   0
160   0   0
141   0   0
116   0   0
 79   0   0
  0   0  69
  0   0  87
  0   0  90
  0   0  88
  0   0  83
  0   0  77
  0   0  72
  0   0  67
255 255 255
255 255 255
255 255 255
255 255 255
255 255 255
255 255 255
255 255 255
255 255 255
255 255 255
255 255 255
255 255 255
255 255 255
255 255 255
255 255 255
255 255 255
255 255 255
255 255 255
255 255 255
255 255 255
255 255 255
255 255 255
255 255 255
255 255 255
255 255 255
255 255 255
255 255 255
255 255 255
255 255 255
255 255 255
255 255 255
255 255 255
255 255 255
255 255 255
255 255 255
255 255 255
255 255 255
255 255 255
255 255 255
255 255 255
255 255 255
255 255 255
255 255 255
255 255 255
255 255 255
255 255 255
255 255 255
255 255 255
255 255 255
255 255 255
255 255 255
255 255 255
255 255 255
255 255 255
255 255 255
255 255 255
255 255 255
255 255 255
  0   0  67
  0   0  72
  0   0  77
  0   0  83
  0   0  88
  0   0  90
  0   0  87
  0   0  69
 79   0   0
116   0   0
141   0   0
160   0   0
171   0   0
173   0   0
162   0   0
126   0   0
  0   0 121
  0   0 173
  0   0 198
  0   0 207
  0   0 203
  0   0 185
  0   0 148
 83   0   0
151   0   0
169   0   0
172   0   0
164   0   0
148   0   0
124   0   0
 90   0   0
  0   0  66
  0   0  94
  0   0 103
  0   0 106
  0   0 105
  0   0 101
  0   0  86
255 255 255
112   0   0
142   0   0
163   0   0
175   0   0
178   0   0
167   0   0
  0   0   0
  0   0   0
  0   0   0
  0   0   0
  0   0 202
  0   0 213
  0   0 210
  0   0 191
  0   0 152
 95   0   0
158   0   0
176   0   0
177   0   0
167   0   0
150   0   0
125   0   0
 92   0   0
255 255 255
  0   0  83
  0   0  88
  0   0  87
  0   0  83
  0   0  78
  0   0  74
  0   0  69
  0   0  66
  0   0  65
255 255 255
  0   0  65
  0   0  66
  0   0  69
  0   0  74
  0   0  78
  0   0  83
  0   0  87
  0   0  88
  0   0  83
255 255 255
 92   0   0
125   0   0
150   0   0
167   0   0
177   0   0
176   0   0
158   0   0
 95   0   0
  0   0 152
  0   0 191
  0   0 210
  0   0 213
  0   0 202
  0   0 173
  0   0 106
141   0   0
171   0   0
179   0   0
174   0   0
159   0   0
136   0   0
105   0   0
255 255 255
  0   0  91
  0   0 102
  0   0 106
  0   0 105
  0   0 101
  0   0  91
255 255 255
 97   0   0
129   0   0
151   0   0
166   0   0
172   0   0
167   0   0
144   0   0
255 255 255
  0   0 157
  0   0 190
  0   0 205
  0   0 206
  0   0 195
  0   0 167
  0   0 105
135   0   0
165   0   0
174   0   0
170   0   0
157   0   0
138   0   0
110   0   0
 69   0   0
  0   0  75
  0   0  89
  0   0  91
  0   0  88
  0   0  83
  0   0  78
  0   0  72
  0   0  68
  0   0  65
255 255 255
255 255 255
255 255 255
255 255 255
255 255 255
255 255 255
255 255 255
255 255 255
255 255 255
255 255 255
255 255 255
255 255 255
255 255 255
255 255 255
255 255 255
255 255 255
255 255 255
255 255 255
255 255 255
255 255 255
255 255 255
255 255 255
255 255 255
255 255 255
255 255 255
255 255 255
255 255 255
255 255 255
255 255 255
255 255 255
255 255 255
255 255 255
255 255 255
255 255 255
255 255 255
255 255 255
255 255 255
255 255 255
255 255 255
255 255 255
255 255 255
255 255 255
255 255 255
255 255 255
255 255 255
255 255 255
255 255 255
255 255 255
255 255 255
255 255 255
255 255 255
255 255 255
255 255 255
255 255 255
255 255 255
  0   0  65
  0   0  68
  0   0  72
  0   0  78
  0   0  83
  0   0  88
  0   0  91
  0   0  89
  0   0  75
 69   0   0
110   0   0
138   0   0
157   0   0
170   0   0
174   0   0
165   0   0
135   0   0
  0   0 105
  0   0 167
  0   0 195
  0   0 206
  0   0 205
  0   0 190
  0   0 157
255 255 255
144   0   0
167   0   0
172   0   0
166   0   0
151   0   0
129   0   0
 97   0   0
255 255 255
  0   0  91
  0   0 101
  0   0 105
  0   0 106
  0   0 102
  0   0  91
255 255 255
105   0   0
136   0   0
159   0   0
174   0   0
179   0   0
171   0   0
  0   0   0
  0   0   0
  0   0   0
  0   0   0
  0   0 197
  0   0 212
  0   0 212
  0   0 197
  0   0 164
  0   0  65
150   0   0
173   0   0
178   0   0
171   0   0
155   0   0
132   0   0
102   0   0
255 255 255
  0   0  79
  0   0  88
  0   0  88
  0   0  85
  0   0  80
  0   0  76
  0   0  72
  0   0  69
  0   0  68
  0   0  68
  0   0  68
  0   0  69
  0   0  72
  0   0  76
  0   0  80
  0   0  85
  0   0  88
  0   0  88
  0   0  79
255 255 255
102   0   0
132   0   0
155   0   0
171   0   0
178   0   0
173   0   0
150   0   0
  0   0  65
  0   0 164
  0   0 197
  0   0 212
  0   0 212
  0   0 197
  0   0 163
255 255 255
151   0   0
174   0   0
179   0   0
171   0   0
155   0   0
131   0   0
 96   0   0
255 255 255
  0   0  94
  0   0 103
  0   0 106
  0   0 105
  0   0 100
  0   0  87
255 255 255
105   0   0
134   0   0
155   0   0
168   0   0
172   0   0
165   0   0
136   0   0
  0   0  99
  0   0 165
  0   0 194
  0   0 206
  0   0 205
  0   0 191
  0   0 160
  0   0  77
143   0   0
167   0   0
174   0   0
168   0   0
154   0   0
133   0   0
104   0   0
255 255 255
  0   0  80
  0   0  90
  0   0  91
  0   0  88
  0   0  83
  0   0  78
  0   0  73
  0   0  69
  0   0  66
  0   0  65
255 255 255
255 255 255
255 255 255
255 255 255
255 255 255
255 255 255
255 255 255
255 255 255
255 255 255
255 255 255
255 255 255
255 255 255
  0   0  64
  0   0  64
  0   0  65
  0   0  65
  0   0  66
  0   0  66
  0   0  67
  0   0  68
  0   0  69
  0   0  69
  0   0  68
  0   0  67
  0   0  66
  0   0  65
  0   0  65
  0   0  65
  0   0  66
  0   0  67
  0   0  68
  0   0  69
  0   0  69
  0   0  68
  0   0  67
  0   0  66
  0   0  66
  0   0  65
  0   0  65
  0   0  64
  0   0  64
255 255 255
255 255 255
255 255 255
255 255 255
255 255 255
255 255 255
255 255 255
255 255 255
255 255 255
255 255 255
255 255 255
255 255 255
  0   0  65
  0   0  66
  0   0  69
  0   0  73
  0   0  78
  0   0  83
  0   0  88
  0   0  91
  0   0  90
  0   0  80
255 255 255
104   0   0
133   0   0
154   0   0
168   0   0
174   0   0
167   0   0
143   0   0
  0   0  77
  0   0 160
  0   0 191
  0   0 205
  0   0 206
  0   0 194
  0   0 165
  0   0  99
136   0   0
165   0   0
172   0   0
168   0   0
155   0   0
134   0   0
105   0   0
255 255 255
  0   0  87
  0   0 100
  0   0 105
  0   0 106
  0   0 103
  0   0  94
255 255 255
 96   0   0
131   0   0
155   0   0
171   0   0
179   0   0
174   0   0
  0   0   0
  0   0   0
  0   0   0
  0   0   0
  0   0 191
  0   0 210
  0   0 213
  0   0 202
  0   0 174
  0   0 110
139   0   0
170   0   0
178   0   0
174   0   0
160   0   0
139   0   0
111   0   0
 69   0   0
  0   0  74
  0   0  87
  0   0  89
  0   0  86
  0   0  82
  0   0  78
  0   0  74
  0   0  72
  0   0  70
  0   0  70
  0   0  70
  0   0  72
  0   0  74
  0   0  78
  0   0  82
  0   0  86
  0   0  89
  0   0  87
  0   0  74
 69   0   0
111   0   0
139   0   0
160   0   0
174   0   0
178   0   0
170   0   0
139   0   0
  0   0 110
  0   0 174
  0   0 202
  0   0 213
  0   0 210
  0   0 191
  0   0 151
 96   0   0
158   0   0
176   0   0
178   0   0
168   0   0
150   0   0
124   0   0
 86   0   0
  0   0  74
  0   0  97
  0   0 104
  0   0 106
  0   0 104
  0   0  99
  0   0  82
 66   0   0
111   0   0
138   0   0
158   0   0
170   0   0
172   0   0
161   0   0
126   0   0
  0   0 119
  0   0 172
  0   0 197
  0   0 207
  0   0 204
  0   0 187
  0   0 151
 71   0   0
149   0   0
170   0   0
173   0   0
166   0   0
151   0   0
128   0   0
 98   0   0
255 255 255
  0   0  84
  0   0  92
  0   0  92
  0   0  89
  0   0  84
  0   0  79
  0   0  75
  0   0  72
  0   0  69
  0   0  68
  0   0  67
  0   0  67
  0   0  67
  0   0  67
  0   0  67
  0   0  67
  0   0  68
  0   0  68
  0   0  69
  0   0  69
  0   0  69
  0   0  70
  0   0  70
  0   0  70
  0   0  71
  0   0  71
  0   0  72
  0   0  72
  0   0  73
  0   0  75
  0   0  75
  0   0  75
  0   0  75
  0   0  73
  0   0  72
  0   0  71
  0   0  71
  0   0  71
  0   0  72
  0   0  73
  0   0  75
  0   0  75
  0   0  75
  0   0  75
  0   0  73
  0   0  72
  0   0  72
  0   0  71
  0   0  71
  0   0  70
  0   0  70
  0   0  70
  0   0  69
  0   0  69
  0   0  69
  0   0  68
  0   0  68
  0   0  67
  0   0  67
  0   0  67
  0   0  67
  0   0  67
  0   0  67
  0   0  68
  0   0  69
  0   0  72
  0   0  75
  0   0  79
  0   0  84
  0   0  89
  0   0  92
  0   0  92
  0   0  84
255 255 255
 98   0   0
128   0   0
151   0   0
166   0   0
173   0   0
170   0   0
149   0   0
 71   0   0
  0   0 151
  0   0 187
  0   0 204
  0   0 207
  0   0 197
  0   0 172
  0   0 119
126   0   0
161   0   0
172   0   0
170   0   0
158   0   0
138   0   0
111   0   0
 66   0   0
  0   0  82
  0   0  99
  0   0 104
  0   0 106
  0   0 104
  0   0  97
  0   0  74
 86   0   0
124   0   0
150   0   0
168   0   0
178   0   0
176   0   0
  0   0   0
  0   0   0
  0   0   0
  0   0   0
  0   0 184
  0   0 207
  0   0 214
  0   0 206
  0   0 183
  0   0 133
124   0   0
165   0   0
178   0   0
176   0   0
164   0   0
145   0   0
119   0   0
 83   0   0
  0   0  65
  0   0  86
  0   0  90
  0   0  88
  0   0  84
  0   0  80
  0   0  76
  0   0  73
  0   0  71
  0   0  71
  0   0  71
  0   0  73
  0   0  76
  0   0  80
  0   0  84
  0   0  88
  0   0  90
  0   0  86
  0   0  65
 83   0   0
119   0   0
145   0   0
164   0   0
176   0   0
178   0   0
165   0   0
124   0   0
  0   0 133
  0   0 183
  0   0 206
  0   0 214
  0   0 207
  0   0 184
  0   0 136
121   0   0
165   0   0
178   0   0
176   0   0
165   0   0
145   0   0
117   0   0
 72   0   0
  0   0  83
  0   0 100
  0   0 105
  0   0 106
  0   0 104
  0   0  97
  0   0  76
 79   0   0
118   0   0
143   0   0
161   0   0
171   0   0
171   0   0
157   0   0
112   0   0
  0   0 134
  0   0 178
  0   0 200
  0   0 208
  0   0 202
  0   0 182
  0   0 141
102   0   0
155   0   0
171   0   0
173   0   0
164   0   0
147   0   0
123   0   0
 89   0   0
255 255 255
  0   0  88
  0   0  94
  0   0  93
  0   0  90
  0   0  85
  0   0  81
  0   0  78
  0   0  75
  0   0  73
  0   0  72
  0   0  72
  0   0  72
  0   0  72
  0   0  72
  0   0  73
  0   0  73
  0   0  74
  0   0  74
  0   0  75
  0   0  75
  0   0  76
  0   0  76
  0   0  77
  0   0  77
  0   0  77
  0   0  78
  0   0  78
  0   0  79
  0   0  80
  0   0  81
  0   0  82
  0   0  81
  0   0  81
  0   0  80
  0   0  79
  0   0  78
  0   0  78
  0   0  78
  0   0  79
  0   0  80
  0   0  81
  0   0  81
  0   0  82
  0   0  81
  0   0  80
  0   0  79
  0   0  78
  0   0  78
  0   0  77
  0   0  77
  0   0  77
  0   0  76
  0   0  76
  0   0  75
  0   0  75
  0   0  74
  0   0  74
  0   0  73
  0   0  73
  0   0  72
  0   0  72
  0   0  72
  0   0  72
  0   0  72
  0   0  73
  0   0  75
  0   0  78
  0   0  81
  0   0  85
  0   0  90
  0   0  93
  0   0  94
  0   0  88
255 255 255
 89   0   0
123   0   0
147   0   0
164   0   0
173   0   0
171   0   0
155   0   0
102   0   0
  0   0 141
  0   0 182
  0   0 202
  0   0 208
  0   0 200
  0   0 178
  0   0 134
112   0   0
157   0   0
171   0   0
171   0   0
161   0   0
143   0   0
118   0   0
 79   0   0
  0   0  76
  0   0  97
  0   0 104
  0   0 106
  0   0 105
  0   0 100
  0   0  83
 72   0   0
117   0   0
145   0   0
165   0   0
176   0   0
178   0   0
  0   0   0
  0   0   0
  0   0   0
  0   0   0
  0   0 175
  0   0 203
  0   0 214
  0   0 210
  0   0 191
  0   0 150
 98   0   0
158   0   0
176   0   0
177   0   0
168   0   0
151   0   0
126   0   0
 94   0   0
255 255 255
  0   0  83
  0   0  90
  0   0  89
  0   0  86
  0   0  82
  0   0  77
  0   0  74
  0   0  72
  0   0  71
  0   0  72
  0   0  74
  0   0  77
  0   0  82
  0   0  86
  0   0  89
  0   0  90
  0   0  83
255 255 255
 94   0   0
126   0   0
151   0   0
168   0   0
177   0   0
176   0   0
158   0   0
 98   0   0
  0   0 150
  0   0 191
  0   0 210
  0   0 214
  0   0 203
  0   0 175
  0   0 115
137   0   0
170   0   0
179   0   0
174   0   0
161   0   0
139   0   0
109   0   0
255 255 255
  0   0  89
  0   0 102
  0   0 106
  0   0 106
  0   0 103
  0   0  94
  0   0  66
 90   0   0
124   0   0
147   0   0
164   0   0
172   0   0
169   0   0
151   0   0
 88   0   0
  0   0 146
  0   0 184
  0   0 203
  0   0 208
  0   0 199
  0   0 176
  0   0 129
119   0   0
159   0   0
172   0   0
171   0   0
161   0   0
142   0   0
117   0   0
 78   0   0
  0   0  73
  0   0  92
  0   0  96
  0   0  95
  0   0  91
  0   0  87
  0   0  84
  0   0  81
  0   0  79
  0   0  78
  0   0  78
  0   0  77
  0   0  77
  0   0  78
  0   0  78
  0   0  79
  0   0  79
  0   0  80
  0   0  80
  0   0  81
  0   0  81
  0   0  82
  0   0  82
  0   0  83
  0   0  83
  0   0  83
  0   0  84
  0   0  84
  0   0  85
  0   0  86
  0   0  86
  0   0  87
  0   0  87
  0   0  86
  0   0  85
  0   0  84
  0   0  83
  0   0  83
  0   0  83
  0   0  84
  0   0  85
  0   0  86
  0   0  87
  0   0  87
  0   0  86
  0   0  86
  0   0  85
  0   0  84
  0   0  84
  0   0  83
  0   0  83
  0   0  83
  0   0  82
  0   0  82
  0   0  81
  0   0  81
  0   0  80
  0   0  80
  0   0  79
  0   0  79
  0   0  78
  0   0  78
  0   0  77
  0   0  77
  0   0  78
  0   0  78
  0   0  79
  0   0  81
  0   0  84
  0   0  87
  0   0  91
  0   0  95
  0   0  96
  0   0  92
  0   0  73
 78   0   0
117   0   0
142   0   0
161   0   0
171   0   0
172   0   0
159   0   0
119   0   0
  0   0 129
  0   0 176
  0   0 199
  0   0 208
  0   0 203
  0   0 184
  0   0 146
 88   0   0
151   0   0
169   0   0
172   0   0
164   0   0
147   0   0
124   0   0
 90   0   0
  0   0  66
  0   0  94
  0   0 103
  0   0 106
  0   0 106
  0   0 102
  0   0  89
255 255 255
109   0   0
139   0   0
161   0   0
174   0   0
179   0   0
  0   0   0
  0   0   0
  0   0   0
  0   0   0
  0   0 165
  0   0 198
  0   0 212
  0   0 212
  0   0 197
  0   0 164
  0   0  69
149   0   0
173   0   0
178   0   0
171   0   0
156   0   0
134   0   0
104   0   0
255 255 255
  0   0  79
  0   0  90
  0   0  91
  0   0  88
  0   0  83
  0   0  79
  0   0  75
  0   0  72
  0   0  72
  0   0  72
  0   0  75
  0   0  79
  0   0  83
  0   0  88
  0   0  91
  0   0  90
  0   0  79
255 255 255
104   0   0
134   0   0
156   0   0
171   0   0
178   0   0
173   0   0
149   0   0
  0   0  69
  0   0 164
  0   0 197
  0   0 212
  0   0 212
  0   0 198
  0   0 165
  0   0  73
149   0   0
173   0   0
179   0   0
172   0   0
156   0   0
133   0   0
 99   0   0
255 255 255
  0   0  93
  0   0 103
  0   0 106
  0   0 106
  0   0 101
  0   0  91
255 255 255
 99   0   0
130   0   0
151   0   0
166   0   0
172   0   0
167   0   0
144   0   0
255 255 255
  0   0 157
  0   0 190
  0   0 205
  0   0 207
  0   0 196
  0   0 169
  0   0 112
131   0   0
163   0   0
173   0   0
170   0   0
157   0   0
137   0   0
109   0   0
255 255 255
  0   0  82
  0   0  95
  0   0  98
  0   0  97
  0   0  94
  0   0  90
  0   0  87
  0   0  85
  0   0  84
  0   0  83
  0   0  83
  0   0  83
  0   0  83
  0   0  84
  0   0  84
  0   0  85
  0   0  85
  0   0  86
  0   0  86
  0   0  86
  0   0  86
  0   0  87
  0   0  87
  0   0  87
  0   0  87
  0   0  87
  0   0  88
  0   0  88
  0   0  88
  0   0  89
  0   0  89
  0   0  90
  0   0  90
  0   0  89
  0   0  88
  0   0  87
  0   0  86
  0   0  86
  0   0  86
  0   0  87
  0   0  88
  0   0  89
  0   0  90
  0   0  90
  0   0  89
  0   0  89
  0   0  88
  0   0  88
  0   0  88
  0   0  87
  0   0  87
  0   0  87
  0   0  87
  0   0  87
  0   0  86
  0   0  86
  0   0  86
  0   0  86
  0   0  85
  0   0  85
  0   0  84
  0   0  84
  0   0  83
  0   0  83
  0   0  83
  0   0  83
  0   0  84
  0   0  85
  0   0  87
  0   0  90
  0   0  94
  0   0  97
  0   0  98
  0   0  95
  0   0  82
255 255 255
109   0   0
137   0   0
157   0   0
170   0   0
173   0   0
163   0   0
131   0   0
  0   0 112
  0   0 169
  0   0 196
  0   0 207
  0   0 205
  0   0 190
  0   0 157
255 255 255
144   0   0
167   0   0
172   0   0
166   0   0
151   0   0
130   0   0
 99   0   0
255 255 255
  0   0  91
  0   0 101
  0   0 106
  0   0 106
  0   0 103
  0   0  93
255 255 255
 99   0   0
133   0   0
156   0   0
172   0   0
179   0   0
  0   0   0
  0   0   0
  0   0   0
  0   0   0
  0   0 151
  0   0 191
  0   0 210
  0   0 213
  0   0 203
  0   0 175
  0   0 115
136   0   0
169   0   0
178   0   0
174   0   0
161   0   0
141   0   0
113   0   0
 73   0   0
  0   0  73
  0   0  89
  0   0  91
  0   0  89
  0   0  84
  0   0  80
  0   0  76
  0   0  73
  0   0  72
  0   0  73
  0   0  76
  0   0  80
  0   0  84
  0   0  89
  0   0  91
  0   0  89
  0   0  73
 73   0   0
113   0   0
141   0   0
161   0   0
174   0   0
178   0   0
169   0   0
136   0   0
  0   0 115
  0   0 175
  0   0 203
  0   0 213
  0   0 210
  0   0 191
  0   0 151
 95   0   0
158   0   0
176   0   0
178   0   0
169   0   0
151   0   0
125   0   0
 88   0   0
  0   0  73
  0   0  97
  0   0 105
  0   0 107
  0   0 105
  0   0 100
  0   0  86
255 255 255
107   0   0
135   0   0
155   0   0
168   0   0
172   0   0
163   0   0
134   0   0
  0   0 104
  0   0 166
  0   0 194
  0   0 207
  0   0 206
  0   0 192
  0   0 161
  0   0  86
140   0   0
166   0   0
172   0   0
167   0   0
153   0   0
131   0   0
100   0   0
255 255 255
  0   0  90
  0   0  99
  0   0 101
  0   0 100
  0   0  97
  0   0  94
  0   0  91
  0   0  90
  0   0  89
  0   0  88
  0   0  88
  0   0  88
  0   0  88
  0   0  88
  0   0  88
  0   0  88
  0   0  88
  0   0  89
  0   0  88
  0   0  88
  0   0  88
  0   0  88
  0   0  88
  0   0  87
  0   0  87
  0   0  87
  0   0  87
  0   0  87
  0   0  86
  0   0  87
  0   0  87
  0   0  87
  0   0  86
  0   0  86
  0   0  84
  0   0  83
  0   0  82
  0   0  81
  0   0  82
  0   0  83
  0   0  84
  0   0  86
  0   0  86
  0   0  87
  0   0  87
  0   0  87
  0   0  86
  0   0  87
  0   0  87
  0   0  87
  0   0  87
  0   0  87
  0   0  88
  0   0  88
  0   0  88
  0   0  88
  0   0  88
  0   0  89
  0   0  88
  0   0  88
  0   0  88
  0   0  88
  0   0  88
  0   0  88
  0   0  88
  0   0  88
  0   0  89
  0   0  90
  0   0  91
  0   0  94
  0   0  97
  0   0 100
  0   0 101
  0   0  99
  0   0  90
255 255 255
100   0   0
131   0   0
153   0   0
167   0   0
172   0   0
166   0   0
140   0   0
  0   0  86
  0   0 161
  0   0 192
  0   0 206
  0   0 207
  0   0 194
  0   0 166
  0   0 104
134   0   0
163   0   0
172   0   0
168   0   0
155   0   0
135   0   0
107   0   0
255 255 255
  0   0  86
  0   0 100
  0   0 105
  0   0 107
  0   0 105
  0   0  97
  0   0  73
 88   0   0
125   0   0
151   0   0
169   0   0
178   0   0
  0   0   0
  0   0   0
  0   0   0
  0   0   0
  0   0 133
  0   0 183
  0   0 206
  0   0 214
  0   0 207
  0   0 185
  0   0 139
115   0   0
162   0   0
177   0   0
176   0   0
166   0   0
147   0   0
122   0   0
 87   0   0
255 255 255
  0   0  86
  0   0  91
  0   0  90
  0   0  86
  0   0  81
  0   0  77
  0   0  74
  0   0  73
  0   0  74
  0   0  77
  0   0  81
  0   0  86
  0   0  90
  0   0  91
  0   0  86
255 255 255
 87   0   0
122   0   0
147   0   0
166   0   0
176   0   0
177   0   0
162   0   0
115   0   0
  0   0 139
  0   0 185
  0   0 207
  0   0 214
  0   0 206
  0   0 183
  0   0 133
123   0   0
165   0   0
178   0   0
176   0   0
165   0   0
145   0   0
117   0   0
 73   0   0
  0   0  83
  0   0 100
  0   0 106
  0   0 107
  0   0 105
  0   0  98
  0   0  80
 72   0   0
114   0   0
140   0   0
159   0   0
170   0   0
171   0   0
159   0   0
120   0   0
  0   0 126
  0   0 175
  0   0 199
  0   0 208
  0   0 204
  0   0 187
  0   0 152
255 255 255
147   0   0
168   0   0
171   0   0
164   0   0
148   0   0
124   0   0
 87   0   0
  0   0  72
  0   0  97
  0   0 103
  0   0 104
  0   0 102
  0   0 100
  0   0  97
  0   0  95
  0   0  93
  0   0  92
  0   0  91
  0   0  91
  0   0  90
  0   0  90
  0   0  89
  0   0  89
  0   0  88
  0   0  87
  0   0  87
  0   0  86
  0   0  84
  0   0  83
  0   0  82
  0   0  81
  0   0  79
  0   0  77
  0   0  76
  0   0  75
  0   0  73
  0   0  72
  0   0  71
  0   0  71
  0   0  70
  0   0  68
  0   0  66
255 255 255
255 255 255
255 255 255
255 255 255
255 255 255
255 255 255
255 255 255
  0   0  66
  0   0  68
  0   0  70
  0   0  71
  0   0  71
  0   0  72
  0   0  73
  0   0  75
  0   0  76
  0   0  77
  0   0  79
  0   0  81
  0   0  82
  0   0  83
  0   0  84
  0   0  86
  0   0  87
  0   0  87
  0   0  88
  0   0  89
  0   0  89
  0   0  90
  0   0  90
  0   0  91
  0   0  91
  0   0  92
  0   0  93
  0   0  95
  0   0  97
  0   0 100
  0   0 102
  0   0 104
  0   0 103
  0   0  97
  0   0  72
 87   0   0
124   0   0
148   0   0
164   0   0
171   0   0
168   0   0
147   0   0
255 255 255
  0   0 152
  0   0 187
  0   0 204
  0   0 208
  0   0 199
  0   0 175
  0   0 126
120   0   0
159   0   0
171   0   0
170   0   0
159   0   0
140   0   0
114   0   0
 72   0   0
  0   0  80
  0   0  98
  0   0 105
  0   0 107
  0   0 106
  0   0 100
  0   0  83
 73   0   0
117   0   0
145   0   0
165   0   0
176   0   0
  0   0   0
  0   0   0
  0   0   0
  0   0   0
  0   0 106
  0   0 172
  0   0 201
  0   0 213
  0   0 211
  0   0 193
  0   0 157
 71   0   0
153   0   0
174   0   0
177   0   0
169   0   0
153   0   0
130   0   0
100   0   0
255 255 255
  0   0  82
  0   0  90
  0   0  91
  0   0  87
  0   0  83
  0   0  78
  0   0  75
  0   0  74
  0   0  75
  0   0  78
  0   0  83
  0   0  87
  0   0  91
  0   0  90
  0   0  82
255 255 255
100   0   0
130   0   0
153   0   0
169   0   0
177   0   0
174   0   0
153   0   0
 71   0   0
  0   0 157
  0   0 193
  0   0 211
  0   0 213
  0   0 201
  0   0 172
  0   0 106
140   0   0
171   0   0
179   0   0
174   0   0
160   0   0
138   0   0
108   0   0
255 255 255
  0   0  90
  0   0 102
  0   0 107
  0   0 107
  0   0 104
  0   0  95
  0   0  71
 85   0   0
121   0   0
145   0   0
162   0   0
171   0   0
169   0   0
153   0   0
 98   0   0
  0   0 142
  0   0 182
  0   0 202
  0   0 208
  0   0 202
  0   0 182
  0   0 141
100   0   0
153   0   0
169   0   0
170   0   0
160   0   0
142   0   0
115   0   0
 68   0   0
  0   0  86
  0   0 102
  0   0 107
  0   0 107
  0   0 104
  0   0 101
  0   0  98
  0   0  96
  0   0  94
  0   0  92
  0   0  90
  0   0  89
  0   0  87
  0   0  85
  0   0  83
  0   0  81
  0   0  78
  0   0  75
  0   0  71
  0   0  67
255 255 255
255 255 255
255 255 255
255 255 255
255 255 255
255 255 255
255 255 255
255 255 255
 68   0   0
 71   0   0
 73   0   0
 75   0   0
 76   0   0
 79   0   0
 81   0   0
 83   0   0
 85   0   0
 87   0   0
 87   0   0
 87   0   0
 85   0   0
 83   0   0
 81   0   0
 79   0   0
 76   0   0
 75   0   0
 73   0   0
 71   0   0
 68   0   0
255 255 255
255 255 255
255 255 255
255 255 255
255 255 255
255 255 255
255 255 255
255 255 255
  0   0  67
  0   0  71
  0   0  75
  0   0  78
  0   0  81
  0   0  83
  0   0  85
  0   0  87
  0   0  89
  0   0  90
  0   0  92
  0   0  94
  0   0  96
  0   0  98
  0   0 101
  0   0 104
  0   0 107
  0   0 107
  0   0 102
  0   0  86
 68   0   0
115   0   0
142   0   0
160   0   0
170   0   0
169   0   0
153   0   0
100   0   0
  0   0 141
  0   0 182
  0   0 202
  0   0 208
  0   0 202
  0   0 182
  0   0 142
 98   0   0
153   0   0
169   0   0
171   0   0
162   0   0
145   0   0
121   0   0
 85   0   0
  0   0  71
  0   0  95
  0   0 104
  0   0 107
  0   0 107
  0   0 102
  0   0  90
255 255 255
108   0   0
138   0   0
160   0   0
174   0   0
  0   0   0
  0   0   0
  0   0   0
  0   0   0
255 255 255
  0   0 159
  0   0 195
  0   0 211
  0   0 213
  0   0 200
  0   0 171
  0   0 103
140   0   0
170   0   0
177   0   0
173   0   0
159   0   0
138   0   0
111   0   0
 69   0   0
  0   0  74
  0   0  89
  0   0  91
  0   0  89
  0   0  84
  0   0  80
  0   0  77
  0   0  76
  0   0  77
  0   0  80
  0   0  84
  0   0  89
  0   0  91
  0   0  89
  0   0  74
 69   0   0
111   0   0
138   0   0
159   0   0
173   0   0
177   0   0
170   0   0
140   0   0
  0   0 103
  0   0 171
  0   0 200
  0   0 213
  0   0 211
  0   0 195
  0   0 159
255 255 255
153   0   0
175   0   0
179   0   0
171   0   0
155   0   0
131   0   0
 97   0   0
255 255 255
  0   0  95
  0   0 104
  0   0 107
  0   0 107
  0   0 103
  0   0  92
255 255 255
 96   0   0
128   0   0
150   0   0
165   0   0
171   0   0
166   0   0
144   0   0
255 255 255
  0   0 155
  0   0 189
  0   0 205
  0   0 209
  0   0 199
  0   0 175
  0   0 127
118   0   0
157   0   0
169   0   0
167   0   0
156   0   0
135   0   0
105   0   0
255 255 255
  0   0  94
  0   0 106
  0   0 108
  0   0 107
  0   0 103
  0   0  99
  0   0  95
  0   0  92
  0   0  88
  0   0  84
  0   0  80
  0   0  75
  0   0  69
255 255 255
255 255 255
255 255 255
255 255 255
 64   0   0
 72   0   0
 79   0   0
 84   0   0
 89   0   0
 93   0   0
 97   0   0
100   0   0
103   0   0
105   0   0
108   0   0
110   0   0
111   0   0
112   0   0
114   0   0
115   0   0
116   0   0
117   0   0
118   0   0
119   0   0
120   0   0
121   0   0
120   0   0
119   0   0
118   0   0
117   0   0
116   0   0
115   0   0
114   0   0
112   0   0
111   0   0
110   0   0
108   0   0
105   0   0
103   0   0
100   0   0
 97   0   0
 93   0   0
 89   0   0
 84   0   0
 79   0   0
 72   0   0
 64   0   0
255 255 255
255 255 255
255 255 255
255 255 255
  0   0  69
  0   0  75
  0   0  80
  0   0  84
  0   0  88
  0   0  92
  0   0  95
  0   0  99
  0   0 103
  0   0 107
  0   0 108
  0   0 106
  0   0  94
255 255 255
105   0   0
135   0   0
156   0   0
167   0   0
169   0   0
157   0   0
118   0   0
  0   0 127
  0   0 175
  0   0 199
  0   0 209
  0   0 205
  0   0 189
  0   0 155
255 255 255
144   0   0
166   0   0
171   0   0
165   0   0
150   0   0
128   0   0
 96   0   0
255 255 255
  0   0  92
  0   0 103
  0   0 107
  0   0 107
  0   0 104
  0   0  95
255 255 255
 97   0   0
131   0   0
155   0   0
171   0   0
  0   0   0
  0   0   0
  0   0   0
  0   0   0
112   0   0
  0   0 142
  0   0 187
  0   0 208
  0   0 214
  0   0 206
  0   0 182
  0   0 134
121   0   0
163   0   0
176   0   0
175   0   0
164   0   0
146   0   0
121   0   0
 86   0   0
255 255 255
  0   0  86
  0   0  91
  0   0  90
  0   0  86
  0   0  82
  0   0  79
  0   0  78
  0   0  79
  0   0  82
  0   0  86
  0   0  90
  0   0  91
  0   0  86
255 255 255
 86   0   0
121   0   0
146   0   0
164   0   0
175   0   0
176   0   0
163   0   0
121   0   0
  0   0 134
  0   0 182
  0   0 206
  0   0 214
  0   0 208
  0   0 187
  0   0 142
112   0   0
162   0   0
177   0   0
177   0   0
167   0   0
149   0   0
122   0   0
 83   0   0
  0   0  78
  0   0  99
  0   0 106
  0   0 108
  0   0 106
  0   0 101
  0   0  88
255 255 255
105   0   0
134   0   0
154   0   0
167   0   0
171   0   0
162   0   0
133   0   0
  0   0 104
  0   0 166
  0   0 195
  0   0 208
  0   0 208
  0   0 195
  0   0 168
  0   0 109
130   0   0
161   0   0
169   0   0
165   0   0
151   0   0
128   0   0
 94   0   0
  0   0  67
  0   0  97
  0   0 105
  0   0 106
  0   0 102
  0   0  97
  0   0  90
  0   0  82
  0   0  73
255 255 255
255 255 255
255 255 255
 69   0   0
 79   0   0
 86   0   0
 93   0   0
 98   0   0
104   0   0
108   0   0
112   0   0
116   0   0
119   0   0
122   0   0
125   0   0
127   0   0
130   0   0
132   0   0
134   0   0
135   0   0
137   0   0
138   0   0
139   0   0
140   0   0
141   0   0
142   0   0
142   0   0
143   0   0
144   0   0
145   0   0
145   0   0
145   0   0
144   0   0
143   0   0
142   0   0
142   0   0
141   0   0
140   0   0
139   0   0
138   0   0
137   0   0
135   0   0
134   0   0
132   0   0
130   0   0
127   0   0
125   0   0
122   0   0
119   0   0
116   0   0
112   0   0
108   0   0
104   0   0
 98   0   0
 93   0   0
 86   0   0
 79   0   0
 69   0   0
255 255 255
255 255 255
255 255 255
  0   0  73
  0   0  82
  0   0  90
  0   0  97
  0   0 102
  0   0 106
  0   0 105
  0   0  97
  0   0  67
 94   0   0
128   0   0
151   0   0
165   0   0
169   0   0
161   0   0
130   0   0
  0   0 109
  0   0 168
  0   0 195
  0   0 208
  0   0 208
  0   0 195
  0   0 166
  0   0 104
133   0   0
162   0   0
171   0   0
167   0   0
154   0   0
134   0   0
105   0   0
255 255 255
  0   0  88
  0   0 101
  0   0 106
  0   0 108
  0   0 106
  0   0  99
  0   0  78
 83   0   0
122   0   0
149   0   0
167   0   0
  0   0   0
  0   0   0
  0   0   0
  0   0   0
134   0   0
  0   0 119
  0   0 176
  0   0 203
  0   0 214
  0   0 210
  0   0 192
  0   0 154
 80   0   0
154   0   0
174   0   0
177   0   0
169   0   0
153   0   0
130   0   0
100   0   0
255 255 255
  0   0  81
  0   0  90
  0   0  91
  0   0  88
  0   0  84
  0   0  82
  0   0  81
  0   0  82
  0   0  84
  0   0  88
  0   0  91
  0   0  90
  0   0  81
255 255 255
100   0   0
130   0   0
153   0   0
169   0   0
177   0   0
174   0   0
154   0   0
 80   0   0
  0   0 154
  0   0 192
  0   0 210
  0   0 214
  0   0 203
  0   0 176
  0   0 119
134   0   0
169   0   0
179   0   0
176   0   0
163   0   0
142   0   0
113   0   0
255 255 255
  0   0  87
  0   0 102
  0   0 107
  0   0 108
  0   0 106
  0   0 100
  0   0  83
 69   0   0
113   0   0
139   0   0
158   0   0
168   0   0
169   0   0
157   0   0
116   0   0
  0   0 129
  0   0 176
  0   0 200
  0   0 209
  0   0 207
  0   0 191
  0   0 159
  0   0  77
140   0   0
164   0   0
169   0   0
162   0   0
147   0   0
123   0   0
 87   0   0
  0   0  69
  0   0  93
  0   0  97
  0   0  94
  0   0  86
  0   0  72
255 255 255
255 255 255
 78   0   0
 89   0   0
 98   0   0
104   0   0
110   0   0
116   0   0
120   0   0
125   0   0
129   0   0
132   0   0
136   0   0
139   0   0
141   0   0
144   0   0
146   0   0
148   0   0
150   0   0
152   0   0
153   0   0
155   0   0
156   0   0
157   0   0
158   0   0
159   0   0
159   0   0
160   0   0
160   0   0
161   0   0
162   0   0
162   0   0
163   0   0
163   0   0
163   0   0
162   0   0
162   0   0
161   0   0
160   0   0
160   0   0
159   0   0
159   0   0
158   0   0
157   0   0
156   0   0
155   0   0
153   0   0
152   0   0
150   0   0
148   0   0
146   0   0
144   0   0
141   0   0
139   0   0
136   0   0
132   0   0
129   0   0
125   0   0
120   0   0
116   0   0
110   0   0
104   0   0
 98   0   0
 89   0   0
 78   0   0
255 255 255
255 255 255
  0   0  72
  0   0  86
  0   0  94
  0   0  97
  0   0  93
  0   0  69
 87   0   0
123   0   0
147   0   0
162   0   0
169   0   0
164   0   0
140   0   0
  0   0  77
  0   0 159
  0   0 191
  0   0 207
  0   0 209
  0   0 200
  0   0 176
  0   0 129
116   0   0
157   0   0
169   0   0
168   0   0
158   0   0
139   0   0
113   0   0
 69   0   0
  0   0  83
  0   0 100
  0   0 106
  0   0 108
  0   0 107
  0   0 102
  0   0  87
255 255 255
113   0   0
142   0   0
163   0   0
  0   0   0
  0   0   0
  0   0   0
  0   0   0
149   0   0
  0   0  69
  0   0 163
  0   0 197
  0   0 212
  0   0 213
  0   0 200
  0   0 170
  0   0 101
141   0   0
169   0   0
177   0   0
173   0   0
159   0   0
139   0   0
112   0   0
 72   0   0
  0   0  73
  0   0  88
  0   0  92
  0   0  90
  0   0  87
  0   0  84
  0   0  83
  0   0  84
  0   0  87
  0   0  90
  0   0  92
  0   0  88
  0   0  73
 72   0   0
112   0   0
139   0   0
159   0   0
173   0   0
177   0   0
169   0   0
141   0   0
  0   0 101
  0   0 170
  0   0 200
  0   0 213
  0   0 212
  0   0 197
  0   0 163
  0   0  69
149   0   0
173   0   0
179   0   0
172   0   0
157   0   0
134   0   0
102   0   0
255 255 255
  0   0  94
  0   0 105
  0   0 109
  0   0 109
  0   0 106
  0   0  98
  0   0  75
 83   0   0
120   0   0
144   0   0
161   0   0
169   0   0
167   0   0
149   0   0
 85   0   0
  0   0 146
  0   0 185
  0   0 204
  0   0 210
  0   0 204
  0   0 185
  0   0 147
 83   0   0
149   0   0
167   0   0
169   0   0
161   0   0
145   0   0
122   0   0
 92   0   0
255 255 255
  0   0  69
  0   0  67
255 255 255
 68   0   0
 87   0   0
100   0   0
109   0   0
117   0   0
123   0   0
128   0   0
133   0   0
138   0   0
141   0   0
145   0   0
148   0   0
151   0   0
154   0   0
156   0   0
158   0   0
160   0   0
162   0   0
163   0   0
165   0   0
166   0   0
167   0   0
168   0   0
169   0   0
169   0   0
170   0   0
170   0   0
171   0   0
171   0   0
171   0   0
171   0   0
172   0   0
172   0   0
173   0   0
173   0   0
173   0   0
173   0   0
173   0   0
172   0   0
172   0   0
171   0   0
171   0   0
171   0   0
171   0   0
170   0   0
170   0   0
169   0   0
169   0   0
168   0   0
167   0   0
166   0   0
165   0   0
163   0   0
162   0   0
160   0   0
158   0   0
156   0   0
154   0   0
151   0   0
148   0   0
145   0   0
141   0   0
138   0   0
133   0   0
128   0   0
123   0   0
117   0   0
109   0   0
100   0   0
 87   0   0
 68   0   0
255 255 255
  0   0  67
  0   0  69
255 255 255
 92   0   0
122   0   0
145   0   0
161   0   0
169   0   0
167   0   0
149   0   0
 83   0   0
  0   0 147
  0   0 185
  0   0 204
  0   0 210
  0   0 204
  0   0 185
  0   0 146
 85   0   0
149   0   0
167   0   0
169   0   0
161   0   0
144   0   0
120   0   0
 83   0   0
  0   0  75
  0   0  98
  0   0 106
  0   0 109
  0   0 109
  0   0 105
  0   0  94
255 255 255
102   0   0
134   0   0
157   0   0
  0   0   0
  0   0   0
  0   0   0
  0   0   0
160   0   0
104   0   0
  0   0 147
  0   0 188
  0   0 209
  0   0 214
  0   0 206
  0   0 182
  0   0 134
120   0   0
163   0   0
176   0   0
175   0   0
165   0   0
147   0   0
123   0   0
 90   0   0
255 255 255
  0   0  85
  0   0  92
  0   0  92
  0   0  90
  0   0  88
  0   0  86
  0   0  88
  0   0  90
  0   0  92
  0   0  92
  0   0  85
255 255 255
 90   0   0
123   0   0
147   0   0
165   0   0
175   0   0
176   0   0
163   0   0
120   0   0
  0   0 134
  0   0 182
  0   0 206
  0   0 214
  0   0 209
  0   0 188
  0   0 147
104   0   0
160   0   0
176   0   0
178   0   0
168   0   0
151   0   0
125   0   0
 88   0   0
  0   0  74
  0   0  99
  0   0 107
  0   0 110
  0   0 109
  0   0 105
  0   0  95
255 255 255
 93   0   0
126   0   0
149   0   0
163   0   0
169   0   0
163   0   0
138   0   0
  0   0  85
  0   0 160
  0   0 192
  0   0 207
  0   0 210
  0   0 201
  0   0 177
  0   0 130
116   0   0
158   0   0
171   0   0
171   0   0
162   0   0
147   0   0
127   0   0
107   0   0
 92   0   0
 87   0   0
 94   0   0
105   0   0
115   0   0
124   0   0
131   0   0
137   0   0
142   0   0
147   0   0
151   0   0
154   0   0
157   0   0
160   0   0
162   0   0
165   0   0
166   0   0
168   0   0
169   0   0
171   0   0
171   0   0
172   0   0
173   0   0
173   0   0
174   0   0
174   0   0
174   0   0
174   0   0
174   0   0
174   0   0
174   0   0
173   0   0
173   0   0
173   0   0
173   0   0
173   0   0
173   0   0
173   0   0
173   0   0
174   0   0
173   0   0
173   0   0
173   0   0
173   0   0
173   0   0
173   0   0
173   0   0
173   0   0
174   0   0
174   0   0
174   0   0
174   0   0
174   0   0
174   0   0
174   0   0
173   0   0
173   0   0
172   0   0
171   0   0
171   0   0
169   0   0
168   0   0
166   0   0
165   0   0
162   0   0
160   0   0
157   0   0
154   0   0
151   0   0
147   0   0
142   0   0
137   0   0
131   0   0
124   0   0
115   0   0
105   0   0
 94   0   0
 87   0   0
 92   0   0
107   0   0
127   0   0
147   0   0
162   0   0
171   0   0
171   0   0
158   0   0
116   0   0
  0   0 130
  0   0 177
  0   0 201
  0   0 210
  0   0 207
  0   0 192
  0   0 160
  0   0  85
138   0   0
163   0   0
169   0   0
163   0   0
149   0   0
126   0   0
 93   0   0
255 255 255
  0   0  95
  0   0 105
  0   0 109
  0   0 110
  0   0 107
  0   0  99
  0   0  74
 88   0   0
125   0   0
151   0   0
  0   0   0
  0   0   0
  0   0   0
  0   0   0
167   0   0
131   0   0
  0   0 123
  0   0 178
  0   0 204
  0   0 214
  0   0 210
  0   0 193
  0   0 156
 72   0   0
153   0   0
173   0   0
177   0   0
170   0   0
155   0   0
133   0   0
104   0   0
255 255 255
  0   0  80
  0   0  91
  0   0  93
  0   0  92
  0   0  91
  0   0  90
  0   0  91
  0   0  92
  0   0  93
  0   0  91
  0   0  80
255 255 255
104   0   0
133   0   0
155   0   0
170   0   0
177   0   0
173   0   0
153   0   0
 72   0   0
  0   0 156
  0   0 193
  0   0 210
  0   0 214
  0   0 204
  0   0 178
  0   0 123
131   0   0
167   0   0
178   0   0
176   0   0
163   0   0
143   0   0
115   0   0
 67   0   0
  0   0  86
  0   0 103
  0   0 109
  0   0 111
  0   0 110
  0   0 105
  0   0  93
255 255 255
102   0   0
132   0   0
152   0   0
165   0   0
167   0   0
157   0   0
123   0   0
  0   0 119
  0   0 171
  0   0 198
  0   0 209
  0   0 209
  0   0 195
  0   0 166
  0   0  99
138   0   0
167   0   0
177   0   0
175   0   0
166   0   0
153   0   0
139   0   0
127   0   0
122   0   0
123   0   0
128   0   0
135   0   0
142   0   0
148   0   0
153   0   0
157   0   0
161   0   0
164   0   0
166   0   0
168   0   0
170   0   0
171   0   0
172   0   0
173   0   0
174   0   0
174   0   0
174   0   0
174   0   0
173   0   0
173   0   0
172   0   0
171   0   0
171   0   0
170   0   0
169   0   0
168   0   0
166   0   0
165   0   0
164   0   0
163   0   0
162   0   0
161   0   0
161   0   0
160   0   0
160   0   0
160   0   0
160   0   0
160   0   0
160   0   0
160   0   0
160   0   0
160   0   0
161   0   0
161   0   0
162   0   0
163   0   0
164   0   0
165   0   0
166   0   0
168   0   0
169   0   0
170   0   0
171   0   0
171   0   0
172   0   0
173   0   0
173   0   0
174   0   0
174   0   0
174   0   0
174   0   0
173   0   0
172   0   0
171   0   0
170   0   0
168   0   0
166   0   0
164   0   0
161   0   0
157   0   0
153   0   0
148   0   0
142   0   0
135   0   0
128   0   0
123   0   0
122   0   0
127   0   0
139   0   0
153   0   0
166   0   0
175   0   0
177   0   0
167   0   0
138   0   0
  0   0  99
  0   0 166
  0   0 195
  0   0 209
  0   0 209
  0   0 198
  0   0 171
  0   0 119
123   0   0
157   0   0
167   0   0
165   0   0
152   0   0
132   0   0
102   0   0
255 255 255
  0   0  93
  0   0 105
  0   0 110
  0   0 111
  0   0 109
  0   0 103
  0   0  86
 67   0   0
115   0   0
143   0   0
  0   0   0
  0   0   0
  0   0   0
  0   0   0
172   0   0
148   0   0
  0   0  75
  0   0 164
  0   0 197
  0   0 212
  0   0 213
  0   0 201
  0   0 172
  0   0 109
137   0   0
168   0   0
177   0   0
174   0   0
161   0   0
142   0   0
116   0   0
 79   0   0
  0   0  70
  0   0  89
  0   0  94
  0   0  95
  0   0  94
  0   0  93
  0   0  94
  0   0  95
  0   0  94
  0   0  89
  0   0  70
 79   0   0
116   0   0
142   0   0
161   0   0
174   0   0
177   0   0
168   0   0
137   0   0
  0   0 109
  0   0 172
  0   0 201
  0   0 213
  0   0 212
  0   0 197
  0   0 164
  0   0  75
148   0   0
172   0   0
178   0   0
172   0   0
157   0   0
135   0   0
102   0   0
255 255 255
  0   0  95
  0   0 107
  0   0 111
  0   0 112
  0   0 110
  0   0 105
  0   0  89
255 255 255
110   0   0
138   0   0
156   0   0
166   0   0
165   0   0
150   0   0
 99   0   0
  0   0 139
  0   0 180
  0   0 201
  0   0 209
  0   0 204
  0   0 186
  0   0 148
 94   0   0
157   0   0
178   0   0
185   0   0
182   0   0
174   0   0
163   0   0
153   0   0
147   0   0
145   0   0
147   0   0
151   0   0
156   0   0
160   0   0
164   0   0
167   0   0
170   0   0
171   0   0
173   0   0
173   0   0
174   0   0
174   0   0
173   0   0
172   0   0
171   0   0
170   0   0
168   0   0
167   0   0
164   0   0
162   0   0
160   0   0
157   0   0
154   0   0
151   0   0
148   0   0
145   0   0
142   0   0
139   0   0
135   0   0
132   0   0
129   0   0
126   0   0
123   0   0
121   0   0
119   0   0
118   0   0
118   0   0
118   0   0
117   0   0
118   0   0
118   0   0
118   0   0
119   0   0
121   0   0
123   0   0
126   0   0
129   0   0
132   0   0
135   0   0
139   0   0
142   0   0
145   0   0
148   0   0
151   0   0
154   0   0
157   0   0
160   0   0
162   0   0
164   0   0
167   0   0
168   0   0
170   0   0
171   0   0
172   0   0
173   0   0
174   0   0
174   0   0
173   0   0
173   0   0
171   0   0
170   0   0
167   0   0
164   0   0
160   0   0
156   0   0
151   0   0
147   0   0
145   0   0
147   0   0
153   0   0
163   0   0
174   0   0
182   0   0
185   0   0
178   0   0
157   0   0
 94   0   0
  0   0 148
  0   0 186
  0   0 204
  0   0 209
  0   0 201
  0   0 180
  0   0 139
 99   0   0
150   0   0
165   0   0
166   0   0
156   0   0
138   0   0
110   0   0
255 255 255
  0   0  89
  0   0 105
  0   0 110
  0   0 112
  0   0 111
  0   0 107
  0   0  95
255 255 255
102   0   0
135   0   0
  0   0   0
  0   0   0
  0   0   0
  0   0   0
176   0   0
159   0   0
104   0   0
  0   0 146
  0   0 188
  0   0 208
  0   0 214
  0   0 207
  0   0 185
  0   0 140
112   0   0
160   0   0
175   0   0
176   0   0
167   0   0
150   0   0
127   0   0
 95   0   0
255 255 255
  0   0  86
  0   0  95
  0   0  97
  0   0  97
  0   0  96
  0   0  97
  0   0  97
  0   0  95
  0   0  86
255 255 255
 95   0   0
127   0   0
150   0   0
167   0   0
176   0   0
175   0   0
160   0   0
112   0   0
  0   0 140
  0   0 185
  0   0 207
  0   0 214
  0   0 208
  0   0 188
  0   0 146
104   0   0
159   0   0
176   0   0
177   0   0
168   0   0
150   0   0
124   0   0
 84   0   0
  0   0  79
  0   0 102
  0   0 110
  0   0 113
  0   0 113
  0   0 111
  0   0 104
  0   0  84
 76   0   0
118   0   0
143   0   0
159   0   0
167   0   0
163   0   0
142   0   0
255 255 255
  0   0 151
  0   0 185
  0   0 202
  0   0 206
  0   0 197
  0   0 171
  0   0 112
139   0   0
175   0   0
190   0   0
194   0   0
191   0   0
183   0   0
174   0   0
166   0   0
162   0   0
161   0   0
162   0   0
165   0   0
167   0   0
170   0   0
171   0   0
172   0   0
173   0   0
172   0   0
171   0   0
170   0   0
167   0   0
165   0   0
162   0   0
158   0   0
154   0   0
150   0   0
145   0   0
139   0   0
133   0   0
126   0   0
118   0   0
108   0   0
 97   0   0
 81   0   0
255 255 255
  0   0  65
  0   0  85
  0   0  97
  0   0 105
  0   0 112
  0   0 118
  0   0 122
  0   0 125
  0   0 128
  0   0 129
  0   0 131
  0   0 131
  0   0 131
  0   0 131
  0   0 131
  0   0 131
  0   0 131
  0   0 129
  0   0 128
  0   0 125
  0   0 122
  0   0 118
  0   0 112
  0   0 105
  0   0  97
  0   0  85
  0   0  65
255 255 255
 81   0   0
 97   0   0
108   0   0
118   0   0
126   0   0
133   0   0
139   0   0
145   0   0
150   0   0
154   0   0
158   0   0
162   0   0
165   0   0
167   0   0
170   0   0
171   0   0
172   0   0
173   0   0
172   0   0
171   0   0
170   0   0
167   0   0
165   0   0
162   0   0
161   0   0
162   0   0
166   0   0
174   0   0
183   0   0
191   0   0
194   0   0
190   0   0
175   0   0
139   0   0
  0   0 112
  0   0 171
  0   0 197
  0   0 206
  0   0 202
  0   0 185
  0   0 151
255 255 255
142   0   0
163   0   0
167   0   0
159   0   0
143   0   0
118   0   0
 76   0   0
  0   0  84
  0   0 104
  0   0 111
  0   0 113
  0   0 113
  0   0 110
  0   0 102
  0   0  79
 84   0   0
124   0   0
  0   0   0
  0   0   0
  0   0   0
  0   0   0
177   0   0
167   0   0
133   0   0
  0   0 119
  0   0 176
  0   0 203
  0   0 214
  0   0 211
  0   0 195
  0   0 161
255 255 255
148   0   0
172   0   0
177   0   0
171   0   0
158   0   0
137   0   0
109   0   0
 64   0   0
  0   0  79
  0   0  94
  0   0  99
  0   0 100
  0   0 100
  0   0 100
  0   0  99
  0   0  94
  0   0  79
 64   0   0
109   0   0
137   0   0
158   0   0
171   0   0
177   0   0
172   0   0
148   0   0
255 255 255
  0   0 161
  0   0 195
  0   0 211
  0   0 214
  0   0 203
  0   0 176
  0   0 119
133   0   0
167   0   0
177   0   0
174   0   0
162   0   0
141   0   0
111   0   0
255 255 255
  0   0  93
  0   0 108
  0   0 113
  0   0 115
  0   0 115
  0   0 111
  0   0 102
  0   0  74
 91   0   0
126   0   0
149   0   0
163   0   0
168   0   0
161   0   0
135   0   0
  0   0  91
  0   0 159
  0   0 188
  0   0 200
  0   0 199
  0   0 184
  0   0 147
104   0   0
167   0   0
191   0   0
201   0   0
203   0   0
198   0   0
191   0   0
182   0   0
175   0   0
171   0   0
169   0   0
169   0   0
169   0   0
169   0   0
169   0   0
168   0   0
166   0   0
163   0   0
159   0   0
155   0   0
149   0   0
143   0   0
135   0   0
126   0   0
114   0   0
 99   0   0
 74   0   0
  0   0  64
  0   0  94
  0   0 110
  0   0 121
  0   0 131
  0   0 138
  0   0 144
  0   0 150
  0   0 154
  0   0 158
  0   0 162
  0   0 165
  0   0 168
  0   0 170
  0   0 172
  0   0 174
  0   0 175
  0   0 176
  0   0 177
  0   0 177
  0   0 178
  0   0 178
  0   0 178
  0   0 178
  0   0 178
  0   0 177
  0   0 177
  0   0 176
  0   0 175
  0   0 174
  0   0 172
  0   0 170
  0   0 168
  0   0 165
  0   0 162
  0   0 158
  0   0 154
  0   0 150
  0   0 144
  0   0 138
  0   0 131
  0   0 121
  0   0 110
  0   0  94
  0   0  64
 74   0   0
 99   0   0
114   0   0
126   0   0
135   0   0
143   0   0
149   0   0
155   0   0
159   0   0
163   0   0
166   0   0
168   0   0
169   0   0
169   0   0
169   0   0
169   0   0
169   0   0
171   0   0
175   0   0
182   0   0
191   0   0
198   0   0
203   0   0
201   0   0
191   0   0
167   0   0
104   0   0
  0   0 147
  0   0 184
  0   0 199
  0   0 200
  0   0 188
  0   0 159
  0   0  91
135   0   0
161   0   0
168   0   0
163   0   0
149   0   0
126   0   0
 91   0   0
  0   0  74
  0   0 102
  0   0 111
  0   0 115
  0   0 115
  0   0 113
  0   0 108
  0   0  93
255 255 255
111   0   0
  0   0   0
  0   0   0
  0   0   0
  0   0   0
177   0   0
172   0   0
150   0   0
255 255 255
  0   0 160
  0   0 195
  0   0 211
  0   0 214
  0   0 203
  0   0 177
  0   0 123
128   0   0
165   0   0
176   0   0
175   0   0
164   0   0
146   0   0
121   0   0
 86   0   0
  0   0  66
  0   0  92
  0   0 100
  0   0 102
  0   0 103
  0   0 102
  0   0 100
  0   0  92
  0   0  66
 86   0   0
121   0   0
146   0   0
164   0   0
175   0   0
176   0   0
165   0   0
128   0   0
  0   0 123
  0   0 177
  0   0 203
  0   0 214
  0   0 211
  0   0 195
  0   0 160
255 255 255
150   0   0
172   0   0
177   0   0
170   0   0
155   0   0
131   0   0
 94   0   0
  0   0  73
  0   0 103
  0   0 113
  0   0 117
  0   0 117
  0   0 116
  0   0 110
  0   0  97
255 255 255
106   0   0
136   0   0
156   0   0
168   0   0
170   0   0
160   0   0
129   0   0
  0   0 105
  0   0 162
  0   0 186
  0   0 195
  0   0 188
  0   0 164
  0   0  93
151   0   0
187   0   0
204   0   0
210   0   0
209   0   0
203   0   0
194   0   0
185   0   0
177   0   0
171   0   0
167   0   0
164   0   0
161   0   0
157   0   0
153   0   0
147   0   0
140   0   0
131   0   0
119   0   0
102   0   0
 71   0   0
  0   0  77
  0   0 105
  0   0 121
  0   0 133
  0   0 143
  0   0 151
  0   0 158
  0   0 164
  0   0 169
  0   0 173
  0   0 177
  0   0 181
  0   0 184
  0   0 186
  0   0 189
  0   0 191
  0   0 192
  0   0 194
  0   0 195
  0   0 196
  0   0 197
  0   0 198
  0   0 199
  0   0 199
  0   0 200
  0   0 200
  0   0 200
  0   0 200
  0   0 200
  0   0 200
  0   0 200
  0   0 200
  0   0 200
  0   0 199
  0   0 199
  0   0 198
  0   0 197
  0   0 196
  0   0 195
  0   0 194
  0   0 192
  0   0 191
  0   0 189
  0   0 186
  0   0 184
  0   0 181
  0   0 177
  0   0 173
  0   0 169
  0   0 164
  0   0 158
  0   0 151
  0   0 143
  0   0 133
  0   0 121
  0   0 105
  0   0  77
 71   0   0
102   0   0
119   0   0
131   0   0
140   0   0
147   0   0
153   0   0
157   0   0
161   0   0
164   0   0
167   0   0
171   0   0
177   0   0
185   0   0
194   0   0
203   0   0
209   0   0
210   0   0
204   0   0
187   0   0
151   0   0
  0   0  93
  0   0 164
  0   0 188
  0   0 195
  0   0 186
  0   0 162
  0   0 105
129   0   0
160   0   0
170   0   0
168   0   0
156   0   0
136   0   0
106   0   0
255 255 255
  0   0  97
  0   0 110
  0   0 116
  0   0 117
  0   0 117
  0   0 113
  0   0 103
  0   0  73
 94   0   0
  0   0   0
  0   0   0
  0   0   0
  0   0   0
175   0   0
176   0   0
161   0   0
114   0   0
  0   0 139
  0   0 184
  0   0 207
  0   0 214
  0   0 209
  0   0 190
  0   0 151
 88   0   0
154   0   0
173   0   0
177   0   0
169   0   0
154   0   0
132   0   0
103   0   0
255 255 255
  0   0  88
  0   0 100
  0   0 104
  0   0 105
  0   0 104
  0   0 100
  0   0  88
255 255 255
103   0   0
132   0   0
154   0   0
169   0   0
177   0   0
173   0   0
154   0   0
 88   0   0
  0   0 151
  0   0 190
  0   0 209
  0   0 214
  0   0 207
  0   0 184
  0   0 139
114   0   0
161   0   0
176   0   0
175   0   0
165   0   0
146   0   0
118   0   0
 65   0   0
  0   0  93
  0   0 110
  0   0 117
  0   0 119
  0   0 119
  0   0 116
  0   0 107
  0   0  86
 80   0   0
122   0   0
148   0   0
165   0   0
174   0   0
174   0   0
162   0   0
128   0   0
  0   0 108
  0   0 160
  0   0 181
  0   0 185
  0   0 172
  0   0 132
124   0   0
176   0   0
200   0   0
212   0   0
214   0   0
210   0   0
201   0   0
190   0   0
178   0   0
167   0   0
158   0   0
149   0   0
140   0   0
130   0   0
118   0   0
100   0   0
255 255 255
  0   0  86
  0   0 112
  0   0 129
  0   0 141
  0   0 151
  0   0 160
  0   0 167
  0   0 173
  0   0 178
  0   0 183
  0   0 187
  0   0 190
  0   0 193
  0   0 196
  0   0 198
  0   0 200
  0   0 201
  0   0 203
  0   0 204
  0   0 205
  0   0 205
  0   0 206
  0   0 206
  0   0 207
  0   0 207
  0   0 207
  0   0 207
  0   0 207
  0   0 207
  0   0 207
  0   0 207
  0   0 207
  0   0 207
  0   0 207
  0   0 207
  0   0 207
  0   0 207
  0   0 207
  0   0 207
  0   0 207
  0   0 207
  0   0 207
  0   0 207
  0   0 207
  0   0 206
  0   0 206
  0   0 205
  0   0 205
  0   0 204
  0   0 203
  0   0 201
  0   0 200
  0   0 198
  0   0 196
  0   0 193
  0   0 190
  0   0 187
  0   0 183
  0   0 178
  0   0 173
  0   0 167
  0   0 160
  0   0 151
  0   0 141
  0   0 129
  0   0 112
  0   0  86
255 255 255
100   0   0
118   0   0
130   0   0
140   0   0
149   0   0
158   0   0
167   0   0
178   0   0
190   0   0
201   0   0
210   0   0
214   0   0
212   0   0
200   0   0
176   0   0
124   0   0
  0   0 132
  0   0 172
  0   0 185
  0   0 181
  0   0 160
  0   0 108
128   0   0
162   0   0
174   0   0
174   0   0
165   0   0
148   0   0
122   0   0
 80   0   0
  0   0  86
  0   0 107
  0   0 116
  0   0 119
  0   0 119
  0   0 117
  0   0 110
  0   0  93
 65   0   0
  0   0   0
  0   0   0
  0   0   0
  0   0   0
172   0   0
177   0   0
168   0   0
139   0   0
  0   0 105
  0   0 170
  0   0 200
  0   0 213
  0   0 213
  0   0 199
  0   0 170
  0   0 105
138   0   0
168   0   0
176   0   0
173   0   0
161   0   0
142   0   0
116   0   0
 75   0   0
  0   0  80
  0   0  99
  0   0 106
  0   0 108
  0   0 106
  0   0  99
  0   0  80
 75   0   0
116   0   0
142   0   0
161   0   0
173   0   0
176   0   0
168   0   0
138   0   0
  0   0 105
  0   0 170
  0   0 199
  0   0 213
  0   0 213
  0   0 200
  0   0 170
  0   0 105
139   0   0
168   0   0
177   0   0
172   0   0
158   0   0
135   0   0
101   0   0
  0   0  69
  0   0 104
  0   0 116
  0   0 120
  0   0 120
  0   0 118
  0   0 112
  0   0  98
255 255 255
108   0   0
139   0   0
161   0   0
176   0   0
183   0   0
180   0   0
166   0   0
131   0   0
  0   0 103
  0   0 155
  0   0 173
  0   0 172
  0   0 150
255 255 255
156   0   0
190   0   0
207   0   0
214   0   0
212   0   0
204   0   0
191   0   0
175   0   0
157   0   0
138   0   0
116   0   0
 83   0   0
  0   0  77
  0   0 109
  0   0 127
  0   0 141
  0   0 152
  0   0 161
  0   0 169
  0   0 176
  0   0 182
  0   0 187
  0   0 191
  0   0 195
  0   0 198
  0   0 200
  0   0 202
  0   0 204
  0   0 205
  0   0 206
  0   0 207
  0   0 207
  0   0 207
  0   0 207
  0   0 207
  0   0 207
  0   0 206
  0   0 206
  0   0 205
  0   0 205
  0   0 204
  0   0 204
  0   0 203
  0   0 203
  0   0 202
  0   0 202
  0   0 201
  0   0 201
  0   0 200
  0   0 200
  0   0 200
  0   0 200
  0   0 200
  0   0 201
  0   0 201
  0   0 202
  0   0 202
  0   0 203
  0   0 203
  0   0 204
  0   0 204
  0   0 205
  0   0 205
  0   0 206
  0   0 206
  0   0 207
  0   0 207
  0   0 207
  0   0 207
  0   0 207
  0   0 207
  0   0 206
  0   0 205
  0   0 204
  0   0 202
  0   0 200
  0   0 198
  0   0 195
  0   0 191
  0   0 187
  0   0 182
  0   0 176
  0   0 169
  0   0 161
  0   0 152
  0   0 141
  0   0 127
  0   0 109
  0   0  77
 83   0   0
116   0   0
138   0   0
157   0   0
175   0   0
191   0   0
204   0   0
212   0   0
214   0   0
207   0   0
190   0   0
156   0   0
255 255 255
  0   0 150
  0   0 172
  0   0 173
  0   0 155
  0   0 103
131   0   0
166   0   0
180   0   0
183   0   0
176   0   0
161   0   0
139   0   0
108   0   0
255 255 255
  0   0  98
  0   0 112
  0   0 118
  0   0 120
  0   0 120
  0   0 116
  0   0 104
  0   0  69
  0   0   0
  0   0   0
  0   0   0
  0   0   0
167   0   0
176   0   0
173   0   0
154   0   0
 85   0   0
  0   0 152
  0   0 190
  0   0 209
  0   0 215
  0   0 207
  0   0 185
  0   0 141
107   0   0
158   0   0
174   0   0
176   0   0
167   0   0
151   0   0
128   0   0
 95   0   0
255 255 255
  0   0  96
  0   0 106
  0   0 109
  0   0 106
  0   0  96
255 255 255
 95   0   0
128   0   0
151   0   0
167   0   0
176   0   0
174   0   0
158   0   0
107   0   0
  0   0 141
  0   0 185
  0   0 207
  0   0 215
  0   0 209
  0   0 190
  0   0 152
 85   0   0
154   0   0
173   0   0
176   0   0
167   0   0
149   0   0
123   0   0
 75   0   0
  0   0  92
  0   0 111
  0   0 118
  0   0 120
  0   0 118
  0   0 113
  0   0 102
  0   0  69
 97   0   0
132   0   0
157   0   0
175   0   0
187   0   0
192   0   0
187   0   0
170   0   0
134   0   0
  0   0  97
  0   0 150
  0   0 165
  0   0 159
  0   0 125
117   0   0
169   0   0
194   0   0
206   0   0
207   0   0
200   0   0
187   0   0
167   0   0
139   0   0
 94   0   0
  0   0  99
  0   0 130
  0   0 147
  0   0 159
  0   0 168
  0   0 175
  0   0 182
  0   0 187
  0   0 192
  0   0 196
  0   0 199
  0   0 202
  0   0 204
  0   0 205
  0   0 206
  0   0 207
  0   0 207
  0   0 207
  0   0 207
  0   0 206
  0   0 205
  0   0 204
  0   0 203
  0   0 201
  0   0 200
  0   0 198
  0   0 196
  0   0 194
  0   0 193
  0   0 191
  0   0 189
  0   0 188
  0   0 186
  0   0 185
  0   0 183
  0   0 182
  0   0 181
  0   0 180
  0   0 179
  0   0 179
  0   0 178
  0   0 178
  0   0 178
  0   0 179
  0   0 179
  0   0 180
  0   0 181
  0   0 182
  0   0 183
  0   0 185
  0   0 186
  0   0 188
  0   0 189
  0   0 191
  0   0 193
  0   0 194
  0   0 196
  0   0 198
  0   0 200
  0   0 201
  0   0 203
  0   0 204
  0   0 205
  0   0 206
  0   0 207
  0   0 207
  0   0 207
  0   0 207
  0   0 206
  0   0 205
  0   0 204
  0   0 202
  0   0 199
  0   0 196
  0   0 192
  0   0 187
  0   0 182
  0   0 175
  0   0 168
  0   0 159
  0   0 147
  0   0 130
  0   0  99
 94   0   0
139   0   0
167   0   0
187   0   0
200   0   0
207   0   0
206   0   0
194   0   0
169   0   0
117   0   0
  0   0 125
  0   0 159
  0   0 165
  0   0 150
  0   0  97
134   0   0
170   0   0
187   0   0
192   0   0
187   0   0
175   0   0
157   0   0
132   0   0
 97   0   0
  0   0  69
  0   0 102
  0   0 113
  0   0 118
  0   0 120
  0   0 118
  0   0 111
  0   0  92
  0   0   0
  0   0   0
  0   0   0
  0   0   0
160   0   0
173   0   0
175   0   0
164   0   0
126   0   0
  0   0 126
  0   0 178
  0   0 204
  0   0 214
  0   0 212
  0   0 196
  0   0 164
  0   0  86
143   0   0
169   0   0
176   0   0
172   0   0
159   0   0
139   0   0
110   0   0
255 255 255
  0   0  91
  0   0 105
  0   0 109
  0   0 105
  0   0  91
255 255 255
110   0   0
139   0   0
159   0   0
172   0   0
176   0   0
169   0   0
143   0   0
  0   0  86
  0   0 164
  0   0 196
  0   0 212
  0   0 214
  0   0 204
  0   0 178
  0   0 126
126   0   0
164   0   0
175   0   0
173   0   0
160   0   0
139   0   0
107   0   0
255 255 255
  0   0 102
  0   0 114
  0   0 118
  0   0 116
  0   0 111
  0   0  99
  0   0  68
 93   0   0
128   0   0
154   0   0
174   0   0
189   0   0
198   0   0
200   0   0
192   0   0
173   0   0
133   0   0
  0   0 102
  0   0 150
  0   0 162
  0   0 152
  0   0 110
126   0   0
168   0   0
188   0   0
194   0   0
190   0   0
176   0   0
151   0   0
104   0   0
  0   0 112
  0   0 148
  0   0 166
  0   0 177
  0   0 185
  0   0 191
  0   0 195
  0   0 199
  0   0 202
  0   0 204
  0   0 206
  0   0 207
  0   0 208
  0   0 208
  0   0 207
  0   0 206
  0   0 205
  0   0 203
  0   0 201
  0   0 199
  0   0 196
  0   0 194
  0   0 190
  0   0 187
  0   0 184
  0   0 181
  0   0 177
  0   0 173
  0   0 170
  0   0 166
  0   0 163
  0   0 159
  0   0 156
  0   0 153
  0   0 150
  0   0 147
  0   0 144
  0   0 141
  0   0 138
  0   0 136
  0   0 134
  0   0 133
  0   0 132
  0   0 132
  0   0 132
  0   0 133
  0   0 134
  0   0 136
  0   0 138
  0   0 141
  0   0 144
  0   0 147
  0   0 150
  0   0 153
  0   0 156
  0   0 159
  0   0 163
  0   0 166
  0   0 170
  0   0 173
  0   0 177
  0   0 181
  0   0 184
  0   0 187
  0   0 190
  0   0 194
  0   0 196
  0   0 199
  0   0 201
  0   0 203
  0   0 205
  0   0 206
  0   0 207
  0   0 208
  0   0 208
  0   0 207
  0   0 206
  0   0 204
  0   0 202
  0   0 199
  0   0 195
  0   0 191
  0   0 185
  0   0 177
  0   0 166
  0   0 148
  0   0 112
104   0   0
151   0   0
176   0   0
190   0   0
194   0   0
188   0   0
168   0   0
126   0   0
  0   0 110
  0   0 152
  0   0 162
  0   0 150
  0   0 102
133   0   0
173   0   0
192   0   0
200   0   0
198   0   0
189   0   0
174   0   0
154   0   0
128   0   0
 93   0   0
  0   0  68
  0   0  99
  0   0 111
  0   0 116
  0   0 118
  0   0 114
  0   0 102
  0   0   0
  0   0   0
  0   0   0
  0   0   0
152   0   0
168   0   0
175   0   0
170   0   0
146   0   0
  0   0  70
  0   0 162
  0   0 195
  0   0 212
  0   0 215
  0   0 205
  0   0 181
  0   0 134
116   0   0
160   0   0
174   0   0
175   0   0
165   0   0
148   0   0
123   0   0
 84   0   0
  0   0  80
  0   0 102
  0   0 108
  0   0 102
  0   0  80
 84   0   0
123   0   0
148   0   0
165   0   0
175   0   0
174   0   0
160   0   0
116   0   0
  0   0 134
  0   0 181
  0   0 205
  0   0 215
  0   0 212
  0   0 195
  0   0 162
  0   0  70
146   0   0
170   0   0
175   0   0
168   0   0
152   0   0
127   0   0
 87   0   0
  0   0  83
  0   0 106
  0   0 112
  0   0 111
  0   0 105
  0   0  90
255 255 255
 98   0   0
128   0   0
152   0   0
173   0   0
189   0   0
201   0   0
207   0   0
205   0   0
194   0   0
169   0   0
118   0   0
  0   0 125
  0   0 160
  0   0 168
  0   0 158
  0   0 123
106   0   0
152   0   0
168   0   0
169   0   0
156   0   0
124   0   0
  0   0  93
  0   0 147
  0   0 171
  0   0 186
  0   0 195
  0   0 201
  0   0 204
  0   0 207
  0   0 208
  0   0 209
  0   0 208
  0   0 208
  0   0 207
  0   0 205
  0   0 203
  0   0 200
  0   0 197
  0   0 194
  0   0 190
  0   0 185
  0   0 181
  0   0 176
  0   0 170
  0   0 164
  0   0 158
  0   0 152
  0   0 145
  0   0 138
  0   0 130
  0   0 122
  0   0 112
  0   0 102
  0   0  89
  0   0  72
255 255 255
 65   0   0
 81   0   0
 91   0   0
 98   0   0
103   0   0
107   0   0
111   0   0
113   0   0
115   0   0
116   0   0
116   0   0
116   0   0
115   0   0
113   0   0
111   0   0
107   0   0
103   0   0
 98   0   0
 91   0   0
 81   0   0
 65   0   0
255 255 255
  0   0  72
  0   0  89
  0   0 102
  0   0 112
  0   0 122
  0   0 130
  0   0 138
  0   0 145
  0   0 152
  0   0 158
  0   0 164
  0   0 170
  0   0 176
  0   0 181
  0   0 185
  0   0 190
  0   0 194
  0   0 197
  0   0 200
  0   0 203
  0   0 205
  0   0 207
  0   0 208
  0   0 208
  0   0 209
  0   0 208
  0   0 207
  0   0 204
  0   0 201
  0   0 195
  0   0 186
  0   0 171
  0   0 147
  0   0  93
124   0   0
156   0   0
169   0   0
168   0   0
152   0   0
106   0   0
  0   0 123
  0   0 158
  0   0 168
  0   0 160
  0   0 125
118   0   0
169   0   0
194   0   0
205   0   0
207   0   0
201   0   0
189   0   0
173   0   0
152   0   0
128   0   0
 98   0   0
255 255 255
  0   0  90
  0   0 105
  0   0 111
  0   0 112
  0   0 106
  0   0   0
  0   0   0
  0   0   0
  0   0   0
143   0   0
162   0   0
173   0   0
173   0   0
158   0   0
111   0   0
  0   0 139
  0   0 184
  0   0 206
  0   0 215
  0   0 211
  0   0 194
  0   0 160
  0   0  67
146   0   0
169   0   0
175   0   0
170   0   0
156   0   0
135   0   0
103   0   0
255 255 255
  0   0  96
  0   0 103
  0   0  96
255 255 255
103   0   0
135   0   0
156   0   0
170   0   0
175   0   0
169   0   0
146   0   0
  0   0  67
  0   0 160
  0   0 194
  0   0 211
  0   0 215
  0   0 206
  0   0 184
  0   0 139
111   0   0
158   0   0
173   0   0
173   0   0
162   0   0
143   0   0
115   0   0
255 255 255
  0   0  88
  0   0 101
  0   0 101
  0   0  92
  0   0  68
 76   0   0
109   0   0
132   0   0
153   0   0
172   0   0
189   0   0
202   0   0
210   0   0
212   0   0
206   0   0
188   0   0
154   0   0
  0   0  70
  0   0 155
  0   0 179
  0   0 184
  0   0 174
  0   0 150
  0   0 100
106   0   0
126   0   0
117   0   0
255 255 255
  0   0 132
  0   0 164
  0   0 184
  0   0 197
  0   0 204
  0   0 209
  0   0 210
  0   0 210
  0   0 209
  0   0 208
  0   0 205
  0   0 202
  0   0 199
  0   0 194
  0   0 190
  0   0 184
  0   0 178
  0   0 172
  0   0 165
  0   0 157
  0   0 148
  0   0 138
  0   0 127
  0   0 114
  0   0  97
  0   0  69
 68   0   0
 93   0   0
108   0   0
118   0   0
125   0   0
131   0   0
136   0   0
140   0   0
143   0   0
146   0   0
149   0   0
151   0   0
152   0   0
154   0   0
155   0   0
156   0   0
157   0   0
158   0   0
159   0   0
159   0   0
159   0   0
159   0   0
159   0   0
158   0   0
157   0   0
156   0   0
155   0   0
154   0   0
152   0   0
151   0   0
149   0   0
146   0   0
143   0   0
140   0   0
136   0   0
131   0   0
125   0   0
118   0   0
108   0   0
 93   0   0
 68   0   0
  0   0  69
  0   0  97
  0   0 114
  0   0 127
  0   0 138
  0   0 148
  0   0 157
  0   0 165
  0   0 172
  0   0 178
  0   0 184
  0   0 190
  0   0 194
  0   0 199
  0   0 202
  0   0 205
  0   0 208
  0   0 209
  0   0 210
  0   0 210
  0   0 209
  0   0 204
  0   0 197
  0   0 184
  0   0 164
  0   0 132
255 255 255
117   0   0
126   0   0
106   0   0
  0   0 100
  0   0 150
  0   0 174
  0   0 184
  0   0 179
  0   0 155
  0   0  70
154   0   0
188   0   0
206   0   0
212   0   0
210   0   0
202   0   0
189   0   0
172   0   0
153   0   0
132   0   0
109   0   0
 76   0   0
  0   0  68
  0   0  92
  0   0 101
  0   0 101
  0   0   0
  0   0   0
  0   0   0
  0   0   0
134   0   0
156   0   0
169   0   0
174   0   0
166   0   0
138   0   0
  0   0 102
  0   0 168
  0   0 199
  0   0 213
  0   0 215
  0   0 204
  0   0 179
  0   0 130
120   0   0
160   0   0
173   0   0
173   0   0
163   0   0
145   0   0
118   0   0
 74   0   0
  0   0  83
  0   0  95
  0   0  83
 74   0   0
118   0   0
145   0   0
163   0   0
173   0   0
173   0   0
160   0   0
120   0   0
  0   0 130
  0   0 179
  0   0 204
  0   0 215
  0   0 213
  0   0 199
  0   0 168
  0   0 102
138   0   0
166   0   0
174   0   0
169   0   0
156   0   0
134   0   0
105   0   0
255 255 255
  0   0  77
  0   0  80
255 255 255
 71   0   0
100   0   0
121   0   0
139   0   0
156   0   0
172   0   0
187   0   0
200   0   0
209   0   0
214   0   0
211   0   0
198   0   0
171   0   0
105   0   0
  0   0 149
  0   0 185
  0   0 201
  0   0 203
  0   0 194
  0   0 175
  0   0 150
  0   0 123
  0   0 110
  0   0 125
  0   0 150
  0   0 172
  0   0 188
  0   0 199
  0   0 206
  0   0 209
  0   0 209
  0   0 207
  0   0 204
  0   0 200
  0   0 195
  0   0 189
  0   0 182
  0   0 175
  0   0 166
  0   0 157
  0   0 146
  0   0 134
  0   0 119
  0   0  99
255 255 255
 83   0   0
106   0   0
120   0   0
130   0   0
138   0   0
144   0   0
149   0   0
153   0   0
156   0   0
159   0   0
161   0   0
163   0   0
165   0   0
166   0   0
167   0   0
168   0   0
169   0   0
169   0   0
170   0   0
171   0   0
171   0   0
171   0   0
172   0   0
172   0   0
172   0   0
172   0   0
172   0   0
172   0   0
172   0   0
172   0   0
172   0   0
171   0   0
171   0   0
171   0   0
170   0   0
169   0   0
169   0   0
168   0   0
167   0   0
166   0   0
165   0   0
163   0   0
161   0   0
159   0   0
156   0   0
153   0   0
149   0   0
144   0   0
138   0   0
130   0   0
120   0   0
106   0   0
 83   0   0
255 255 255
  0   0  99
  0   0 119
  0   0 134
  0   0 146
  0   0 157
  0   0 166
  0   0 175
  0   0 182
  0   0 189
  0   0 195
  0   0 200
  0   0 204
  0   0 207
  0   0 209
  0   0 209
  0   0 206
  0   0 199
  0   0 188
  0   0 172
  0   0 150
  0   0 125
  0   0 110
  0   0 123
  0   0 150
  0   0 175
  0   0 194
  0   0 203
  0   0 201
  0   0 185
  0   0 149
105   0   0
171   0   0
198   0   0
211   0   0
214   0   0
209   0   0
200   0   0
187   0   0
172   0   0
156   0   0
139   0   0
121   0   0
100   0   0
 71   0   0
255 255 255
  0   0  80
  0   0   0
  0   0   0
  0   0   0
  0   0   0
128   0   0
150   0   0
165   0   0
173   0   0
171   0   0
154   0   0
 93   0   0
  0   0 148
  0   0 188
  0   0 209
  0   0 216
  0   0 211
  0   0 193
  0   0 159
255 255 255
145   0   0
168   0   0
174   0   0
168   0   0
153   0   0
131   0   0
 99   0   0
255 255 255
  0   0  74
255 255 255
 99   0   0
131   0   0
153   0   0
168   0   0
174   0   0
168   0   0
145   0   0
255 255 255
  0   0 159
  0   0 193
  0   0 211
  0   0 216
  0   0 209
  0   0 188
  0   0 148
 93   0   0
154   0   0
171   0   0
173   0   0
165   0   0
150   0   0
128   0   0
102   0   0
 76   0   0
 65   0   0
 81   0   0
101   0   0
118   0   0
133   0   0
146   0   0
159   0   0
172   0   0
185   0   0
196   0   0
206   0   0
211   0   0
210   0   0
201   0   0
178   0   0
126   0   0
  0   0 143
  0   0 189
  0   0 212
  0   0 221
  0   0 220
  0   0 210
  0   0 194
  0   0 174
  0   0 158
  0   0 152
  0   0 159
  0   0 172
  0   0 185
  0   0 195
  0   0 200
  0   0 202
  0   0 201
  0   0 198
  0   0 192
  0   0 185
  0   0 176
  0   0 166
  0   0 155
  0   0 142
  0   0 126
  0   0 104
255 255 255
 88   0   0
112   0   0
126   0   0
136   0   0
144   0   0
151   0   0
156   0   0
159   0   0
163   0   0
165   0   0
167   0   0
169   0   0
170   0   0
171   0   0
172   0   0
172   0   0
173   0   0
173   0   0
173   0   0
172   0   0
172   0   0
172   0   0
172   0   0
172   0   0
172   0   0
171   0   0
171   0   0
171   0   0
171   0   0
171   0   0
171   0   0
171   0   0
171   0   0
171   0   0
171   0   0
171   0   0
171   0   0
171   0   0
172   0   0
172   0   0
172   0   0
172   0   0
172   0   0
172   0   0
173   0   0
173   0   0
173   0   0
172   0   0
172   0   0
171   0   0
170   0   0
169   0   0
167   0   0
165   0   0
163   0   0
159   0   0
156   0   0
151   0   0
144   0   0
136   0   0
126   0   0
112   0   0
 88   0   0
255 255 255
  0   0 104
  0   0 126
  0   0 142
  0   0 155
  0   0 166
  0   0 176
  0   0 185
  0   0 192
  0   0 198
  0   0 201
  0   0 202
  0   0 200
  0   0 195
  0   0 185
  0   0 172
  0   0 159
  0   0 152
  0   0 158
  0   0 174
  0   0 194
  0   0 210
  0   0 220
  0   0 221
  0   0 212
  0   0 189
  0   0 143
126   0   0
178   0   0
201   0   0
210   0   0
211   0   0
206   0   0
196   0   0
185   0   0
172   0   0
159   0   0
146   0   0
133   0   0
118   0   0
101   0   0
 81   0   0
  0   0   0
  0   0   0
  0   0   0
  0   0   0
128   0   0
146   0   0
162   0   0
172   0   0
174   0   0
164   0   0
131   0   0
  0   0 116
  0   0 173
  0   0 201
  0   0 215
  0   0 215
  0   0 204
  0   0 179
  0   0 130
118   0   0
159   0   0
172   0   0
171   0   0
160   0   0
143   0   0
118   0   0
 89   0   0
 69   0   0
 89   0   0
118   0   0
143   0   0
160   0   0
171   0   0
172   0   0
159   0   0
118   0   0
  0   0 130
  0   0 179
  0   0 204
  0   0 215
  0   0 215
  0   0 201
  0   0 173
  0   0 116
131   0   0
164   0   0
174   0   0
172   0   0
162   0   0
146   0   0
128   0   0
111   0   0
104   0   0
109   0   0
120   0   0
132   0   0
143   0   0
153   0   0
163   0   0
172   0   0
181   0   0
191   0   0
198   0   0
204   0   0
204   0   0
197   0   0
178   0   0
131   0   0
  0   0 139
  0   0 191
  0   0 219
  0   0 233
  0   0 237
  0   0 232
  0   0 220
  0   0 203
  0   0 184
  0   0 168
  0   0 162
  0   0 165
  0   0 173
  0   0 181
  0   0 186
  0   0 188
  0   0 185
  0   0 180
  0   0 171
  0   0 160
  0   0 146
  0   0 129
  0   0 104
255 255 255
 98   0   0
120   0   0
134   0   0
144   0   0
151   0   0
157   0   0
161   0   0
165   0   0
167   0   0
169   0   0
171   0   0
172   0   0
172   0   0
173   0   0
173   0   0
172   0   0
172   0   0
171   0   0
171   0   0
170   0   0
169   0   0
168   0   0
167   0   0
166   0   0
165   0   0
164   0   0
163   0   0
163   0   0
162   0   0
162   0   0
161   0   0
161   0   0
161   0   0
160   0   0
160   0   0
160   0   0
160   0   0
160   0   0
161   0   0
161   0   0
161   0   0
162   0   0
162   0   0
163   0   0
163   0   0
164   0   0
165   0   0
166   0   0
167   0   0
168   0   0
169   0   0
170   0   0
171   0   0
171   0   0
172   0   0
172   0   0
173   0   0
173   0   0
172   0   0
172   0   0
171   0   0
169   0   0
167   0   0
165   0   0
161   0   0
157   0   0
151   0   0
144   0   0
134   0   0
120   0   0
 98   0   0
255 255 255
  0   0 104
  0   0 129
  0   0 146
  0   0 160
  0   0 171
  0   0 180
  0   0 185
  0   0 188
  0   0 186
  0   0 181
  0   0 173
  0   0 165
  0   0 162
  0   0 168
  0   0 184
  0   0 203
  0   0 220
  0   0 232
  0   0 237
  0   0 233
  0   0 219
  0   0 191
  0   0 139
131   0   0
178   0   0
197   0   0
204   0   0
204   0   0
198   0   0
191   0   0
181   0   0
172   0   0
163   0   0
153   0   0
143   0   0
132   0   0
120   0   0
  0   0   0
  0   0   0
  0   0   0
  0   0   0
134   0   0
147   0   0
161   0   0
172   0   0
177   0   0
172   0   0
151   0   0
 76   0   0
  0   0 153
  0   0 191
  0   0 210
  0   0 217
  0   0 212
  0   0 194
  0   0 160
  0   0  73
142   0   0
166   0   0
171   0   0
166   0   0
152   0   0
134   0   0
115   0   0
105   0   0
115   0   0
134   0   0
152   0   0
166   0   0
171   0   0
166   0   0
142   0   0
  0   0  73
  0   0 160
  0   0 194
  0   0 212
  0   0 217
  0   0 210
  0   0 191
  0   0 153
 76   0   0
151   0   0
172   0   0
177   0   0
172   0   0
161   0   0
147   0   0
134   0   0
127   0   0
128   0   0
135   0   0
143   0   0
152   0   0
159   0   0
165   0   0
171   0   0
176   0   0
182   0   0
188   0   0
192   0   0
193   0   0
187   0   0
169   0   0
124   0   0
  0   0 139
  0   0 192
  0   0 221
  0   0 239
  0   0 247
  0   0 246
  0   0 237
  0   0 221
  0   0 201
  0   0 179
  0   0 160
  0   0 150
  0   0 150
  0   0 155
  0   0 160
  0   0 162
  0   0 159
  0   0 151
  0   0 139
  0   0 119
  0   0  85
 85   0   0
116   0   0
133   0   0
144   0   0
153   0   0
159   0   0
163   0   0
167   0   0
169   0   0
171   0   0
172   0   0
172   0   0
172   0   0
172   0   0
171   0   0
170   0   0
169   0   0
168   0   0
166   0   0
165   0   0
163   0   0
161   0   0
160   0   0
158   0   0
156   0   0
154   0   0
152   0   0
151   0   0
149   0   0
147   0   0
146   0   0
145   0   0
144   0   0
143   0   0
143   0   0
142   0   0
142   0   0
141   0   0
141   0   0
141   0   0
141   0   0
141   0   0
142   0   0
142   0   0
143   0   0
143   0   0
144   0   0
145   0   0
146   0   0
147   0   0
149   0   0
151   0   0
152   0   0
154   0   0
156   0   0
158   0   0
160   0   0
161   0   0
163   0   0
165   0   0
166   0   0
168   0   0
169   0   0
170   0   0
171   0   0
172   0   0
172   0   0
172   0   0
172   0   0
171   0   0
169   0   0
167   0   0
163   0   0
159   0   0
153   0   0
144   0   0
133   0   0
116   0   0
 85   0   0
  0   0  85
  0   0 119
  0   0 139
  0   0 151
  0   0 159
  0   0 162
  0   0 160
  0   0 155
  0   0 150
  0   0 150
  0   0 160
  0   0 179
  0   0 201
  0   0 221
  0   0 237
  0   0 246
  0   0 247
  0   0 239
  0   0 221
  0   0 192
  0   0 139
124   0   0
169   0   0
187   0   0
193   0   0
192   0   0
188   0   0
182   0   0
176   0   0
171   0   0
165   0   0
159   0   0
152   0   0
143   0   0
  0   0   0
  0   0   0
  0   0   0
  0   0   0
145   0   0
152   0   0
162   0   0
173   0   0
179   0   0
178   0   0
166   0   0
130   0   0
  0   0 120
  0   0 176
  0   0 203
  0   0 216
  0   0 216
  0   0 205
  0   0 181
  0   0 135
110   0   0
155   0   0
169   0   0
169   0   0
161   0   0
148   0   0
134   0   0
129   0   0
134   0   0
148   0   0
161   0   0
169   0   0
169   0   0
155   0   0
110   0   0
  0   0 135
  0   0 181
  0   0 205
  0   0 216
  0   0 216
  0   0 203
  0   0 176
  0   0 120
130   0   0
166   0   0
178   0   0
179   0   0
173   0   0
162   0   0
152   0   0
145   0   0
144   0   0
147   0   0
153   0   0
158   0   0
163   0   0
166   0   0
168   0   0
169   0   0
171   0   0
173   0   0
175   0   0
175   0   0
169   0   0
152   0   0
102   0   0
  0   0 143
  0   0 190
  0   0 221
  0   0 241
  0   0 251
  0   0 253
  0   0 247
  0   0 233
  0   0 212
  0   0 185
  0   0 155
  0   0 125
  0   0 102
  0   0  97
  0   0 103
  0   0 108
  0   0 105
  0   0  91
255 255 255
 99   0   0
123   0   0
138   0   0
149   0   0
157   0   0
162   0   0
166   0   0
169   0   0
171   0   0
172   0   0
172   0   0
172   0   0
171   0   0
170   0   0
168   0   0
166   0   0
164   0   0
162   0   0
159   0   0
157   0   0
154   0   0
151   0   0
149   0   0
146   0   0
143   0   0
141   0   0
138   0   0
135   0   0
132   0   0
130   0   0
127   0   0
125   0   0
123   0   0
121   0   0
120   0   0
119   0   0
118   0   0
117   0   0
116   0   0
115   0   0
114   0   0
114   0   0
114   0   0
114   0   0
114   0   0
115   0   0
116   0   0
117   0   0
118   0   0
119   0   0
120   0   0
121   0   0
123   0   0
125   0   0
127   0   0
130   0   0
132   0   0
135   0   0
138   0   0
141   0   0
143   0   0
146   0   0
149   0   0
151   0   0
154   0   0
157   0   0
159   0   0
162   0   0
164   0   0
166   0   0
168   0   0
170   0   0
171   0   0
172   0   0
172   0   0
172   0   0
171   0   0
169   0   0
166   0   0
162   0   0
157   0   0
149   0   0
138   0   0
123   0   0
 99   0   0
255 255 255
  0   0  91
  0   0 105
  0   0 108
  0   0 103
  0   0  97
  0   0 102
  0   0 125
  0   0 155
  0   0 185
  0   0 212
  0   0 233
  0   0 247
  0   0 253
  0   0 251
  0   0 241
  0   0 221
  0   0 190
  0   0 143
102   0   0
152   0   0
169   0   0
175   0   0
175   0   0
173   0   0
171   0   0
169   0   0
168   0   0
166   0   0
163   0   0
158   0   0
  0   0   0
  0   0   0
  0   0   0
  0   0   0
157   0   0
160   0   0
167   0   0
176   0   0
182   0   0
184   0   0
177   0   0
155   0   0
 81   0   0
  0   0 153
  0   0 191
  0   0 211
  0   0 218
  0   0 213
  0   0 196
  0   0 164
  0   0  95
135   0   0
162   0   0
170   0   0
167   0   0
160   0   0
152   0   0
148   0   0
152   0   0
160   0   0
167   0   0
170   0   0
162   0   0
135   0   0
  0   0  95
  0   0 164
  0   0 196
  0   0 213
  0   0 218
  0   0 211
  0   0 191
  0   0 153
 81   0   0
155   0   0
177   0   0
184   0   0
182   0   0
176   0   0
167   0   0
160   0   0
157   0   0
157   0   0
160   0   0
163   0   0
164   0   0
164   0   0
162   0   0
159   0   0
155   0   0
152   0   0
149   0   0
146   0   0
140   0   0
121   0   0
  0   0  72
  0   0 149
  0   0 188
  0   0 217
  0   0 238
  0   0 250
  0   0 255
  0   0 251
  0   0 239
  0   0 219
  0   0 189
  0   0 149
  0   0  70
118   0   0
133   0   0
134   0   0
131   0   0
128   0   0
129   0   0
135   0   0
142   0   0
150   0   0
157   0   0
163   0   0
167   0   0
169   0   0
171   0   0
171   0   0
171   0   0
170   0   0
168   0   0
166   0   0
164   0   0
161   0   0
158   0   0
155   0   0
151   0   0
148   0   0
144   0   0
140   0   0
137   0   0
133   0   0
129   0   0
125   0   0
121   0   0
117   0   0
114   0   0
110   0   0
106   0   0
102   0   0
 98   0   0
 94   0   0
 90   0   0
 87   0   0
 84   0   0
 82   0   0
 80   0   0
 78   0   0
 77   0   0
 76   0   0
 74   0   0
 72   0   0
 70   0   0
 69   0   0
 70   0   0
 72   0   0
 74   0   0
 76   0   0
 77   0   0
 78   0   0
 80   0   0
 82   0   0
 84   0   0
 87   0   0
 90   0   0
 94   0   0
 98   0   0
102   0   0
106   0   0
110   0   0
114   0   0
117   0   0
121   0   0
125   0   0
129   0   0
133   0   0
137   0   0
140   0   0
144   0   0
148   0   0
151   0   0
155   0   0
158   0   0
161   0   0
164   0   0
166   0   0
168   0   0
170   0   0
171   0   0
171   0   0
171   0   0
169   0   0
167   0   0
163   0   0
157   0   0
150   0   0
142   0   0
135   0   0
129   0   0
128   0   0
131   0   0
134   0   0
133   0   0
118   0   0
  0   0  70
  0   0 149
  0   0 189
  0   0 219
  0   0 239
  0   0 251
  0   0 255
  0   0 250
  0   0 238
  0   0 217
  0   0 188
  0   0 149
  0   0  72
121   0   0
140   0   0
146   0   0
149   0   0
152   0   0
155   0   0
159   0   0
162   0   0
164   0   0
164   0   0
  0   0   0
  0   0   0
  0   0   0
  0   0   0
166   0   0
168   0   0
173   0   0
180   0   0
187   0   0
190   0   0
187   0   0
173   0   0
138   0   0
  0   0 114
  0   0 174
  0   0 203
  0   0 216
  0   0 218
  0   0 207
  0   0 185
  0   0 144
 92   0   0
150   0   0
167   0   0
172   0   0
170   0   0
167   0   0
165   0   0
167   0   0
170   0   0
172   0   0
167   0   0
150   0   0
 92   0   0
  0   0 144
  0   0 185
  0   0 207
  0   0 218
  0   0 216
  0   0 203
  0   0 174
  0   0 114
138   0   0
173   0   0
187   0   0
190   0   0
187   0   0
180   0   0
173   0   0
168   0   0
166   0   0
165   0   0
165   0   0
164   0   0
160   0   0
153   0   0
144   0   0
131   0   0
116   0   0
101   0   0
 85   0   0
255 255 255
  0   0  84
  0   0 122
  0   0 155
  0   0 184
  0   0 210
  0   0 231
  0   0 245
  0   0 252
  0   0 250
  0   0 241
  0   0 221
  0   0 191
  0   0 143
105   0   0
154   0   0
169   0   0
173   0   0
170   0   0
166   0   0
162   0   0
160   0   0
161   0   0
163   0   0
165   0   0
167   0   0
169   0   0
169   0   0
168   0   0
167   0   0
165   0   0
162   0   0
159   0   0
155   0   0
151   0   0
147   0   0
143   0   0
138   0   0
134   0   0
129   0   0
124   0   0
119   0   0
114   0   0
108   0   0
103   0   0
 97   0   0
 91   0   0
 85   0   0
 78   0   0
 70   0   0
255 255 255
255 255 255
255 255 255
255 255 255
255 255 255
  0   0  67
  0   0  70
  0   0  72
  0   0  74
  0   0  75
  0   0  76
  0   0  76
  0   0  77
  0   0  78
  0   0  80
  0   0  81
  0   0  81
  0   0  81
  0   0  80
  0   0  78
  0   0  77
  0   0  76
  0   0  76
  0   0  75
  0   0  74
  0   0  72
  0   0  70
  0   0  67
255 255 255
255 255 255
255 255 255
255 255 255
255 255 255
 70   0   0
 78   0   0
 85   0   0
 91   0   0
 97   0   0
103   0   0
108   0   0
114   0   0
119   0   0
124   0   0
129   0   0
134   0   0
138   0   0
143   0   0
147   0   0
151   0   0
155   0   0
159   0   0
162   0   0
165   0   0
167   0   0
168   0   0
169   0   0
169   0   0
167   0   0
165   0   0
163   0   0
161   0   0
160   0   0
162   0   0
166   0   0
170   0   0
173   0   0
169   0   0
154   0   0
105   0   0
  0   0 143
  0   0 191
  0   0 221
  0   0 241
  0   0 250
  0   0 252
  0   0 245
  0   0 231
  0   0 210
  0   0 184
  0   0 155
  0   0 122
  0   0  84
255 255 255
 85   0   0
101   0   0
116   0   0
131   0   0
144   0   0
153   0   0
160   0   0
  0   0   0
  0   0   0
  0   0   0
  0   0   0
170   0   0
173   0   0
179   0   0
185   0   0
191   0   0
195   0   0
195   0   0
187   0   0
165   0   0
107   0   0
  0   0 147
  0   0 189
  0   0 211
  0   0 219
  0   0 215
  0   0 200
  0   0 171
  0   0 114
127   0   0
161   0   0
175   0   0
179   0   0
180   0   0
179   0   0
180   0   0
179   0   0
175   0   0
161   0   0
127   0   0
  0   0 114
  0   0 171
  0   0 200
  0   0 215
  0   0 219
  0   0 211
  0   0 189
  0   0 147
107   0   0
165   0   0
187   0   0
195   0   0
195   0   0
191   0   0
185   0   0
179   0   0
173   0   0
170   0   0
166   0   0
160   0   0
152   0   0
139   0   0
119   0   0
 79   0   0
  0   0  92
  0   0 118
  0   0 129
  0   0 135
  0   0 139
  0   0 146
  0   0 160
  0   0 179
  0   0 200
  0   0 219
  0   0 234
  0   0 243
  0   0 245
  0   0 238
  0   0 221
  0   0 192
  0   0 139
126   0   0
171   0   0
188   0   0
194   0   0
192   0   0
187   0   0
180   0   0
174   0   0
170   0   0
168   0   0
167   0   0
166   0   0
165   0   0
163   0   0
161   0   0
158   0   0
154   0   0
150   0   0
145   0   0
140   0   0
135   0   0
130   0   0
124   0   0
118   0   0
111   0   0
105   0   0
 97   0   0
 90   0   0
 81   0   0
 71   0   0
255 255 255
255 255 255
255 255 255
255 255 255
  0   0  71
  0   0  77
  0   0  81
  0   0  84
  0   0  87
  0   0  90
  0   0  92
  0   0  94
  0   0  95
  0   0  95
  0   0  96
  0   0  96
  0   0  96
  0   0  96
  0   0  96
  0   0  96
  0   0  97
  0   0  98
  0   0  98
  0   0  98
  0   0  98
  0   0  98
  0   0  97
  0   0  96
  0   0  96
  0   0  96
  0   0  96
  0   0  96
  0   0  96
  0   0  95
  0   0  95
  0   0  94
  0   0  92
  0   0  90
  0   0  87
  0   0  84
  0   0  81
  0   0  77
  0   0  71
255 255 255
255 255 255
255 255 255
255 255 255
 71   0   0
 81   0   0
 90   0   0
 97   0   0
105   0   0
111   0   0
118   0   0
124   0   0
130   0   0
135   0   0
140   0   0
145   0   0
150   0   0
154   0   0
158   0   0
161   0   0
163   0   0
165   0   0
166   0   0
167   0   0
168   0   0
170   0   0
174   0   0
180   0   0
187   0   0
192   0   0
194   0   0
188   0   0
171   0   0
126   0   0
  0   0 139
  0   0 192
  0   0 221
  0   0 238
  0   0 245
  0   0 243
  0   0 234
  0   0 219
  0   0 200
  0   0 179
  0   0 160
  0   0 146
  0   0 139
  0   0 135
  0   0 129
  0   0 118
  0   0  92
 79   0   0
119   0   0
139   0   0
  0   0   0
  0   0   0
  0   0   0
  0   0   0
164   0   0
172   0   0
180   0   0
187   0   0
194   0   0
200   0   0
202   0   0
198   0   0
185   0   0
154   0   0
  0   0  82
  0   0 168
  0   0 200
  0   0 216
  0   0 219
  0   0 210
  0   0 190
  0   0 152
 68   0   0
150   0   0
174   0   0
186   0   0
190   0   0
192   0   0
190   0   0
186   0   0
174   0   0
150   0   0
 68   0   0
  0   0 152
  0   0 190
  0   0 210
  0   0 219
  0   0 216
  0   0 200
  0   0 168
  0   0  82
154   0   0
185   0   0
198   0   0
202   0   0
200   0   0
194   0   0
187   0   0
180   0   0
172   0   0
164   0   0
154   0   0
140   0   0
116   0   0
255 255 255
  0   0 115
  0   0 141
  0   0 155
  0   0 163
  0   0 165
  0   0 164
  0   0 162
  0   0 164
  0   0 172
  0   0 186
  0   0 203
  0   0 219
  0   0 230
  0   0 234
  0   0 231
  0   0 217
  0   0 190
  0   0 139
131   0   0
178   0   0
198   0   0
206   0   0
205   0   0
200   0   0
192   0   0
183   0   0
174   0   0
168   0   0
163   0   0
159   0   0
156   0   0
152   0   0
149   0   0
144   0   0
139   0   0
134   0   0
128   0   0
121   0   0
114   0   0
107   0   0
 99   0   0
 90   0   0
 79   0   0
 66   0   0
255 255 255
255 255 255
  0   0  66
  0   0  74
  0   0  80
  0   0  85
  0   0  88
  0   0  91
  0   0  93
  0   0  95
  0   0  97
  0   0  98
  0   0  99
  0   0 100
  0   0 101
  0   0 102
  0   0 103
  0   0 103
  0   0 103
  0   0 103
  0   0 103
  0   0 103
  0   0 102
  0   0 102
  0   0 103
  0   0 103
  0   0 104
  0   0 104
  0   0 104
  0   0 104
  0   0 104
  0   0 103
  0   0 103
  0   0 102
  0   0 102
  0   0 103
  0   0 103
  0   0 103
  0   0 103
  0   0 103
  0   0 103
  0   0 102
  0   0 101
  0   0 100
  0   0  99
  0   0  98
  0   0  97
  0   0  95
  0   0  93
  0   0  91
  0   0  88
  0   0  85
  0   0  80
  0   0  74
  0   0  66
255 255 255
255 255 255
 66   0   0
 79   0   0
 90   0   0
 99   0   0
107   0   0
114   0   0
121   0   0
128   0   0
134   0   0
139   0   0
144   0   0
149   0   0
152   0   0
156   0   0
159   0   0
163   0   0
168   0   0
174   0   0
183   0   0
192   0   0
200   0   0
205   0   0
206   0   0
198   0   0
178   0   0
131   0   0
  0   0 139
  0   0 190
  0   0 217
  0   0 231
  0   0 234
  0   0 230
  0   0 219
  0   0 203
  0   0 186
  0   0 172
  0   0 164
  0   0 162
  0   0 164
  0   0 165
  0   0 163
  0   0 155
  0   0 141
  0   0 115
255 255 255
  0   0   0
  0   0   0
  0   0   0
  0   0   0
145   0   0
161   0   0
174   0   0
185   0   0
194   0   0
202   0   0
207   0   0
207   0   0
199   0   0
180   0   0
136   0   0
  0   0 129
  0   0 183
  0   0 208
  0   0 218
  0   0 216
  0   0 203
  0   0 176
  0   0 122
131   0   0
171   0   0
190   0   0
199   0   0
202   0   0
199   0   0
190   0   0
171   0   0
131   0   0
  0   0 122
  0   0 176
  0   0 203
  0   0 216
  0   0 218
  0   0 208
  0   0 183
  0   0 129
136   0   0
180   0   0
199   0   0
207   0   0
207   0   0
202   0   0
194   0   0
185   0   0
174   0   0
161   0   0
145   0   0
121   0   0
255 255 255
  0   0 119
  0   0 148
  0   0 166
  0   0 177
  0   0 183
  0   0 183
  0   0 179
  0   0 172
  0   0 165
  0   0 162
  0   0 168
  0   0 181
  0   0 197
  0   0 210
  0   0 219
  0   0 219
  0   0 210
  0   0 188
  0   0 143
124   0   0
178   0   0
201   0   0
211   0   0
212   0   0
207   0   0
198   0   0
187   0   0
176   0   0
165   0   0
156   0   0
149   0   0
143   0   0
138   0   0
132   0   0
126   0   0
120   0   0
113   0   0
105   0   0
 96   0   0
 85   0   0
 72   0   0
255 255 255
255 255 255
  0   0  66
  0   0  76
  0   0  82
  0   0  87
  0   0  91
  0   0  94
  0   0  96
  0   0  98
  0   0  99
  0   0 100
  0   0 101
  0   0 102
  0   0 103
  0   0 103
  0   0 104
  0   0 105
  0   0 105
  0   0 106
  0   0 106
  0   0 106
  0   0 106
  0   0 106
  0   0 106
  0   0 105
  0   0 105
  0   0 104
  0   0 104
  0   0 104
  0   0 105
  0   0 105
  0   0 105
  0   0 106
  0   0 105
  0   0 105
  0   0 105
  0   0 104
  0   0 104
  0   0 104
  0   0 105
  0   0 105
  0   0 106
  0   0 106
  0   0 106
  0   0 106
  0   0 106
  0   0 106
  0   0 105
  0   0 105
  0   0 104
  0   0 103
  0   0 103
  0   0 102
  0   0 101
  0   0 100
  0   0  99
  0   0  98
  0   0  96
  0   0  94
  0   0  91
  0   0  87
  0   0  82
  0   0  76
  0   0  66
255 255 255
255 255 255
 72   0   0
 85   0   0
 96   0   0
105   0   0
113   0   0
120   0   0
126   0   0
132   0   0
138   0   0
143   0   0
149   0   0
156   0   0
165   0   0
176   0   0
187   0   0
198   0   0
207   0   0
212   0   0
211   0   0
201   0   0
178   0   0
124   0   0
  0   0 143
  0   0 188
  0   0 210
  0   0 219
  0   0 219
  0   0 210
  0   0 197
  0   0 181
  0   0 168
  0   0 162
  0   0 165
  0   0 172
  0   0 179
  0   0 183
  0   0 183
  0   0 177
  0   0 166
  0   0 148
  0   0   0
  0   0   0
  0   0   0
  0   0   0
 82   0   0
132   0   0
157   0   0
174   0   0
189   0   0
200   0   0
208   0   0
212   0   0
210   0   0
198   0   0
172   0   0
107   0   0
  0   0 153
  0   0 193
  0   0 213
  0   0 218
  0   0 212
  0   0 192
  0   0 154
 93   0   0
165   0   0
192   0   0
205   0   0
209   0   0
205   0   0
192   0   0
165   0   0
 93   0   0
  0   0 154
  0   0 192
  0   0 212
  0   0 218
  0   0 213
  0   0 193
  0   0 153
107   0   0
172   0   0
198   0   0
210   0   0
212   0   0
208   0   0
200   0   0
189   0   0
174   0   0
157   0   0
132   0   0
 82   0   0
  0   0 114
  0   0 147
  0   0 168
  0   0 182
  0   0 191
  0   0 195
  0   0 195
  0   0 189
  0   0 178
  0   0 164
  0   0 150
  0   0 143
  0   0 150
  0   0 166
  0   0 183
  0   0 197
  0   0 203
  0   0 200
  0   0 184
  0   0 149
102   0   0
169   0   0
197   0   0
210   0   0
214   0   0
210   0   0
201   0   0
189   0   0
175   0   0
161   0   0
148   0   0
136   0   0
126   0   0
118   0   0
110   0   0
102   0   0
 93   0   0
 83   0   0
 69   0   0
255 255 255
255 255 255
  0   0  71
  0   0  80
  0   0  86
  0   0  91
  0   0  94
  0   0  97
  0   0  99
  0   0 100
  0   0 101
  0   0 103
  0   0 103
  0   0 104
  0   0 104
  0   0 105
  0   0 105
  0   0 105
  0   0 105
  0   0 106
  0   0 106
  0   0 106
  0   0 106
  0   0 106
  0   0 106
  0   0 106
  0   0 106
  0   0 105
  0   0 105
  0   0 104
  0   0 103
  0   0 103
  0   0 103
  0   0 103
  0   0 103
  0   0 103
  0   0 104
  0   0 104
  0   0 104
  0   0 103
  0   0 103
  0   0 103
  0   0 103
  0   0 103
  0   0 103
  0   0 104
  0   0 105
  0   0 105
  0   0 106
  0   0 106
  0   0 106
  0   0 106
  0   0 106
  0   0 106
  0   0 106
  0   0 106
  0   0 105
  0   0 105
  0   0 105
  0   0 105
  0   0 104
  0   0 104
  0   0 103
  0   0 103
  0   0 101
  0   0 100
  0   0  99
  0   0  97
  0   0  94
  0   0  91
  0   0  86
  0   0  80
  0   0  71
255 255 255
255 255 255
 69   0   0
 83   0   0
 93   0   0
102   0   0
110   0   0
118   0   0
126   0   0
136   0   0
148   0   0
161   0   0
175   0   0
189   0   0
201   0   0
210   0   0
214   0   0
210   0   0
197   0   0
169   0   0
102   0   0
  0   0 149
  0   0 184
  0   0 200
  0   0 203
  0   0 197
  0   0 183
  0   0 166
  0   0 150
  0   0 143
  0   0 150
  0   0 164
  0   0 178
  0   0 189
  0   0 195
  0   0 195
  0   0 191
  0   0 182
  0   0   0
  0   0   0
  0   0   0
  0   0   0
  0   0 142
  0   0  98
112   0   0
150   0   0
174   0   0
191   0   0
204   0   0
213   0   0
215   0   0
210   0   0
195   0   0
161   0   0
  0   0  75
  0   0 169
  0   0 201
  0   0 215
  0   0 215
  0   0 202
  0   0 173
  0   0 100
154   0   0
190   0   0
207   0   0
212   0   0
207   0   0
190   0   0
154   0   0
  0   0 100
  0   0 173
  0   0 202
  0   0 215
  0   0 215
  0   0 201
  0   0 169
  0   0  75
161   0   0
195   0   0
210   0   0
215   0   0
213   0   0
204   0   0
191   0   0
174   0   0
150   0   0
112   0   0
  0   0  98
  0   0 142
  0   0 166
  0   0 183
  0   0 194
  0   0 201
  0   0 204
  0   0 201
  0   0 194
  0   0 180
  0   0 161
  0   0 134
  0   0 102
  0   0  86
  0   0 109
  0   0 141
  0   0 166
  0   0 181
  0   0 186
  0   0 179
  0   0 155
  0   0  72
152   0   0
187   0   0
204   0   0
211   0   0
209   0   0
202   0   0
189   0   0
174   0   0
157   0   0
139   0   0
122   0   0
106   0   0
 91   0   0
 76   0   0
255 255 255
255 255 255
255 255 255
  0   0  75
  0   0  83
  0   0  88
  0   0  92
  0   0  95
  0   0  98
  0   0 100
  0   0 101
  0   0 103
  0   0 104
  0   0 104
  0   0 105
  0   0 105
  0   0 106
  0   0 106
  0   0 106
  0   0 106
  0   0 105
  0   0 105
  0   0 105
  0   0 105
  0   0 104
  0   0 104
  0   0 104
  0   0 104
  0   0 103
  0   0 103
  0   0 102
  0   0 101
  0   0 100
  0   0  99
  0   0  98
  0   0  96
  0   0  96
  0   0  95
  0   0  95
  0   0  95
  0   0  95
  0   0  95
  0   0  95
  0   0  95
  0   0  95
  0   0  95
  0   0  95
  0   0  95
  0   0  96
  0   0  96
  0   0  98
  0   0  99
  0   0 100
  0   0 101
  0   0 102
  0   0 103
  0   0 103
  0   0 104
  0   0 104
  0   0 104
  0   0 104
  0   0 105
  0   0 105
  0   0 105
  0   0 105
  0   0 106
  0   0 106
  0   0 106
  0   0 106
  0   0 105
  0   0 105
  0   0 104
  0   0 104
  0   0 103
  0   0 101
  0   0 100
  0   0  98
  0   0  95
  0   0  92
  0   0  88
  0   0  83
  0   0  75
255 255 255
255 255 255
255 255 255
 76   0   0
 91   0   0
106   0   0
122   0   0
139   0   0
157   0   0
174   0   0
189   0   0
202   0   0
209   0   0
211   0   0
204   0   0
187   0   0
152   0   0
  0   0  72
  0   0 155
  0   0 179
  0   0 186
  0   0 181
  0   0 166
  0   0 141
  0   0 109
  0   0  86
  0   0 102
  0   0 134
  0   0 161
  0   0 180
  0   0 194
  0   0 201
  0   0 204
  0   0 201
  0   0   0
  0   0   0
  0   0   0
  0   0   0
  0   0 180
  0   0 161
  0   0 130
 70   0   0
141   0   0
172   0   0
192   0   0
207   0   0
215   0   0
216   0   0
208   0   0
188   0   0
145   0   0
  0   0 123
  0   0 180
  0   0 205
  0   0 212
  0   0 206
  0   0 184
  0   0 134
137   0   0
185   0   0
206   0   0
212   0   0
206   0   0
185   0   0
137   0   0
  0   0 134
  0   0 184
  0   0 206
  0   0 212
  0   0 205
  0   0 180
  0   0 123
145   0   0
188   0   0
208   0   0
216   0   0
215   0   0
207   0   0
192   0   0
172   0   0
141   0   0
 70   0   0
  0   0 130
  0   0 161
  0   0 180
  0   0 194
  0   0 203
  0   0 208
  0   0 209
  0   0 205
  0   0 195
  0   0 179
  0   0 154
  0   0 110
 99   0   0
128   0   0
128   0   0
 98   0   0
  0   0 109
  0   0 150
  0   0 168
  0   0 172
  0   0 160
  0   0 122
121   0   0
169   0   0
193   0   0
204   0   0
206   0   0
200   0   0
189   0   0
173   0   0
154   0   0
132   0   0
108   0   0
 80   0   0
255 255 255
  0   0  74
  0   0  84
  0   0  89
  0   0  93
  0   0  95
  0   0  98
  0   0 100
  0   0 101
  0   0 103
  0   0 104
  0   0 105
  0   0 105
  0   0 106
  0   0 106
  0   0 106
  0   0 106
  0   0 106
  0   0 106
  0   0 105
  0   0 105
  0   0 104
  0   0 103
  0   0 103
  0   0 101
  0   0 100
  0   0  99
  0   0  98
  0   0  97
  0   0  95
  0   0  94
  0   0  92
  0   0  91
  0   0  88
  0   0  86
  0   0  83
  0   0  80
  0   0  76
  0   0  73
  0   0  70
  0   0  69
  0   0  68
  0   0  67
  0   0  67
  0   0  66
  0   0  66
  0   0  66
  0   0  67
  0   0  67
  0   0  68
  0   0  69
  0   0  70
  0   0  73
  0   0  76
  0   0  80
  0   0  83
  0   0  86
  0   0  88
  0   0  91
  0   0  92
  0   0  94
  0   0  95
  0   0  97
  0   0  98
  0   0  99
  0   0 100
  0   0 101
  0   0 103
  0   0 103
  0   0 104
  0   0 105
  0   0 105
  0   0 106
  0   0 106
  0   0 106
  0   0 106
  0   0 106
  0   0 106
  0   0 105
  0   0 105
  0   0 104
  0   0 103
  0   0 101
  0   0 100
  0   0  98
  0   0  95
  0   0  93
  0   0  89
  0   0  84
  0   0  74
255 255 255
 80   0   0
108   0   0
132   0   0
154   0   0
173   0   0
189   0   0
200   0   0
206   0   0
204   0   0
193   0   0
169   0   0
121   0   0
  0   0 122
  0   0 160
  0   0 172
  0   0 168
  0   0 150
  0   0 109
 98   0   0
128   0   0
128   0   0
 99   0   0
  0   0 110
  0   0 154
  0   0 179
  0   0 195
  0   0 205
  0   0 209
  0   0   0
  0   0   0
  0   0   0
  0   0   0
  0   0 202
  0   0 191
  0   0 175
  0   0 149
  0   0  95
130   0   0
169   0   0
192   0   0
208   0   0
215   0   0
215   0   0
204   0   0
180   0   0
123   0   0
  0   0 144
  0   0 186
  0   0 203
  0   0 204
  0   0 189
  0   0 151
110   0   0
174   0   0
199   0   0
207   0   0
199   0   0
174   0   0
110   0   0
  0   0 151
  0   0 189
  0   0 204
  0   0 203
  0   0 186
  0   0 144
123   0   0
180   0   0
204   0   0
215   0   0
215   0   0
208   0   0
192   0   0
169   0   0
130   0   0
  0   0  95
  0   0 149
  0   0 175
  0   0 191
  0   0 202
  0   0 209
  0   0 212
  0   0 211
  0   0 205
  0   0 194
  0   0 175
  0   0 144
255 255 255
136   0   0
160   0   0
166   0   0
157   0   0
128   0   0
  0   0  86
  0   0 143
  0   0 162
  0   0 164
  0   0 146
  0   0  84
140   0   0
175   0   0
192   0   0
198   0   0
196   0   0
187   0   0
172   0   0
152   0   0
128   0   0
 97   0   0
255 255 255
  0   0  86
  0   0  97
  0   0 102
  0   0 104
  0   0 105
  0   0 105
  0   0 105
  0   0 106
  0   0 106
  0   0 106
  0   0 107
  0   0 107
  0   0 107
  0   0 107
  0   0 106
  0   0 106
  0   0 105
  0   0 104
  0   0 103
  0   0 102
  0   0 101
  0   0  99
  0   0  97
  0   0  95
  0   0  92
  0   0  89
  0   0  85
  0   0  81
  0   0  77
  0   0  71
  0   0  65
255 255 255
255 255 255
255 255 255
255 255 255
 66   0   0
 73   0   0
 79   0   0
 83   0   0
 87   0   0
 89   0   0
 91   0   0
 92   0   0
 93   0   0
 93   0   0
 94   0   0
 94   0   0
 94   0   0
 93   0   0
 93   0   0
 92   0   0
 91   0   0
 89   0   0
 87   0   0
 83   0   0
 79   0   0
 73   0   0
 66   0   0
255 255 255
255 255 255
255 255 255
255 255 255
  0   0  65
  0   0  71
  0   0  77
  0   0  81
  0   0  85
  0   0  89
  0   0  92
  0   0  95
  0   0  97
  0   0  99
  0   0 101
  0   0 102
  0   0 103
  0   0 104
  0   0 105
  0   0 106
  0   0 106
  0   0 107
  0   0 107
  0   0 107
  0   0 107
  0   0 106
  0   0 106
  0   0 106
  0   0 105
  0   0 105
  0   0 105
  0   0 104
  0   0 102
  0   0  97
  0   0  86
255 255 255
 97   0   0
128   0   0
152   0   0
172   0   0
187   0   0
196   0   0
198   0   0
192   0   0
175   0   0
140   0   0
  0   0  84
  0   0 146
  0   0 164
  0   0 162
  0   0 143
  0   0  86
128   0   0
157   0   0
166   0   0
160   0   0
136   0   0
255 255 255
  0   0 144
  0   0 175
  0   0 194
  0   0 205
  0   0   0
  0   0   0
  0   0   0
  0   0   0
  0   0 212
  0   0 208
  0   0 199
  0   0 185
  0   0 163
  0   0 123
114   0   0
164   0   0
191   0   0
207   0   0
214   0   0
211   0   0
198   0   0
169   0   0
 91   0   0
  0   0 153
  0   0 184
  0   0 194
  0   0 187
  0   0 159
255 255 255
158   0   0
187   0   0
195   0   0
187   0   0
158   0   0
255 255 255
  0   0 159
  0   0 187
  0   0 194
  0   0 184
  0   0 153
 91   0   0
169   0   0
198   0   0
211   0   0
214   0   0
207   0   0
191   0   0
164   0   0
114   0   0
  0   0 123
  0   0 163
  0   0 185
  0   0 199
  0   0 208
  0   0 212
  0   0 213
  0   0 210
  0   0 203
  0   0 190
  0   0 168
  0   0 130
103   0   0
155   0   0
177   0   0
185   0   0
182   0   0
166   0   0
128   0   0
  0   0 102
  0   0 150
  0   0 165
  0   0 162
  0   0 139
255 255 255
146   0   0
175   0   0
188   0   0
191   0   0
185   0   0
172   0   0
153   0   0
128   0   0
 93   0   0
  0   0  69
  0   0  98
  0   0 107
  0   0 110
  0   0 111
  0   0 111
  0   0 110
  0   0 110
  0   0 109
  0   0 109
  0   0 108
  0   0 108
  0   0 107
  0   0 107
  0   0 106
  0   0 105
  0   0 103
  0   0 102
  0   0 100
  0   0  97
  0   0  94
  0   0  91
  0   0  86
  0   0  81
  0   0  74
255 255 255
255 255 255
255 255 255
 64   0   0
 75   0   0
 83   0   0
 90   0   0
 95   0   0
100   0   0
104   0   0
108   0   0
112   0   0
115   0   0
118   0   0
121   0   0
123   0   0
125   0   0
126   0   0
127   0   0
128   0   0
129   0   0
129   0   0
130   0   0
130   0   0
130   0   0
129   0   0
129   0   0
128   0   0
127   0   0
126   0   0
125   0   0
123   0   0
121   0   0
118   0   0
115   0   0
112   0   0
108   0   0
104   0   0
100   0   0
 95   0   0
 90   0   0
 83   0   0
 75   0   0
 64   0   0
255 255 255
255 255 255
255 255 255
  0   0  74
  0   0  81
  0   0  86
  0   0  91
  0   0  94
  0   0  97
  0   0 100
  0   0 102
  0   0 103
  0   0 105
  0   0 106
  0   0 107
  0   0 107
  0   0 108
  0   0 108
  0   0 109
  0   0 109
  0   0 110
  0   0 110
  0   0 111
  0   0 111
  0   0 110
  0   0 107
  0   0  98
  0   0  69
 93   0   0
128   0   0
153   0   0
172   0   0
185   0   0
191   0   0
188   0   0
175   0   0
146   0   0
255 255 255
  0   0 139
  0   0 162
  0   0 165
  0   0 150
  0   0 102
128   0   0
166   0   0
182   0   0
185   0   0
177   0   0
155   0   0
103   0   0
  0   0 130
  0   0 168
  0   0 190
  0   0   0
  0   0   0
  0   0   0
  0   0   0
  0   0 213
  0   0 214
  0   0 211
  0   0 205
  0   0 193
  0   0 174
  0   0 140
 90   0   0
158   0   0
187   0   0
204   0   0
210   0   0
206   0   0
191   0   0
159   0   0
255 255 255
  0   0 150
  0   0 173
  0   0 175
  0   0 158
  0   0 107
131   0   0
165   0   0
175   0   0
165   0   0
131   0   0
  0   0 107
  0   0 158
  0   0 175
  0   0 173
  0   0 150
255 255 255
159   0   0
191   0   0
206   0   0
210   0   0
204   0   0
187   0   0
158   0   0
 90   0   0
  0   0 140
  0   0 174
  0   0 193
  0   0 205
  0   0 211
  0   0 214
  0   0 213
  0   0 208
  0   0 198
  0   0 183
  0   0 158
  0   0 108
127   0   0
167   0   0
188   0   0
197   0   0
197   0   0
185   0   0
160   0   0
 99   0   0
  0   0 134
  0   0 164
  0   0 172
  0   0 164
  0   0 135
 85   0   0
149   0   0
173   0   0
182   0   0
181   0   0
172   0   0
156   0   0
132   0   0
 98   0   0
  0   0  68
  0   0 102
  0   0 112
  0   0 116
  0   0 116
  0   0 115
  0   0 113
  0   0 112
  0   0 111
  0   0 110
  0   0 109
  0   0 107
  0   0 106
  0   0 104
  0   0 102
  0   0 100
  0   0  97
  0   0  93
  0   0  89
  0   0  83
  0   0  74
255 255 255
255 255 255
255 255 255
 76   0   0
 86   0   0
 95   0   0
102   0   0
108   0   0
114   0   0
119   0   0
123   0   0
127   0   0
130   0   0
133   0   0
136   0   0
139   0   0
142   0   0
144   0   0
146   0   0
148   0   0
150   0   0
151   0   0
152   0   0
153   0   0
153   0   0
154   0   0
154   0   0
154   0   0
154   0   0
154   0   0
154   0   0
154   0   0
153   0   0
153   0   0
152   0   0
151   0   0
150   0   0
148   0   0
146   0   0
144   0   0
142   0   0
139   0   0
136   0   0
133   0   0
130   0   0
127   0   0
123   0   0
119   0   0
114   0   0
108   0   0
102   0   0
 95   0   0
 86   0   0
 76   0   0
255 255 255
255 255 255
255 255 255
  0   0  74
  0   0  83
  0   0  89
  0   0  93
  0   0  97
  0   0 100
  0   0 102
  0   0 104
  0   0 106
  0   0 107
  0   0 109
  0   0 110
  0   0 111
  0   0 112
  0   0 113
  0   0 115
  0   0 116
  0   0 116
  0   0 112
  0   0 102
  0   0  68
 98   0   0
132   0   0
156   0   0
172   0   0
181   0   0
182   0   0
173   0   0
149   0   0
 85   0   0
  0   0 135
  0   0 164
  0   0 172
  0   0 164
  0   0 134
 99   0   0
160   0   0
185   0   0
197   0   0
197   0   0
188   0   0
167   0   0
127   0   0
  0   0 108
  0   0 158
  0   0   0
  0   0   0
  0   0   0
  0   0   0
  0   0 203
  0   0 211
  0   0 214
  0   0 214
  0   0 209
  0   0 199
  0   0 182
  0   0 152
255 255 255
149   0   0
182   0   0
199   0   0
205   0   0
201   0   0
185   0   0
154   0   0
 81   0   0
  0   0 132
  0   0 152
  0   0 148
  0   0 124
 67   0   0
126   0   0
138   0   0
126   0   0
 67   0   0
  0   0 124
  0   0 148
  0   0 152
  0   0 132
 81   0   0
154   0   0
185   0   0
201   0   0
205   0   0
199   0   0
182   0   0
149   0   0
255 255 255
  0   0 152
  0   0 182
  0   0 199
  0   0 209
  0   0 214
  0   0 214
  0   0 211
  0   0 203
  0   0 192
  0   0 174
  0   0 145
255 255 255
142   0   0
175   0   0
194   0   0
204   0   0
205   0   0
197   0   0
177   0   0
136   0   0
  0   0 110
  0   0 161
  0   0 178
  0   0 179
  0   0 165
  0   0 129
101   0   0
152   0   0
171   0   0
176   0   0
172   0   0
159   0   0
139   0   0
109   0   0
255 255 255
  0   0  99
  0   0 113
  0   0 118
  0   0 119
  0   0 117
  0   0 115
  0   0 113
  0   0 111
  0   0 109
  0   0 107
  0   0 105
  0   0 102
  0   0  99
  0   0  95
  0   0  90
  0   0  83
  0   0  73
255 255 255
255 255 255
 72   0   0
 86   0   0
 96   0   0
105   0   0
112   0   0
119   0   0
125   0   0
130   0   0
135   0   0
139   0   0
143   0   0
146   0   0
149   0   0
152   0   0
155   0   0
157   0   0
159   0   0
161   0   0
163   0   0
164   0   0
166   0   0
167   0   0
168   0   0
169   0   0
170   0   0
170   0   0
170   0   0
171   0   0
171   0   0
171   0   0
171   0   0
171   0   0
171   0   0
171   0   0
170   0   0
170   0   0
170   0   0
169   0   0
168   0   0
167   0   0
166   0   0
164   0   0
163   0   0
161   0   0
159   0   0
157   0   0
155   0   0
152   0   0
149   0   0
146   0   0
143   0   0
139   0   0
135   0   0
130   0   0
125   0   0
119   0   0
112   0   0
105   0   0
 96   0   0
 86   0   0
 72   0   0
255 255 255
255 255 255
  0   0  73
  0   0  83
  0   0  90
  0   0  95
  0   0  99
  0   0 102
  0   0 105
  0   0 107
  0   0 109
  0   0 111
  0   0 113
  0   0 115
  0   0 117
  0   0 119
  0   0 118
  0   0 113
  0   0  99
255 255 255
109   0   0
139   0   0
159   0   0
172   0   0
176   0   0
171   0   0
152   0   0
101   0   0
  0   0 129
  0   0 165
  0   0 179
  0   0 178
  0   0 161
  0   0 110
136   0   0
177   0   0
197   0   0
205   0   0
204   0   0
194   0   0
175   0   0
142   0   0
255 255 255
  0   0   0
  0   0   0
  0   0   0
  0   0   0
  0   0 183
  0   0 198
  0   0 207
  0   0 213
  0   0 214
  0   0 211
  0   0 203
  0   0 188
  0   0 161
  0   0 101
139   0   0
176   0   0
195   0   0
202   0   0
198   0   0
185   0   0
160   0   0
117   0   0
  0   0  93
  0   0 126
  0   0 130
  0   0 120
  0   0 105
  0   0  97
  0   0 105
  0   0 120
  0   0 130
  0   0 126
  0   0  93
117   0   0
160   0   0
185   0   0
198   0   0
202   0   0
195   0   0
176   0   0
139   0   0
  0   0 101
  0   0 161
  0   0 188
  0   0 203
  0   0 211
  0   0 214
  0   0 213
  0   0 207
  0   0 198
  0   0 183
  0   0 162
  0   0 126
 96   0   0
152   0   0
180   0   0
198   0   0
207   0   0
210   0   0
204   0   0
188   0   0
155   0   0
255 255 255
  0   0 154
  0   0 180
  0   0 189
  0   0 183
  0   0 163
  0   0 118
116   0   0
155   0   0
169   0   0
171   0   0
163   0   0
146   0   0
121   0   0
 76   0   0
  0   0  90
  0   0 111
  0   0 118
  0   0 120
  0   0 119
  0   0 117
  0   0 113
  0   0 110
  0   0 107
  0   0 103
  0   0  99
  0   0  94
  0   0  87
  0   0  78
255 255 255
255 255 255
 73   0   0
 88   0   0
 99   0   0
109   0   0
117   0   0
124   0   0
131   0   0
136   0   0
142   0   0
146   0   0
151   0   0
154   0   0
158   0   0
161   0   0
163   0   0
166   0   0
168   0   0
170   0   0
171   0   0
172   0   0
174   0   0
175   0   0
176   0   0
176   0   0
177   0   0
178   0   0
178   0   0
178   0   0
178   0   0
178   0   0
178   0   0
178   0   0
178   0   0
178   0   0
178   0   0
178   0   0
178   0   0
178   0   0
178   0   0
178   0   0
178   0   0
178   0   0
178   0   0
178   0   0
177   0   0
176   0   0
176   0   0
175   0   0
174   0   0
172   0   0
171   0   0
170   0   0
168   0   0
166   0   0
163   0   0
161   0   0
158   0   0
154   0   0
151   0   0
146   0   0
142   0   0
136   0   0
131   0   0
124   0   0
117   0   0
109   0   0
 99   0   0
 88   0   0
 73   0   0
255 255 255
255 255 255
  0   0  78
  0   0  87
  0   0  94
  0   0  99
  0   0 103
  0   0 107
  0   0 110
  0   0 113
  0   0 117
  0   0 119
  0   0 120
  0   0 118
  0   0 111
  0   0  90
 76   0   0
121   0   0
146   0   0
163   0   0
171   0   0
169   0   0
155   0   0
116   0   0
  0   0 118
  0   0 163
  0   0 183
  0   0 189
  0   0 180
  0   0 154
255 255 255
155   0   0
188   0   0
204   0   0
210   0   0
207   0   0
198   0   0
180   0   0
152   0   0
  0   0   0
  0   0   0
  0   0   0
  0   0   0
  0   0 148
  0   0 173
  0   0 190
  0   0 202
  0   0 210
  0   0 214
  0   0 213
  0   0 206
  0   0 193
  0   0 168
  0   0 118
130   0   0
173   0   0
193   0   0
201   0   0
200   0   0
189   0   0
168   0   0
134   0   0
255 255 255
  0   0 128
  0   0 147
  0   0 156
  0   0 158
  0   0 156
  0   0 147
  0   0 128
255 255 255
134   0   0
168   0   0
189   0   0
200   0   0
201   0   0
193   0   0
173   0   0
130   0   0
  0   0 118
  0   0 168
  0   0 193
  0   0 206
  0   0 213
  0   0 214
  0   0 210
  0   0 202
  0   0 190
  0   0 173
  0   0 148
  0   0  99
121   0   0
159   0   0
183   0   0
198   0   0
208   0   0
211   0   0
207   0   0
194   0   0
167   0   0
103   0   0
  0   0 144
  0   0 179
  0   0 194
  0   0 195
  0   0 183
  0   0 155
  0   0  92
131   0   0
159   0   0
168   0   0
165   0   0
153   0   0
133   0   0
100   0   0
  0   0  68
  0   0 105
  0   0 116
  0   0 120
  0   0 120
  0   0 117
  0   0 113
  0   0 108
  0   0 102
  0   0  95
  0   0  86
  0   0  74
255 255 255
255 255 255
 83   0   0
 97   0   0
108   0   0
117   0   0
125   0   0
133   0   0
139   0   0
145   0   0
150   0   0
155   0   0
159   0   0
163   0   0
166   0   0
169   0   0
171   0   0
173   0   0
175   0   0
176   0   0
177   0   0
178   0   0
178   0   0
178   0   0
178   0   0
178   0   0
178   0   0
178   0   0
178   0   0
177   0   0
177   0   0
176   0   0
176   0   0
175   0   0
175   0   0
174   0   0
174   0   0
174   0   0
173   0   0
173   0   0
173   0   0
174   0   0
174   0   0
174   0   0
175   0   0
175   0   0
176   0   0
176   0   0
177   0   0
177   0   0
178   0   0
178   0   0
178   0   0
178   0   0
178   0   0
178   0   0
178   0   0
178   0   0
177   0   0
176   0   0
175   0   0
173   0   0
171   0   0
169   0   0
166   0   0
163   0   0
159   0   0
155   0   0
150   0   0
145   0   0
139   0   0
133   0   0
125   0   0
117   0   0
108   0   0
 97   0   0
 83   0   0
255 255 255
255 255 255
  0   0  74
  0   0  86
  0   0  95
  0   0 102
  0   0 108
  0   0 113
  0   0 117
  0   0 120
  0   0 120
  0   0 116
  0   0 105
  0   0  68
100   0   0
133   0   0
153   0   0
165   0   0
168   0   0
159   0   0
131   0   0
  0   0  92
  0   0 155
  0   0 183
  0   0 195
  0   0 194
  0   0 179
  0   0 144
103   0   0
167   0   0
194   0   0
207   0   0
211   0   0
208   0   0
198   0   0
183   0   0
  0   0   0
  0   0   0
  0   0   0
  0   0   0
255 255 255
  0   0 130
  0   0 161
  0   0 182
  0   0 197
  0   0 207
  0   0 212
  0   0 213
  0   0 207
  0   0 195
  0   0 171
  0   0 122
130   0   0
174   0   0
196   0   0
205   0   0
203   0   0
192   0   0
168   0   0
120   0   0
  0   0 121
  0   0 162
  0   0 180
  0   0 185
  0   0 180
  0   0 162
  0   0 121
120   0   0
168   0   0
192   0   0
203   0   0
205   0   0
196   0   0
174   0   0
130   0   0
  0   0 122
  0   0 171
  0   0 195
  0   0 207
  0   0 213
  0   0 212
  0   0 207
  0   0 197
  0   0 182
  0   0 161
  0   0 130
255 255 255
135   0   0
164   0   0
183   0   0
197   0   0
206   0   0
210   0   0
208   0   0
198   0   0
175   0   0
127   0   0
  0   0 130
  0   0 175
  0   0 195
  0   0 201
  0   0 195
  0   0 177
  0   0 141
 79   0   0
144   0   0
162   0   0
166   0   0
159   0   0
143   0   0
118   0   0
 71   0   0
  0   0  92
  0   0 111
  0   0 118
  0   0 118
  0   0 116
  0   0 110
  0   0 103
  0   0  93
  0   0  79
255 255 255
 67   0   0
 88   0   0
102   0   0
113   0   0
122   0   0
131   0   0
138   0   0
145   0   0
151   0   0
156   0   0
161   0   0
165   0   0
168   0   0
171   0   0
174   0   0
175   0   0
177   0   0
178   0   0
179   0   0
179   0   0
178   0   0
178   0   0
177   0   0
176   0   0
174   0   0
173   0   0
171   0   0
169   0   0
167   0   0
165   0   0
164   0   0
162   0   0
160   0   0
158   0   0
155   0   0
154   0   0
152   0   0
150   0   0
149   0   0
149   0   0
148   0   0
148   0   0
148   0   0
149   0   0
149   0   0
150   0   0
152   0   0
154   0   0
155   0   0
158   0   0
160   0   0
162   0   0
164   0   0
165   0   0
167   0   0
169   0   0
171   0   0
173   0   0
174   0   0
176   0   0
177   0   0
178   0   0
178   0   0
179   0   0
179   0   0
178   0   0
177   0   0
175   0   0
174   0   0
171   0   0
168   0   0
165   0   0
161   0   0
156   0   0
151   0   0
145   0   0
138   0   0
131   0   0
122   0   0
113   0   0
102   0   0
 88   0   0
 67   0   0
255 255 255
  0   0  79
  0   0  93
  0   0 103
  0   0 110
  0   0 116
  0   0 118
  0   0 118
  0   0 111
  0   0  92
 71   0   0
118   0   0
143   0   0
159   0   0
166   0   0
162   0   0
144   0   0
 79   0   0
  0   0 141
  0   0 177
  0   0 195
  0   0 201
  0   0 195
  0   0 175
  0   0 130
127   0   0
175   0   0
198   0   0
208   0   0
210   0   0
206   0   0
197   0   0
  0   0   0
  0   0   0
  0   0   0
  0   0   0
144   0   0
104   0   0
  0   0 106
  0   0 148
  0   0 173
  0   0 190
  0   0 202
  0   0 209
  0   0 211
  0   0 206
  0   0 193
  0   0 168
  0   0 109
142   0   0
182   0   0
202   0   0
208   0   0
203   0   0
184   0   0
144   0   0
  0   0 113
  0   0 170
  0   0 193
  0   0 200
  0   0 193
  0   0 170
  0   0 113
144   0   0
184   0   0
203   0   0
208   0   0
202   0   0
182   0   0
142   0   0
  0   0 109
  0   0 168
  0   0 193
  0   0 206
  0   0 211
  0   0 209
  0   0 202
  0   0 190
  0   0 173
  0   0 148
  0   0 106
104   0   0
144   0   0
167   0   0
183   0   0
195   0   0
203   0   0
207   0   0
206   0   0
198   0   0
180   0   0
142   0   0
  0   0 108
  0   0 168
  0   0 194
  0   0 205
  0   0 204
  0   0 191
  0   0 166
  0   0 115
119   0   0
153   0   0
164   0   0
163   0   0
152   0   0
132   0   0
101   0   0
255 255 255
  0   0 101
  0   0 112
  0   0 114
  0   0 111
  0   0 104
  0   0  93
  0   0  73
255 255 255
 84   0   0
102   0   0
115   0   0
125   0   0
134   0   0
142   0   0
149   0   0
155   0   0
160   0   0
165   0   0
169   0   0
172   0   0
174   0   0
176   0   0
178   0   0
179   0   0
179   0   0
178   0   0
177   0   0
176   0   0
174   0   0
172   0   0
169   0   0
165   0   0
161   0   0
157   0   0
152   0   0
147   0   0
142   0   0
136   0   0
129   0   0
123   0   0
115   0   0
107   0   0
 98   0   0
 87   0   0
 73   0   0
255 255 255
255 255 255
  0   0  69
  0   0  77
  0   0  82
  0   0  85
  0   0  86
  0   0  85
  0   0  82
  0   0  77
  0   0  69
255 255 255
255 255 255
 73   0   0
 87   0   0
 98   0   0
107   0   0
115   0   0
123   0   0
129   0   0
136   0   0
142   0   0
147   0   0
152   0   0
157   0   0
161   0   0
165   0   0
169   0   0
172   0   0
174   0   0
176   0   0
177   0   0
178   0   0
179   0   0
179   0   0
178   0   0
176   0   0
174   0   0
172   0   0
169   0   0
165   0   0
160   0   0
155   0   0
149   0   0
142   0   0
134   0   0
125   0   0
115   0   0
102   0   0
 84   0   0
255 255 255
  0   0  73
  0   0  93
  0   0 104
  0   0 111
  0   0 114
  0   0 112
  0   0 101
255 255 255
101   0   0
132   0   0
152   0   0
163   0   0
164   0   0
153   0   0
119   0   0
  0   0 115
  0   0 166
  0   0 191
  0   0 204
  0   0 205
  0   0 194
  0   0 168
  0   0 108
142   0   0
180   0   0
198   0   0
206   0   0
207   0   0
203   0   0
  0   0   0
  0   0   0
  0   0   0
  0   0   0
167   0   0
150   0   0
122   0   0
255 255 255
  0   0 133
  0   0 163
  0   0 183
  0   0 197
  0   0 205
  0   0 206
  0   0 201
  0   0 185
  0   0 153
 72   0   0
161   0   0
191   0   0
204   0   0
204   0   0
189   0   0
151   0   0
  0   0 111
  0   0 175
  0   0 201
  0   0 208
  0   0 201
  0   0 175
  0   0 111
151   0   0
189   0   0
204   0   0
204   0   0
191   0   0
161   0   0
 72   0   0
  0   0 153
  0   0 185
  0   0 201
  0   0 206
  0   0 205
  0   0 197
  0   0 183
  0   0 163
  0   0 133
255 255 255
122   0   0
150   0   0
167   0   0
181   0   0
191   0   0
198   0   0
203   0   0
203   0   0
197   0   0
183   0   0
152   0   0
255 255 255
  0   0 158
  0   0 190
  0   0 205
  0   0 209
  0   0 201
  0   0 182
  0   0 148
255 255 255
139   0   0
160   0   0
164   0   0
158   0   0
143   0   0
120   0   0
 81   0   0
  0   0  80
  0   0 101
  0   0 106
  0   0 102
  0   0  92
  0   0  69
 65   0   0
 94   0   0
111   0   0
124   0   0
135   0   0
143   0   0
151   0   0
157   0   0
163   0   0
167   0   0
171   0   0
174   0   0
176   0   0
178   0   0
179   0   0
179   0   0
178   0   0
176   0   0
174   0   0
171   0   0
167   0   0
163   0   0
157   0   0
151   0   0
143   0   0
134   0   0
123   0   0
108   0   0
 87   0   0
255 255 255
  0   0  87
  0   0 106
  0   0 119
  0   0 128
  0   0 136
  0   0 142
  0   0 147
  0   0 152
  0   0 156
  0   0 159
  0   0 162
  0   0 164
  0   0 165
  0   0 167
  0   0 168
  0   0 168
  0   0 168
  0   0 168
  0   0 168
  0   0 167
  0   0 165
  0   0 164
  0   0 162
  0   0 159
  0   0 156
  0   0 152
  0   0 147
  0   0 142
  0   0 136
  0   0 128
  0   0 119
  0   0 106
  0   0  87
255 255 255
 87   0   0
108   0   0
123   0   0
134   0   0
143   0   0
151   0   0
157   0   0
163   0   0
167   0   0
171   0   0
174   0   0
176   0   0
178   0   0
179   0   0
179   0   0
178   0   0
176   0   0
174   0   0
171   0   0
167   0   0
163   0   0
157   0   0
151   0   0
143   0   0
135   0   0
124   0   0
111   0   0
 94   0   0
 65   0   0
  0   0  69
  0   0  92
  0   0 102
  0   0 106
  0   0 101
  0   0  80
 81   0   0
120   0   0
143   0   0
158   0   0
164   0   0
160   0   0
139   0   0
255 255 255
  0   0 148
  0   0 182
  0   0 201
  0   0 209
  0   0 205
  0   0 190
  0   0 158
255 255 255
152   0   0
183   0   0
197   0   0
203   0   0
203   0   0
  0   0   0
  0   0   0
  0   0   0
  0   0   0
177   0   0
167   0   0
153   0   0
132   0   0
 85   0   0
  0   0 115
  0   0 151
  0   0 173
  0   0 188
  0   0 195
  0   0 196
  0   0 187
  0   0 166
  0   0 116
132   0   0
174   0   0
192   0   0
195   0   0
182   0   0
144   0   0
  0   0 121
  0   0 179
  0   0 204
  0   0 211
  0   0 204
  0   0 179
  0   0 121
144   0   0
182   0   0
195   0   0
192   0   0
174   0   0
132   0   0
  0   0 116
  0   0 166
  0   0 187
  0   0 196
  0   0 195
  0   0 188
  0   0 173
  0   0 151
  0   0 115
 85   0   0
132   0   0
153   0   0
167   0   0
177   0   0
185   0   0
192   0   0
197   0   0
198   0   0
195   0   0
183   0   0
159   0   0
 96   0   0
  0   0 145
  0   0 183
  0   0 203
  0   0 211
  0   0 208
  0   0 194
  0   0 168
  0   0 119
116   0   0
152   0   0
164   0   0
163   0   0
153   0   0
135   0   0
109   0   0
 65   0   0
  0   0  77
  0   0  88
  0   0  83
255 255 255
 75   0   0
101   0   0
118   0   0
131   0   0
141   0   0
150   0   0
157   0   0
163   0   0
168   0   0
172   0   0
176   0   0
177   0   0
179   0   0
179   0   0
178   0   0
176   0   0
173   0   0
170   0   0
165   0   0
158   0   0
151   0   0
141   0   0
129   0   0
113   0   0
 88   0   0
255 255 255
  0   0 103
  0   0 122
  0   0 136
  0   0 146
  0   0 155
  0   0 162
  0   0 168
  0   0 173
  0   0 178
  0   0 182
  0   0 185
  0   0 187
  0   0 190
  0   0 192
  0   0 194
  0   0 195
  0   0 197
  0   0 198
  0   0 199
  0   0 199
  0   0 200
  0   0 200
  0   0 200
  0   0 200
  0   0 200
  0   0 199
  0   0 199
  0   0 198
  0   0 197
  0   0 195
  0   0 194
  0   0 192
  0   0 190
  0   0 187
  0   0 185
  0   0 182
  0   0 178
  0   0 173
  0   0 168
  0   0 162
  0   0 155
  0   0 146
  0   0 136
  0   0 122
  0   0 103
255 255 255
 88   0   0
113   0   0
129   0   0
141   0   0
151   0   0
158   0   0
165   0   0
170   0   0
173   0   0
176   0   0
178   0   0
179   0   0
179   0   0
177   0   0
176   0   0
172   0   0
168   0   0
163   0   0
157   0   0
150   0   0
141   0   0
131   0   0
118   0   0
101   0   0
 75   0   0
255 255 255
  0   0  83
  0   0  88
  0   0  77
 65   0   0
109   0   0
135   0   0
153   0   0
163   0   0
164   0   0
152   0   0
116   0   0
  0   0 119
  0   0 168
  0   0 194
  0   0 208
  0   0 211
  0   0 203
  0   0 183
  0   0 145
 96   0   0
159   0   0
183   0   0
195   0   0
198   0   0
  0   0   0
  0   0   0
  0   0   0
  0   0   0
179   0   0
172   0   0
164   0   0
154   0   0
138   0   0
108   0   0
  0   0  87
  0   0 134
  0   0 158
  0   0 172
  0   0 178
  0   0 175
  0   0 161
  0   0 128
 98   0   0
152   0   0
172   0   0
176   0   0
162   0   0
114   0   0
  0   0 140
  0   0 184
  0   0 205
  0   0 212
  0   0 205
  0   0 184
  0   0 140
114   0   0
162   0   0
176   0   0
172   0   0
152   0   0
 98   0   0
  0   0 128
  0   0 161
  0   0 175
  0   0 178
  0   0 172
  0   0 158
  0   0 134
  0   0  87
108   0   0
138   0   0
154   0   0
164   0   0
172   0   0
179   0   0
185   0   0
190   0   0
192   0   0
191   0   0
183   0   0
164   0   0
121   0   0
  0   0 126
  0   0 174
  0   0 198
  0   0 210
  0   0 212
  0   0 203
  0   0 183
  0   0 147
255 255 255
140   0   0
160   0   0
165   0   0
160   0   0
147   0   0
128   0   0
104   0   0
 76   0   0
255 255 255
255 255 255
 87   0   0
107   0   0
123   0   0
135   0   0
146   0   0
155   0   0
162   0   0
168   0   0
172   0   0
176   0   0
178   0   0
179   0   0
179   0   0
177   0   0
175   0   0
171   0   0
165   0   0
158   0   0
149   0   0
137   0   0
121   0   0
 96   0   0
255 255 255
  0   0 106
  0   0 128
  0   0 143
  0   0 155
  0   0 164
  0   0 172
  0   0 179
  0   0 184
  0   0 189
  0   0 194
  0   0 197
  0   0 200
  0   0 202
  0   0 204
  0   0 206
  0   0 208
  0   0 209
  0   0 210
  0   0 210
  0   0 211
  0   0 212
  0   0 212
  0   0 213
  0   0 213
  0   0 213
  0   0 213
  0   0 213
  0   0 213
  0   0 213
  0   0 213
  0   0 213
  0   0 213
  0   0 213
  0   0 212
  0   0 212
  0   0 211
  0   0 210
  0   0 210
  0   0 209
  0   0 208
  0   0 206
  0   0 204
  0   0 202
  0   0 200
  0   0 197
  0   0 194
  0   0 189
  0   0 184
  0   0 179
  0   0 172
  0   0 164
  0   0 155
  0   0 143
  0   0 128
  0   0 106
255 255 255
 96   0   0
121   0   0
137   0   0
149   0   0
158   0   0
165   0   0
171   0   0
175   0   0
177   0   0
179   0   0
179   0   0
178   0   0
176   0   0
172   0   0
168   0   0
162   0   0
155   0   0
146   0   0
135   0   0
123   0   0
107   0   0
 87   0   0
255 255 255
255 255 255
 76   0   0
104   0   0
128   0   0
147   0   0
160   0   0
165   0   0
160   0   0
140   0   0
255 255 255
  0   0 147
  0   0 183
  0   0 203
  0   0 212
  0   0 210
  0   0 198
  0   0 174
  0   0 126
121   0   0
164   0   0
183   0   0
191   0   0
  0   0   0
  0   0   0
  0   0   0
  0   0   0
176   0   0
171   0   0
166   0   0
160   0   0
153   0   0
142   0   0
125   0   0
 91   0   0
  0   0  91
  0   0 124
  0   0 138
  0   0 141
  0   0 133
  0   0 109
 78   0   0
126   0   0
142   0   0
141   0   0
116   0   0
  0   0 106
  0   0 161
  0   0 190
  0   0 207
  0   0 212
  0   0 207
  0   0 190
  0   0 161
  0   0 106
116   0   0
141   0   0
142   0   0
126   0   0
 78   0   0
  0   0 109
  0   0 133
  0   0 141
  0   0 138
  0   0 124
  0   0  91
 91   0   0
125   0   0
142   0   0
153   0   0
160   0   0
166   0   0
171   0   0
176   0   0
181   0   0
185   0   0
185   0   0
181   0   0
167   0   0
135   0   0
  0   0  99
  0   0 162
  0   0 192
  0   0 208
  0   0 213
  0   0 209
  0   0 194
  0   0 166
  0   0 114
121   0   0
154   0   0
166   0   0
165   0   0
157   0   0
144   0   0
127   0   0
111   0   0
102   0   0
105   0   0
115   0   0
127   0   0
139   0   0
149   0   0
158   0   0
165   0   0
170   0   0
174   0   0
177   0   0
178   0   0
178   0   0
176   0   0
173   0   0
169   0   0
162   0   0
153   0   0
140   0   0
123   0   0
 95   0   0
  0   0  73
  0   0 115
  0   0 136
  0   0 151
  0   0 163
  0   0 173
  0   0 181
  0   0 187
  0   0 193
  0   0 198
  0   0 202
  0   0 205
  0   0 207
  0   0 210
  0   0 211
  0   0 212
  0   0 213
  0   0 214
  0   0 214
  0   0 214
  0   0 214
  0   0 213
  0   0 213
  0   0 213
  0   0 213
  0   0 212
  0   0 212
  0   0 211
  0   0 211
  0   0 211
  0   0 211
  0   0 211
  0   0 210
  0   0 211
  0   0 211
  0   0 211
  0   0 211
  0   0 211
  0   0 212
  0   0 212
  0   0 213
  0   0 213
  0   0 213
  0   0 213
  0   0 214
  0   0 214
  0   0 214
  0   0 214
  0   0 213
  0   0 212
  0   0 211
  0   0 210
  0   0 207
  0   0 205
  0   0 202
  0   0 198
  0   0 193
  0   0 187
  0   0 181
  0   0 173
  0   0 163
  0   0 151
  0   0 136
  0   0 115
  0   0  73
 95   0   0
123   0   0
140   0   0
153   0   0
162   0   0
169   0   0
173   0   0
176   0   0
178   0   0
178   0   0
177   0   0
174   0   0
170   0   0
165   0   0
158   0   0
149   0   0
139   0   0
127   0   0
115   0   0
105   0   0
102   0   0
111   0   0
127   0   0
144   0   0
157   0   0
165   0   0
166   0   0
154   0   0
121   0   0
  0   0 114
  0   0 166
  0   0 194
  0   0 209
  0   0 213
  0   0 208
  0   0 192
  0   0 162
  0   0  99
135   0   0
167   0   0
181   0   0
  0   0   0
  0   0   0
  0   0   0
  0   0   0
171   0   0
166   0   0
161   0   0
158   0   0
156   0   0
154   0   0
151   0   0
145   0   0
137   0   0
126   0   0
114   0   0
102   0   0
 96   0   0
 96   0   0
101   0   0
101   0   0
 89   0   0
  0   0  73
  0   0 125
  0   0 158
  0   0 181
  0   0 199
  0   0 209
  0   0 212
  0   0 209
  0   0 199
  0   0 181
  0   0 158
  0   0 125
  0   0  73
 89   0   0
101   0   0
101   0   0
 96   0   0
 96   0   0
102   0   0
114   0   0
126   0   0
137   0   0
145   0   0
151   0   0
154   0   0
156   0   0
158   0   0
161   0   0
166   0   0
171   0   0
176   0   0
179   0   0
177   0   0
167   0   0
144   0   0
255 255 255
  0   0 148
  0   0 183
  0   0 203
  0   0 213
  0   0 212
  0   0 202
  0   0 180
  0   0 142
 82   0   0
145   0   0
164   0   0
170   0   0
166   0   0
157   0   0
145   0   0
134   0   0
128   0   0
128   0   0
134   0   0
143   0   0
152   0   0
160   0   0
167   0   0
172   0   0
175   0   0
177   0   0
177   0   0
176   0   0
172   0   0
167   0   0
160   0   0
149   0   0
134   0   0
112   0   0
255 255 255
  0   0 106
  0   0 133
  0   0 151
  0   0 165
  0   0 175
  0   0 184
  0   0 191
  0   0 197
  0   0 202
  0   0 206
  0   0 209
  0   0 211
  0   0 212
  0   0 213
  0   0 214
  0   0 214
  0   0 214
  0   0 213
  0   0 212
  0   0 211
  0   0 210
  0   0 208
  0   0 206
  0   0 205
  0   0 203
  0   0 201
  0   0 200
  0   0 198
  0   0 197
  0   0 196
  0   0 194
  0   0 194
  0   0 193
  0   0 192
  0   0 192
  0   0 192
  0   0 192
  0   0 192
  0   0 193
  0   0 194
  0   0 194
  0   0 196
  0   0 197
  0   0 198
  0   0 200
  0   0 201
  0   0 203
  0   0 205
  0   0 206
  0   0 208
  0   0 210
  0   0 211
  0   0 212
  0   0 213
  0   0 214
  0   0 214
  0   0 214
  0   0 213
  0   0 212
  0   0 211
  0   0 209
  0   0 206
  0   0 202
  0   0 197
  0   0 191
  0   0 184
  0   0 175
  0   0 165
  0   0 151
  0   0 133
  0   0 106
255 255 255
112   0   0
134   0   0
149   0   0
160   0   0
167   0   0
172   0   0
176   0   0
177   0   0
177   0   0
175   0   0
172   0   0
167   0   0
160   0   0
152   0   0
143   0   0
134   0   0
128   0   0
128   0   0
134   0   0
145   0   0
157   0   0
166   0   0
170   0   0
164   0   0
145   0   0
 82   0   0
  0   0 142
  0   0 180
  0   0 202
  0   0 212
  0   0 213
  0   0 203
  0   0 183
  0   0 148
255 255 255
144   0   0
167   0   0
  0   0   0
  0   0   0
  0   0   0
  0   0   0
166   0   0
159   0   0
154   0   0
152   0   0
153   0   0
157   0   0
161   0   0
166   0   0
169   0   0
171   0   0
170   0   0
167   0   0
160   0   0
149   0   0
130   0   0
 89   0   0
  0   0 108
  0   0 145
  0   0 169
  0   0 186
  0   0 198
  0   0 207
  0   0 212
  0   0 214
  0   0 212
  0   0 207
  0   0 198
  0   0 186
  0   0 169
  0   0 145
  0   0 108
 89   0   0
130   0   0
149   0   0
160   0   0
167   0   0
170   0   0
171   0   0
169   0   0
166   0   0
161   0   0
157   0   0
153   0   0
152   0   0
154   0   0
159   0   0
166   0   0
171   0   0
172   0   0
167   0   0
150   0   0
104   0   0
  0   0 130
  0   0 173
  0   0 198
  0   0 211
  0   0 214
  0   0 208
  0   0 191
  0   0 161
  0   0  98
132   0   0
161   0   0
172   0   0
173   0   0
168   0   0
160   0   0
152   0   0
147   0   0
146   0   0
150   0   0
156   0   0
162   0   0
168   0   0
173   0   0
176   0   0
177   0   0
176   0   0
172   0   0
167   0   0
159   0   0
148   0   0
131   0   0
104   0   0
  0   0  69
  0   0 119
  0   0 142
  0   0 159
  0   0 172
  0   0 183
  0   0 191
  0   0 198
  0   0 203
  0   0 207
  0   0 210
  0   0 212
  0   0 213
  0   0 214
  0   0 214
  0   0 213
  0   0 212
  0   0 210
  0   0 208
  0   0 206
  0   0 203
  0   0 200
  0   0 197
  0   0 193
  0   0 189
  0   0 186
  0   0 182
  0   0 178
  0   0 174
  0   0 171
  0   0 168
  0   0 165
  0   0 162
  0   0 159
  0   0 157
  0   0 154
  0   0 153
  0   0 152
  0   0 151
  0   0 151
  0   0 151
  0   0 152
  0   0 153
  0   0 154
  0   0 157
  0   0 159
  0   0 162
  0   0 165
  0   0 168
  0   0 171
  0   0 174
  0   0 178
  0   0 182
  0   0 186
  0   0 189
  0   0 193
  0   0 197
  0   0 200
  0   0 203
  0   0 206
  0   0 208
  0   0 210
  0   0 212
  0   0 213
  0   0 214
  0   0 214
  0   0 213
  0   0 212
  0   0 210
  0   0 207
  0   0 203
  0   0 198
  0   0 191
  0   0 183
  0   0 172
  0   0 159
  0   0 142
  0   0 119
  0   0  69
104   0   0
131   0   0
148   0   0
159   0   0
167   0   0
172   0   0
176   0   0
177   0   0
176   0   0
173   0   0
168   0   0
162   0   0
156   0   0
150   0   0
146   0   0
147   0   0
152   0   0
160   0   0
168   0   0
173   0   0
172   0   0
161   0   0
132   0   0
  0   0  98
  0   0 161
  0   0 191
  0   0 208
  0   0 214
  0   0 211
  0   0 198
  0   0 173
  0   0 130
104   0   0
150   0   0
  0   0   0
  0   0   0
  0   0   0
  0   0   0
161   0   0
154   0   0
147   0   0
144   0   0
147   0   0
155   0   0
165   0   0
176   0   0
186   0   0
193   0   0
196   0   0
196   0   0
190   0   0
176   0   0
151   0   0
 94   0   0
  0   0 133
  0   0 170
  0   0 191
  0   0 203
  0   0 211
  0   0 215
  0   0 216
  0   0 217
  0   0 216
  0   0 215
  0   0 211
  0   0 203
  0   0 191
  0   0 170
  0   0 133
 94   0   0
151   0   0
176   0   0
190   0   0
196   0   0
196   0   0
193   0   0
186   0   0
176   0   0
165   0   0
155   0   0
147   0   0
144   0   0
147   0   0
154   0   0
161   0   0
166   0   0
164   0   0
153   0   0
122   0   0
  0   0 106
  0   0 161
  0   0 190
  0   0 207
  0   0 214
  0   0 211
  0   0 199
  0   0 175
  0   0 130
112   0   0
157   0   0
174   0   0
180   0   0
179   0   0
173   0   0
167   0   0
162   0   0
161   0   0
162   0   0
165   0   0
169   0   0
173   0   0
175   0   0
175   0   0
173   0   0
168   0   0
161   0   0
150   0   0
133   0   0
104   0   0
  0   0  75
  0   0 123
  0   0 147
  0   0 163
  0   0 176
  0   0 187
  0   0 195
  0   0 201
  0   0 206
  0   0 210
  0   0 212
  0   0 214
  0   0 214
  0   0 213
  0   0 212
  0   0 210
  0   0 207
  0   0 204
  0   0 200
  0   0 196
  0   0 191
  0   0 186
  0   0 180
  0   0 174
  0   0 168
  0   0 161
  0   0 154
  0   0 146
  0   0 138
  0   0 129
  0   0 119
  0   0 108
  0   0  97
  0   0  82
255 255 255
255 255 255
 73   0   0
 84   0   0
 91   0   0
 96   0   0
 99   0   0
101   0   0
101   0   0
101   0   0
 99   0   0
 96   0   0
 91   0   0
 84   0   0
 73   0   0
255 255 255
255 255 255
  0   0  82
  0   0  97
  0   0 108
  0   0 119
  0   0 129
  0   0 138
  0   0 146
  0   0 154
  0   0 161
  0   0 168
  0   0 174
  0   0 180
  0   0 186
  0   0 191
  0   0 196
  0   0 200
  0   0 204
  0   0 207
  0   0 210
  0   0 212
  0   0 213
  0   0 214
  0   0 214
  0   0 212
  0   0 210
  0   0 206
  0   0 201
  0   0 195
  0   0 187
  0   0 176
  0   0 163
  0   0 147
  0   0 123
  0   0  75
104   0   0
133   0   0
150   0   0
161   0   0
168   0   0
173   0   0
175   0   0
175   0   0
173   0   0
169   0   0
165   0   0
162   0   0
161   0   0
162   0   0
167   0   0
173   0   0
179   0   0
180   0   0
174   0   0
157   0   0
112   0   0
  0   0 130
  0   0 175
  0   0 199
  0   0 211
  0   0 214
  0   0 207
  0   0 190
  0   0 161
  0   0 106
122   0   0
  0   0   0
  0   0   0
  0   0   0
  0   0   0
158   0   0
152   0   0
144   0   0
140   0   0
143   0   0
153   0   0
167   0   0
182   0   0
195   0   0
205   0   0
210   0   0
211   0   0
205   0   0
191   0   0
164   0   0
 99   0   0
  0   0 144
  0   0 182
  0   0 202
  0   0 213
  0   0 218
  0   0 219
  0   0 219
  0   0 219
  0   0 219
  0   0 219
  0   0 218
  0   0 213
  0   0 202
  0   0 182
  0   0 144
 99   0   0
164   0   0
191   0   0
205   0   0
211   0   0
210   0   0
205   0   0
195   0   0
182   0   0
167   0   0
153   0   0
143   0   0
140   0   0
144   0   0
152   0   0
158   0   0
160   0   0
154   0   0
132   0   0
255 255 255
  0   0 148
  0   0 182
  0   0 202
  0   0 213
  0   0 214
  0   0 205
  0   0 185
  0   0 149
 70   0   0
150   0   0
174   0   0
185   0   0
187   0   0
185   0   0
180   0   0
176   0   0
173   0   0
172   0   0
172   0   0
173   0   0
174   0   0
173   0   0
170   0   0
164   0   0
154   0   0
139   0   0
114   0   0
255 255 255
  0   0 119
  0   0 146
  0   0 164
  0   0 178
  0   0 188
  0   0 197
  0   0 203
  0   0 208
  0   0 211
  0   0 213
  0   0 214
  0   0 213
  0   0 212
  0   0 210
  0   0 206
  0   0 202
  0   0 197
  0   0 191
  0   0 185
  0   0 178
  0   0 170
  0   0 161
  0   0 151
  0   0 139
  0   0 126
  0   0 110
  0   0  86
255 255 255
 92   0   0
109   0   0
121   0   0
130   0   0
136   0   0
141   0   0
145   0   0
149   0   0
151   0   0
154   0   0
155   0   0
157   0   0
158   0   0
159   0   0
160   0   0
160   0   0
160   0   0
160   0   0
160   0   0
159   0   0
158   0   0
157   0   0
155   0   0
154   0   0
151   0   0
149   0   0
145   0   0
141   0   0
136   0   0
130   0   0
121   0   0
109   0   0
 92   0   0
255 255 255
  0   0  86
  0   0 110
  0   0 126
  0   0 139
  0   0 151
  0   0 161
  0   0 170
  0   0 178
  0   0 185
  0   0 191
  0   0 197
  0   0 202
  0   0 206
  0   0 210
  0   0 212
  0   0 213
  0   0 214
  0   0 213
  0   0 211
  0   0 208
  0   0 203
  0   0 197
  0   0 188
  0   0 178
  0   0 164
  0   0 146
  0   0 119
255 255 255
114   0   0
139   0   0
154   0   0
164   0   0
170   0   0
173   0   0
174   0   0
173   0   0
172   0   0
172   0   0
173   0   0
176   0   0
180   0   0
185   0   0
187   0   0
185   0   0
174   0   0
150   0   0
 70   0   0
  0   0 149
  0   0 185
  0   0 205
  0   0 214
  0   0 213
  0   0 202
  0   0 182
  0   0 148
255 255 255
  0   0   0
  0   0   0
  0   0   0
  0   0   0
156   0   0
153   0   0
147   0   0
143   0   0
146   0   0
156   0   0
170   0   0
185   0   0
199   0   0
210   0   0
216   0   0
217   0   0
210   0   0
195   0   0
166   0   0
 92   0   0
  0   0 151
  0   0 188
  0   0 207
  0   0 217
  0   0 220
  0   0 220
  0   0 218
  0   0 218
  0   0 218
  0   0 220
  0   0 220
  0   0 217
  0   0 207
  0   0 188
  0   0 151
 92   0   0
166   0   0
195   0   0
210   0   0
217   0   0
216   0   0
210   0   0
199   0   0
185   0   0
170   0   0
156   0   0
146   0   0
143   0   0
147   0   0
153   0   0
156   0   0
153   0   0
138   0   0
 85   0   0
  0   0 133
  0   0 173
  0   0 197
  0   0 210
  0   0 214
  0   0 209
  0   0 193
  0   0 163
  0   0  95
141   0   0
174   0   0
189   0   0
194   0   0
194   0   0
191   0   0
187   0   0
182   0   0
179   0   0
177   0   0
174   0   0
171   0   0
166   0   0
158   0   0
146   0   0
126   0   0
 85   0   0
  0   0 105
  0   0 139
  0   0 160
  0   0 176
  0   0 188
  0   0 197
  0   0 204
  0   0 209
  0   0 212
  0   0 214
  0   0 214
  0   0 213
  0   0 211
  0   0 207
  0   0 203
  0   0 197
  0   0 191
  0   0 183
  0   0 174
  0   0 164
  0   0 152
  0   0 138
  0   0 120
  0   0  95
255 255 255
 98   0   0
118   0   0
131   0   0
140   0   0
147   0   0
153   0   0
158   0   0
162   0   0
165   0   0
168   0   0
170   0   0
171   0   0
172   0   0
173   0   0
174   0   0
175   0   0
175   0   0
176   0   0
176   0   0
176   0   0
177   0   0
177   0   0
177   0   0
177   0   0
177   0   0
176   0   0
176   0   0
176   0   0
175   0   0
175   0   0
174   0   0
173   0   0
172   0   0
171   0   0
170   0   0
168   0   0
165   0   0
162   0   0
158   0   0
153   0   0
147   0   0
140   0   0
131   0   0
118   0   0
 98   0   0
255 255 255
  0   0  95
  0   0 120
  0   0 138
  0   0 152
  0   0 164
  0   0 174
  0   0 183
  0   0 191
  0   0 197
  0   0 203
  0   0 207
  0   0 211
  0   0 213
  0   0 214
  0   0 214
  0   0 212
  0   0 209
  0   0 204
  0   0 197
  0   0 188
  0   0 176
  0   0 160
  0   0 139
  0   0 105
 85   0   0
126   0   0
146   0   0
158   0   0
166   0   0
171   0   0
174   0   0
177   0   0
179   0   0
182   0   0
187   0   0
191   0   0
194   0   0
194   0   0
189   0   0
174   0   0
141   0   0
  0   0  95
  0   0 163
  0   0 193
  0   0 209
  0   0 214
  0   0 210
  0   0 197
  0   0 173
  0   0 133
  0   0   0
  0   0   0
  0   0   0
  0   0   0
154   0   0
157   0   0
155   0   0
153   0   0
156   0   0
163   0   0
176   0   0
189   0   0
201   0   0
210   0   0
215   0   0
214   0   0
206   0   0
188   0   0
155   0   0
255 255 255
  0   0 158
  0   0 189
  0   0 206
  0   0 214
  0   0 216
  0   0 215
  0   0 213
  0   0 212
  0   0 213
  0   0 215
  0   0 216
  0   0 214
  0   0 206
  0   0 189
  0   0 158
255 255 255
155   0   0
188   0   0
206   0   0
214   0   0
215   0   0
210   0   0
201   0   0
189   0   0
176   0   0
163   0   0
156   0   0
153   0   0
155   0   0
157   0   0
154   0   0
142   0   0
108   0   0
  0   0 115
  0   0 163
  0   0 190
  0   0 207
  0   0 214
  0   0 211
  0   0 199
  0   0 174
  0   0 123
130   0   0
172   0   0
191   0   0
200   0   0
202   0   0
200   0   0
195   0   0
190   0   0
184   0   0
178   0   0
172   0   0
164   0   0
154   0   0
138   0   0
111   0   0
  0   0  70
  0   0 126
  0   0 152
  0   0 170
  0   0 184
  0   0 195
  0   0 203
  0   0 208
  0   0 212
  0   0 214
  0   0 214
  0   0 213
  0   0 210
  0   0 206
  0   0 200
  0   0 193
  0   0 185
  0   0 175
  0   0 164
  0   0 150
  0   0 133
  0   0 110
  0   0  65
 95   0   0
119   0   0
134   0   0
145   0   0
153   0   0
159   0   0
164   0   0
167   0   0
170   0   0
173   0   0
175   0   0
176   0   0
177   0   0
178   0   0
178   0   0
178   0   0
178   0   0
178   0   0
178   0   0
178   0   0
178   0   0
177   0   0
177   0   0
177   0   0
177   0   0
177   0   0
177   0   0
177   0   0
177   0   0
177   0   0
177   0   0
177   0   0
177   0   0
177   0   0
178   0   0
178   0   0
178   0   0
178   0   0
178   0   0
178   0   0
178   0   0
178   0   0
177   0   0
176   0   0
175   0   0
173   0   0
170   0   0
167   0   0
164   0   0
159   0   0
153   0   0
145   0   0
134   0   0
119   0   0
 95   0   0
  0   0  65
  0   0 110
  0   0 133
  0   0 150
  0   0 164
  0   0 175
  0   0 185
  0   0 193
  0   0 200
  0   0 206
  0   0 210
  0   0 213
  0   0 214
  0   0 214
  0   0 212
  0   0 208
  0   0 203
  0   0 195
  0   0 184
  0   0 170
  0   0 152
  0   0 126
  0   0  70
111   0   0
138   0   0
154   0   0
164   0   0
172   0   0
178   0   0
184   0   0
190   0   0
195   0   0
200   0   0
202   0   0
200   0   0
191   0   0
172   0   0
130   0   0
  0   0 123
  0   0 174
  0   0 199
  0   0 211
  0   0 214
  0   0 207
  0   0 190
  0   0 163
  0   0   0
  0   0   0
  0   0   0
  0   0   0
151   0   0
161   0   0
165   0   0
167   0   0
170   0   0
176   0   0
184   0   0
193   0   0
201   0   0
206   0   0
207   0   0
203   0   0
190   0   0
168   0   0
123   0   0
  0   0 121
  0   0 166
  0   0 188
  0   0 200
  0   0 205
  0   0 205
  0   0 203
  0   0 201
  0   0 200
  0   0 201
  0   0 203
  0   0 205
  0   0 205
  0   0 200
  0   0 188
  0   0 166
  0   0 121
123   0   0
168   0   0
190   0   0
203   0   0
207   0   0
206   0   0
201   0   0
193   0   0
184   0   0
176   0   0
170   0   0
167   0   0
165   0   0
161   0   0
151   0   0
125   0   0
  0   0  87
  0   0 151
  0   0 183
  0   0 202
  0   0 212
  0   0 213
  0   0 203
  0   0 182
  0   0 140
114   0   0
169   0   0
192   0   0
204   0   0
208   0   0
207   0   0
202   0   0
195   0   0
187   0   0
177   0   0
166   0   0
151   0   0
131   0   0
 93   0   0
  0   0 102
  0   0 139
  0   0 162
  0   0 178
  0   0 190
  0   0 200
  0   0 207
  0   0 211
  0   0 214
  0   0 214
  0   0 213
  0   0 210
  0   0 206
  0   0 200
  0   0 192
  0   0 182
  0   0 171
  0   0 157
  0   0 139
  0   0 115
  0   0  69
 98   0   0
124   0   0
139   0   0
150   0   0
158   0   0
164   0   0
168   0   0
172   0   0
174   0   0
176   0   0
177   0   0
178   0   0
178   0   0
178   0   0
178   0   0
177   0   0
176   0   0
176   0   0
175   0   0
174   0   0
172   0   0
171   0   0
170   0   0
169   0   0
168   0   0
168   0   0
167   0   0
166   0   0
166   0   0
166   0   0
165   0   0
165   0   0
165   0   0
166   0   0
166   0   0
166   0   0
167   0   0
168   0   0
168   0   0
169   0   0
170   0   0
171   0   0
172   0   0
174   0   0
175   0   0
176   0   0
176   0   0
177   0   0
178   0   0
178   0   0
178   0   0
178   0   0
177   0   0
176   0   0
174   0   0
172   0   0
168   0   0
164   0   0
158   0   0
150   0   0
139   0   0
124   0   0
 98   0   0
  0   0  69
  0   0 115
  0   0 139
  0   0 157
  0   0 171
  0   0 182
  0   0 192
  0   0 200
  0   0 206
  0   0 210
  0   0 213
  0   0 214
  0   0 214
  0   0 211
  0   0 207
  0   0 200
  0   0 190
  0   0 178
  0   0 162
  0   0 139
  0   0 102
 93   0   0
131   0   0
151   0   0
166   0   0
177   0   0
187   0   0
195   0   0
202   0   0
207   0   0
208   0   0
204   0   0
192   0   0
169   0   0
114   0   0
  0   0 140
  0   0 182
  0   0 203
  0   0 213
  0   0 212
  0   0 202
  0   0 183
  0   0   0
  0   0   0
  0   0   0
  0   0   0
145   0   0
166   0   0
176   0   0
182   0   0
185   0   0
189   0   0
193   0   0
196   0   0
198   0   0
197   0   0
192   0   0
180   0   0
159   0   0
119   0   0
  0   0 109
  0   0 154
  0   0 175
  0   0 186
  0   0 191
  0   0 190
  0   0 187
  0   0 182
  0   0 178
  0   0 176
  0   0 178
  0   0 182
  0   0 187
  0   0 190
  0   0 191
  0   0 186
  0   0 175
  0   0 154
  0   0 109
119   0   0
159   0   0
180   0   0
192   0   0
197   0   0
198   0   0
196   0   0
193   0   0
189   0   0
185   0   0
182   0   0
176   0   0
166   0   0
145   0   0
 91   0   0
  0   0 134
  0   0 173
  0   0 197
  0   0 209
  0   0 213
  0   0 206
  0   0 188
  0   0 152
 90   0   0
164   0   0
192   0   0
207   0   0
213   0   0
212   0   0
207   0   0
198   0   0
187   0   0
173   0   0
155   0   0
130   0   0
 76   0   0
  0   0 116
  0   0 148
  0   0 168
  0   0 184
  0   0 195
  0   0 204
  0   0 209
  0   0 213
  0   0 214
  0   0 214
  0   0 211
  0   0 207
  0   0 201
  0   0 193
  0   0 182
  0   0 170
  0   0 154
  0   0 134
  0   0 103
 71   0   0
115   0   0
136   0   0
149   0   0
158   0   0
165   0   0
170   0   0
173   0   0
176   0   0
177   0   0
178   0   0
178   0   0
177   0   0
176   0   0
175   0   0
174   0   0
172   0   0
171   0   0
169   0   0
167   0   0
165   0   0
163   0   0
161   0   0
159   0   0
157   0   0
155   0   0
153   0   0
152   0   0
151   0   0
149   0   0
148   0   0
147   0   0
147   0   0
146   0   0
146   0   0
146   0   0
146   0   0
146   0   0
147   0   0
147   0   0
148   0   0
149   0   0
151   0   0
152   0   0
153   0   0
155   0   0
157   0   0
159   0   0
161   0   0
163   0   0
165   0   0
167   0   0
169   0   0
171   0   0
172   0   0
174   0   0
175   0   0
176   0   0
177   0   0
178   0   0
178   0   0
177   0   0
176   0   0
173   0   0
170   0   0
165   0   0
158   0   0
149   0   0
136   0   0
115   0   0
 71   0   0
  0   0 103
  0   0 134
  0   0 154
  0   0 170
  0   0 182
  0   0 193
  0   0 201
  0   0 207
  0   0 211
  0   0 214
  0   0 214
  0   0 213
  0   0 209
  0   0 204
  0   0 195
  0   0 184
  0   0 168
  0   0 148
  0   0 116
 76   0   0
130   0   0
155   0   0
173   0   0
187   0   0
198   0   0
207   0   0
212   0   0
213   0   0
207   0   0
192   0   0
164   0   0
 90   0   0
  0   0 152
  0   0 188
  0   0 206
  0   0 213
  0   0 209
  0   0 197
  0   0   0
  0   0   0
  0   0   0
  0   0   0
137   0   0
169   0   0
186   0   0
195   0   0
199   0   0
201   0   0
201   0   0
198   0   0
193   0   0
182   0   0
166   0   0
137   0   0
255 255 255
  0   0 135
  0   0 163
  0   0 177
  0   0 183
  0   0 183
  0   0 178
  0   0 169
  0   0 157
  0   0 144
  0   0 134
  0   0 130
  0   0 134
  0   0 144
  0   0 157
  0   0 169
  0   0 178
  0   0 183
  0   0 183
  0   0 177
  0   0 163
  0   0 135
255 255 255
137   0   0
166   0   0
182   0   0
193   0   0
198   0   0
201   0   0
201   0   0
199   0   0
195   0   0
186   0   0
169   0   0
137   0   0
  0   0  91
  0   0 158
  0   0 188
  0   0 205
  0   0 211
  0   0 207
  0   0 193
  0   0 161
255 255 255
158   0   0
191   0   0
208   0   0
215   0   0
215   0   0
210   0   0
199   0   0
185   0   0
165   0   0
138   0   0
 81   0   0
  0   0 120
  0   0 153
  0   0 173
  0   0 188
  0   0 199
  0   0 206
  0   0 212
  0   0 214
  0   0 215
  0   0 213
  0   0 209
  0   0 203
  0   0 195
  0   0 185
  0   0 172
  0   0 156
  0   0 134
  0   0 101
 80   0   0
121   0   0
140   0   0
153   0   0
162   0   0
169   0   0
173   0   0
176   0   0
178   0   0
178   0   0
178   0   0
177   0   0
176   0   0
174   0   0
171   0   0
169   0   0
166   0   0
163   0   0
160   0   0
157   0   0
154   0   0
151   0   0
149   0   0
146   0   0
143   0   0
140   0   0
137   0   0
134   0   0
132   0   0
129   0   0
127   0   0
125   0   0
124   0   0
122   0   0
121   0   0
120   0   0
119   0   0
119   0   0
119   0   0
119   0   0
119   0   0
120   0   0
121   0   0
122   0   0
124   0   0
125   0   0
127   0   0
129   0   0
132   0   0
134   0   0
137   0   0
140   0   0
143   0   0
146   0   0
149   0   0
151   0   0
154   0   0
157   0   0
160   0   0
163   0   0
166   0   0
169   0   0
171   0   0
174   0   0
176   0   0
177   0   0
178   0   0
178   0   0
178   0   0
176   0   0
173   0   0
169   0   0
162   0   0
153   0   0
140   0   0
121   0   0
 80   0   0
  0   0 101
  0   0 134
  0   0 156
  0   0 172
  0   0 185
  0   0 195
  0   0 203
  0   0 209
  0   0 213
  0   0 215
  0   0 214
  0   0 212
  0   0 206
  0   0 199
  0   0 188
  0   0 173
  0   0 153
  0   0 120
 81   0   0
138   0   0
165   0   0
185   0   0
199   0   0
210   0   0
215   0   0
215   0   0
208   0   0
191   0   0
158   0   0
255 255 255
  0   0 161
  0   0 193
  0   0 207
  0   0 211
  0   0 205
  0   0   0
  0   0   0
  0   0   0
  0   0   0
126   0   0
171   0   0
193   0   0
205   0   0
210   0   0
210   0   0
206   0   0
197   0   0
182   0   0
158   0   0
113   0   0
  0   0 119
  0   0 160
  0   0 180
  0   0 191
  0   0 193
  0   0 189
  0   0 178
  0   0 161
  0   0 134
  0   0  90
 96   0   0
121   0   0
127   0   0
121   0   0
 96   0   0
  0   0  90
  0   0 134
  0   0 161
  0   0 178
  0   0 189
  0   0 193
  0   0 191
  0   0 180
  0   0 160
  0   0 119
113   0   0
158   0   0
182   0   0
197   0   0
206   0   0
210   0   0
210   0   0
205   0   0
193   0   0
171   0   0
126   0   0
  0   0 124
  0   0 172
  0   0 195
  0   0 206
  0   0 206
  0   0 195
  0   0 168
  0   0 101
149   0   0
187   0   0
207   0   0
215   0   0
216   0   0
210   0   0
198   0   0
180   0   0
154   0   0
107   0   0
  0   0 114
  0   0 153
  0   0 176
  0   0 191
  0   0 201
  0   0 209
  0   0 213
  0   0 215
  0   0 215
  0   0 212
  0   0 207
  0   0 199
  0   0 190
  0   0 177
  0   0 161
  0   0 140
  0   0 109
 72   0   0
120   0   0
141   0   0
154   0   0
163   0   0
170   0   0
174   0   0
177   0   0
178   0   0
178   0   0
177   0   0
176   0   0
174   0   0
171   0   0
167   0   0
164   0   0
160   0   0
156   0   0
152   0   0
147   0   0
143   0   0
139   0   0
135   0   0
131   0   0
127   0   0
123   0   0
119   0   0
115   0   0
111   0   0
107   0   0
103   0   0
100   0   0
 97   0   0
 94   0   0
 91   0   0
 88   0   0
 86   0   0
 84   0   0
 83   0   0
 82   0   0
 81   0   0
 81   0   0
 81   0   0
 82   0   0
 83   0   0
 84   0   0
 86   0   0
 88   0   0
 91   0   0
 94   0   0
 97   0   0
100   0   0
103   0   0
107   0   0
111   0   0
115   0   0
119   0   0
123   0   0
127   0   0
131   0   0
135   0   0
139   0   0
143   0   0
147   0   0
152   0   0
156   0   0
160   0   0
164   0   0
167   0   0
171   0   0
174   0   0
176   0   0
177   0   0
178   0   0
178   0   0
177   0   0
174   0   0
170   0   0
163   0   0
154   0   0
141   0   0
120   0   0
 72   0   0
  0   0 109
  0   0 140
  0   0 161
  0   0 177
  0   0 190
  0   0 199
  0   0 207
  0   0 212
  0   0 215
  0   0 215
  0   0 213
  0   0 209
  0   0 201
  0   0 191
  0   0 176
  0   0 153
  0   0 114
107   0   0
154   0   0
180   0   0
198   0   0
210   0   0
216   0   0
215   0   0
207   0   0
187   0   0
149   0   0
  0   0 101
  0   0 168
  0   0 195
  0   0 206
  0   0 206
  0   0   0
  0   0   0
  0   0   0
  0   0   0
114   0   0
170   0   0
196   0   0
210   0   0
216   0   0
215   0   0
207   0   0
192   0   0
166   0   0
113   0   0
  0   0 132
  0   0 173
  0   0 194
  0   0 205
  0   0 208
  0   0 203
  0   0 191
  0   0 171
  0   0 137
255 255 255
137   0   0
161   0   0
172   0   0
176   0   0
172   0   0
161   0   0
137   0   0
255 255 255
  0   0 137
  0   0 171
  0   0 191
  0   0 203
  0   0 208
  0   0 205
  0   0 194
  0   0 173
  0   0 132
113   0   0
166   0   0
192   0   0
207   0   0
215   0   0
216   0   0
210   0   0
196   0   0
170   0   0
114   0   0
  0   0 138
  0   0 178
  0   0 196
  0   0 201
  0   0 193
  0   0 171
  0   0 118
139   0   0
182   0   0
204   0   0
214   0   0
215   0   0
208   0   0
195   0   0
172   0   0
136   0   0
  0   0  82
  0   0 147
  0   0 174
  0   0 191
  0   0 203
  0   0 210
  0   0 215
  0   0 216
  0   0 215
  0   0 211
  0   0 205
  0   0 196
  0   0 185
  0   0 170
  0   0 151
  0   0 123
255 255 255
112   0   0
137   0   0
153   0   0
163   0   0
169   0   0
174   0   0
176   0   0
177   0   0
177   0   0
176   0   0
174   0   0
171   0   0
168   0   0
164   0   0
160   0   0
155   0   0
150   0   0
144   0   0
139   0   0
133   0   0
127   0   0
122   0   0
116   0   0
111   0   0
105   0   0
100   0   0
 94   0   0
 89   0   0
 83   0   0
 76   0   0
 68   0   0
255 255 255
255 255 255
255 255 255
255 255 255
255 255 255
255 255 255
255 255 255
255 255 255
  0   0  64
  0   0  65
  0   0  67
  0   0  67
  0   0  67
  0   0  67
  0   0  67
  0   0  65
  0   0  64
255 255 255
255 255 255
255 255 255
255 255 255
255 255 255
255 255 255
255 255 255
255 255 255
 68   0   0
 76   0   0
 83   0   0
 89   0   0
 94   0   0
100   0   0
105   0   0
111   0   0
116   0   0
122   0   0
127   0   0
133   0   0
139   0   0
144   0   0
150   0   0
155   0   0
160   0   0
164   0   0
168   0   0
171   0   0
174   0   0
176   0   0
177   0   0
177   0   0
176   0   0
174   0   0
169   0   0
163   0   0
153   0   0
137   0   0
112   0   0
255 255 255
  0   0 123
  0   0 151
  0   0 170
  0   0 185
  0   0 196
  0   0 205
  0   0 211
  0   0 215
  0   0 216
  0   0 215
  0   0 210
  0   0 203
  0   0 191
  0   0 174
  0   0 147
  0   0  82
136   0   0
172   0   0
195   0   0
208   0   0
215   0   0
214   0   0
204   0   0
182   0   0
139   0   0
  0   0 118
  0   0 171
  0   0 193
  0   0 201
  0   0   0
  0   0   0
  0   0   0
  0   0   0
102   0   0
167   0   0
196   0   0
211   0   0
217   0   0
214   0   0
203   0   0
180   0   0
137   0   0
  0   0 119
  0   0 173
  0   0 199
  0   0 213
  0   0 218
  0   0 216
  0   0 206
  0   0 189
  0   0 159
  0   0  97
135   0   0
170   0   0
188   0   0
197   0   0
200   0   0
197   0   0
188   0   0
170   0   0
135   0   0
  0   0  97
  0   0 159
  0   0 189
  0   0 206
  0   0 216
  0   0 218
  0   0 213
  0   0 199
  0   0 173
  0   0 119
137   0   0
180   0   0
203   0   0
214   0   0
217   0   0
211   0   0
196   0   0
167   0   0
102   0   0
  0   0 141
  0   0 175
  0   0 187
  0   0 185
  0   0 168
  0   0 122
130   0   0
176   0   0
199   0   0
210   0   0
211   0   0
204   0   0
188   0   0
161   0   0
107   0   0
  0   0 129
  0   0 168
  0   0 189
  0   0 203
  0   0 211
  0   0 216
  0   0 217
  0   0 215
  0   0 211
  0   0 204
  0   0 194
  0   0 181
  0   0 164
  0   0 141
  0   0 105
 88   0   0
128   0   0
148   0   0
160   0   0
168   0   0
173   0   0
176   0   0
177   0   0
177   0   0
175   0   0
173   0   0
169   0   0
166   0   0
161   0   0
156   0   0
151   0   0
145   0   0
139   0   0
132   0   0
125   0   0
118   0   0
110   0   0
102   0   0
 94   0   0
 86   0   0
 77   0   0
 67   0   0
255 255 255
255 255 255
255 255 255
255 255 255
255 255 255
  0   0  70
  0   0  74
  0   0  77
  0   0  79
  0   0  81
  0   0  82
  0   0  83
  0   0  84
  0   0  84
  0   0  85
  0   0  85
  0   0  85
  0   0  85
  0   0  86
  0   0  86
  0   0  86
  0   0  85
  0   0  85
  0   0  85
  0   0  85
  0   0  84
  0   0  84
  0   0  83
  0   0  82
  0   0  81
  0   0  79
  0   0  77
  0   0  74
  0   0  70
255 255 255
255 255 255
255 255 255
255 255 255
255 255 255
 67   0   0
 77   0   0
 86   0   0
 94   0   0
102   0   0
110   0   0
118   0   0
125   0   0
132   0   0
139   0   0
145   0   0
151   0   0
156   0   0
161   0   0
166   0   0
169   0   0
173   0   0
175   0   0
177   0   0
177   0   0
176   0   0
173   0   0
168   0   0
160   0   0
148   0   0
128   0   0
 88   0   0
  0   0 105
  0   0 141
  0   0 164
  0   0 181
  0   0 194
  0   0 204
  0   0 211
  0   0 215
  0   0 217
  0   0 216
  0   0 211
  0   0 203
  0   0 189
  0   0 168
  0   0 129
107   0   0
161   0   0
188   0   0
204   0   0
211   0   0
210   0   0
199   0   0
176   0   0
130   0   0
  0   0 122
  0   0 168
  0   0 185
  0   0   0
  0   0   0
  0   0   0
  0   0   0
 96   0   0
160   0   0
190   0   0
205   0   0
210   0   0
206   0   0
190   0   0
159   0   0
255 255 255
  0   0 160
  0   0 194
  0   0 213
  0   0 222
  0   0 223
  0   0 217
  0   0 203
  0   0 180
  0   0 141
 99   0   0
160   0   0
187   0   0
202   0   0
210   0   0
213   0   0
210   0   0
202   0   0
187   0   0
160   0   0
 99   0   0
  0   0 141
  0   0 180
  0   0 203
  0   0 217
  0   0 223
  0   0 222
  0   0 213
  0   0 194
  0   0 160
255 255 255
159   0   0
190   0   0
206   0   0
210   0   0
205   0   0
190   0   0
160   0   0
 96   0   0
  0   0 133
  0   0 161
  0   0 166
  0   0 153
  0   0 109
130   0   0
173   0   0
195   0   0
205   0   0
206   0   0
198   0   0
180   0   0
145   0   0
  0   0  75
  0   0 153
  0   0 183
  0   0 200
  0   0 211
  0   0 216
  0   0 218
  0   0 216
  0   0 212
  0   0 204
  0   0 193
  0   0 179
  0   0 160
  0   0 134
  0   0  86
107   0   0
138   0   0
154   0   0
165   0   0
172   0   0
175   0   0
177   0   0
177   0   0
175   0   0
173   0   0
169   0   0
164   0   0
159   0   0
153   0   0
147   0   0
141   0   0
134   0   0
126   0   0
119   0   0
111   0   0
102   0   0
 92   0   0
 81   0   0
 66   0   0
255 255 255
255 255 255
255 255 255
  0   0  70
  0   0  74
  0   0  78
  0   0  79
  0   0  81
  0   0  82
  0   0  84
  0   0  85
  0   0  87
  0   0  87
  0   0  88
  0   0  88
  0   0  88
  0   0  88
  0   0  88
  0   0  88
  0   0  88
  0   0  88
  0   0  88
  0   0  88
  0   0  88
  0   0  88
  0   0  88
  0   0  88
  0   0  88
  0   0  88
  0   0  88
  0   0  88
  0   0  88
  0   0  88
  0   0  88
  0   0  88
  0   0  88
  0   0  87
  0   0  87
  0   0  85
  0   0  84
  0   0  82
  0   0  81
  0   0  79
  0   0  78
  0   0  74
  0   0  70
255 255 255
255 255 255
255 255 255
 66   0   0
 81   0   0
 92   0   0
102   0   0
111   0   0
119   0   0
126   0   0
134   0   0
141   0   0
147   0   0
153   0   0
159   0   0
164   0   0
169   0   0
173   0   0
175   0   0
177   0   0
177   0   0
175   0   0
172   0   0
165   0   0
154   0   0
138   0   0
107   0   0
  0   0  86
  0   0 134
  0   0 160
  0   0 179
  0   0 193
  0   0 204
  0   0 212
  0   0 216
  0   0 218
  0   0 216
  0   0 211
  0   0 200
  0   0 183
  0   0 153
  0   0  75
145   0   0
180   0   0
198   0   0
206   0   0
205   0   0
195   0   0
173   0   0
130   0   0
  0   0 109
  0   0 153
  0   0   0
  0   0   0
  0   0   0
  0   0   0
 96   0   0
149   0   0
176   0   0
191   0   0
195   0   0
188   0   0
168   0   0
119   0   0
  0   0 135
  0   0 180
  0   0 205
  0   0 218
  0   0 223
  0   0 221
  0   0 211
  0   0 194
  0   0 165
  0   0 109
134   0   0
173   0   0
195   0   0
208   0   0
215   0   0
218   0   0
215   0   0
208   0   0
195   0   0
173   0   0
134   0   0
  0   0 109
  0   0 165
  0   0 194
  0   0 211
  0   0 221
  0   0 223
  0   0 218
  0   0 205
  0   0 180
  0   0 135
119   0   0
168   0   0
188   0   0
195   0   0
191   0   0
176   0   0
149   0   0
 96   0   0
  0   0 109
  0   0 128
  0   0 116
 72   0   0
142   0   0
174   0   0
193   0   0
202   0   0
201   0   0
191   0   0
169   0   0
123   0   0
  0   0 123
  0   0 169
  0   0 193
  0   0 208
  0   0 216
  0   0 219
  0   0 218
  0   0 213
  0   0 205
  0   0 194
  0   0 179
  0   0 159
  0   0 130
  0   0  67
116   0   0
143   0   0
158   0   0
168   0   0
173   0   0
176   0   0
177   0   0
176   0   0
174   0   0
170   0   0
165   0   0
159   0   0
153   0   0
146   0   0
138   0   0
130   0   0
122   0   0
113   0   0
104   0   0
 94   0   0
 83   0   0
 69   0   0
255 255 255
255 255 255
  0   0  66
  0   0  75
  0   0  81
  0   0  84
  0   0  86
  0   0  87
  0   0  87
  0   0  87
  0   0  87
  0   0  86
  0   0  87
  0   0  87
  0   0  87
  0   0  88
  0   0  87
  0   0  87
  0   0  87
  0   0  86
  0   0  86
  0   0  86
  0   0  86
  0   0  85
  0   0  85
  0   0  85
  0   0  85
  0   0  85
  0   0  85
  0   0  85
  0   0  85
  0   0  85
  0   0  85
  0   0  85
  0   0  86
  0   0  86
  0   0  86
  0   0  86
  0   0  87
  0   0  87
  0   0  87
  0   0  88
  0   0  87
  0   0  87
  0   0  87
  0   0  86
  0   0  87
  0   0  87
  0   0  87
  0   0  87
  0   0  86
  0   0  84
  0   0  81
  0   0  75
  0   0  66
255 255 255
255 255 255
 69   0   0
 83   0   0
 94   0   0
104   0   0
113   0   0
122   0   0
130   0   0
138   0   0
146   0   0
153   0   0
159   0   0
165   0   0
170   0   0
174   0   0
176   0   0
177   0   0
176   0   0
173   0   0
168   0   0
158   0   0
143   0   0
116   0   0
  0   0  67
  0   0 130
  0   0 159
  0   0 179
  0   0 194
  0   0 205
  0   0 213
  0   0 218
  0   0 219
  0   0 216
  0   0 208
  0   0 193
  0   0 169
  0   0 123
123   0   0
169   0   0
191   0   0
201   0   0
202   0   0
193   0   0
174   0   0
142   0   0
 72   0   0
  0   0   0
  0   0   0
  0   0   0
  0   0   0
101   0   0
130   0   0
151   0   0
164   0   0
166   0   0
155   0   0
123   0   0
  0   0 109
  0   0 163
  0   0 191
  0   0 208
  0   0 216
  0   0 217
  0   0 211
  0   0 198
  0   0 177
  0   0 141
 84   0   0
152   0   0
180   0   0
197   0   0
208   0   0
214   0   0
216   0   0
214   0   0
208   0   0
197   0   0
180   0   0
152   0   0
 84   0   0
  0   0 141
  0   0 177
  0   0 198
  0   0 211
  0   0 217
  0   0 216
  0   0 208
  0   0 191
  0   0 163
  0   0 109
123   0   0
155   0   0
166   0   0
164   0   0
151   0   0
130   0   0
101   0   0
 78   0   0
 98   0   0
132   0   0
161   0   0
182   0   0
196   0   0
201   0   0
198   0   0
185   0   0
159   0   0
 91   0   0
  0   0 144
  0   0 180
  0   0 201
  0   0 213
  0   0 218
  0   0 219
  0   0 215
  0   0 207
  0   0 196
  0   0 181
  0   0 160
  0   0 130
255 255 255
120   0   0
146   0   0
160   0   0
169   0   0
174   0   0
176   0   0
177   0   0
175   0   0
171   0   0
167   0   0
161   0   0
155   0   0
147   0   0
139   0   0
130   0   0
121   0   0
111   0   0
100   0   0
 87   0   0
 73   0   0
255 255 255
255 255 255
  0   0  65
  0   0  74
  0   0  79
  0   0  83
  0   0  86
  0   0  88
  0   0  89
  0   0  90
  0   0  89
  0   0  89
  0   0  88
  0   0  87
  0   0  85
  0   0  84
  0   0  84
  0   0  84
  0   0  84
  0   0  84
  0   0  83
  0   0  83
  0   0  82
  0   0  81
  0   0  81
  0   0  80
  0   0  80
  0   0  80
  0   0  79
  0   0  79
  0   0  79
  0   0  79
  0   0  79
  0   0  79
  0   0  79
  0   0  79
  0   0  79
  0   0  80
  0   0  80
  0   0  80
  0   0  81
  0   0  81
  0   0  82
  0   0  83
  0   0  83
  0   0  84
  0   0  84
  0   0  84
  0   0  84
  0   0  84
  0   0  85
  0   0  87
  0   0  88
  0   0  89
  0   0  89
  0   0  90
  0   0  89
  0   0  88
  0   0  86
  0   0  83
  0   0  79
  0   0  74
  0   0  65
255 255 255
255 255 255
 73   0   0
 87   0   0
100   0   0
111   0   0
121   0   0
130   0   0
139   0   0
147   0   0
155   0   0
161   0   0
167   0   0
171   0   0
175   0   0
177   0   0
176   0   0
174   0   0
169   0   0
160   0   0
146   0   0
120   0   0
255 255 255
  0   0 130
  0   0 160
  0   0 181
  0   0 196
  0   0 207
  0   0 215
  0   0 219
  0   0 218
  0   0 213
  0   0 201
  0   0 180
  0   0 144
 91   0   0
159   0   0
185   0   0
198   0   0
201   0   0
196   0   0
182   0   0
161   0   0
  0   0   0
  0   0   0
  0   0   0
  0   0   0
101   0   0
 89   0   0
 94   0   0
 99   0   0
 92   0   0
255 255 255
  0   0 121
  0   0 154
  0   0 177
  0   0 193
  0   0 203
  0   0 206
  0   0 203
  0   0 194
  0   0 177
  0   0 149
  0   0  88
130   0   0
163   0   0
182   0   0
195   0   0
202   0   0
206   0   0
208   0   0
206   0   0
202   0   0
195   0   0
182   0   0
163   0   0
130   0   0
  0   0  88
  0   0 149
  0   0 177
  0   0 194
  0   0 203
  0   0 206
  0   0 203
  0   0 193
  0   0 177
  0   0 154
  0   0 121
255 255 255
 92   0   0
 99   0   0
 94   0   0
 89   0   0
101   0   0
126   0   0
152   0   0
174   0   0
191   0   0
202   0   0
205   0   0
200   0   0
185   0   0
154   0   0
255 255 255
  0   0 153
  0   0 186
  0   0 205
  0   0 215
  0   0 218
  0   0 216
  0   0 210
  0   0 200
  0   0 185
  0   0 164
  0   0 135
  0   0  73
118   0   0
145   0   0
160   0   0
169   0   0
174   0   0
176   0   0
176   0   0
173   0   0
169   0   0
164   0   0
158   0   0
150   0   0
142   0   0
133   0   0
123   0   0
112   0   0
100   0   0
 86   0   0
 69   0   0
255 255 255
255 255 255
  0   0  73
  0   0  79
  0   0  83
  0   0  86
  0   0  87
  0   0  88
  0   0  88
  0   0  89
  0   0  89
  0   0  89
  0   0  88
  0   0  87
  0   0  85
  0   0  84
  0   0  82
  0   0  80
  0   0  79
  0   0  79
  0   0  79
  0   0  78
  0   0  78
  0   0  77
  0   0  76
  0   0  76
  0   0  75
  0   0  75
  0   0  74
  0   0  74
  0   0  73
  0   0  73
  0   0  73
  0   0  73
  0   0  73
  0   0  73
  0   0  73
  0   0  73
  0   0  73
  0   0  73
  0   0  73
  0   0  74
  0   0  74
  0   0  75
  0   0  75
  0   0  76
  0   0  76
  0   0  77
  0   0  78
  0   0  78
  0   0  79
  0   0  79
  0   0  79
  0   0  80
  0   0  82
  0   0  84
  0   0  85
  0   0  87
  0   0  88
  0   0  89
  0   0  89
  0   0  89
  0   0  88
  0   0  88
  0   0  87
  0   0  86
  0   0  83
  0   0  79
  0   0  73
255 255 255
255 255 255
 69   0   0
 86   0   0
100   0   0
112   0   0
123   0   0
133   0   0
142   0   0
150   0   0
158   0   0
164   0   0
169   0   0
173   0   0
176   0   0
176   0   0
174   0   0
169   0   0
160   0   0
145   0   0
118   0   0
  0   0  73
  0   0 135
  0   0 164
  0   0 185
  0   0 200
  0   0 210
  0   0 216
  0   0 218
  0   0 215
  0   0 205
  0   0 186
  0   0 153
255 255 255
154   0   0
185   0   0
200   0   0
205   0   0
202   0   0
191   0   0
  0   0   0
  0   0   0
  0   0   0
  0   0   0
 89   0   0
  0   0 108
  0   0 133
  0   0 144
  0   0 151
  0   0 158
  0   0 166
  0   0 175
  0   0 183
  0   0 189
  0   0 191
  0   0 189
  0   0 180
  0   0 165
  0   0 141
  0   0  88
119   0   0
151   0   0
169   0   0
180   0   0
187   0   0
192   0   0
194   0   0
195   0   0
194   0   0
192   0   0
187   0   0
180   0   0
169   0   0
151   0   0
119   0   0
  0   0  88
  0   0 141
  0   0 165
  0   0 180
  0   0 189
  0   0 191
  0   0 189
  0   0 183
  0   0 175
  0   0 166
  0   0 158
  0   0 151
  0   0 144
  0   0 133
  0   0 108
 89   0   0
142   0   0
172   0   0
192   0   0
204   0   0
208   0   0
203   0   0
189   0   0
160   0   0
 81   0   0
  0   0 150
  0   0 184
  0   0 203
  0   0 212
  0   0 215
  0   0 212
  0   0 203
  0   0 190
  0   0 171
  0   0 144
  0   0  95
110   0   0
142   0   0
159   0   0
168   0   0
173   0   0
175   0   0
175   0   0
172   0   0
167   0   0
161   0   0
154   0   0
146   0   0
137   0   0
127   0   0
116   0   0
104   0   0
 90   0   0
 72   0   0
255 255 255
255 255 255
  0   0  74
  0   0  82
  0   0  86
  0   0  89
  0   0  90
  0   0  90
  0   0  90
  0   0  89
  0   0  88
  0   0  87
  0   0  86
  0   0  85
  0   0  84
  0   0  83
  0   0  81
  0   0  79
  0   0  77
  0   0  75
  0   0  74
  0   0  73
  0   0  73
  0   0  73
  0   0  72
  0   0  72
  0   0  71
  0   0  70
  0   0  69
  0   0  69
  0   0  68
  0   0  68
  0   0  67
  0   0  67
  0   0  67
  0   0  67
  0   0  66
  0   0  66
  0   0  66
  0   0  66
  0   0  66
  0   0  67
  0   0  67
  0   0  67
  0   0  67
  0   0  68
  0   0  68
  0   0  69
  0   0  69
  0   0  70
  0   0  71
  0   0  72
  0   0  72
  0   0  73
  0   0  73
  0   0  73
  0   0  74
  0   0  75
  0   0  77
  0   0  79
  0   0  81
  0   0  83
  0   0  84
  0   0  85
  0   0  86
  0   0  87
  0   0  88
  0   0  89
  0   0  90
  0   0  90
  0   0  90
  0   0  89
  0   0  86
  0   0  82
  0   0  74
255 255 255
255 255 255
 72   0   0
 90   0   0
104   0   0
116   0   0
127   0   0
137   0   0
146   0   0
154   0   0
161   0   0
167   0   0
172   0   0
175   0   0
175   0   0
173   0   0
168   0   0
159   0   0
142   0   0
110   0   0
  0   0  95
  0   0 144
  0   0 171
  0   0 190
  0   0 203
  0   0 212
  0   0 215
  0   0 212
  0   0 203
  0   0 184
  0   0 150
 81   0   0
160   0   0
189   0   0
203   0   0
208   0   0
204   0   0
  0   0   0
  0   0   0
  0   0   0
  0   0   0
  0   0  73
  0   0 145
  0   0 170
  0   0 182
  0   0 188
  0   0 189
  0   0 188
  0   0 186
  0   0 183
  0   0 178
  0   0 171
  0   0 159
  0   0 141
  0   0 109
 84   0   0
130   0   0
151   0   0
164   0   0
171   0   0
175   0   0
176   0   0
176   0   0
176   0   0
176   0   0
176   0   0
176   0   0
176   0   0
175   0   0
171   0   0
164   0   0
151   0   0
130   0   0
 84   0   0
  0   0 109
  0   0 141
  0   0 159
  0   0 171
  0   0 178
  0   0 183
  0   0 186
  0   0 188
  0   0 189
  0   0 188
  0   0 182
  0   0 170
  0   0 145
  0   0  73
141   0   0
176   0   0
195   0   0
204   0   0
203   0   0
192   0   0
168   0   0
117   0   0
  0   0 132
  0   0 173
  0   0 194
  0   0 204
  0   0 206
  0   0 202
  0   0 192
  0   0 176
  0   0 152
  0   0 114
 92   0   0
135   0   0
155   0   0
166   0   0
172   0   0
174   0   0
173   0   0
170   0   0
165   0   0
159   0   0
151   0   0
142   0   0
132   0   0
121   0   0
109   0   0
 95   0   0
 79   0   0
255 255 255
255 255 255
  0   0  73
  0   0  81
  0   0  86
  0   0  89
  0   0  90
  0   0  91
  0   0  91
  0   0  91
  0   0  89
  0   0  88
  0   0  86
  0   0  85
  0   0  83
  0   0  81
  0   0  79
  0   0  78
  0   0  76
  0   0  75
  0   0  73
  0   0  71
  0   0  68
  0   0  67
  0   0  67
  0   0  67
  0   0  67
  0   0  66
  0   0  66
  0   0  65
  0   0  64
255 255 255
255 255 255
255 255 255
255 255 255
255 255 255
255 255 255
255 255 255
255 255 255
255 255 255
255 255 255
255 255 255
255 255 255
255 255 255
255 255 255
255 255 255
255 255 255
255 255 255
255 255 255
255 255 255
255 255 255
255 255 255
  0   0  64
  0   0  65
  0   0  66
  0   0  66
  0   0  67
  0   0  67
  0   0  67
  0   0  67
  0   0  68
  0   0  71
  0   0  73
  0   0  75
  0   0  76
  0   0  78
  0   0  79
  0   0  81
  0   0  83
  0   0  85
  0   0  86
  0   0  88
  0   0  89
  0   0  91
  0   0  91
  0   0  91
  0   0  90
  0   0  89
  0   0  86
  0   0  81
  0   0  73
255 255 255
255 255 255
 79   0   0
 95   0   0
109   0   0
121   0   0
132   0   0
142   0   0
151   0   0
159   0   0
165   0   0
170   0   0
173   0   0
174   0   0
172   0   0
166   0   0
155   0   0
135   0   0
 92   0   0
  0   0 114
  0   0 152
  0   0 176
  0   0 192
  0   0 202
  0   0 206
  0   0 204
  0   0 194
  0   0 173
  0   0 132
117   0   0
168   0   0
192   0   0
203   0   0
204   0   0
  0   0   0
  0   0   0
  0   0   0
  0   0   0
  0   0 125
  0   0 169
  0   0 191
  0   0 202
  0   0 207
  0   0 206
  0   0 200
  0   0 191
  0   0 178
  0   0 161
  0   0 137
  0   0  97
 99   0   0
134   0   0
152   0   0
163   0   0
169   0   0
171   0   0
170   0   0
167   0   0
162   0   0
156   0   0
152   0   0
151   0   0
152   0   0
156   0   0
162   0   0
167   0   0
170   0   0
171   0   0
169   0   0
163   0   0
152   0   0
134   0   0
 99   0   0
  0   0  97
  0   0 137
  0   0 161
  0   0 178
  0   0 191
  0   0 200
  0   0 206
  0   0 207
  0   0 202
  0   0 191
  0   0 169
  0   0 125
116   0   0
162   0   0
182   0   0
189   0   0
184   0   0
168   0   0
134   0   0
  0   0  93
  0   0 152
  0   0 175
  0   0 187
  0   0 189
  0   0 184
  0   0 173
  0   0 154
  0   0 122
 68   0   0
127   0   0
150   0   0
162   0   0
169   0   0
171   0   0
171   0   0
168   0   0
163   0   0
156   0   0
148   0   0
139   0   0
128   0   0
116   0   0
103   0   0
 86   0   0
 64   0   0
255 255 255
  0   0  70
  0   0  80
  0   0  85
  0   0  88
  0   0  90
  0   0  91
  0   0  91
  0   0  91
  0   0  90
  0   0  89
  0   0  88
  0   0  86
  0   0  84
  0   0  82
  0   0  80
  0   0  78
  0   0  76
  0   0  73
  0   0  70
  0   0  69
  0   0  67
  0   0  66
255 255 255
255 255 255
255 255 255
255 255 255
255 255 255
255 255 255
255 255 255
255 255 255
255 255 255
255 255 255
255 255 255
255 255 255
255 255 255
255 255 255
255 255 255
255 255 255
255 255 255
255 255 255
255 255 255
255 255 255
255 255 255
255 255 255
255 255 255
255 255 255
255 255 255
255 255 255
255 255 255
255 255 255
255 255 255
255 255 255
255 255 255
255 255 255
255 255 255
255 255 255
255 255 255
255 255 255
255 255 255
255 255 255
255 255 255
255 255 255
255 255 255
  0   0  66
  0   0  67
  0   0  69
  0   0  70
  0   0  73
  0   0  76
  0   0  78
  0   0  80
  0   0  82
  0   0  84
  0   0  86
  0   0  88
  0   0  89
  0   0  90
  0   0  91
  0   0  91
  0   0  91
  0   0  90
  0   0  88
  0   0  85
  0   0  80
  0   0  70
255 255 255
 64   0   0
 86   0   0
103   0   0
116   0   0
128   0   0
139   0   0
148   0   0
156   0   0
163   0   0
168   0   0
171   0   0
171   0   0
169   0   0
162   0   0
150   0   0
127   0   0
 68   0   0
  0   0 122
  0   0 154
  0   0 173
  0   0 184
  0   0 189
  0   0 187
  0   0 175
  0   0 152
  0   0  93
134   0   0
168   0   0
184   0   0
189   0   0
  0   0   0
  0   0   0
  0   0   0
  0   0   0
  0   0 158
  0   0 186
  0   0 203
  0   0 213
  0   0 217
  0   0 214
  0   0 205
  0   0 190
  0   0 169
  0   0 134
255 255 255
135   0   0
160   0   0
173   0   0
180   0   0
182   0   0
180   0   0
175   0   0
167   0   0
156   0   0
143   0   0
129   0   0
118   0   0
113   0   0
118   0   0
129   0   0
143   0   0
156   0   0
167   0   0
175   0   0
180   0   0
182   0   0
180   0   0
173   0   0
160   0   0
135   0   0
255 255 255
  0   0 134
  0   0 169
  0   0 190
  0   0 205
  0   0 214
  0   0 217
  0   0 213
  0   0 203
  0   0 186
  0   0 158
  0   0 106
114   0   0
144   0   0
151   0   0
144   0   0
120   0   0
255 255 255
  0   0 126
  0   0 148
  0   0 158
  0   0 159
  0   0 151
  0   0 134
  0   0 100
 93   0   0
131   0   0
150   0   0
161   0   0
167   0   0
170   0   0
169   0   0
166   0   0
160   0   0
153   0   0
145   0   0
135   0   0
123   0   0
110   0   0
 95   0   0
 75   0   0
255 255 255
  0   0  66
  0   0  79
  0   0  86
  0   0  89
  0   0  91
  0   0  92
  0   0  92
  0   0  91
  0   0  90
  0   0  89
  0   0  87
  0   0  86
  0   0  84
  0   0  83
  0   0  82
  0   0  80
  0   0  78
  0   0  76
  0   0  74
  0   0  71
  0   0  67
255 255 255
255 255 255
255 255 255
255 255 255
255 255 255
255 255 255
255 255 255
255 255 255
255 255 255
255 255 255
255 255 255
255 255 255
255 255 255
255 255 255
255 255 255
255 255 255
255 255 255
255 255 255
255 255 255
255 255 255
255 255 255
255 255 255
255 255 255
255 255 255
255 255 255
255 255 255
255 255 255
255 255 255
255 255 255
255 255 255
255 255 255
255 255 255
255 255 255
255 255 255
255 255 255
255 255 255
255 255 255
255 255 255
255 255 255
255 255 255
255 255 255
255 255 255
255 255 255
255 255 255
255 255 255
255 255 255
255 255 255
255 255 255
255 255 255
  0   0  67
  0   0  71
  0   0  74
  0   0  76
  0   0  78
  0   0  80
  0   0  82
  0   0  83
  0   0  84
  0   0  86
  0   0  87
  0   0  89
  0   0  90
  0   0  91
  0   0  92
  0   0  92
  0   0  91
  0   0  89
  0   0  86
  0   0  79
  0   0  66
255 255 255
 75   0   0
 95   0   0
110   0   0
123   0   0
135   0   0
145   0   0
153   0   0
160   0   0
166   0   0
169   0   0
170   0   0
167   0   0
161   0   0
150   0   0
131   0   0
 93   0   0
  0   0 100
  0   0 134
  0   0 151
  0   0 159
  0   0 158
  0   0 148
  0   0 126
255 255 255
120   0   0
144   0   0
151   0   0
  0   0   0
  0   0   0
  0   0   0
  0   0   0
  0   0 181
  0   0 198
  0   0 211
  0   0 218
  0   0 220
  0   0 216
  0   0 205
  0   0 187
  0   0 157
  0   0  90
137   0   0
170   0   0
187   0   0
195   0   0
197   0   0
195   0   0
187   0   0
176   0   0
162   0   0
143   0   0
119   0   0
 85   0   0
255 255 255
  0   0  77
255 255 255
 85   0   0
119   0   0
143   0   0
162   0   0
176   0   0
187   0   0
195   0   0
197   0   0
195   0   0
187   0   0
170   0   0
137   0   0
  0   0  90
  0   0 157
  0   0 187
  0   0 205
  0   0 216
  0   0 220
  0   0 218
  0   0 211
  0   0 198
  0   0 181
  0   0 161
  0   0 140
  0   0 121
  0   0 111
  0   0 113
  0   0 121
  0   0 128
  0   0 130
  0   0 124
  0   0 107
255 255 255
110   0   0
137   0   0
154   0   0
165   0   0
171   0   0
174   0   0
175   0   0
172   0   0
167   0   0
161   0   0
152   0   0
143   0   0
131   0   0
118   0   0
103   0   0
 84   0   0
255 255 255
255 255 255
  0   0  80
  0   0  88
  0   0  92
  0   0  94
  0   0  95
  0   0  94
  0   0  93
  0   0  92
  0   0  90
  0   0  88
  0   0  86
  0   0  84
  0   0  83
  0   0  81
  0   0  80
  0   0  79
  0   0  77
  0   0  76
  0   0  74
  0   0  72
  0   0  69
  0   0  66
255 255 255
255 255 255
255 255 255
255 255 255
255 255 255
255 255 255
255 255 255
255 255 255
255 255 255
255 255 255
255 255 255
255 255 255
255 255 255
255 255 255
255 255 255
255 255 255
255 255 255
255 255 255
255 255 255
255 255 255
255 255 255
255 255 255
255 255 255
255 255 255
255 255 255
255 255 255
255 255 255
255 255 255
255 255 255
255 255 255
255 255 255
255 255 255
255 255 255
255 255 255
255 255 255
255 255 255
255 255 255
255 255 255
255 255 255
255 255 255
255 255 255
255 255 255
255 255 255
255 255 255
255 255 255
255 255 255
255 255 255
255 255 255
255 255 255
255 255 255
255 255 255
  0   0  66
  0   0  69
  0   0  72
  0   0  74
  0   0  76
  0   0  77
  0   0  79
  0   0  80
  0   0  81
  0   0  83
  0   0  84
  0   0  86
  0   0  88
  0   0  90
  0   0  92
  0   0  93
  0   0  94
  0   0  95
  0   0  94
  0   0  92
  0   0  88
  0   0  80
255 255 255
255 255 255
 84   0   0
103   0   0
118   0   0
131   0   0
143   0   0
152   0   0
161   0   0
167   0   0
172   0   0
175   0   0
174   0   0
171   0   0
165   0   0
154   0   0
137   0   0
110   0   0
255 255 255
  0   0 107
  0   0 124
  0   0 130
  0   0 128
  0   0 121
  0   0 113
  0   0 111
  0   0   0
  0   0   0
  0   0   0
  0   0   0
  0   0 199
  0   0 207
  0   0 215
  0   0 219
  0   0 220
  0   0 215
  0   0 203
  0   0 182
  0   0 144
 96   0   0
161   0   0
188   0   0
202   0   0
208   0   0
208   0   0
202   0   0
192   0   0
176   0   0
156   0   0
129   0   0
 85   0   0
  0   0  92
  0   0 115
  0   0 120
  0   0 115
  0   0  92
 85   0   0
129   0   0
156   0   0
176   0   0
192   0   0
202   0   0
208   0   0
208   0   0
202   0   0
188   0   0
161   0   0
 96   0   0
  0   0 144
  0   0 182
  0   0 203
  0   0 215
  0   0 220
  0   0 219
  0   0 215
  0   0 207
  0   0 199
  0   0 190
  0   0 184
  0   0 179
  0   0 175
  0   0 170
  0   0 162
  0   0 147
  0   0 120
 67   0   0
131   0   0
158   0   0
174   0   0
185   0   0
190   0   0
192   0   0
190   0   0
186   0   0
179   0   0
170   0   0
160   0   0
148   0   0
134   0   0
118   0   0
 99   0   0
 74   0   0
255 255 255
  0   0  80
  0   0  91
  0   0  96
  0   0  99
  0   0 100
  0   0 100
  0   0  99
  0   0  97
  0   0  95
  0   0  92
  0   0  90
  0   0  87
  0   0  84
  0   0  82
  0   0  80
  0   0  78
  0   0  77
  0   0  76
  0   0  75
  0   0  74
  0   0  73
  0   0  72
  0   0  69
  0   0  66
255 255 255
255 255 255
255 255 255
255 255 255
255 255 255
255 255 255
255 255 255
255 255 255
255 255 255
255 255 255
255 255 255
255 255 255
255 255 255
255 255 255
255 255 255
255 255 255
255 255 255
255 255 255
255 255 255
255 255 255
255 255 255
255 255 255
255 255 255
255 255 255
255 255 255
255 255 255
255 255 255
255 255 255
255 255 255
255 255 255
255 255 255
255 255 255
255 255 255
255 255 255
255 255 255
255 255 255
255 255 255
255 255 255
255 255 255
255 255 255
255 255 255
255 255 255
255 255 255
255 255 255
255 255 255
255 255 255
255 255 255
255 255 255
255 255 255
255 255 255
255 255 255
255 255 255
255 255 255
  0   0  66
  0   0  69
  0   0  72
  0   0  73
  0   0  74
  0   0  75
  0   0  76
  0   0  77
  0   0  78
  0   0  80
  0   0  82
  0   0  84
  0   0  87
  0   0  90
  0   0  92
  0   0  95
  0   0  97
  0   0  99
  0   0 100
  0   0 100
  0   0  99
  0   0  96
  0   0  91
  0   0  80
255 255 255
 74   0   0
 99   0   0
118   0   0
134   0   0
148   0   0
160   0   0
170   0   0
179   0   0
186   0   0
190   0   0
192   0   0
190   0   0
185   0   0
174   0   0
158   0   0
131   0   0
 67   0   0
  0   0 120
  0   0 147
  0   0 162
  0   0 170
  0   0 175
  0   0   0
  0   0   0
  0   0   0
  0   0   0
  0   0   0
  0   0   0
  0   0   0
  0   0   0
  0   0   0
  0   0   0
  0   0   0
  0   0   0
  0   0   0
  0   0   0
  0   0   0
  0   0   0
  0   0   0
  0   0   0
  0   0   0
  0   0   0
  0   0   0
  0   0   0
  0   0   0
  0   0   0
  0   0   0
  0   0   0
  0   0   0
  0   0   0
  0   0   0
  0   0   0
  0   0   0
  0   0   0
  0   0   0
  0   0   0
  0   0   0
  0   0   0
  0   0   0
  0   0   0
  0   0   0
  0   0   0
  0   0   0
  0   0   0
  0   0   0
  0   0   0
  0   0   0
  0   0   0
  0   0   0
  0   0   0
  0   0   0
  0   0   0
  0   0   0
  0   0   0
  0   0   0
  0   0   0
  0   0   0
  0   0   0
  0   0   0
  0   0   0
  0   0   0
  0   0   0
  0   0   0
  0   0   0
  0   0   0
  0   0   0
  0   0   0
  0   0   0
  0   0   0
  0   0   0
  0   0   0
  0   0   0
  0   0   0
  0   0   0
  0   0   0
  0   0   0
  0   0   0
  0   0   0
  0   0   0
  0   0   0
  0   0   0
  0   0   0
  0   0   0
  0   0   0
  0   0   0
  0   0   0
  0   0   0
  0   0   0
  0   0   0
  0   0   0
  0   0   0
  0   0   0
  0   0   0
  0   0   0
  0   0   0
  0   0   0
  0   0   0
  0   0   0
  0   0   0
  0   0   0
  0   0   0
  0   0   0
  0   0   0
  0   0   0
  0   0   0
  0   0   0
  0   0   0
  0   0   0
  0   0   0
  0   0   0
  0   0   0
  0   0   0
  0   0   0
  0   0   0
  0   0   0
  0   0   0
  0   0   0
  0   0   0
  0   0   0
  0   0   0
  0   0   0
  0   0   0
  0   0   0
  0   0   0
  0   0   0
  0   0   0
  0   0   0
  0   0   0
  0   0   0
  0   0   0
  0   0   0
  0   0   0
  0   0   0
  0   0   0
  0   0   0
  0   0   0
  0   0   0
  0   0   0
  0   0   0
  0   0   0
  0   0   0
  0   0   0
  0   0   0
  0   0   0
  0   0   0
  0   0   0
  0   0   0
  0   0   0
  0   0   0
  0   0   0
  0   0   0
  0   0   0
  0   0   0
  0   0   0
  0   0   0
  0   0   0
  0   0   0
  0   0   0
  0   0   0
  0   0   0
  0   0   0
  0   0   0
  0   0   0
  0   0   0
  0   0   0
  0   0   0
  0   0   0
  0   0   0
  0   0   0
  0   0   0
  0   0   0
  0   0   0
  0   0   0
  0   0   0
  0   0   0
  0   0   0
  0   0   0
  0   0   0
  0   0   0
  0   0   0
  0   0   0
  0   0   0
  0   0   0
  0   0   0
  0   0   0
  0   0   0
  0   0   0
  0   0   0
  0   0   0
  0   0   0
  0   0   0
  0   0   0
  0   0   0
  0   0   0
  0   0   0
  0   0   0
  0   0   0
  0   0   0
  0   0   0
  0   0   0
  0   0   0
  0   0   0
  0   0   0
  0   0   0
  0   0   0
  0   0   0
  0   0   0
  0   0   0
  0   0   0
  0   0   0
  0   0   0
  0   0   0
  0   0   0
  0   0   0
  0   0   0
  0   0   0
  0   0   0
  0   0   0
  0   0   0
  0   0   0
  0   0   0
  0   0   0
  0   0   0
  0   0   0
  0   0   0
  0   0   0
  0   0   0
  0   0   0
  0   0   0
  0   0   0
  0   0   0
  0   0   0
  0   0   0
  0   0   0
  0   0   0
  0   0   0
  0   0   0
  0   0   0
  0   0   0
  0   0   0
  0   0   0
  0   0   0
  0   0   0
  0   0   0
  0   0   0
  0   0   0
  0   0   0
  0   0   0
  0   0   0
  0   0   0
  0   0   0
  0   0   0
  0   0   0
  0   0   0
  0   0   0
  0   0   0
  0   0   0
  0   0   0
  0   0   0
  0   0   0
  0   0   0
  0   0   0
  0   0   0
  0   0   0
  0   0   0
  0   0   0
  0   0   0
  0   0   0
  0   0   0
  0   0   0
  0   0   0
  0   0   0
  0   0   0
  0   0   0
  0   0   0
  0   0   0
  0   0   0
  0   0   0
  0   0   0
  0   0   0
  0   0   0
  0   0   0
  0   0   0
  0   0   0
  0   0   0
  0   0   0
  0   0   0
  0   0   0
  0   0   0
  0   0   0
  0   0   0
  0   0   0
  0   0   0
  0   0   0
  0   0   0
  0   0   0
  0   0   0
  0   0   0
  0   0   0
  0   0   0
  0   0   0
  0   0   0
  0   0   0
  0   0   0
  0   0   0
  0   0   0
  0   0   0
  0   0   0
  0   0   0
  0   0   0
  0   0   0
  0   0   0
  0   0   0
  0   0   0
  0   0   0
  0   0   0
  0   0   0
  0   0   0
  0   0   0
  0   0   0
  0   0   0
  0   0   0
  0   0   0
  0   0   0
  0   0   0
  0   0   0
  0   0   0
  0   0   0
  0   0   0
  0   0   0
  0   0   0
  0   0   0
  0   0   0
  0   0   0
  0   0   0
  0   0   0
  0   0   0
  0   0   0
  0   0   0
  0   0   0
  0   0   0
  0   0   0
  0   0   0
  0   0   0
  0   0   0
  0   0   0
  0   0   0
  0   0   0
  0   0   0
  0   0   0
  0   0   0
  0   0   0
  0   0   0
  0   0   0
  0   0   0
  0   0   0
  0   0   0
  0   0   0
  0   0   0
  0   0   0
  0   0   0
  0   0   0
  0   0   0
  0   0   0
  0   0   0
  0   0   0
  0   0   0
  0   0   0
  0   0   0
  0   0   0
  0   0   0
  0   0   0
  0   0   0
  0   0   0
  0   0   0
  0   0   0
  0   0   0
  0   0   0
  0   0   0
  0   0   0
  0   0   0
  0   0   0
  0   0   0
  0   0   0
  0   0   0
  0   0   0
  0   0   0
  0   0   0
  0   0   0
  0   0   0
  0   0   0
  0   0   0
  0   0   0
  0   0   0
  0   0   0
  0   0   0
  0   0   0
  0   0   0
  0   0   0
  0   0   0
  0   0   0
  0   0   0
  0   0   0
  0   0   0
  0   0   0
  0   0   0
